P2
181 217
255
0 0 0 0 0 0 0 0 0 0 0 0 0 0 0 0 0 0 0 0 0 0 0 0 0 0 0 0 0 0 0 0 0 0 0 0 0 0 0 0 0 0 0 0 0 0 0 0 0 0 0 0 0 0 0 0 0 0 0 0 0 0 0 0 0 0 0 0 0 0 0 0 0 0 0 0 0 0 0 0 0 0 0 0 0 0 0 0 0 0 0 0 0 0 0 0 0 0 0 0 0 0 0 0 0 0 0 0 0 0 0 0 0 0 0 0 0 0 0 0 0 0 0 0 0 0 0 0 0 0 0 0 0 0 0 0 0 0 0 0 0 0 0 0 0 0 0 0 0 0 0 0 0 0 0 0 0 0 0 0 0 0 0 0 0 0 0 0 0 0 0 0 0 0 0 0 0 0 0 0 0 
0 0 0 0 0 0 0 0 0 0 0 0 0 0 0 0 0 0 0 0 0 0 0 0 0 0 0 0 0 0 0 0 0 0 0 0 0 0 0 0 0 0 0 0 0 0 0 0 0 0 0 0 0 0 0 0 0 0 0 0 0 0 0 0 0 0 0 0 0 0 0 0 0 0 0 0 0 0 0 0 0 0 0 0 0 0 0 0 0 0 0 0 0 0 0 0 0 0 0 0 0 0 0 0 0 0 0 0 0 0 0 0 0 0 0 0 0 0 0 0 0 0 0 0 0 0 0 0 0 0 0 0 0 0 0 0 0 0 0 0 0 0 0 0 0 0 0 0 0 0 0 0 0 0 0 0 0 0 0 0 0 0 0 0 0 0 0 0 0 0 0 0 0 0 0 0 0 0 0 0 0 
0 0 0 0 0 0 0 0 0 0 0 0 0 0 0 0 0 0 0 0 0 0 0 0 0 0 0 0 0 0 0 0 0 0 0 0 0 0 0 0 0 0 0 0 0 0 0 0 0 0 0 0 0 0 0 0 0 0 0 0 0 0 0 0 0 0 0 0 0 0 0 0 0 0 0 0 0 0 0 0 0 0 0 0 0 0 0 0 0 0 0 0 0 0 0 0 0 0 0 0 0 0 0 0 0 0 0 0 0 0 0 0 0 0 0 0 0 0 0 0 0 0 0 0 0 0 0 0 0 0 0 0 0 0 0 0 0 0 0 0 0 0 0 0 0 0 0 0 0 0 0 0 0 0 0 0 0 0 0 0 0 0 0 0 0 0 0 0 0 0 0 0 0 0 0 0 0 0 0 0 0 
0 0 0 0 0 0 0 0 0 0 0 0 0 0 0 0 0 0 0 0 0 0 0 0 0 0 0 0 0 0 0 0 0 0 0 0 0 0 0 0 0 0 0 0 0 0 0 0 0 0 0 0 0 0 0 0 0 0 0 0 0 0 0 0 0 0 0 0 0 0 0 0 0 0 0 0 0 0 0 0 0 0 0 0 0 0 0 0 0 0 0 0 0 0 0 0 0 0 0 0 0 0 0 0 0 0 0 0 0 0 0 0 0 0 0 0 0 0 0 0 0 0 0 0 0 0 0 0 0 0 0 0 0 0 0 0 0 0 0 0 0 0 0 0 0 0 0 0 0 0 0 0 0 0 0 0 0 0 0 0 0 0 0 0 0 0 0 0 0 0 0 0 0 0 0 0 0 0 0 0 0 
0 0 0 0 0 0 0 0 0 0 0 0 0 0 0 0 0 0 0 0 0 0 0 0 0 0 0 0 0 0 0 0 0 0 0 0 0 0 0 0 0 0 0 0 0 0 0 0 0 0 0 0 0 0 0 0 0 0 0 0 0 0 0 0 0 0 0 0 0 0 0 0 0 0 0 0 0 0 0 0 0 0 0 0 0 0 0 0 0 0 0 0 0 0 0 0 0 0 0 0 0 0 0 0 0 0 0 0 0 0 0 0 0 0 0 0 0 0 0 0 0 0 0 0 0 0 0 0 0 0 0 0 0 0 0 0 0 0 0 0 0 0 0 0 0 0 0 0 0 0 0 0 0 0 0 0 0 0 0 0 0 0 0 0 0 0 0 0 0 0 0 0 0 0 0 0 0 0 0 0 0 
0 0 0 0 0 0 0 0 0 0 0 0 0 0 0 0 0 0 0 0 0 0 0 0 0 0 0 0 0 0 0 0 0 0 0 0 0 0 0 0 0 0 0 0 0 0 0 0 0 0 0 0 0 0 0 0 0 0 0 0 0 0 0 0 0 0 0 0 0 0 0 0 0 0 0 0 0 0 0 0 0 0 0 0 0 0 0 0 0 0 0 0 0 0 0 0 0 0 0 0 0 0 0 0 0 0 0 0 0 0 0 0 0 0 0 0 0 0 0 0 0 0 0 0 0 0 0 0 0 0 0 0 0 0 0 0 0 0 0 0 0 0 0 0 0 0 0 0 0 0 0 0 0 0 0 0 0 0 0 0 0 0 0 0 0 0 0 0 0 0 0 0 0 0 0 0 0 0 0 0 0 
0 0 0 0 0 0 0 0 0 0 0 0 0 0 0 0 0 0 0 0 0 0 0 0 0 0 0 0 0 0 0 0 0 0 0 0 0 0 0 0 0 0 0 0 0 0 0 0 0 0 0 0 0 0 0 0 0 0 0 0 0 0 0 0 0 0 0 0 0 0 0 0 0 0 0 0 0 0 0 0 0 0 0 0 0 0 0 0 0 0 0 0 0 0 0 0 0 0 0 0 0 0 0 0 0 0 0 0 0 0 0 0 0 0 0 0 0 0 0 0 0 0 0 0 0 0 0 0 0 0 0 0 0 0 0 0 0 0 0 0 0 0 0 0 0 0 0 0 0 0 0 0 0 0 0 0 0 0 0 0 0 0 0 0 0 0 0 0 0 0 0 0 0 0 0 0 0 0 0 0 0 
0 0 0 0 0 0 0 0 0 0 0 0 0 0 0 0 0 0 0 0 0 0 0 0 0 0 0 0 0 0 0 0 0 0 0 0 0 0 0 0 0 0 0 0 0 0 0 0 0 0 0 0 0 0 0 0 0 0 0 0 0 0 0 0 0 0 0 0 0 0 0 0 0 0 0 0 0 0 0 0 0 0 0 0 0 0 0 0 0 0 0 0 0 0 0 0 0 0 0 0 0 0 0 0 0 0 0 0 0 0 0 0 0 0 0 0 0 0 0 0 0 0 0 0 0 0 0 0 0 0 0 0 0 0 0 0 0 0 0 0 0 0 0 0 0 0 0 0 0 0 0 0 0 0 0 0 0 0 0 0 0 0 0 0 0 0 0 0 0 0 0 0 0 0 0 0 0 0 0 0 0 
0 0 0 0 0 0 0 0 0 0 0 0 0 0 0 0 0 0 0 0 0 0 0 0 0 0 0 0 0 0 0 0 0 0 0 0 0 0 0 0 0 0 0 0 0 0 0 0 0 0 0 0 0 0 0 0 0 0 0 0 0 0 0 0 0 0 0 0 0 0 0 0 0 0 0 0 0 0 0 0 0 0 0 0 0 0 0 0 0 0 0 0 0 0 0 0 0 0 0 0 0 0 0 0 0 0 0 0 0 0 0 0 0 0 0 0 0 0 0 0 0 0 0 0 0 0 0 0 0 0 0 0 0 0 0 0 0 0 0 0 0 0 0 0 0 0 0 0 0 0 0 0 0 0 0 0 0 0 0 0 0 0 0 0 0 0 0 0 0 0 0 0 0 0 0 0 0 0 0 0 0 
0 0 0 0 0 0 0 0 0 0 0 0 0 0 0 0 0 0 0 0 0 0 0 0 0 0 0 0 0 0 0 0 0 0 0 0 0 0 0 0 0 0 0 0 0 0 0 0 0 0 0 0 0 0 0 0 0 0 0 0 0 0 0 0 0 0 0 0 0 0 0 0 0 0 0 0 0 0 0 0 0 0 0 0 0 0 0 0 0 0 0 0 0 0 0 0 0 0 0 0 0 0 0 0 0 0 0 0 0 0 0 0 0 0 0 0 0 0 0 0 0 0 0 0 0 0 0 0 0 0 0 0 0 0 0 0 0 0 0 0 0 0 0 0 0 0 0 0 0 0 0 0 0 0 0 0 0 0 0 0 0 0 0 0 0 0 0 0 0 0 0 0 0 0 0 0 0 0 0 0 0 
0 0 0 0 0 0 0 0 0 0 0 0 0 0 0 0 0 0 0 0 0 0 0 0 0 0 0 0 0 0 0 0 0 0 0 0 0 0 0 0 0 0 0 0 0 0 0 0 0 0 0 0 0 0 0 0 0 0 0 0 0 0 0 0 0 0 0 0 0 0 0 0 0 0 0 0 0 0 0 0 0 0 0 0 0 0 0 0 0 0 0 0 0 0 0 0 0 0 0 0 0 0 0 0 0 0 0 0 0 0 0 0 0 0 0 0 0 0 0 0 0 0 0 0 0 0 0 0 0 0 0 0 0 0 0 0 0 0 0 0 0 0 0 0 0 0 0 0 0 0 0 0 0 0 0 0 0 0 0 0 0 0 0 0 0 0 0 0 0 0 0 0 0 0 0 0 0 0 0 0 0 
0 0 0 0 0 0 0 0 0 0 0 0 0 0 0 0 0 0 0 0 0 0 0 0 0 0 0 0 0 0 0 0 0 0 0 0 0 0 0 0 0 0 0 0 0 0 0 0 0 0 0 0 0 0 0 0 0 0 0 0 0 0 0 0 0 0 0 0 0 0 0 0 0 0 0 0 0 0 0 0 0 0 0 0 0 0 0 0 0 0 0 0 0 0 0 0 0 0 0 0 0 0 0 0 0 0 0 0 0 0 0 0 0 0 0 0 0 0 0 0 0 0 0 0 0 0 0 0 0 0 0 0 0 0 0 0 0 0 0 0 0 0 0 0 0 0 0 0 0 0 0 0 0 0 0 0 0 0 0 0 0 0 0 0 0 0 0 0 0 0 0 0 0 0 0 0 0 0 0 0 0 
0 0 0 0 0 0 0 0 0 0 0 0 0 0 0 0 0 0 0 0 0 0 0 0 0 0 0 0 0 0 0 0 0 0 0 0 0 0 0 0 0 0 0 0 0 0 0 0 0 0 0 0 0 0 0 0 0 0 0 0 0 0 0 0 0 0 0 0 0 0 0 0 0 0 0 0 0 0 0 0 0 0 0 0 0 0 0 0 0 0 0 0 0 0 0 0 0 0 0 0 0 0 0 0 0 0 0 0 0 0 0 0 0 0 0 0 0 0 0 0 0 0 0 0 0 0 0 0 0 0 0 0 0 0 0 0 0 0 0 0 0 0 0 0 0 0 0 0 0 0 0 0 0 0 0 0 0 0 0 0 0 0 0 0 0 0 0 0 0 0 0 0 0 0 0 0 0 0 0 0 0 
0 0 0 0 0 0 0 0 0 0 0 0 0 0 0 0 0 0 0 0 0 0 0 0 0 0 0 0 0 0 0 0 0 0 0 0 0 0 0 0 0 0 0 0 0 0 0 0 0 0 0 0 0 0 0 0 0 0 0 0 0 0 0 0 0 0 0 0 0 0 0 0 0 0 0 0 0 0 0 0 0 0 0 0 0 0 0 0 0 0 0 0 0 0 0 0 0 0 0 0 0 0 0 0 0 0 0 0 0 0 0 0 0 0 0 0 0 0 0 0 0 0 0 0 0 0 0 0 0 0 0 0 0 0 0 0 0 0 0 0 0 0 0 0 0 0 0 0 0 0 0 0 0 0 0 0 0 0 0 0 0 0 0 0 0 0 0 0 0 0 0 0 0 0 0 0 0 0 0 0 0 
0 0 0 0 0 0 0 0 0 0 0 0 0 0 0 0 0 0 0 0 0 0 0 0 0 0 0 0 0 0 0 0 0 0 0 0 0 0 0 0 0 0 0 0 0 0 0 0 0 0 0 0 0 0 0 0 0 0 0 0 0 0 0 0 0 0 0 0 0 0 0 0 0 0 0 0 0 0 0 0 0 0 0 0 0 0 0 0 0 0 0 0 0 0 0 0 0 0 0 0 0 0 0 0 0 0 0 0 0 0 0 0 0 0 0 0 0 0 0 0 0 0 0 0 0 0 0 0 0 0 0 0 0 0 0 0 0 0 0 0 0 0 0 0 0 0 0 0 0 0 0 0 0 0 0 0 0 0 0 0 0 0 0 0 0 0 0 0 0 0 0 0 0 0 0 0 0 0 0 0 0 
0 0 0 0 0 0 0 0 0 0 0 0 0 0 0 0 0 0 0 0 0 0 0 0 0 0 0 0 0 0 0 0 0 0 0 0 0 0 0 0 0 0 0 0 0 0 0 0 0 0 0 0 0 0 0 0 0 0 0 0 0 0 0 0 0 0 0 0 0 0 0 0 0 0 0 0 0 0 0 0 0 0 0 0 0 0 0 0 0 0 0 0 0 0 0 0 0 0 0 0 0 0 0 0 0 0 0 0 0 0 0 0 0 0 0 0 0 0 0 0 0 0 0 0 0 0 0 0 0 0 0 0 0 0 0 0 0 0 0 0 0 0 0 0 0 0 0 0 0 0 0 0 0 0 0 0 0 0 0 0 0 0 0 0 0 0 0 0 0 0 0 0 0 0 0 0 0 0 0 0 0 
0 0 0 0 0 0 0 0 0 0 0 0 0 0 0 0 0 0 0 0 0 0 0 0 0 0 0 0 0 0 0 0 0 0 0 0 0 0 0 0 0 0 0 0 0 0 0 0 0 0 0 0 0 0 0 0 0 0 0 0 0 0 0 0 0 0 0 0 0 0 0 0 0 0 0 0 0 0 0 0 0 0 0 0 0 0 0 0 0 0 0 0 0 0 0 0 0 0 0 0 0 0 0 0 0 0 0 0 0 0 0 0 0 0 0 0 0 0 0 0 0 0 0 0 0 0 0 0 0 0 0 0 0 0 0 0 0 0 0 0 0 0 0 0 0 0 0 0 0 0 0 0 0 0 0 0 0 0 0 0 0 0 0 0 0 0 0 0 0 0 0 0 0 0 0 0 0 0 0 0 0 
0 0 0 0 0 0 0 0 0 0 0 0 0 0 0 0 0 0 0 0 0 0 0 0 0 0 0 0 0 0 0 0 0 0 0 0 0 0 0 0 0 0 0 0 0 0 0 0 0 0 0 0 0 0 0 0 0 0 0 0 0 0 0 0 0 0 0 0 0 0 0 0 0 0 0 0 0 0 0 0 0 0 0 0 0 0 0 0 0 0 0 0 0 0 0 0 0 0 0 0 0 0 0 0 0 0 0 0 0 0 0 0 0 0 0 0 0 0 0 0 0 0 0 0 0 0 0 0 0 0 0 0 0 0 0 0 0 0 0 0 0 0 0 0 0 0 0 0 0 0 0 0 0 0 0 0 0 0 0 0 0 0 0 0 0 0 0 0 0 0 0 0 0 0 0 0 0 0 0 0 0 
0 0 0 0 0 0 0 0 0 0 0 0 0 0 0 0 0 0 0 0 0 0 0 0 0 0 0 0 0 0 0 0 0 0 0 0 0 0 0 0 0 0 0 0 0 0 0 0 0 0 0 0 0 0 0 0 0 0 0 0 0 0 0 0 0 0 0 0 0 0 0 0 0 0 0 0 0 0 0 0 0 0 0 0 0 0 0 0 0 0 0 0 0 0 0 0 0 0 0 0 0 0 0 0 0 0 0 0 0 0 0 0 0 0 0 0 0 0 0 0 0 0 0 0 0 0 0 0 0 0 0 0 0 0 0 0 0 0 0 0 0 0 0 0 0 0 0 0 0 0 0 0 0 0 0 0 0 0 0 0 0 0 0 0 0 0 0 0 0 0 0 0 0 0 0 0 0 0 0 0 0 
0 0 0 0 0 0 0 0 0 0 0 0 0 0 0 0 0 0 0 0 0 0 0 0 0 0 0 0 0 0 0 0 0 0 0 0 0 0 0 0 0 0 0 0 0 0 0 0 0 0 0 0 0 0 0 0 0 0 0 0 0 0 0 0 0 0 0 0 0 0 0 0 0 0 0 0 0 0 0 0 0 0 0 0 0 0 0 0 0 0 0 0 0 0 0 0 0 0 0 0 0 0 0 0 0 0 0 0 0 0 0 0 0 0 0 0 0 0 0 0 0 0 0 0 0 0 0 0 0 0 0 0 0 0 0 0 0 0 0 0 0 0 0 0 0 0 0 0 0 0 0 0 0 0 0 0 0 0 0 0 0 0 0 0 0 0 0 0 0 0 0 0 0 0 0 0 0 0 0 0 0 
0 0 0 0 0 0 0 0 0 0 0 0 0 0 0 0 0 0 0 0 0 0 0 0 0 0 0 0 0 0 0 0 0 0 0 0 0 0 0 0 0 0 0 0 0 0 0 0 0 0 0 0 0 0 0 0 0 0 0 0 0 0 0 0 0 0 0 0 0 0 0 0 0 0 0 0 0 0 0 0 0 0 0 0 0 0 0 0 0 0 0 0 0 0 0 0 0 0 0 0 0 0 0 0 0 0 0 0 0 0 0 0 0 0 0 0 0 0 0 0 0 0 0 0 0 0 0 0 0 0 0 0 0 0 0 0 0 0 0 0 0 0 0 0 0 0 0 0 0 0 0 0 0 0 0 0 0 0 0 0 0 0 0 0 0 0 0 0 0 0 0 0 0 0 0 0 0 0 0 0 0 
0 0 0 0 0 0 0 0 0 0 0 0 0 0 0 0 0 0 0 0 0 0 0 0 0 0 0 0 0 0 0 0 0 0 0 0 0 0 0 0 0 0 0 0 0 0 0 0 0 0 0 0 0 0 0 0 0 0 0 0 0 0 0 0 0 0 0 0 0 0 0 0 0 0 0 0 0 0 0 0 0 0 0 0 0 0 0 0 0 0 0 0 0 0 0 0 0 0 0 0 0 0 0 0 0 0 0 0 0 0 0 0 0 0 0 0 0 0 0 0 0 0 0 0 0 0 0 0 0 0 0 0 0 0 0 0 0 0 0 0 0 0 0 0 0 0 0 0 0 0 0 0 0 0 0 0 0 0 0 0 0 0 0 0 0 0 0 0 0 0 0 0 0 0 0 0 0 0 0 0 0 
0 0 0 0 0 0 0 0 0 0 0 0 0 0 0 0 0 0 0 0 0 0 0 0 0 0 0 0 0 0 0 0 0 0 0 0 0 0 0 0 0 0 0 0 0 0 0 0 0 0 0 0 0 0 0 0 0 0 0 0 0 0 0 0 0 0 0 0 0 0 0 0 0 0 0 0 0 0 0 0 0 0 0 0 0 0 0 0 0 0 0 0 0 0 0 0 0 0 0 0 0 0 0 0 0 0 0 0 0 0 0 0 0 0 0 0 0 0 0 0 0 0 0 0 0 0 0 0 0 0 0 0 0 0 0 0 0 0 0 0 0 0 0 0 0 0 0 0 0 0 0 0 0 0 0 0 0 0 0 0 0 0 0 0 0 0 0 0 0 0 0 0 0 0 0 0 0 0 0 0 0 
0 0 0 0 0 0 0 0 0 0 0 0 0 0 0 0 0 0 0 0 0 0 0 0 0 0 0 0 0 0 0 0 0 0 0 0 0 0 0 0 0 0 0 0 0 0 0 0 0 0 0 0 0 0 0 0 0 0 0 0 0 0 0 0 0 0 0 0 0 0 0 0 0 0 0 0 0 0 0 0 0 0 0 0 0 0 0 0 0 0 0 0 0 0 0 0 0 0 0 0 0 0 0 0 0 0 0 0 0 0 0 0 0 0 0 0 0 0 0 0 0 0 0 0 0 0 0 0 0 0 0 0 0 0 0 0 0 0 0 0 0 0 0 0 0 0 0 0 0 0 0 0 0 0 0 0 0 0 0 0 0 0 0 0 0 0 0 0 0 0 0 0 0 0 0 0 0 0 0 0 0 
0 0 0 0 0 0 0 0 0 0 0 0 0 0 0 0 0 0 0 0 0 0 0 0 0 0 0 0 0 0 0 0 0 0 0 0 0 0 0 0 0 0 0 0 0 0 0 0 0 0 0 0 0 0 0 0 0 0 0 0 0 0 0 0 0 0 0 0 0 0 0 0 0 0 0 0 0 0 0 82 183 232 232 232 232 183 82 0 0 0 0 0 0 0 0 0 0 0 0 0 0 0 0 0 0 0 0 0 0 0 0 0 0 0 0 0 0 0 0 0 0 0 0 0 0 0 0 0 0 0 0 0 0 0 0 0 0 0 0 0 0 0 0 0 0 0 0 0 0 0 0 0 0 0 0 0 0 0 0 0 0 0 0 0 0 0 0 0 0 0 0 0 0 0 0 0 0 0 0 0 0 
0 0 0 0 0 0 0 0 0 0 0 0 0 0 0 0 0 0 0 0 0 0 0 0 0 0 0 0 0 0 0 0 0 0 0 0 0 0 0 0 0 0 0 0 0 0 0 0 0 0 0 0 0 0 0 0 0 0 0 0 0 0 0 0 0 0 0 0 0 0 0 0 0 0 0 82 183 232 232 0 0 0 92 128 92 0 0 183 82 0 0 0 0 0 0 0 0 0 0 0 0 0 0 0 0 0 0 0 0 0 0 0 0 0 0 0 0 0 0 0 0 0 0 0 0 0 0 0 0 0 0 0 0 0 0 0 0 0 0 0 0 0 0 0 0 0 0 0 0 0 0 0 0 0 0 0 0 0 0 0 0 0 0 0 0 0 0 0 0 0 0 0 0 0 0 0 0 0 0 0 0 
0 0 0 0 0 0 0 0 0 0 0 0 0 0 0 0 0 0 0 0 0 0 0 0 0 0 0 0 0 0 0 0 0 0 0 0 0 0 0 0 0 0 0 0 0 0 0 0 0 0 0 0 0 0 0 0 0 0 0 0 0 0 0 0 0 0 0 0 0 0 82 183 232 183 116 246 0 232 0 0 146 161 169 152 169 243 0 98 122 232 82 0 82 183 183 82 82 183 183 82 0 0 0 0 0 0 0 0 0 0 0 0 0 0 0 0 0 0 0 0 0 0 0 0 0 0 0 0 0 0 0 0 0 0 0 0 0 0 0 0 0 0 0 0 0 0 0 0 0 0 0 0 0 0 0 0 0 0 0 0 0 0 0 0 0 0 0 0 0 0 0 0 0 0 0 0 0 0 0 0 0 
0 0 0 0 0 0 0 0 0 0 0 0 0 0 0 0 0 0 0 0 0 0 0 0 0 0 0 0 0 0 0 0 0 0 0 0 0 0 0 0 0 0 0 0 0 0 0 0 0 0 0 0 0 0 0 0 0 0 0 0 0 0 0 0 0 0 0 0 82 183 0 0 232 0 232 0 196 152 169 152 152 161 0 76 0 161 152 173 0 0 183 82 0 73 73 73 0 0 0 73 0 232 232 232 232 232 232 232 232 183 82 0 0 0 0 0 0 0 0 0 0 0 0 0 0 0 0 0 0 0 0 0 0 0 0 0 0 0 0 0 0 0 0 0 0 0 0 0 0 0 0 0 0 0 0 0 0 0 0 0 0 0 0 0 0 0 0 0 0 0 0 0 0 0 0 0 0 0 0 0 0 
0 0 0 0 0 0 0 0 0 0 0 0 0 0 0 0 0 0 0 0 0 0 0 0 0 0 0 0 0 0 0 0 0 0 0 0 0 0 0 0 0 0 0 0 0 0 0 0 0 0 0 0 0 0 0 0 0 0 0 0 0 0 0 0 0 0 0 82 246 0 232 196 152 217 233 135 120 120 120 76 107 101 107 0 76 76 0 0 120 0 0 164 73 82 82 183 174 82 111 0 0 232 232 0 92 128 92 0 232 0 0 232 183 82 0 0 0 0 0 0 0 0 0 0 0 0 0 0 0 0 0 0 0 0 0 0 0 0 0 0 0 0 0 0 0 0 0 0 0 0 0 0 0 0 0 0 0 0 0 0 0 0 0 0 0 0 0 0 0 0 0 0 0 0 0 0 0 0 0 0 0 
0 0 0 0 0 0 0 0 0 0 0 0 0 0 0 0 0 0 0 0 0 0 0 0 0 0 0 0 0 0 0 0 0 0 0 0 0 0 0 0 0 0 0 0 0 0 0 0 0 0 0 0 0 0 0 0 0 0 0 0 0 0 0 0 0 0 82 246 246 82 120 161 152 152 161 76 169 120 0 0 79 0 122 0 0 107 76 0 76 146 73 82 0 76 76 76 0 0 120 146 191 82 0 161 169 152 169 169 152 217 75 92 0 0 183 82 0 0 0 0 0 0 0 0 0 0 0 0 0 0 0 0 0 0 0 0 0 0 0 0 0 0 0 0 0 0 0 0 0 0 0 0 0 0 0 0 0 0 0 0 0 0 0 0 0 0 0 0 0 0 0 0 0 0 0 0 0 0 0 0 0 
0 0 0 0 0 0 0 0 0 0 0 0 0 0 0 0 0 0 0 0 0 0 0 0 0 0 0 0 0 0 0 0 0 0 0 0 0 0 0 0 0 0 0 0 0 0 0 0 0 0 0 0 0 0 0 0 0 0 0 0 0 0 0 82 183 232 0 246 135 120 200 187 88 0 120 161 107 120 122 0 0 147 187 152 152 76 0 76 169 120 0 82 246 183 82 0 76 0 0 138 0 191 169 161 0 0 0 142 208 182 152 169 243 232 0 0 232 183 82 0 0 0 0 0 0 0 0 0 0 0 0 0 0 0 0 0 0 0 0 0 0 0 0 0 0 0 0 0 0 0 0 0 0 0 0 0 0 0 0 0 0 0 0 0 0 0 0 0 0 0 0 0 0 0 0 0 0 0 0 0 0 
0 0 0 0 0 0 0 0 0 0 0 0 0 0 0 0 0 0 0 0 0 0 0 0 0 0 0 0 0 0 0 0 0 0 0 0 0 0 0 0 0 0 0 0 0 0 0 0 0 0 0 0 0 0 0 0 0 0 0 0 0 0 82 246 0 0 0 98 120 200 194 93 0 0 94 107 0 0 190 101 79 115 142 0 76 107 76 107 0 0 183 183 82 183 116 76 0 76 93 228 0 249 120 0 0 0 0 118 112 125 88 93 169 120 98 0 128 122 0 183 82 0 0 0 0 0 0 0 0 0 0 0 0 0 0 0 0 0 0 0 0 0 0 0 0 0 0 0 0 0 0 0 0 0 0 0 0 0 0 0 0 0 0 0 0 0 0 0 0 0 0 0 0 0 0 0 0 0 0 0 0 
0 0 0 0 0 0 0 0 0 0 0 0 0 0 0 0 0 0 0 0 0 0 0 0 0 0 0 0 0 0 0 0 0 0 0 0 0 0 0 0 0 0 0 0 0 0 0 0 0 0 0 0 0 0 0 0 82 183 232 232 232 232 0 0 146 107 76 120 120 204 182 174 0 88 133 162 0 0 93 156 0 93 161 169 152 120 76 107 0 0 82 0 82 232 116 0 76 0 174 161 142 138 88 66 76 0 0 112 0 88 125 118 156 161 169 169 152 249 79 0 246 82 0 0 0 0 0 0 0 0 0 0 0 0 0 0 0 0 0 0 0 0 0 0 0 0 0 0 0 0 0 0 0 0 0 0 0 0 0 0 0 0 0 0 0 0 0 0 0 0 0 0 0 0 0 0 0 0 0 0 0 
0 0 0 0 0 0 0 0 0 0 0 0 0 0 0 0 0 0 0 0 0 0 0 0 0 0 0 0 0 0 0 0 0 0 0 0 0 0 0 0 0 0 0 0 0 0 0 0 0 0 0 0 0 0 82 183 0 0 92 92 0 0 0 243 120 0 0 161 76 107 174 174 180 88 138 188 120 120 0 237 88 125 154 229 237 182 152 169 169 152 152 0 232 164 0 183 82 0 221 120 0 118 125 180 0 107 79 0 79 0 0 112 101 120 120 0 0 101 200 249 101 0 232 183 82 0 0 0 0 0 0 0 0 0 0 0 0 0 0 0 0 0 0 0 0 0 0 0 0 0 0 0 0 0 0 0 0 0 0 0 0 0 0 0 0 0 0 0 0 0 0 0 0 0 0 0 0 0 0 0 0 
0 0 0 0 0 0 0 0 0 0 0 0 0 0 0 0 0 0 0 0 0 0 0 0 0 0 0 0 0 0 0 0 0 0 0 0 0 0 0 0 0 0 0 0 0 0 0 0 0 0 0 0 0 82 246 0 0 189 161 169 120 76 76 76 0 0 0 76 76 76 76 237 196 0 125 0 0 156 107 244 79 88 112 112 118 88 0 0 120 152 152 243 122 116 164 212 191 169 243 101 0 125 0 172 196 138 0 0 88 125 88 88 0 0 0 0 79 0 132 0 189 0 0 73 73 232 82 0 0 0 0 0 0 0 0 0 0 0 0 0 0 0 0 0 0 0 0 0 0 0 0 0 0 0 0 0 0 0 0 0 0 0 0 0 0 0 0 0 0 0 0 0 0 0 0 0 0 0 0 0 0 
0 0 0 0 0 0 0 0 0 0 0 0 0 0 0 0 0 0 0 0 0 0 0 0 0 0 0 0 0 0 0 0 0 0 0 0 0 0 0 0 0 0 0 0 0 0 0 0 0 0 0 82 183 0 0 243 120 93 161 93 107 76 0 0 107 190 138 107 0 107 0 200 0 154 118 0 0 138 133 138 0 112 112 112 118 88 0 0 0 0 76 120 128 183 246 140 0 142 122 0 79 118 125 88 93 107 122 138 132 132 0 0 0 88 0 0 0 138 200 152 76 76 152 217 75 159 0 82 0 0 0 0 0 0 0 0 0 0 0 0 0 0 0 0 0 0 0 0 0 0 0 0 0 0 0 0 0 0 0 0 0 0 0 0 0 0 0 0 0 0 0 0 0 0 0 0 0 0 0 0 0 
0 0 0 0 0 0 0 0 0 0 0 0 0 0 0 0 0 0 0 0 0 0 0 0 0 0 0 0 0 0 0 0 0 0 0 0 0 0 0 0 0 0 0 0 0 0 0 0 0 0 82 0 73 212 196 169 107 94 120 0 0 76 107 107 174 132 101 147 152 161 120 0 207 147 0 88 0 79 118 0 118 88 0 0 79 0 0 0 0 76 0 76 128 82 0 0 156 79 0 0 0 0 88 112 135 88 0 76 0 143 0 0 79 0 0 0 101 243 161 0 120 107 76 76 76 243 151 0 183 82 0 0 0 0 0 0 0 0 0 0 0 0 0 0 0 0 0 0 0 0 0 0 0 0 0 0 0 0 0 0 0 0 0 0 0 0 0 0 0 0 0 0 0 0 0 0 0 0 0 0 0 
0 0 0 0 0 0 0 0 0 0 0 0 0 0 0 0 0 0 0 0 0 0 0 0 0 0 0 0 0 0 0 0 0 0 0 0 0 0 0 0 0 0 0 0 0 0 0 0 0 82 0 151 217 169 161 120 0 0 0 93 76 76 107 0 107 133 0 0 0 147 200 152 107 142 80 0 0 79 88 88 112 88 118 118 88 0 120 152 120 0 76 120 128 0 92 186 122 0 125 88 0 0 76 0 76 0 76 0 133 93 0 0 0 0 0 0 147 207 0 120 169 93 0 0 0 66 196 0 73 0 183 82 0 0 0 0 0 0 0 0 0 0 0 0 0 0 0 0 0 0 0 0 0 0 0 0 0 0 0 0 0 0 0 0 0 0 0 0 0 0 0 0 0 0 0 0 0 0 0 0 0 
0 0 0 0 0 0 0 0 0 0 0 0 0 0 0 0 0 0 0 0 0 0 0 0 0 0 0 0 0 0 0 0 0 0 0 0 0 0 0 0 0 0 0 0 0 0 0 82 183 0 0 217 0 107 0 76 0 0 0 107 0 0 161 107 120 0 0 0 0 122 232 182 107 101 198 79 0 88 0 0 118 118 0 125 138 161 169 152 169 161 76 169 0 116 0 186 151 0 0 79 88 120 76 120 76 0 76 0 125 0 0 66 143 66 0 0 120 169 0 152 120 94 66 88 133 122 0 76 196 0 0 246 82 0 0 0 0 0 0 0 0 0 0 0 0 0 0 0 0 0 0 0 0 0 0 0 0 0 0 0 0 0 0 0 0 0 0 0 0 0 0 0 0 0 0 0 0 0 0 0 0 
0 0 0 0 0 0 0 0 0 0 0 0 0 0 0 0 0 0 0 0 0 0 0 0 0 0 0 0 0 0 0 0 0 0 0 0 0 0 0 0 0 0 0 0 0 0 0 183 0 0 196 76 107 0 0 107 0 0 0 101 76 120 120 169 120 0 0 0 0 0 112 0 120 0 244 66 0 0 0 0 79 0 138 180 147 169 0 0 0 161 152 161 98 158 189 208 162 79 112 88 138 169 76 169 0 107 138 125 118 88 0 76 0 76 0 0 66 204 200 120 0 107 208 88 138 202 76 107 107 166 0 140 0 183 82 0 0 0 0 0 0 0 0 0 0 0 0 0 0 0 0 0 0 0 0 0 0 0 0 0 0 0 0 0 0 0 0 0 0 0 0 0 0 0 0 0 0 0 0 0 0 
0 0 0 0 0 0 0 0 0 0 0 0 0 0 0 0 0 0 0 0 0 0 0 0 0 0 0 0 0 0 0 0 0 0 0 0 0 0 0 0 0 0 0 0 0 0 82 0 0 161 152 120 0 0 76 101 0 0 0 0 66 169 0 120 107 0 0 0 0 0 88 0 101 147 154 76 0 79 0 79 79 118 133 0 0 169 0 0 0 0 76 0 0 76 120 167 80 79 0 0 174 169 0 152 76 88 118 88 0 112 88 0 132 122 0 0 0 0 221 0 0 0 0 112 112 154 107 138 138 142 152 0 0 0 246 82 0 0 0 0 0 0 0 0 0 0 0 0 0 0 0 0 0 0 0 0 0 0 0 0 0 0 0 0 0 0 0 0 0 0 0 0 0 0 0 0 0 0 0 0 0 
0 0 0 0 0 0 0 0 0 0 0 0 0 0 0 0 0 0 0 0 0 0 0 0 0 0 0 0 0 0 0 0 0 0 0 0 0 0 0 0 0 0 0 0 0 82 0 0 146 169 0 0 76 0 0 0 0 0 125 112 203 142 0 76 169 161 93 79 0 0 0 88 88 132 133 0 0 0 112 118 0 112 0 76 0 152 76 0 0 0 0 0 0 0 169 156 0 0 0 0 174 161 120 120 76 112 88 0 0 112 88 118 125 125 125 88 0 0 142 76 0 0 237 125 88 112 88 118 125 79 0 142 161 196 0 183 0 0 0 0 0 0 0 0 0 0 0 0 0 0 0 0 0 0 0 0 0 0 0 0 0 0 0 0 0 0 0 0 0 0 0 0 0 0 0 0 0 0 0 0 0 
0 0 0 0 0 0 0 0 0 0 0 0 0 0 0 0 0 0 0 0 0 0 0 0 0 0 0 0 0 0 0 0 0 0 0 0 0 0 0 0 0 0 0 0 82 246 101 146 76 161 169 120 76 120 120 76 94 101 0 0 244 187 120 120 76 120 107 93 0 0 0 0 79 0 0 0 0 125 88 88 0 112 0 76 107 169 0 0 76 0 82 183 183 82 152 120 76 93 88 138 147 0 76 93 133 79 0 112 125 118 0 125 0 0 88 125 118 0 0 76 120 0 182 118 88 88 88 125 0 125 79 122 208 207 79 0 82 0 0 0 0 0 0 0 0 0 0 0 0 0 0 0 0 0 0 0 0 0 0 0 0 0 0 0 0 0 0 0 0 0 0 0 0 0 0 0 0 0 0 0 0 
0 0 0 0 0 0 0 0 0 0 0 0 0 0 0 0 0 0 0 0 0 0 0 0 0 0 0 0 0 0 0 0 0 0 0 0 0 0 0 0 0 0 0 82 246 246 173 76 76 107 0 107 76 161 161 0 0 133 118 79 122 133 147 169 0 76 76 107 88 88 0 0 0 0 0 0 88 79 88 0 0 118 133 0 0 161 152 120 76 107 158 116 116 116 120 107 0 76 0 76 76 76 93 180 177 79 88 0 0 0 0 112 0 0 0 0 125 88 0 0 152 0 120 107 101 0 0 118 125 118 0 118 118 138 249 101 246 82 0 0 0 0 0 0 0 0 0 0 0 0 0 0 0 0 0 0 0 0 0 0 0 0 0 0 0 0 0 0 0 0 0 0 0 0 0 0 0 0 0 0 0 
0 0 0 0 0 0 0 0 0 0 0 0 0 0 0 0 0 0 0 0 0 0 0 0 0 0 0 0 0 0 0 0 0 0 0 0 0 0 0 0 0 0 0 183 0 135 107 0 0 161 161 0 76 120 120 120 0 0 112 0 0 0 138 169 0 76 76 132 0 0 0 0 88 88 0 0 88 79 88 0 0 0 101 107 132 156 152 120 76 120 243 232 183 135 107 147 152 66 0 0 142 208 138 88 0 112 88 118 125 125 0 88 0 118 112 125 118 88 0 0 120 76 0 76 120 0 0 142 208 122 88 112 112 112 120 249 0 183 0 0 0 0 0 0 0 0 0 0 0 0 0 0 0 0 0 0 0 0 0 0 0 0 0 0 0 0 0 0 0 0 0 0 0 0 0 0 0 0 0 0 0 
0 0 0 0 0 0 0 0 0 0 0 0 0 0 0 0 0 0 0 0 0 0 0 0 0 0 0 0 0 0 0 0 0 0 0 0 0 0 0 0 0 0 82 0 232 161 169 161 0 120 169 107 76 0 0 169 120 0 112 0 0 0 138 120 76 120 0 93 143 93 0 0 0 0 0 79 0 0 0 0 79 112 88 0 0 88 0 76 0 0 169 120 0 120 161 147 93 88 112 88 0 0 0 0 79 0 88 118 0 0 88 0 0 88 0 0 88 0 0 76 0 76 120 0 120 120 169 169 169 161 138 125 0 125 93 169 0 0 82 0 0 0 0 0 0 0 0 0 0 0 0 0 0 0 0 0 0 0 0 0 0 0 0 0 0 0 0 0 0 0 0 0 0 0 0 0 0 0 0 0 0 
0 0 0 0 0 0 0 0 0 0 0 0 0 0 0 0 0 0 0 0 0 0 0 0 0 0 0 0 0 0 0 0 0 0 0 0 0 0 0 0 0 82 246 246 196 169 0 120 0 0 169 0 0 0 0 169 156 0 88 0 88 0 107 76 76 93 162 154 88 107 0 0 79 88 0 0 0 88 0 0 79 88 0 112 0 112 0 107 0 0 169 120 0 120 169 93 79 0 0 88 88 0 0 0 0 0 0 0 88 88 0 0 79 88 125 118 0 0 76 0 76 0 120 76 0 76 0 107 0 169 156 125 0 125 88 152 217 0 183 0 0 0 0 0 0 0 0 0 0 0 0 0 0 0 0 0 0 0 0 0 0 0 0 0 0 0 0 0 0 0 0 0 0 0 0 0 0 0 0 0 0 
0 0 0 0 0 0 0 0 0 0 0 0 0 0 0 0 0 0 0 0 0 0 0 0 0 0 0 0 0 0 0 0 0 0 0 0 0 0 0 0 0 183 0 135 169 120 76 0 107 107 169 0 0 0 120 169 101 0 79 79 118 118 93 107 0 162 118 138 107 93 0 88 79 118 112 88 0 112 88 88 79 125 118 0 132 80 120 107 107 76 120 76 0 76 152 0 107 138 125 88 0 88 88 88 0 112 0 0 0 0 0 0 0 0 0 125 88 0 0 76 0 0 0 76 76 120 152 169 169 161 120 112 88 125 88 152 152 166 0 232 82 0 0 0 0 0 0 0 0 0 0 0 0 0 0 0 0 0 0 0 0 0 0 0 0 0 0 0 0 0 0 0 0 0 0 0 0 0 0 0 0 
0 0 0 0 0 0 0 0 0 0 0 0 0 0 0 0 0 0 0 0 0 0 0 0 0 0 0 0 0 0 0 0 0 0 0 0 0 0 0 0 82 0 232 161 161 0 66 101 0 0 169 120 0 0 152 152 0 79 79 88 88 88 101 0 0 122 125 79 79 88 0 112 0 0 88 118 79 125 88 112 112 0 125 174 174 186 161 107 120 120 0 0 76 107 169 66 88 135 88 0 0 0 0 112 0 112 0 0 0 0 0 88 0 88 112 118 138 76 0 0 0 0 0 88 112 88 0 0 120 120 0 112 0 112 0 120 161 210 75 159 0 183 82 0 0 0 0 0 0 0 0 0 0 0 0 0 0 0 0 0 0 0 0 0 0 0 0 0 0 0 0 0 0 0 0 0 0 0 0 0 0 
0 0 0 0 0 0 0 0 0 0 0 0 0 0 0 0 0 0 0 0 0 0 0 0 0 0 0 0 0 0 0 0 0 0 0 0 0 0 0 0 183 0 196 169 0 0 0 76 0 76 120 161 120 76 169 120 0 0 88 112 112 88 107 0 133 88 88 0 88 88 0 118 125 88 88 88 88 118 0 125 0 88 118 198 120 76 120 0 0 0 76 76 76 0 152 80 143 66 0 88 0 0 88 88 0 88 88 125 88 0 118 118 0 118 112 88 156 76 120 0 0 0 79 118 112 125 118 0 0 0 0 125 79 125 88 76 0 107 76 243 79 0 183 0 0 0 0 0 0 0 0 0 0 0 0 0 0 0 0 0 0 0 0 0 0 0 0 0 0 0 0 0 0 0 0 0 0 0 0 0 0 
0 0 0 0 0 0 0 0 0 0 0 0 0 0 0 0 0 0 0 0 0 0 0 0 0 0 0 0 0 0 0 0 0 0 0 0 0 0 0 0 183 0 196 161 152 120 93 0 0 0 0 107 120 0 169 0 0 0 0 0 0 0 66 143 93 0 0 0 88 0 88 0 0 88 88 0 0 0 88 88 0 0 0 143 182 76 0 0 0 0 82 191 135 0 120 88 88 125 118 88 0 0 0 0 0 88 125 88 79 0 79 118 0 88 88 88 156 76 120 0 88 0 0 112 0 0 125 88 0 0 88 125 0 125 88 120 76 120 0 0 161 79 0 82 0 0 0 0 0 0 0 0 0 0 0 0 0 0 0 0 0 0 0 0 0 0 0 0 0 0 0 0 0 0 0 0 0 0 0 0 0 
0 0 0 0 0 0 0 0 0 0 0 0 0 0 0 0 0 0 0 0 0 0 0 0 0 0 0 0 0 0 0 0 0 0 0 0 0 0 0 0 82 0 232 120 120 120 76 0 0 76 76 161 161 120 120 76 0 0 0 0 0 0 88 79 0 0 0 79 0 88 125 88 88 177 107 0 0 0 125 0 0 0 0 107 187 208 156 76 76 0 116 0 233 120 0 107 101 0 88 125 0 88 88 79 88 0 0 0 66 143 101 79 79 88 88 88 101 0 0 0 112 0 0 112 0 0 88 118 112 112 118 88 0 88 88 187 132 187 88 0 0 249 101 246 82 0 0 0 0 0 0 0 0 0 0 0 0 0 0 0 0 0 0 0 0 0 0 0 0 0 0 0 0 0 0 0 0 0 0 0 0 
0 0 0 0 0 0 0 0 0 0 0 0 0 0 0 0 0 0 0 0 0 0 0 0 0 0 0 0 0 0 0 0 0 0 0 0 0 0 82 183 232 246 183 0 161 161 0 76 0 0 0 120 120 161 0 76 142 118 112 118 0 0 88 88 79 112 88 0 0 112 88 125 88 229 76 120 0 0 88 0 79 0 0 66 174 198 207 237 208 147 173 233 146 169 107 76 120 0 0 118 118 0 0 0 88 88 0 0 120 107 244 88 0 0 0 125 0 120 76 120 112 0 0 88 0 0 0 88 112 112 88 0 0 88 112 172 132 172 118 88 0 120 249 0 246 82 0 0 0 0 0 0 0 0 0 0 0 0 0 0 0 0 0 0 0 0 0 0 0 0 0 0 0 0 0 0 0 0 0 0 0 
0 0 0 0 0 0 0 0 0 0 0 0 0 0 0 0 0 0 0 0 0 0 0 0 0 0 0 0 0 0 0 0 0 0 0 0 82 183 0 0 232 183 82 76 152 76 76 0 0 76 76 120 152 76 120 76 221 154 0 125 88 0 0 125 0 0 79 0 0 118 88 88 0 0 0 152 0 0 88 112 0 79 125 88 0 125 0 143 208 101 107 120 135 0 173 0 152 0 0 79 88 0 0 0 79 88 0 76 76 107 244 88 0 0 88 125 0 152 0 152 112 0 0 0 0 88 0 0 0 0 0 0 0 88 112 118 0 125 88 112 0 0 161 243 0 183 0 0 0 0 0 0 0 0 0 0 0 0 0 0 0 0 0 0 0 0 0 0 0 0 0 0 0 0 0 0 0 0 0 0 0 
0 0 0 0 0 0 0 0 0 0 0 0 0 0 0 0 0 0 0 0 0 0 0 0 0 0 0 0 0 0 0 0 0 0 0 82 246 0 183 82 0 0 0 0 161 161 0 76 93 0 0 0 0 76 120 0 156 244 88 88 118 112 112 79 88 0 0 0 0 0 0 0 132 0 0 120 120 120 66 0 79 125 0 0 0 125 0 88 203 0 0 169 158 0 158 120 120 0 118 125 0 0 88 79 79 93 161 152 107 101 122 79 0 0 0 118 118 182 0 152 112 88 0 88 0 125 0 0 0 0 88 112 125 125 112 88 0 125 0 112 0 0 93 161 79 0 82 0 0 0 0 0 0 0 0 0 0 0 0 0 0 0 0 0 0 0 0 0 0 0 0 0 0 0 0 0 0 0 0 0 0 
0 0 0 0 0 0 0 0 0 0 0 0 0 0 0 0 0 0 0 0 0 0 0 0 0 0 0 0 0 0 0 0 0 0 82 246 246 135 76 76 76 0 0 0 0 161 161 0 0 0 94 76 120 76 76 186 208 232 88 0 79 0 88 88 0 0 0 0 0 0 0 88 133 142 0 76 120 120 132 0 79 0 79 101 132 80 0 0 66 0 120 120 98 233 249 161 0 0 88 88 125 125 112 138 156 169 161 0 152 107 79 88 0 0 0 0 125 208 76 120 112 112 0 112 0 112 0 0 0 88 118 112 0 0 0 0 0 112 0 125 79 88 118 93 243 159 232 0 0 0 0 0 0 0 0 0 0 0 0 0 0 0 0 0 0 0 0 0 0 0 0 0 0 0 0 0 0 0 0 0 0 
0 0 0 0 0 0 0 0 0 0 0 0 0 0 0 0 0 0 0 0 0 0 0 0 0 0 0 0 0 0 0 0 0 82 246 0 196 169 152 120 76 120 120 0 0 0 161 169 156 101 0 0 161 161 120 0 133 132 0 0 0 0 0 0 0 0 0 79 0 0 0 0 0 120 120 107 120 161 101 88 0 0 0 76 0 0 0 0 0 76 152 76 76 76 0 107 0 0 88 112 138 156 152 169 169 120 0 76 152 107 118 118 0 0 0 0 112 138 162 122 88 88 0 0 88 118 0 88 112 118 88 0 0 0 101 76 0 88 88 88 0 79 138 0 0 133 122 82 0 0 0 0 0 0 0 0 0 0 0 0 0 0 0 0 0 0 0 0 0 0 0 0 0 0 0 0 0 0 0 0 0 
0 0 0 0 0 0 0 0 0 0 0 0 0 0 0 0 0 0 0 0 0 0 0 0 0 0 0 0 0 0 0 0 0 183 0 243 169 120 0 76 0 120 169 161 0 0 76 0 107 76 76 120 120 169 120 0 125 88 0 0 0 0 0 0 0 0 118 88 0 0 0 79 66 120 76 76 76 0 101 88 88 88 0 0 107 88 0 0 0 0 169 107 107 0 0 76 0 120 152 120 0 76 0 0 107 0 0 0 169 174 88 88 88 0 0 0 88 88 125 125 88 0 0 0 0 0 88 118 112 88 93 120 156 101 107 0 76 0 118 88 79 88 133 0 76 247 154 0 82 0 0 0 0 0 0 0 0 0 0 0 0 0 0 0 0 0 0 0 0 0 0 0 0 0 0 0 0 0 0 0 0 
0 0 0 0 0 0 0 0 0 0 0 0 0 0 0 0 0 0 0 0 0 0 0 0 0 0 0 0 0 0 0 0 82 0 0 169 0 0 76 0 107 0 0 161 161 76 161 152 120 120 0 120 142 152 0 66 125 88 0 0 0 0 0 0 88 88 88 0 0 0 0 0 174 107 120 76 76 0 107 88 88 101 132 132 0 208 94 120 101 120 161 0 161 120 76 107 76 161 152 169 107 76 120 76 120 161 0 0 169 142 88 112 125 118 0 0 0 0 0 0 0 0 0 0 0 0 88 154 120 120 107 161 169 161 0 0 76 0 66 174 182 120 0 0 0 66 249 122 183 0 0 0 0 0 0 0 0 0 0 0 0 0 0 0 0 0 0 0 0 0 0 0 0 0 0 0 0 0 0 0 0 
0 0 0 0 0 0 0 0 0 0 0 0 0 0 0 0 0 0 0 0 0 0 0 0 0 0 0 0 0 0 0 0 183 0 217 152 0 0 0 76 93 88 88 93 161 152 107 0 0 0 76 0 88 0 96 198 125 0 0 0 0 0 0 0 0 0 88 88 0 0 0 79 142 120 161 0 0 76 0 0 0 76 0 156 208 200 93 161 156 161 120 120 152 120 76 120 120 161 120 0 152 76 76 0 0 161 169 169 161 0 0 0 0 125 88 0 0 0 0 0 0 0 0 0 88 0 0 188 76 76 0 169 0 161 152 152 169 120 0 76 0 76 76 0 0 0 152 128 232 0 0 0 0 0 0 0 0 0 0 0 0 0 0 0 0 0 0 0 0 0 0 0 0 0 0 0 0 0 0 0 0 
0 0 0 0 0 0 0 0 0 0 0 0 0 0 0 0 0 0 0 0 0 0 0 0 0 0 0 0 0 0 0 0 0 244 76 169 0 0 0 0 88 118 125 118 93 76 0 76 76 0 0 0 88 0 96 229 112 0 88 0 88 0 0 0 0 0 0 79 0 0 0 0 0 76 0 120 120 0 0 76 76 0 76 107 217 233 196 120 169 120 0 152 182 147 132 147 93 107 107 120 107 0 0 76 0 0 120 120 0 0 120 120 0 88 125 0 0 0 0 0 0 0 0 0 88 0 0 138 198 198 107 161 161 0 0 0 0 120 0 120 152 120 0 0 76 76 169 92 232 0 0 0 0 0 0 0 0 0 0 0 0 0 0 0 0 0 0 0 0 0 0 0 0 0 0 0 0 0 0 0 0 
0 0 0 0 0 0 0 0 0 0 0 0 0 0 0 0 0 0 0 0 0 0 0 0 0 0 0 0 0 0 0 0 0 232 0 169 107 120 120 66 88 79 88 88 0 0 66 198 229 162 107 76 0 0 0 154 112 0 112 0 125 0 0 0 0 0 0 0 0 0 79 0 0 0 76 76 76 76 76 0 0 120 120 120 86 76 192 107 76 120 120 76 221 0 0 107 88 133 93 107 0 0 76 0 0 0 0 0 0 76 76 0 107 93 125 88 0 0 0 0 88 88 118 0 0 0 88 0 0 0 79 93 161 152 120 107 156 204 66 0 0 0 0 76 0 0 182 0 232 0 0 0 0 0 0 0 0 0 0 0 0 0 0 0 0 0 0 0 0 0 0 0 0 0 0 0 0 0 0 0 0 
0 0 0 0 0 0 0 0 0 0 0 0 0 0 0 0 0 0 0 0 0 0 0 0 0 0 0 0 0 0 0 0 0 244 0 152 76 76 76 132 0 88 112 88 0 0 79 79 88 118 79 0 0 0 0 88 112 0 88 0 88 0 0 0 88 88 0 0 88 118 88 0 0 0 0 120 120 0 0 0 76 76 0 0 180 233 98 120 120 152 161 76 207 101 0 132 0 101 94 0 0 76 0 0 0 0 0 0 0 0 120 120 0 76 112 88 0 0 0 0 88 88 88 79 0 0 88 88 0 0 88 125 154 188 154 138 186 101 79 0 79 0 96 0 94 107 246 83 0 82 0 0 0 0 0 0 0 0 0 0 0 0 0 0 0 0 0 0 0 0 0 0 0 0 0 0 0 0 0 0 0 
0 0 0 0 0 0 0 0 0 0 0 0 0 0 0 0 0 0 0 0 0 0 0 0 0 0 0 0 0 0 0 82 0 183 0 120 76 0 0 107 101 107 76 76 0 0 0 79 88 112 0 0 0 0 0 0 88 0 0 88 88 0 0 0 0 88 112 88 0 88 88 0 0 76 0 0 0 0 76 0 76 0 120 169 107 76 76 161 0 0 169 76 169 107 94 66 0 0 79 0 0 0 0 0 76 0 0 0 0 0 0 0 93 76 187 138 112 118 0 0 0 88 79 0 0 0 0 88 88 118 0 88 112 88 101 162 138 0 79 0 0 94 88 76 0 79 182 247 62 122 232 82 0 0 0 0 0 0 0 0 0 0 0 0 0 0 0 0 0 0 0 0 0 0 0 0 0 0 0 0 0 
0 0 0 0 0 0 0 0 0 0 0 0 0 0 0 0 0 0 0 0 0 0 0 0 0 0 0 0 0 0 82 246 0 146 107 0 76 120 0 0 161 120 76 76 120 0 0 95 180 95 0 0 0 79 0 0 79 0 0 0 0 0 0 0 88 79 0 0 88 88 0 0 76 0 76 0 0 76 0 0 107 76 120 120 0 66 152 66 0 120 169 76 169 0 0 0 0 0 0 0 0 0 0 120 120 161 0 0 0 76 0 76 174 161 200 147 0 125 0 0 0 0 79 0 0 0 0 0 79 0 0 88 88 79 88 88 0 0 79 79 0 0 0 0 0 0 115 108 210 79 101 183 0 0 0 0 0 0 0 0 0 0 0 0 0 0 0 0 0 0 0 0 0 0 0 0 0 0 0 0 0 
0 0 0 0 0 0 0 0 0 0 0 0 0 0 0 0 0 0 0 0 0 0 0 0 0 0 0 0 0 82 246 0 243 152 76 0 76 76 120 76 120 76 0 76 161 120 0 0 122 190 0 88 88 79 0 79 79 88 0 0 0 0 0 0 88 0 88 0 79 0 0 0 0 76 0 0 0 76 0 0 0 101 66 0 66 143 66 0 0 152 152 152 152 0 0 0 0 88 88 0 0 0 0 152 120 169 120 0 0 0 0 101 107 161 161 120 0 125 0 0 0 0 0 0 0 0 0 0 0 0 118 125 125 88 79 88 112 112 88 0 0 0 120 120 0 0 0 107 101 156 96 0 82 0 0 0 0 0 0 0 0 0 0 0 0 0 0 0 0 0 0 0 0 0 0 0 0 0 0 0 0 
0 0 0 0 0 0 0 0 0 0 0 0 0 0 0 0 0 0 0 0 0 0 0 0 0 0 0 0 0 183 0 189 120 0 120 0 0 0 120 120 76 76 120 76 120 169 161 0 76 107 143 0 0 0 0 79 0 0 88 112 88 0 0 0 0 0 88 79 0 88 66 76 0 0 0 0 0 76 0 0 0 76 0 0 0 0 132 107 0 152 152 152 152 0 88 88 125 88 0 0 0 0 0 152 152 152 152 0 0 0 120 76 76 120 120 0 88 125 0 0 0 0 0 0 0 0 0 0 88 125 118 0 0 0 0 0 0 0 0 0 0 76 76 0 107 0 0 0 0 101 249 122 183 0 0 0 0 0 0 0 0 0 0 0 0 0 0 0 0 0 0 0 0 0 0 0 0 0 0 0 0 
0 0 0 0 0 0 0 0 0 0 0 0 0 0 0 0 0 0 0 0 0 0 0 0 0 0 0 0 82 0 0 107 0 76 120 76 76 76 0 0 76 76 120 0 0 0 169 76 0 120 66 88 79 0 0 88 0 0 0 0 0 0 0 0 88 79 88 0 79 88 132 0 76 0 120 152 120 0 76 76 94 0 0 0 0 93 200 120 107 169 120 152 152 0 135 101 0 0 0 0 0 0 0 152 152 152 152 0 0 0 120 76 120 0 0 0 112 112 0 0 0 0 0 0 0 0 0 88 118 88 0 0 0 0 0 0 0 0 0 76 0 0 120 120 93 133 112 0 0 0 120 96 0 82 0 0 0 0 0 0 0 0 0 0 0 0 0 0 0 0 0 0 0 0 0 0 0 0 0 0 0 
0 0 0 0 0 0 0 0 0 0 0 0 0 0 0 0 0 0 0 0 0 0 0 0 0 0 0 0 183 0 217 120 76 0 66 132 107 76 107 76 0 0 120 161 76 76 120 0 0 107 120 0 112 0 0 0 79 0 88 112 112 0 0 88 88 88 88 118 0 125 66 0 0 107 161 152 161 120 0 0 0 0 0 95 107 101 152 0 120 161 0 120 169 0 88 143 79 79 0 0 0 0 0 152 120 169 120 0 0 0 0 0 0 0 0 0 112 112 0 0 88 0 79 0 0 0 88 118 138 120 120 0 0 76 0 0 0 0 76 0 76 0 0 0 133 172 112 118 88 0 0 249 122 183 0 0 0 0 0 0 0 0 0 0 0 0 0 0 0 0 0 0 0 0 0 0 0 0 0 0 0 
0 0 0 0 0 0 0 0 0 0 0 0 0 0 0 0 0 0 0 0 0 0 0 0 0 0 0 82 0 232 169 76 76 0 88 88 125 88 93 76 76 76 76 169 76 120 120 107 107 0 0 107 154 88 88 88 0 0 0 0 0 0 0 0 0 0 118 88 79 118 88 107 0 76 120 120 161 120 0 0 0 0 93 166 208 142 120 0 76 0 0 0 169 76 0 122 0 125 112 88 0 0 0 120 120 161 0 0 0 120 76 107 76 0 0 88 118 88 0 0 88 0 0 0 0 88 118 138 200 169 161 120 76 0 76 0 0 0 0 76 0 0 88 88 88 112 0 125 88 0 0 152 128 232 0 0 0 0 0 0 0 0 0 0 0 0 0 0 0 0 0 0 0 0 0 0 0 0 0 0 0 
0 0 0 0 0 0 0 0 0 0 0 0 0 0 0 0 0 0 0 0 0 0 0 0 0 0 82 0 101 249 161 0 0 76 88 79 0 0 88 112 112 88 0 120 76 107 76 0 76 76 0 107 196 88 0 0 88 88 0 88 88 0 0 79 79 0 88 0 0 0 118 138 76 120 0 161 120 93 118 88 122 76 0 152 0 120 120 0 82 116 82 0 120 169 0 112 88 88 112 118 88 0 0 93 76 0 0 0 0 120 76 0 0 94 79 118 0 0 0 0 0 0 0 0 0 112 112 120 120 76 161 120 0 107 101 0 0 88 112 112 112 125 125 125 88 88 88 125 0 0 0 169 0 0 82 0 0 0 0 0 0 0 0 0 0 0 0 0 0 0 0 0 0 0 0 0 0 0 0 0 0 
0 0 0 0 0 0 0 0 0 0 0 0 0 0 0 0 0 0 0 0 0 0 0 0 0 82 246 0 196 0 66 0 107 0 94 93 88 88 0 0 0 88 125 154 162 66 0 0 76 76 0 190 177 0 0 0 88 88 112 125 125 112 88 88 0 0 0 0 0 0 112 88 0 156 107 187 88 0 112 101 253 152 120 120 76 0 0 0 116 0 82 116 135 169 107 135 154 0 0 88 125 0 0 94 0 0 0 0 0 66 162 162 107 93 79 88 0 0 0 0 0 0 0 0 0 88 88 156 120 169 120 0 0 79 0 88 125 125 112 112 112 88 0 0 0 0 125 88 0 0 76 152 146 0 183 0 0 0 0 0 0 0 0 0 0 0 0 0 0 0 0 0 0 0 0 0 0 0 0 0 0 
0 0 0 0 0 0 0 0 0 0 0 0 0 0 0 0 0 0 0 0 0 0 0 0 0 183 0 189 120 0 94 107 147 169 147 120 0 0 88 112 125 88 0 0 0 88 88 0 0 142 208 172 88 0 0 0 125 0 0 0 88 0 0 125 0 0 0 0 0 0 112 0 88 177 196 177 118 0 118 133 237 0 120 76 0 0 0 76 135 116 82 0 116 152 0 133 232 112 88 0 118 88 107 0 76 0 0 0 0 118 125 125 88 79 79 0 0 0 0 0 0 0 0 0 88 0 0 172 107 0 0 0 88 79 0 88 88 0 0 0 0 0 0 0 0 88 125 0 0 0 0 169 120 232 232 0 0 0 0 0 0 0 0 0 0 0 0 0 0 0 0 0 0 0 0 0 0 0 0 0 0 
0 0 0 0 0 0 0 0 0 0 0 0 0 0 0 0 0 0 0 0 0 0 0 0 82 0 0 161 120 120 66 174 207 120 156 161 93 120 120 0 0 88 112 112 79 79 125 125 112 88 0 0 79 0 0 0 88 118 125 125 112 125 88 88 0 88 88 0 0 0 88 0 0 0 88 0 88 118 0 66 186 120 0 161 152 161 107 76 120 0 82 116 82 152 0 0 198 112 125 118 0 88 172 133 0 0 0 0 118 118 0 0 88 88 0 0 0 0 0 0 0 0 0 0 88 0 79 118 125 112 88 0 112 88 0 0 0 0 0 0 0 0 0 0 0 125 88 0 0 0 0 169 120 232 232 0 0 0 0 0 0 0 0 0 0 0 0 0 0 0 0 0 0 0 0 0 0 0 0 0 0 
0 0 0 0 0 0 0 0 0 0 0 0 0 0 0 0 0 0 0 0 0 0 0 0 183 0 217 182 0 182 76 0 76 0 120 169 107 161 161 107 76 0 0 0 88 125 0 0 0 0 0 0 0 0 0 0 0 88 88 0 0 0 88 88 0 0 0 0 0 0 79 79 79 88 0 0 0 88 118 88 120 161 169 161 76 161 120 76 169 0 0 0 0 152 0 76 120 0 0 125 88 0 88 118 88 0 0 88 125 0 0 0 0 0 0 0 0 0 0 0 0 0 0 0 0 0 0 0 88 112 125 118 88 112 0 0 0 0 0 0 0 0 0 88 125 118 0 0 0 0 120 120 0 0 232 0 0 0 0 0 0 0 0 0 0 0 0 0 0 0 0 0 0 0 0 0 0 0 0 0 0 
0 0 0 0 0 0 0 0 0 0 0 0 0 0 0 0 0 0 0 0 0 0 0 0 232 0 169 174 0 194 147 0 76 0 0 161 120 120 152 76 0 76 0 0 0 125 0 0 0 88 88 125 88 0 88 0 88 0 0 0 0 0 0 0 0 88 88 0 0 0 0 0 79 88 0 0 0 0 112 112 0 120 120 0 0 0 76 76 169 120 0 0 0 152 120 76 0 0 0 112 112 0 0 88 125 125 112 118 88 0 0 0 0 0 0 0 0 88 112 88 0 0 0 0 0 0 0 0 0 0 0 118 88 88 0 0 0 0 0 0 0 0 118 125 88 0 0 0 0 0 152 76 0 0 0 82 0 0 0 0 0 0 0 0 0 0 0 0 0 0 0 0 0 0 0 0 0 0 0 0 0 
0 0 0 0 0 0 0 0 0 0 0 0 0 0 0 0 0 0 0 0 0 0 0 0 0 108 107 93 138 101 232 107 76 120 76 107 76 107 76 120 0 76 152 152 120 154 88 0 0 88 88 0 88 88 0 0 88 0 0 0 0 0 0 0 88 88 0 0 0 0 88 112 88 0 0 0 0 0 88 125 0 0 0 0 0 0 0 0 152 152 0 0 0 169 120 0 0 0 0 88 125 0 0 0 0 88 112 88 0 0 0 0 0 0 0 0 88 79 0 0 79 0 0 0 0 0 0 0 0 0 0 0 0 0 0 0 0 0 0 0 0 118 118 0 0 120 120 0 0 0 152 76 0 146 246 246 82 0 0 0 0 0 0 0 0 0 0 0 0 0 0 0 0 0 0 0 0 0 0 0 0 
0 0 0 0 0 0 0 0 0 0 0 0 0 0 0 0 0 0 0 0 0 0 0 82 73 0 76 66 162 0 174 194 186 169 152 169 152 169 120 120 0 76 0 0 76 188 112 0 0 0 0 0 0 0 0 0 0 88 88 0 0 0 0 79 0 0 0 0 0 0 0 0 0 0 0 0 0 0 0 118 125 112 112 112 125 88 88 0 169 120 0 0 120 169 0 0 0 76 0 0 112 0 0 0 0 0 0 0 0 0 0 0 0 0 0 0 88 88 125 88 0 0 0 0 0 0 0 0 0 0 0 0 0 0 0 0 0 0 0 0 118 118 0 0 161 169 169 161 0 0 120 120 152 169 196 0 246 82 0 0 0 0 0 0 0 0 0 0 0 0 0 0 0 0 0 0 0 0 0 0 0 
0 0 0 0 0 0 0 0 0 0 0 0 0 0 0 0 0 0 0 0 0 0 0 183 73 98 76 174 107 0 0 107 95 101 132 101 0 93 107 0 0 120 152 152 156 177 88 0 0 0 0 0 79 0 88 88 0 0 0 0 0 0 0 0 0 0 79 0 0 88 88 0 0 0 0 0 0 0 0 0 88 112 88 0 0 88 88 120 169 0 0 0 152 120 120 120 0 0 76 88 125 0 0 0 0 0 0 0 0 0 0 0 0 0 0 0 0 0 0 0 0 0 0 0 0 0 0 88 0 0 0 0 0 0 0 0 0 88 112 125 118 0 0 120 169 0 76 152 0 120 76 0 76 120 169 243 0 183 0 0 0 0 0 0 0 0 0 0 0 0 0 0 0 0 0 0 0 0 0 0 0 
0 0 0 0 0 0 0 0 0 0 0 0 0 0 0 0 0 0 0 0 0 0 0 232 92 120 120 142 94 0 0 0 0 88 112 112 112 125 135 112 135 112 88 0 118 118 0 0 0 0 0 0 79 0 0 0 0 79 0 79 0 0 0 0 101 232 0 244 122 0 0 79 0 0 0 0 0 0 0 0 0 0 88 88 112 118 0 152 152 82 116 82 152 76 120 114 133 188 154 118 88 0 0 0 0 0 0 0 0 0 0 0 0 0 88 88 0 0 0 0 0 0 0 0 0 0 0 88 0 0 0 0 0 0 0 0 0 0 0 79 0 0 0 152 120 120 169 107 0 107 114 149 88 0 0 161 79 0 82 0 0 0 0 0 0 0 0 0 0 0 0 0 0 0 0 0 0 0 0 0 0 
0 0 0 0 0 0 0 0 0 0 0 0 0 0 0 0 0 0 0 0 0 0 0 232 92 120 76 120 0 0 79 0 0 88 0 0 0 79 101 162 154 112 125 88 0 79 0 0 88 88 0 88 79 0 88 88 0 0 0 0 0 0 0 0 188 229 142 0 0 147 0 0 0 88 0 0 0 0 0 0 88 112 118 79 0 0 0 152 152 116 0 116 152 120 161 187 194 0 0 79 0 0 0 0 0 0 0 0 0 0 0 0 88 177 196 172 88 0 0 0 88 0 88 88 0 0 0 0 0 0 0 0 0 0 0 0 0 0 0 0 0 0 0 120 142 0 198 93 0 120 187 232 125 118 0 0 249 122 183 0 0 0 0 0 0 0 0 0 0 0 0 0 0 0 0 0 0 0 0 0 0 
0 0 0 0 0 0 0 0 0 0 0 0 0 0 0 0 0 0 0 0 0 0 0 232 0 169 120 0 0 0 0 0 79 125 0 88 112 125 112 125 88 0 0 0 0 0 0 118 88 88 0 88 88 88 88 0 0 0 88 88 0 0 0 0 196 237 76 0 156 0 194 0 0 88 0 0 0 79 0 88 118 154 162 66 0 0 0 152 152 82 116 82 152 152 0 96 80 125 125 118 0 0 0 0 0 0 0 0 0 0 0 172 244 79 0 68 177 0 0 0 88 0 88 88 0 88 0 0 0 0 0 0 0 0 0 0 0 0 0 0 0 0 76 0 94 101 0 101 76 107 133 122 0 125 88 0 120 96 0 82 0 0 0 0 0 0 0 0 0 0 0 0 0 0 0 0 0 0 0 0 0 
0 0 0 0 0 0 0 0 0 0 0 0 0 0 0 0 0 0 0 0 0 0 0 183 0 196 169 0 0 0 0 0 0 118 112 125 112 88 0 122 196 154 88 0 0 79 0 88 79 118 0 0 79 0 79 88 0 0 0 0 0 0 0 0 229 221 135 116 82 156 0 138 0 0 0 0 79 0 0 112 112 76 0 76 0 0 0 169 120 0 0 0 152 152 0 0 0 0 0 125 88 0 0 0 0 0 0 0 0 0 138 0 207 0 192 148 229 0 0 0 0 0 0 0 0 0 0 0 0 0 0 0 0 0 0 0 0 88 118 88 0 76 0 76 0 79 0 0 0 79 79 0 0 88 88 0 0 249 122 183 0 0 0 0 0 0 0 0 0 0 0 0 0 0 0 0 0 0 0 0 0 
0 0 0 0 0 0 0 0 0 0 0 0 0 0 0 0 0 0 0 0 0 0 0 82 0 232 161 161 0 0 0 76 0 0 0 0 0 0 0 76 0 101 143 132 0 0 88 88 118 0 79 0 0 79 0 0 0 0 0 0 0 0 0 0 237 237 183 116 183 0 0 244 0 0 0 0 0 0 0 88 125 93 76 0 0 120 169 243 158 82 0 0 120 169 0 0 0 76 66 125 0 88 88 0 0 0 0 0 0 0 244 0 0 232 0 184 237 88 88 0 0 0 0 0 0 0 0 0 0 0 0 0 0 0 0 0 0 0 112 88 88 154 188 154 112 125 112 112 112 88 79 0 0 0 66 96 0 120 135 0 0 0 0 0 0 0 0 0 0 0 0 0 0 0 0 0 0 0 0 0 0 
0 0 0 0 0 0 0 0 0 0 0 0 0 0 0 0 0 0 0 0 0 0 0 0 183 0 135 161 169 120 107 76 120 0 0 120 120 76 76 0 0 0 0 143 79 88 0 0 0 0 0 79 0 0 88 88 0 0 0 0 0 0 88 138 240 208 183 116 183 82 230 117 138 88 0 88 0 0 0 0 125 79 0 0 76 76 76 192 0 116 0 0 0 161 161 0 76 0 180 118 0 0 0 0 0 0 0 0 0 172 0 156 0 183 116 130 208 0 0 0 0 0 88 0 88 0 0 0 0 0 0 0 0 0 0 0 0 0 88 88 125 112 112 112 112 88 0 0 0 0 0 112 118 0 76 112 76 0 96 122 82 0 0 0 0 0 0 0 0 0 0 0 0 0 0 0 0 0 0 0 0 
0 0 0 0 0 0 0 0 0 0 0 0 0 0 0 0 0 0 0 0 0 0 0 0 82 246 0 0 0 249 120 76 161 152 169 169 169 152 152 152 120 76 76 66 88 112 125 118 0 0 0 0 0 0 0 0 0 0 0 0 0 0 88 198 207 93 116 0 116 183 158 184 244 0 0 88 0 0 0 0 88 88 112 118 93 120 161 189 192 98 0 0 0 0 169 120 66 180 132 0 0 0 0 0 0 0 0 0 172 106 117 212 82 82 116 0 237 88 88 0 0 0 88 0 88 0 0 0 0 0 0 0 0 0 0 0 0 0 0 0 0 0 0 0 0 0 0 0 0 88 118 112 88 79 0 96 0 0 0 128 116 0 0 0 0 0 0 0 0 0 0 0 0 0 0 0 0 0 0 0 0 
0 0 0 0 0 0 0 0 0 0 0 0 0 0 0 0 0 0 0 0 0 0 0 0 0 82 183 232 0 0 0 146 120 152 120 0 107 76 76 0 0 161 120 76 120 108 66 88 88 0 0 0 0 0 0 0 0 0 0 0 0 0 0 244 0 0 183 116 183 232 0 83 107 218 0 0 0 0 0 0 0 0 0 125 79 0 182 76 0 76 0 0 0 0 182 198 125 118 0 0 0 0 0 0 0 0 0 101 0 0 232 164 183 82 116 253 0 88 0 0 0 0 0 0 0 0 0 0 0 0 0 0 0 0 0 0 0 0 88 112 112 88 0 118 88 79 172 188 177 118 88 0 0 0 0 93 76 0 75 145 82 0 0 0 0 0 0 0 0 0 0 0 0 0 0 0 0 0 0 0 0 
0 0 0 0 0 0 0 0 0 0 0 0 0 0 0 0 0 0 0 0 0 0 0 0 0 0 0 82 164 82 116 158 120 152 152 169 169 152 152 161 0 0 120 152 169 201 161 93 125 0 0 0 0 88 88 0 0 0 0 0 0 0 0 154 66 138 116 116 183 183 116 0 0 150 172 88 0 0 0 0 0 0 0 0 88 112 232 147 76 107 0 0 0 156 0 226 88 0 0 0 0 0 0 0 0 0 93 0 243 158 232 116 232 116 0 0 0 88 0 0 0 0 0 0 0 0 0 0 0 0 0 0 0 0 0 118 112 112 125 112 112 125 112 172 143 138 180 0 133 88 0 0 120 120 0 76 0 76 128 128 0 0 0 0 0 0 0 0 0 0 0 0 0 0 0 0 0 0 0 0 0 
0 0 0 0 0 0 0 0 0 0 0 0 0 0 0 0 0 0 0 0 0 0 0 0 0 82 232 73 73 0 0 243 169 152 152 120 0 0 0 120 120 120 76 76 0 107 161 94 125 79 0 0 0 0 0 79 0 0 0 0 0 0 0 112 124 152 82 116 82 116 0 82 86 0 243 177 0 0 0 0 0 88 0 0 0 0 172 244 237 207 169 152 207 0 232 93 0 0 0 0 0 0 0 0 0 88 226 0 93 116 183 164 183 116 0 68 0 0 0 0 0 0 0 0 0 0 0 0 88 0 88 0 88 112 125 118 0 0 93 76 0 0 0 156 142 221 156 76 107 76 76 107 161 161 120 0 76 0 128 128 0 0 0 0 0 0 0 0 0 0 0 0 0 0 0 0 0 0 0 0 0 
0 0 0 0 0 0 0 0 0 0 0 0 0 0 0 0 0 0 0 0 0 0 0 0 82 246 98 0 217 152 152 161 0 0 0 0 0 0 0 0 76 120 120 76 76 161 161 0 112 0 0 0 88 112 88 0 0 79 0 79 0 0 0 112 71 217 116 183 82 183 116 116 116 98 207 244 88 0 0 0 0 88 0 88 0 0 0 0 88 172 156 152 187 177 0 0 0 0 0 0 0 0 0 0 88 172 66 230 82 116 116 116 82 164 98 76 229 0 0 0 0 0 0 0 0 0 0 0 88 0 0 118 125 112 138 107 0 0 161 152 161 0 0 120 107 0 120 152 169 152 152 120 76 169 120 0 0 0 128 128 0 0 0 0 0 0 0 0 0 0 0 0 0 0 0 0 0 0 0 0 0 
0 0 0 0 0 0 0 0 0 0 0 0 0 0 0 0 0 0 0 0 0 0 0 0 183 0 249 107 76 76 76 0 0 0 0 0 0 0 0 0 0 120 120 120 76 169 0 0 112 0 0 88 0 0 0 0 0 0 0 0 0 0 0 88 0 0 116 116 116 232 0 232 0 0 120 0 177 0 0 0 0 79 0 0 0 0 0 0 0 118 125 112 118 88 0 0 0 0 0 0 0 88 88 0 177 243 0 0 116 116 183 164 116 82 0 79 177 0 0 0 0 0 0 0 0 0 0 0 0 0 0 125 0 0 120 120 161 0 120 0 120 120 0 0 120 169 161 0 0 76 76 76 0 152 0 76 76 76 92 128 0 0 0 0 0 0 0 0 0 0 0 0 0 0 0 0 0 0 0 0 0 
0 0 0 0 0 0 0 0 0 0 0 0 0 0 0 0 0 0 0 0 0 0 0 0 232 92 169 0 0 0 0 0 0 0 0 0 0 0 0 0 0 0 76 107 0 120 76 76 154 0 0 0 0 0 0 0 0 0 79 0 0 0 0 0 244 79 232 183 82 232 0 232 0 0 98 0 106 172 0 0 0 88 79 88 0 0 0 0 0 0 88 112 88 0 0 0 0 0 0 0 0 0 0 93 0 200 98 116 0 164 116 164 116 116 75 0 112 0 0 0 0 0 0 0 0 0 0 0 0 0 112 112 0 0 120 120 120 76 142 221 142 120 0 0 0 0 169 120 0 0 0 0 0 161 152 120 76 120 0 92 0 0 0 0 0 0 0 0 0 0 0 0 0 0 0 0 0 0 0 0 0 
0 0 0 0 0 0 0 0 0 0 0 0 0 0 0 0 0 0 0 0 0 0 0 82 0 75 152 0 0 0 88 88 0 0 0 0 0 0 0 0 0 0 0 0 107 93 0 0 188 0 0 0 0 0 0 0 0 0 0 79 0 0 0 0 151 240 173 116 82 183 116 183 0 0 116 0 0 0 172 0 0 118 88 88 0 0 0 0 0 0 0 0 0 0 0 0 0 0 0 0 0 88 0 208 0 0 0 0 116 116 82 164 116 116 253 0 88 0 0 0 0 0 0 0 0 0 0 0 0 0 112 112 0 0 0 161 120 120 0 0 94 0 0 0 0 0 169 120 0 0 0 0 0 0 0 120 0 120 244 0 0 0 0 0 0 0 0 0 0 0 0 0 0 0 0 0 0 0 0 0 0 
0 0 0 0 0 0 0 0 0 0 0 0 0 0 0 0 0 0 0 0 0 0 0 232 0 196 152 0 0 79 118 118 0 0 0 0 0 0 0 0 76 76 76 0 76 0 76 0 188 88 0 0 0 0 0 0 0 0 0 0 0 0 0 79 0 194 0 0 116 116 82 183 183 82 82 116 98 200 0 172 0 0 0 0 0 0 0 0 0 0 0 0 0 0 0 0 0 0 0 0 0 93 232 0 235 183 232 183 0 183 183 0 116 124 0 232 0 0 0 0 0 0 0 0 0 0 0 0 0 0 112 112 0 0 0 0 0 0 0 0 0 0 0 0 0 120 169 0 0 0 0 0 0 0 107 120 76 152 232 232 0 0 0 0 0 0 0 0 0 0 0 0 0 0 0 0 0 0 0 0 0 
0 0 0 0 0 0 0 0 0 0 0 0 0 0 0 0 0 0 0 0 0 0 0 92 0 120 120 88 0 0 125 0 88 112 118 0 0 0 0 120 76 0 0 76 76 0 0 94 143 79 88 0 0 0 0 0 0 0 0 0 0 0 0 0 0 138 0 196 82 82 183 183 246 183 0 0 0 0 200 0 172 0 0 88 88 0 0 79 0 0 0 0 0 0 0 0 0 79 0 0 88 226 106 0 135 116 0 116 116 0 0 116 0 88 0 93 0 0 0 0 0 0 0 0 0 0 0 0 0 0 88 118 112 112 133 0 76 0 0 0 0 0 0 0 0 152 152 0 0 0 0 0 0 161 120 0 0 161 0 0 0 0 0 0 0 0 0 0 0 0 0 0 0 0 0 0 0 0 0 0 0 
0 0 0 0 0 0 0 0 0 0 0 0 0 0 0 0 0 0 0 0 0 0 82 145 0 0 107 125 0 0 112 0 0 0 88 0 0 0 0 120 76 107 76 0 66 174 215 232 95 0 79 79 0 0 0 0 0 0 0 79 0 0 0 0 0 112 208 0 0 82 246 0 246 116 116 116 116 116 158 0 0 172 0 88 79 0 79 0 0 0 0 0 0 0 0 0 79 0 0 88 172 240 0 82 116 0 183 183 82 82 116 0 191 92 122 0 0 0 0 0 0 0 0 0 0 0 0 0 0 0 0 88 112 112 177 180 66 0 0 0 120 108 0 66 120 161 76 76 0 0 0 120 169 161 76 76 107 174 144 92 0 0 0 0 0 0 0 0 0 0 0 0 0 0 0 0 0 0 0 0 0 
0 0 0 0 0 0 0 0 0 0 0 0 0 0 0 0 0 0 0 0 0 0 183 98 111 120 198 125 79 88 118 0 0 0 0 88 112 88 0 0 107 138 88 0 118 112 88 88 88 88 0 0 112 88 88 0 0 0 0 0 0 0 79 0 0 118 232 0 158 0 82 116 183 82 0 0 0 0 0 158 207 244 0 118 88 88 0 0 0 0 0 0 0 0 0 0 0 0 0 172 68 0 0 164 82 116 116 0 0 183 116 212 207 244 0 0 0 88 88 0 0 0 0 0 0 88 112 112 88 0 0 0 0 0 0 125 88 0 0 107 0 132 76 132 76 0 120 120 107 120 169 169 120 0 0 0 0 0 130 145 82 0 0 0 0 0 0 0 0 0 0 0 0 0 0 0 0 0 0 0 0 
0 0 0 0 0 0 0 0 0 0 0 0 0 0 0 0 0 0 0 0 0 0 232 0 76 120 0 112 0 0 0 0 0 88 112 88 0 0 88 112 125 125 125 112 118 0 0 0 0 0 79 79 0 0 112 88 0 88 0 0 0 0 0 0 0 0 172 0 156 116 0 116 0 82 82 0 82 116 82 82 196 243 232 101 0 0 0 0 0 0 0 0 0 0 0 0 0 172 244 0 0 0 116 82 183 183 82 0 0 183 158 117 0 172 0 0 0 0 0 0 0 0 0 0 88 118 112 112 118 0 0 88 0 0 0 88 118 88 107 0 120 0 132 107 76 152 120 107 120 169 120 93 88 112 88 0 0 0 239 145 183 0 0 0 0 0 0 0 0 0 0 0 0 0 0 0 0 0 0 0 0 
0 0 0 0 0 0 0 0 0 0 0 0 0 0 0 0 0 0 0 0 0 0 232 0 120 200 244 88 0 0 0 0 0 0 0 0 0 0 88 112 88 0 0 0 0 0 0 0 88 88 0 88 125 88 88 88 0 88 0 0 0 0 0 0 0 0 0 244 0 135 82 82 82 0 183 116 183 0 183 116 232 156 0 0 172 0 0 0 0 0 0 0 0 0 0 93 232 0 207 120 158 0 116 0 82 116 82 0 0 82 191 79 177 0 0 0 0 0 0 0 0 0 0 0 88 125 0 0 112 0 0 88 0 0 0 0 88 125 177 162 66 76 76 76 76 0 0 0 76 0 0 118 125 112 125 118 0 0 152 128 232 0 0 0 0 0 0 0 0 0 0 0 0 0 0 0 0 0 0 0 0 
0 0 0 0 0 0 0 0 0 0 0 0 0 0 0 0 0 0 0 0 0 0 0 0 107 152 122 88 88 0 88 88 0 88 88 0 88 88 0 0 0 0 0 0 0 0 0 0 0 0 0 0 0 0 0 0 0 0 0 0 0 0 0 0 0 0 0 138 0 156 116 0 116 0 183 116 183 0 183 116 183 0 0 207 232 118 0 0 88 112 112 112 112 88 0 180 232 147 0 0 116 82 164 82 183 183 246 82 0 0 152 0 112 0 0 0 0 0 0 0 0 0 0 0 0 112 0 0 112 0 0 0 0 0 0 0 0 0 88 125 125 154 229 229 154 112 112 112 112 112 125 79 0 0 0 118 118 0 152 128 232 0 0 0 0 0 0 0 0 0 0 0 0 0 0 0 0 0 0 0 0 
0 0 0 0 0 0 0 0 0 0 0 0 0 0 0 0 0 0 0 0 0 0 92 0 0 107 88 112 112 112 112 125 112 88 88 0 0 0 0 0 0 0 0 0 0 0 0 0 88 88 0 0 88 88 0 0 0 0 0 0 0 0 0 0 0 0 0 0 229 221 135 116 82 0 82 116 82 0 82 116 82 0 0 120 200 232 177 125 125 112 112 112 88 88 0 196 182 76 0 0 116 116 116 116 183 164 183 116 0 0 207 244 0 0 0 0 0 0 0 0 0 0 0 0 88 125 0 0 112 88 0 0 0 0 0 0 0 0 0 0 88 112 112 112 112 112 112 112 112 112 88 0 0 0 0 0 112 0 152 128 232 0 0 0 0 0 0 0 0 0 0 0 0 0 0 0 0 0 0 0 0 
0 0 0 0 0 0 0 0 0 0 0 0 0 0 0 0 0 0 0 0 0 0 92 0 0 76 0 0 76 0 0 0 0 0 88 79 0 0 0 0 0 0 0 0 0 0 0 0 0 0 0 88 79 88 0 0 0 0 0 0 0 0 0 0 0 0 0 88 151 186 120 0 0 0 0 0 0 0 0 0 0 0 0 0 120 200 194 0 101 120 120 0 0 88 132 243 161 0 0 0 116 82 164 82 82 183 116 82 82 120 0 177 0 0 0 0 0 0 0 0 0 0 0 0 112 112 0 0 88 112 0 0 0 0 0 0 0 0 0 0 0 0 0 0 0 0 0 0 0 0 0 0 0 0 0 118 172 156 161 92 232 0 0 0 0 0 0 0 0 0 0 0 0 0 0 0 0 0 0 0 0 
0 0 0 0 0 0 0 0 0 0 0 0 0 0 0 0 0 0 0 0 0 0 0 0 161 107 76 107 76 107 76 0 0 107 138 125 88 0 0 0 0 0 0 0 0 0 0 0 0 0 0 88 88 118 0 0 0 0 0 0 0 0 0 0 0 0 0 88 125 156 169 0 0 0 0 0 82 183 183 82 0 0 0 0 0 120 221 0 174 161 161 120 0 122 68 117 212 82 0 0 116 0 82 183 232 232 183 98 191 200 244 0 0 0 0 0 0 0 0 0 0 0 0 0 125 0 118 112 88 0 0 0 0 0 0 0 0 0 0 0 0 0 0 0 0 0 0 0 0 0 0 79 0 0 0 112 132 120 107 0 232 0 0 0 0 0 0 0 0 0 0 0 0 0 0 0 0 0 0 0 0 
0 0 0 0 0 0 0 0 0 0 0 0 0 0 0 0 0 0 0 0 0 0 232 232 120 107 0 76 0 120 152 169 169 120 120 0 122 180 93 0 79 0 0 0 0 0 0 0 0 0 0 0 0 0 0 0 0 0 0 0 0 0 0 0 0 0 0 0 79 180 182 76 0 82 116 116 164 82 116 116 0 0 82 116 82 0 221 120 208 152 120 186 0 142 0 158 82 164 82 0 116 0 0 116 0 0 82 224 196 190 177 0 0 0 0 0 0 0 0 0 0 0 0 0 88 88 118 0 0 0 0 0 0 0 0 0 0 0 0 0 0 0 0 0 0 0 0 0 0 0 79 0 0 0 0 125 138 161 161 0 232 0 0 0 0 0 0 0 0 0 0 0 0 0 0 0 0 0 0 0 0 
0 0 0 0 0 0 0 0 0 0 0 0 0 0 0 0 0 0 0 0 0 0 232 0 107 107 107 107 107 0 0 120 120 107 169 0 76 112 107 79 88 0 0 0 0 0 79 0 0 0 0 0 0 0 0 0 0 88 112 88 0 0 0 0 0 0 79 0 0 188 174 107 0 183 183 183 0 183 183 82 0 0 116 0 116 0 208 152 208 152 76 208 0 221 173 183 183 82 116 0 82 116 116 164 116 183 183 98 169 229 112 0 0 0 0 0 0 0 0 0 0 0 0 0 88 88 0 0 0 0 0 0 0 0 0 0 0 0 0 0 0 0 0 0 0 0 0 0 0 0 0 0 0 0 0 112 112 0 169 92 232 0 0 0 0 0 0 0 0 0 0 0 0 0 0 0 0 0 0 0 0 
0 0 0 0 0 0 0 0 0 0 0 0 0 0 0 0 0 0 0 0 0 82 0 0 161 120 0 0 120 161 120 0 0 0 169 120 0 96 66 0 118 0 0 0 0 79 0 0 0 0 0 0 0 0 0 0 0 0 0 0 0 0 0 0 0 0 0 79 0 154 147 161 120 183 164 164 164 82 82 116 82 0 82 116 0 116 235 201 156 152 120 186 94 207 0 0 82 116 82 0 0 0 82 164 82 116 0 0 152 0 88 0 0 0 0 0 0 0 0 0 0 0 0 0 0 0 0 0 0 0 0 0 0 0 0 0 0 0 0 0 0 0 0 0 0 0 0 0 0 0 0 0 0 0 0 88 125 0 120 135 0 0 0 0 0 0 0 0 0 0 0 0 0 0 0 0 0 0 0 0 0 
0 0 0 0 0 0 0 0 0 0 0 0 0 0 0 0 0 0 0 0 0 183 0 249 120 0 0 0 0 120 161 152 152 152 161 120 0 0 88 88 0 0 0 0 0 0 0 0 0 0 0 0 0 0 0 0 0 88 112 0 0 0 0 0 79 0 79 0 0 118 118 182 152 82 183 183 82 0 116 0 116 0 0 0 183 116 232 169 0 161 161 120 152 152 0 0 0 0 0 0 0 0 183 82 183 82 0 0 207 244 0 0 0 0 0 0 0 0 0 0 0 0 0 0 0 0 0 0 0 0 0 0 0 0 0 0 0 0 0 0 0 0 0 0 0 0 0 0 0 0 0 118 112 125 112 88 88 0 76 128 0 0 0 0 0 0 0 0 0 0 0 0 0 0 0 0 0 0 0 0 0 
0 0 0 0 0 0 0 0 0 0 0 0 0 0 0 0 0 0 0 0 0 232 92 169 0 88 88 125 88 93 120 152 152 152 76 0 76 76 154 112 0 0 0 0 0 0 0 0 0 0 0 0 0 0 0 0 0 0 0 88 0 88 0 0 0 0 0 0 0 0 125 208 169 0 0 0 0 82 164 82 116 0 0 0 183 116 183 152 120 120 120 0 152 152 0 0 0 0 0 0 0 0 183 116 116 116 82 120 0 177 0 0 0 0 0 0 0 0 0 0 0 0 0 0 0 0 0 0 0 0 0 0 0 0 0 0 0 0 0 0 0 0 0 0 0 0 0 0 118 112 112 118 0 88 112 112 88 0 120 135 0 0 0 0 0 0 0 0 0 0 0 0 0 0 0 0 0 0 0 0 0 
0 0 0 0 0 0 0 0 0 0 0 0 0 0 0 0 0 0 0 0 0 232 128 152 0 112 88 88 118 88 0 0 0 0 120 76 0 0 196 88 0 0 0 0 0 0 0 0 0 0 0 0 0 0 0 0 0 0 0 88 0 88 0 0 0 0 0 0 0 0 125 162 152 76 82 116 82 116 183 164 183 0 0 0 82 116 82 152 152 0 0 0 169 120 82 116 82 0 0 0 0 0 82 82 82 82 158 207 208 79 88 0 0 0 0 0 0 0 0 0 0 0 0 0 0 0 0 0 0 0 0 0 0 0 0 0 0 0 0 0 0 0 0 0 0 0 0 88 125 0 0 0 0 0 0 0 0 0 152 128 232 0 0 0 0 0 0 0 0 0 0 0 0 0 0 0 0 0 0 0 0 
0 0 0 0 0 0 0 0 0 0 0 0 0 0 0 0 0 0 0 0 0 232 128 182 0 88 112 0 88 125 0 0 0 0 120 107 190 196 172 0 0 0 0 88 0 88 0 0 0 0 118 88 88 0 0 0 0 0 0 0 0 0 0 0 0 0 0 0 0 88 125 107 120 107 212 116 183 82 246 183 183 0 0 0 0 0 0 120 169 0 0 120 169 0 116 0 116 0 0 0 0 0 0 183 164 183 233 221 66 0 88 0 0 0 0 0 0 0 0 0 0 0 0 0 0 0 0 0 0 0 0 0 0 0 0 0 0 0 0 0 0 0 0 0 0 88 112 118 88 0 120 152 152 152 120 0 0 0 152 128 232 0 0 0 0 0 0 0 0 0 0 0 0 0 0 0 0 0 0 0 0 
0 0 0 0 0 0 0 0 0 0 0 0 0 0 0 0 0 0 0 0 0 232 128 208 0 0 112 0 0 125 0 0 88 88 101 143 132 79 0 0 0 0 0 88 0 88 0 0 0 0 88 79 0 88 88 0 0 0 0 0 0 0 0 0 0 0 0 79 0 112 88 101 156 161 0 116 183 0 82 116 0 183 232 232 183 82 82 158 249 120 0 161 182 0 82 116 0 116 82 0 82 116 82 183 164 183 233 207 93 79 118 0 0 0 0 0 0 0 0 0 0 0 0 0 0 0 0 0 0 0 0 0 0 0 0 0 0 0 0 0 0 0 0 0 88 118 112 88 93 161 169 152 152 152 166 115 0 0 120 135 0 0 0 0 0 0 0 0 0 0 0 0 0 0 0 0 0 0 0 0 0 
0 0 0 0 0 0 0 0 0 0 0 0 0 0 0 0 0 0 0 0 0 183 145 253 0 79 125 0 0 88 79 79 88 125 112 88 0 0 0 0 0 0 0 0 0 0 0 0 0 0 88 88 0 0 0 0 0 0 0 0 0 0 0 0 0 0 79 0 0 88 79 0 0 152 217 116 82 0 0 0 116 116 0 0 116 116 116 0 0 152 0 169 174 0 0 0 183 116 183 0 183 116 183 82 183 232 189 120 162 125 0 0 0 0 0 0 0 0 0 0 0 0 0 0 0 0 0 0 0 0 0 0 0 0 0 0 0 0 0 0 0 0 0 0 125 88 0 0 120 169 0 120 152 152 204 120 0 0 76 128 0 0 0 0 0 0 0 0 0 0 0 0 0 0 0 0 0 0 0 0 0 
0 0 0 0 0 0 0 0 0 0 0 0 0 0 0 0 0 0 0 0 0 82 122 96 0 0 118 118 0 0 88 88 0 0 0 0 0 0 0 0 0 0 0 0 0 0 0 0 0 0 0 0 0 88 88 0 0 0 0 0 0 0 0 0 0 0 0 0 0 0 88 88 0 120 169 98 183 183 82 0 82 183 232 183 82 116 116 0 0 152 0 161 107 0 0 0 183 116 183 0 183 116 183 82 116 146 120 107 154 112 0 0 0 0 0 0 0 0 0 0 0 0 0 0 0 0 0 0 0 0 0 0 0 0 0 0 0 0 0 0 0 0 0 88 125 0 0 0 152 152 120 161 152 152 147 93 79 0 76 128 0 0 0 0 0 0 0 0 0 0 0 0 0 0 0 0 0 0 0 0 0 
0 0 0 0 0 0 0 0 0 0 0 0 0 0 0 0 0 0 0 0 0 0 0 108 161 0 0 118 118 0 0 0 0 0 0 0 0 0 0 0 0 0 0 0 0 0 0 0 0 0 0 0 0 0 0 0 0 0 0 0 0 0 0 0 0 0 0 0 0 0 112 112 0 0 169 233 116 82 164 82 82 116 82 116 0 116 116 0 233 169 0 169 120 0 0 0 82 116 0 116 0 116 82 116 0 158 169 120 88 125 0 0 0 0 0 0 0 0 0 0 0 0 0 0 0 0 0 0 0 0 0 0 0 0 0 0 0 0 0 0 0 0 0 125 88 0 0 0 120 161 161 120 0 0 88 118 118 122 0 92 92 0 0 0 0 0 0 0 0 0 0 0 0 0 0 0 0 0 0 0 0 
0 0 0 0 0 0 0 0 0 0 0 0 0 0 0 0 0 0 0 0 0 0 183 0 249 120 0 0 118 125 88 0 0 79 0 0 0 0 0 0 0 0 0 0 0 0 0 0 0 0 0 0 0 0 0 0 0 0 0 0 0 0 0 0 0 0 0 0 0 0 125 88 0 0 152 217 183 164 116 246 82 0 116 82 82 82 0 116 98 161 169 161 120 0 0 0 0 0 183 116 183 0 0 82 116 135 169 120 0 125 88 0 0 0 0 0 0 0 0 0 0 0 0 0 0 0 0 0 0 0 0 0 0 0 0 0 0 0 0 0 0 0 0 112 0 0 0 0 0 120 156 138 112 112 118 88 112 188 0 0 92 0 0 0 0 0 0 0 0 0 0 0 0 0 0 0 0 0 0 0 0 
0 0 0 0 0 0 0 0 0 0 0 0 0 0 0 0 0 0 0 0 0 0 82 246 101 249 0 0 0 88 125 118 0 0 79 0 0 0 0 0 0 0 0 0 0 0 0 0 0 0 0 0 0 0 0 0 0 0 0 0 0 0 0 0 0 0 0 0 0 88 125 0 0 0 152 217 116 183 116 232 82 116 82 0 183 116 183 0 0 76 0 107 0 0 0 0 0 0 183 116 183 0 0 0 0 120 169 0 0 112 112 0 0 0 0 0 0 0 0 0 0 0 0 0 0 0 0 0 0 0 0 0 0 0 0 0 0 0 88 0 88 0 0 118 125 112 112 112 112 112 125 125 112 88 0 88 172 190 189 106 232 0 0 0 0 0 0 0 0 0 0 0 0 0 0 0 0 0 0 0 0 
0 0 0 0 0 0 0 0 0 0 0 0 0 0 0 0 0 0 0 0 0 0 0 82 0 79 161 0 0 0 0 112 0 0 0 0 0 0 0 0 0 0 0 0 0 0 0 0 0 0 0 0 0 0 0 0 0 0 0 0 0 0 0 0 0 0 0 0 0 88 125 66 76 0 152 75 116 0 183 246 82 0 0 0 183 116 183 82 116 173 76 120 0 0 0 0 82 116 0 116 0 116 82 0 0 152 120 76 0 112 88 0 0 0 0 0 0 0 0 0 0 0 0 0 0 0 0 0 0 0 0 0 0 0 0 0 0 0 112 0 112 0 0 0 88 112 112 112 112 112 88 0 0 118 125 112 187 200 0 0 82 0 0 0 0 0 0 0 0 0 0 0 0 0 0 0 0 0 0 0 0 
0 0 0 0 0 0 0 0 0 0 0 0 0 0 0 0 0 0 0 0 0 0 0 0 232 0 152 76 0 0 88 125 0 0 0 0 88 0 0 0 79 0 0 0 0 0 0 0 0 0 0 0 0 0 0 0 0 0 0 0 0 0 0 0 0 0 0 0 0 0 125 162 0 76 152 75 116 164 82 82 82 0 0 0 82 116 82 183 116 75 0 152 82 116 82 0 116 0 116 0 116 0 116 0 0 169 0 0 76 112 0 0 0 0 0 0 0 0 0 0 0 0 0 0 0 0 0 0 0 0 0 0 0 0 0 0 0 0 88 0 88 0 0 0 0 0 0 0 0 0 0 0 0 112 0 0 152 152 232 232 0 0 0 0 0 0 0 0 0 0 0 0 0 0 0 0 0 0 0 0 0 
0 0 0 0 0 0 0 0 0 0 0 0 0 0 0 0 0 0 0 0 0 0 0 0 232 92 169 0 0 0 112 112 0 0 79 101 133 0 0 0 88 88 88 0 0 0 0 0 0 0 0 0 0 0 0 0 0 0 0 0 0 0 0 0 0 0 0 0 0 0 112 138 162 122 182 217 116 82 116 0 116 82 116 82 0 0 0 183 116 75 0 152 116 0 116 0 82 116 82 0 82 116 82 0 120 169 76 76 0 112 88 0 0 0 0 0 0 0 0 0 0 0 0 0 0 0 0 0 0 0 0 0 0 0 0 0 0 0 0 0 0 0 0 0 0 0 0 0 0 0 0 0 0 125 88 0 120 169 0 232 0 0 0 0 0 0 0 0 0 0 0 0 0 0 0 0 0 0 0 0 0 
0 0 0 0 0 0 0 0 0 0 0 0 0 0 0 0 0 0 0 0 0 0 0 0 232 128 152 0 0 88 118 88 0 88 88 188 208 204 95 0 0 79 125 0 0 0 0 0 0 0 0 0 0 0 0 0 0 0 0 0 0 0 0 0 0 0 0 0 0 0 125 0 0 0 174 169 0 0 82 116 82 116 82 164 82 0 0 82 116 217 0 169 135 116 82 0 0 0 0 0 0 0 0 0 120 169 0 0 0 112 112 0 0 0 0 0 0 0 0 0 0 0 0 0 0 0 0 0 0 0 0 0 0 0 0 0 0 0 0 0 0 0 0 0 0 0 0 0 0 0 79 0 0 88 88 0 0 169 92 232 0 0 0 0 0 0 0 0 0 0 0 0 0 0 0 0 0 0 0 0 0 
0 0 0 0 0 0 0 0 0 0 0 0 0 0 0 0 0 0 0 0 0 0 0 0 232 128 152 0 79 0 0 88 138 187 142 147 147 201 108 0 0 79 88 0 0 0 0 0 0 0 0 0 0 0 0 0 0 0 0 0 0 0 0 0 0 0 0 0 0 0 88 0 0 88 107 152 146 116 82 0 0 82 164 82 116 0 0 0 0 169 107 169 173 116 82 82 116 82 0 0 0 0 0 0 76 152 76 0 0 112 112 0 0 0 0 0 0 0 0 0 0 0 0 0 0 0 0 0 0 0 0 0 0 0 0 0 0 0 0 0 0 0 0 0 0 0 0 0 0 118 88 79 88 0 0 118 0 152 128 232 0 0 0 0 0 0 0 0 0 0 0 0 0 0 0 0 0 0 0 0 0 
0 0 0 0 0 0 0 0 0 0 0 0 0 0 0 0 0 0 0 0 0 0 0 0 232 128 182 118 88 0 0 88 135 133 0 0 169 120 152 0 88 118 88 0 0 0 0 0 0 0 0 0 0 0 0 0 0 0 0 0 0 0 0 0 0 0 0 0 0 0 0 0 0 0 120 169 158 0 116 82 183 183 0 116 82 0 0 0 120 169 0 152 0 0 116 183 116 183 0 0 0 0 0 0 76 120 107 0 0 125 88 0 0 0 0 0 0 0 0 0 0 0 0 0 0 0 0 0 0 0 0 0 0 0 0 0 0 0 0 0 0 0 0 0 0 0 0 0 88 125 0 88 88 79 88 88 88 152 128 232 0 0 0 0 0 0 0 0 0 0 0 0 0 0 0 0 0 0 0 0 0 
0 0 0 0 0 0 0 0 0 0 0 0 0 0 0 0 0 0 0 0 0 0 0 0 0 135 208 88 0 0 88 0 0 120 120 76 161 156 187 88 88 112 0 0 0 0 0 0 0 0 0 0 0 0 0 0 0 0 0 0 0 0 0 0 0 0 0 0 0 88 118 88 0 0 120 169 135 116 82 116 116 116 116 0 0 0 0 0 152 152 0 152 217 116 82 183 116 183 0 0 0 0 0 0 0 120 161 120 88 125 0 0 0 0 0 0 0 0 0 0 0 0 0 0 0 0 0 0 0 0 0 0 0 0 0 0 0 0 0 0 0 0 0 0 0 0 0 0 88 88 0 88 112 0 79 88 88 217 145 183 0 0 0 0 0 0 0 0 0 0 0 0 0 0 0 0 0 0 0 0 0 
0 0 0 0 0 0 0 0 0 0 0 0 0 0 0 0 0 0 0 0 0 0 0 0 0 128 162 88 112 112 118 0 0 0 0 0 66 180 177 125 88 88 0 0 0 0 0 0 0 0 0 0 0 0 0 0 0 0 0 0 0 0 0 0 0 0 0 0 0 88 118 88 0 0 0 169 120 82 116 0 183 183 82 0 0 0 0 0 152 182 88 187 207 0 0 82 116 82 0 0 0 0 0 0 0 0 169 120 112 112 0 0 0 0 0 0 0 0 0 0 0 0 0 0 0 0 0 0 0 0 88 88 0 0 0 0 0 0 0 0 0 0 0 0 0 0 0 0 0 79 0 118 112 118 0 0 0 75 145 82 0 0 0 0 0 0 0 0 0 0 0 0 0 0 0 0 0 0 0 0 0 
0 0 0 0 0 0 0 0 0 0 0 0 0 0 0 0 0 0 0 0 0 0 0 0 0 135 147 132 101 0 0 0 0 0 0 0 79 125 0 0 0 0 112 112 125 112 125 88 0 0 0 0 0 0 0 0 0 0 0 0 0 0 0 0 0 0 0 0 0 0 0 0 0 0 0 169 120 116 0 82 116 82 0 0 0 0 0 0 169 208 118 172 0 120 0 0 82 116 82 0 0 0 0 0 0 120 169 0 88 125 0 0 0 0 0 0 0 0 0 0 0 0 0 0 0 0 0 0 0 0 0 0 0 0 0 0 0 0 0 0 0 0 0 0 0 0 0 0 0 79 0 0 88 118 88 0 0 135 92 0 0 0 0 0 0 0 0 0 0 0 0 0 0 0 0 0 0 0 0 0 0 
0 0 0 0 0 0 0 0 0 0 0 0 0 0 0 0 0 0 0 0 0 0 0 0 183 145 135 76 120 0 0 0 0 0 118 88 0 112 0 88 125 125 112 112 88 0 79 88 0 0 0 0 0 0 0 0 0 0 0 0 0 0 0 0 0 0 0 0 0 0 0 0 0 0 120 169 0 82 116 82 0 116 0 0 0 0 0 120 169 122 118 118 198 161 120 0 116 0 116 0 0 0 0 0 0 182 161 0 0 112 0 0 0 0 0 0 0 0 0 0 0 0 0 0 0 0 0 0 0 0 88 0 0 0 0 0 88 88 0 88 88 0 0 0 0 0 0 0 0 0 0 0 118 88 93 76 107 135 0 0 0 0 0 0 0 0 0 0 0 0 0 0 0 0 0 0 0 0 0 0 0 
0 0 0 0 0 0 0 0 0 0 0 0 0 0 0 0 0 0 0 0 0 0 0 0 82 122 219 76 169 0 0 0 0 118 79 88 0 118 125 125 88 0 0 0 0 0 88 125 0 0 0 0 0 0 0 0 0 0 0 0 0 0 0 0 0 0 0 0 0 0 79 79 88 88 156 169 0 82 116 82 0 116 0 0 0 0 120 200 187 88 0 0 132 156 161 107 138 0 116 0 0 0 0 82 116 0 152 0 88 125 0 0 0 0 0 0 0 0 0 0 0 0 0 0 0 0 0 0 0 0 0 0 0 0 88 118 112 125 112 125 125 125 88 0 0 0 0 0 0 0 0 112 112 0 120 76 135 145 183 0 0 0 0 0 0 0 0 0 0 0 0 0 0 0 0 0 0 0 0 0 0 
0 0 0 0 0 0 0 0 0 0 0 0 0 0 0 0 0 0 0 0 0 0 0 0 0 232 0 135 152 76 88 0 0 112 0 125 0 0 79 0 0 0 0 0 0 0 112 112 0 0 0 0 0 0 0 0 0 0 0 0 0 0 0 0 0 0 0 0 0 0 0 0 0 0 101 169 120 116 0 82 116 183 0 0 0 161 207 232 177 112 112 112 125 125 187 156 191 120 116 0 0 0 82 164 98 0 115 0 112 112 0 0 0 0 0 0 0 0 0 0 0 0 0 0 0 0 0 0 0 0 0 0 0 0 125 88 0 142 208 142 93 122 196 172 0 0 0 0 0 0 0 112 112 0 152 135 0 101 82 0 0 0 0 0 0 0 0 0 0 0 0 0 0 0 0 0 0 0 0 0 0 
0 0 0 0 0 0 0 0 0 0 0 0 0 0 0 0 0 0 0 0 0 0 0 0 0 82 0 0 152 76 88 0 79 130 162 80 0 0 0 0 0 76 0 0 0 0 112 112 0 0 0 0 0 0 0 0 0 0 0 0 0 0 0 0 0 0 0 0 0 88 0 0 0 132 156 161 120 82 116 183 0 232 0 0 120 169 101 112 0 0 0 0 0 79 132 162 0 0 98 0 0 0 116 82 224 217 107 0 88 112 0 0 0 0 0 0 0 0 0 0 0 0 0 0 0 0 0 0 0 0 0 0 88 125 118 93 161 169 152 169 161 0 0 180 125 88 0 88 88 0 0 112 112 0 152 233 244 158 0 0 0 0 0 0 0 0 0 0 0 0 0 0 0 0 0 0 0 0 0 0 0 
0 0 0 0 0 0 0 0 0 0 0 0 0 0 0 0 0 0 0 0 0 0 0 0 0 0 183 0 249 120 66 132 66 0 0 0 66 107 0 0 76 0 76 0 0 88 118 0 0 0 0 0 0 0 0 0 0 0 0 0 0 0 0 0 0 0 0 0 0 0 0 0 125 162 120 107 135 116 82 183 116 183 0 156 243 188 88 88 0 0 0 0 0 0 0 88 177 0 207 152 120 0 82 116 98 169 198 0 0 125 0 0 0 0 0 0 0 0 0 0 0 0 0 0 0 0 0 0 0 0 0 118 125 88 0 76 152 76 0 0 161 120 66 66 132 177 112 125 118 88 0 112 112 0 152 217 0 183 0 0 0 0 0 0 0 0 0 0 0 0 0 0 0 0 0 0 0 0 0 0 0 
0 0 0 0 0 0 0 0 0 0 0 0 0 0 0 0 0 0 0 0 0 0 0 0 0 0 82 0 0 161 169 152 161 0 76 0 76 88 94 88 0 107 101 0 118 125 88 0 0 88 0 0 0 0 0 0 0 0 0 0 0 0 0 0 0 0 0 0 0 88 88 0 125 122 169 120 116 0 116 82 116 82 120 243 232 154 112 88 0 0 0 0 0 0 0 0 0 177 194 208 200 120 0 0 0 182 0 0 88 125 88 0 0 0 0 0 0 0 0 0 0 0 0 0 0 0 0 0 0 0 88 125 0 0 0 76 120 120 120 0 76 76 132 0 147 200 101 0 112 112 0 88 125 0 120 169 0 232 0 0 0 0 0 0 0 0 0 0 0 0 0 0 0 0 0 0 0 0 0 0 0 
0 0 0 0 0 0 0 0 0 0 0 0 0 0 0 0 0 0 0 0 0 0 0 0 0 0 0 183 0 92 92 0 249 120 0 0 0 96 0 88 0 88 88 112 118 0 0 88 0 88 0 0 0 0 0 0 0 0 0 0 0 0 0 0 0 0 0 0 0 0 0 88 125 93 169 120 82 116 82 0 0 120 161 229 112 0 0 0 0 0 0 88 0 88 0 0 0 88 88 88 208 169 0 0 0 0 244 79 118 118 88 0 0 0 0 0 0 0 0 0 0 0 0 0 0 0 0 0 0 0 112 112 0 0 0 76 0 120 186 240 198 66 107 94 156 161 169 152 187 177 0 0 79 118 93 169 92 232 0 0 0 0 0 0 0 0 0 0 0 0 0 0 0 0 0 0 0 0 0 0 0 
0 0 0 0 0 0 0 0 0 0 0 0 0 0 0 0 0 0 0 0 0 0 0 0 0 0 0 116 116 0 0 158 0 120 0 0 88 0 0 0 112 118 79 0 0 0 0 0 0 0 0 0 0 0 0 0 0 0 0 0 0 0 0 0 0 0 0 0 0 0 0 112 88 94 182 76 0 0 0 0 120 200 208 172 88 0 0 0 0 0 0 88 0 88 0 0 0 0 0 79 172 243 207 120 107 0 154 0 88 88 0 0 0 0 0 0 0 0 0 0 0 0 0 0 0 0 0 0 0 0 112 112 0 0 0 0 107 138 122 142 147 101 76 0 169 0 120 152 200 232 112 88 0 112 0 152 128 232 0 0 0 0 0 0 0 0 0 0 0 0 0 0 0 0 0 0 0 0 0 0 0 
0 0 0 0 0 0 0 0 0 0 0 0 0 0 0 0 0 0 0 0 0 0 0 0 0 82 183 0 122 128 128 96 243 0 0 88 118 125 112 125 112 88 0 0 0 88 112 88 0 0 0 0 0 0 0 0 0 0 0 0 0 0 0 0 0 0 0 0 0 0 0 112 0 101 0 173 183 183 98 120 200 232 125 88 0 0 0 0 0 0 0 0 0 0 0 0 0 0 0 0 88 177 232 207 156 244 88 0 0 0 0 0 0 0 0 0 0 0 0 0 0 0 0 88 88 0 0 0 0 0 88 125 0 0 0 88 125 88 0 0 101 147 156 132 200 169 152 120 120 182 0 88 0 125 0 152 128 232 0 0 0 0 0 0 0 0 0 0 0 0 0 0 0 0 0 0 0 0 0 0 0 
0 0 0 0 0 0 0 0 0 0 0 0 0 0 0 0 0 0 0 0 0 0 0 0 0 183 246 0 243 152 152 120 0 0 0 125 88 0 0 0 0 0 0 88 125 88 0 79 88 0 0 0 0 0 0 0 0 0 0 0 0 0 0 0 0 0 0 0 0 0 0 112 0 0 237 0 116 116 233 200 232 172 0 0 0 0 0 0 0 0 0 0 0 0 0 0 0 0 0 0 0 0 118 177 196 172 0 0 0 0 0 0 0 0 0 0 0 0 0 0 0 0 0 0 0 0 0 0 0 0 0 125 88 0 88 118 88 0 0 88 125 125 88 0 132 156 152 169 120 76 76 154 0 112 0 169 92 232 0 0 0 0 0 0 0 0 0 0 0 0 0 0 0 0 0 0 0 0 0 0 0 
0 0 0 0 0 0 0 0 0 0 0 0 0 0 0 0 0 0 0 0 0 0 0 0 0 232 0 169 120 0 0 0 0 88 125 118 0 0 0 0 88 112 125 125 88 0 0 79 88 0 0 0 0 0 0 0 0 0 0 0 0 0 0 0 0 0 0 0 0 0 0 88 79 66 221 173 183 232 0 194 88 0 0 0 0 0 0 0 0 0 0 0 0 0 0 0 0 0 0 0 0 0 0 88 88 0 0 0 0 0 0 0 0 0 0 0 0 0 0 0 0 0 0 88 88 0 0 0 0 0 0 88 118 112 118 88 0 0 0 0 0 88 88 0 79 88 0 0 76 76 120 240 174 133 161 161 0 232 0 0 0 0 0 0 0 0 0 0 0 0 0 0 0 0 0 0 0 0 0 0 0 
0 0 0 0 0 0 0 0 0 0 0 0 0 0 0 0 0 0 0 0 0 0 0 0 0 232 0 152 107 88 125 112 112 125 88 0 88 112 88 79 88 88 0 0 0 0 88 88 0 0 0 0 0 0 0 0 0 0 0 0 0 0 0 0 0 0 0 0 0 0 0 0 88 180 237 76 0 161 204 101 0 0 0 0 0 0 0 0 0 0 0 79 0 79 0 0 0 0 0 0 0 0 0 0 0 0 0 0 0 0 0 0 0 0 0 0 0 0 0 0 0 0 0 0 0 0 0 0 0 0 0 0 88 112 88 0 0 0 0 0 0 0 0 0 88 112 0 0 0 152 196 0 148 239 243 232 246 183 0 0 0 0 0 0 0 0 0 0 0 0 0 0 0 0 0 0 0 0 0 0 0 
0 0 0 0 0 0 0 0 0 0 0 0 0 0 0 0 0 0 0 0 0 0 0 0 0 232 0 152 132 0 0 0 0 0 0 88 118 88 0 79 0 88 0 88 0 88 118 88 0 0 0 0 0 0 0 0 0 0 0 0 0 0 0 0 0 0 0 0 0 0 0 0 0 138 0 207 207 243 138 79 79 0 0 0 0 0 0 0 0 0 0 88 0 79 88 88 0 0 0 0 0 0 0 0 0 0 0 0 0 0 0 0 0 0 0 0 0 0 0 0 0 0 0 0 0 0 0 0 0 0 0 0 0 0 0 0 0 0 0 0 0 0 0 0 0 125 0 0 0 169 0 246 0 73 0 0 183 82 0 0 0 0 0 0 0 0 0 0 0 0 0 0 0 0 0 0 0 0 0 0 0 
0 0 0 0 0 0 0 0 0 0 0 0 0 0 0 0 0 0 0 0 0 0 0 0 0 0 108 161 66 79 88 0 0 0 0 88 118 125 112 125 112 118 0 88 118 125 88 0 0 0 0 0 0 0 0 0 0 0 0 0 0 0 0 0 0 0 0 0 0 0 0 0 0 0 172 244 244 177 112 88 0 0 0 0 0 0 0 0 0 88 88 88 0 0 0 88 0 0 0 0 0 0 0 0 0 0 0 0 0 0 0 0 0 0 0 0 0 0 0 0 0 0 0 0 0 0 0 0 0 0 0 0 0 0 0 0 0 0 0 0 0 0 88 88 88 88 0 0 76 152 0 232 82 183 183 82 0 0 0 0 0 0 0 0 0 0 0 0 0 0 0 0 0 0 0 0 0 0 0 0 0 
0 0 0 0 0 0 0 0 0 0 0 0 0 0 0 0 0 0 0 0 0 0 0 0 0 0 128 76 0 88 88 0 0 0 0 0 88 88 0 88 112 88 79 88 118 0 0 0 0 0 0 0 0 0 0 0 0 0 0 0 0 0 0 0 0 0 0 0 0 0 0 0 0 0 0 88 88 0 0 0 0 0 0 0 0 0 0 0 79 118 112 88 0 0 0 125 0 0 0 0 0 0 0 0 0 0 0 0 0 0 0 0 0 0 0 0 0 0 0 0 0 0 0 0 0 0 0 0 0 0 0 0 0 0 0 0 0 0 0 0 0 0 125 79 88 88 0 0 107 120 232 0 0 183 82 0 0 0 0 0 0 0 0 0 0 0 0 0 0 0 0 0 0 0 0 0 0 0 0 0 0 
0 0 0 0 0 0 0 0 0 0 0 0 0 0 0 0 0 0 0 0 0 0 0 0 0 0 108 169 120 138 88 88 79 88 88 0 0 0 0 0 0 0 0 0 0 0 0 0 0 0 0 0 0 0 0 0 0 0 0 0 0 0 0 0 0 0 0 0 0 0 0 0 0 0 0 0 0 0 0 0 0 0 0 0 0 0 79 138 162 80 0 0 0 0 88 125 0 0 0 0 0 0 0 0 0 0 0 0 0 0 0 0 0 0 0 0 0 0 0 0 0 0 118 112 125 112 112 88 0 0 0 0 0 0 0 0 0 0 0 0 0 88 125 0 0 0 76 0 76 0 173 75 135 122 0 82 0 0 0 0 0 0 0 0 0 0 0 0 0 0 0 0 0 0 0 0 0 0 0 0 0 
0 0 0 0 0 0 0 0 0 0 0 0 0 0 0 0 0 0 0 0 0 0 0 0 0 183 0 196 161 156 0 79 122 196 177 125 88 0 0 0 0 0 0 0 0 0 0 0 0 0 0 0 0 0 0 0 0 0 0 0 0 0 0 0 0 0 0 0 0 0 0 0 0 0 0 0 0 0 0 0 0 0 0 0 79 88 138 240 208 186 152 152 120 0 0 118 125 112 88 0 0 0 0 0 0 0 0 0 0 0 0 0 0 0 0 0 0 0 0 0 0 88 125 0 88 112 112 125 118 0 0 0 0 0 0 0 0 0 0 0 0 88 118 88 0 76 0 0 120 152 156 132 156 243 122 183 0 0 0 0 0 0 0 0 0 0 0 0 0 0 0 0 0 0 0 0 0 0 0 0 0 
0 0 0 0 0 0 0 0 0 0 0 0 0 0 0 0 0 0 0 0 0 0 0 0 0 82 246 246 196 161 152 182 221 182 200 138 125 118 0 0 0 0 0 0 0 0 0 0 0 0 0 0 0 0 0 0 0 0 0 0 0 0 0 0 0 0 0 0 0 0 0 0 0 0 0 0 0 0 0 0 0 0 88 88 88 79 147 207 76 120 152 152 161 120 0 0 88 88 88 0 0 0 0 0 0 0 0 0 0 0 0 0 0 0 0 0 0 0 0 0 0 112 112 0 0 0 0 0 125 0 88 118 0 0 0 0 0 0 0 0 0 0 88 125 125 138 132 138 112 88 0 0 101 169 92 232 0 0 0 0 0 0 0 0 0 0 0 0 0 0 0 0 0 0 0 0 0 0 0 0 0 
0 0 0 0 0 0 0 0 0 0 0 0 0 0 0 0 0 0 0 0 0 0 0 0 0 0 82 246 0 0 217 120 0 76 120 76 0 88 79 0 0 0 0 0 0 0 0 0 0 0 0 0 0 0 0 0 0 0 0 0 0 0 0 0 0 0 0 0 0 0 0 0 0 0 0 0 0 0 0 0 0 0 125 79 0 0 152 152 0 0 0 0 120 120 0 0 76 101 112 0 0 0 0 0 0 0 0 0 0 0 0 0 0 0 0 0 0 0 0 0 0 112 112 0 0 0 0 0 0 0 79 125 88 0 0 0 0 0 0 0 0 0 0 0 88 125 112 125 112 125 79 0 107 152 0 232 0 0 0 0 0 0 0 0 0 0 0 0 0 0 0 0 0 0 0 0 0 0 0 0 0 
0 0 0 0 0 0 0 0 0 0 0 0 0 0 0 0 0 0 0 0 0 0 0 0 0 0 0 82 164 183 158 161 169 152 156 138 125 88 0 0 88 0 88 0 0 0 0 0 0 0 0 0 0 0 0 0 0 0 0 0 0 0 0 0 0 0 0 0 0 0 0 0 0 0 0 0 0 0 0 0 0 0 112 0 0 0 120 169 0 0 0 76 76 76 76 0 88 94 88 88 0 0 0 0 0 0 0 0 0 0 0 0 0 0 0 0 0 0 0 0 0 112 88 0 0 0 0 0 0 0 0 112 112 0 0 0 0 0 0 0 0 0 0 0 0 0 0 0 0 0 125 88 0 169 92 232 0 0 0 0 0 0 0 0 0 0 0 0 0 0 0 0 0 0 0 0 0 0 0 0 0 
0 0 0 0 0 0 0 0 0 0 0 0 0 0 0 0 0 0 0 0 0 0 0 0 0 0 0 0 183 0 243 161 93 88 125 125 88 0 0 0 112 0 112 0 0 0 0 0 0 0 0 0 0 0 0 0 0 0 0 0 0 0 0 0 0 0 0 0 0 0 0 0 0 0 0 0 0 0 0 0 0 0 125 88 0 0 0 161 161 98 116 135 120 120 0 80 143 95 79 0 0 0 0 0 0 0 0 0 0 0 0 0 0 0 0 0 0 0 0 0 88 118 0 0 101 76 93 0 0 0 0 112 112 0 0 0 0 0 0 0 0 0 88 112 112 88 0 0 101 162 180 133 76 249 122 183 0 0 0 0 0 0 0 0 0 0 0 0 0 0 0 0 0 0 0 0 0 0 0 0 0 
0 0 0 0 0 0 0 0 0 0 0 0 0 0 0 0 0 0 0 0 0 0 0 0 0 0 0 0 0 108 161 0 88 118 88 0 0 0 0 0 88 0 88 0 0 0 0 0 0 0 0 0 0 0 0 0 0 0 0 0 0 0 0 0 0 0 0 0 0 0 0 0 0 0 0 0 0 0 0 0 0 0 88 125 0 0 0 0 161 0 0 116 152 152 0 88 88 0 88 0 0 0 0 0 0 0 0 0 0 0 0 0 0 0 0 0 0 0 0 0 0 0 0 0 107 0 76 0 0 0 0 112 112 0 0 0 0 0 0 0 0 88 118 88 0 122 188 154 96 79 132 156 217 151 0 82 0 0 0 0 0 0 0 0 0 0 0 0 0 0 0 0 0 0 0 0 0 0 0 0 0 
0 0 0 0 0 0 0 0 0 0 0 0 0 0 0 0 0 0 0 0 0 0 0 0 0 0 0 0 0 128 76 0 88 125 0 0 0 0 0 0 0 0 0 0 0 0 0 0 0 0 0 0 0 0 0 0 0 0 0 0 0 0 0 0 0 0 0 0 0 0 0 0 0 0 0 0 0 0 0 0 0 0 0 118 125 88 0 0 76 217 138 135 169 120 0 0 0 0 112 0 0 0 0 0 0 0 0 0 0 0 0 0 0 0 0 0 0 0 0 0 79 0 0 0 0 76 0 76 0 0 0 112 112 0 0 0 0 0 0 0 0 112 112 0 0 107 0 94 0 93 152 107 219 0 82 0 0 0 0 0 0 0 0 0 0 0 0 0 0 0 0 0 0 0 0 0 0 0 0 0 0 
0 0 0 0 0 0 0 0 0 0 0 0 0 0 0 0 0 0 0 0 0 0 0 0 0 0 0 0 0 108 166 0 0 125 88 0 0 0 0 0 0 0 0 0 0 0 0 0 0 88 88 0 0 0 0 0 0 0 0 0 0 0 0 0 0 0 0 0 0 0 0 0 0 0 0 0 0 0 0 0 0 0 0 0 0 88 0 0 115 186 0 120 120 0 0 88 88 88 0 0 0 0 0 0 0 0 0 0 0 0 0 0 88 0 88 0 0 0 0 0 0 0 0 0 0 0 76 0 76 0 88 118 88 0 0 0 0 0 0 0 0 112 112 0 0 107 0 173 0 0 235 232 246 183 0 0 0 0 0 0 0 0 0 0 0 0 0 0 0 0 0 0 0 0 0 0 0 0 0 0 0 
0 0 0 0 0 0 0 0 0 0 0 0 0 0 0 0 0 0 0 0 0 0 0 0 0 0 0 0 183 0 0 107 94 138 118 112 88 0 0 0 0 0 0 88 88 125 112 125 125 112 118 88 0 0 0 0 0 0 0 0 0 0 0 0 0 0 0 0 0 0 0 0 0 0 0 0 0 0 0 0 0 0 88 88 112 118 93 94 76 221 0 152 76 0 94 88 88 0 0 0 0 0 0 0 0 0 0 0 0 0 0 0 88 0 88 0 0 0 0 0 0 79 88 0 0 0 66 132 66 88 118 88 0 0 0 0 0 0 0 0 0 88 118 88 0 76 120 0 0 0 0 0 183 82 0 0 0 0 0 0 0 0 0 0 0 0 0 0 0 0 0 0 0 0 0 0 0 0 0 0 0 
0 0 0 0 0 0 0 0 0 0 0 0 0 0 0 0 0 0 0 0 0 0 0 0 0 0 0 0 82 246 140 247 142 147 162 154 125 118 0 0 0 88 112 118 79 88 112 88 0 0 112 88 0 0 0 0 0 0 0 0 0 0 0 0 0 0 0 0 0 0 0 0 0 0 0 0 0 0 0 0 0 0 112 88 0 0 76 0 0 253 138 217 120 94 93 79 88 0 0 0 0 0 0 0 0 0 0 0 0 0 0 0 0 0 0 0 0 88 0 88 0 0 88 79 0 88 125 88 79 125 88 0 0 0 0 0 0 0 0 0 0 0 88 118 88 0 161 79 217 0 164 82 0 0 0 0 0 0 0 0 0 0 0 0 0 0 0 0 0 0 0 0 0 0 0 0 0 0 0 0 0 
0 0 0 0 0 0 0 0 0 0 0 0 0 0 0 0 0 0 0 0 0 0 0 0 0 0 0 0 0 82 0 73 0 0 217 161 101 112 0 0 118 125 112 0 0 0 0 0 0 0 88 0 88 125 112 88 0 0 0 0 0 0 0 0 0 0 0 0 0 0 0 0 0 0 0 0 0 0 0 0 0 0 112 112 0 0 76 0 120 0 0 233 169 93 88 88 0 0 0 0 172 162 101 0 88 0 0 0 0 0 0 0 0 0 0 0 0 88 0 88 0 79 0 0 0 79 0 0 0 118 0 0 0 88 112 112 112 112 112 88 0 0 0 0 125 0 0 243 79 0 183 0 0 0 0 0 0 0 0 0 0 0 0 0 0 0 0 0 0 0 0 0 0 0 0 0 0 0 0 0 0 
0 0 0 0 0 0 0 0 0 0 0 0 0 0 0 0 0 0 0 0 0 0 0 0 0 0 0 0 0 0 82 183 0 0 219 169 198 125 0 88 125 0 0 0 0 0 0 76 88 94 0 0 79 79 0 0 0 0 0 0 0 0 0 0 0 0 0 0 0 0 0 0 0 0 0 0 0 0 0 0 0 0 112 112 0 76 0 120 107 98 116 146 152 76 112 112 0 88 112 125 232 143 152 107 154 0 0 0 0 0 0 0 0 0 0 0 0 0 0 0 118 125 112 79 0 0 0 0 79 0 0 0 88 118 112 112 154 229 229 177 125 125 88 0 118 118 0 0 169 92 232 0 0 0 0 0 0 0 0 0 0 0 0 0 0 0 0 0 0 0 0 0 0 0 0 0 0 0 0 0 0 
0 0 0 0 0 0 0 0 0 0 0 0 0 0 0 0 0 0 0 0 0 0 0 0 0 0 0 0 0 0 0 0 0 232 232 152 237 118 88 88 112 0 0 0 0 0 0 0 96 0 79 0 0 88 118 88 0 0 0 0 0 0 0 0 0 0 0 0 0 0 0 0 0 0 0 0 0 0 0 0 0 0 125 88 76 0 0 217 219 183 82 120 169 0 88 118 125 125 154 162 107 0 0 79 180 88 0 0 0 0 0 0 0 0 0 0 0 0 0 88 125 0 0 88 79 0 0 0 0 0 0 0 112 154 76 76 161 169 169 200 138 88 79 118 0 88 88 0 169 92 232 0 0 0 0 0 0 0 0 0 0 0 0 0 0 0 0 0 0 0 0 0 0 0 0 0 0 0 0 0 0 
0 0 0 0 0 0 0 0 0 0 0 0 0 0 0 0 0 0 0 0 0 0 0 0 0 0 0 0 0 0 0 0 0 232 232 152 208 0 88 0 88 0 0 0 0 0 0 0 107 101 0 0 0 88 112 0 0 0 0 0 0 0 0 0 0 0 0 0 88 0 88 0 0 0 0 0 0 0 0 0 0 0 88 79 93 76 0 0 192 116 116 152 152 0 0 79 0 88 133 0 0 0 0 66 80 118 88 0 0 0 0 0 0 0 0 0 0 0 0 112 112 0 0 0 88 118 79 0 0 0 0 0 88 196 0 0 169 0 0 161 161 0 0 88 125 88 88 120 169 0 232 0 0 0 0 0 0 0 0 0 0 0 0 0 0 0 0 0 0 0 0 0 0 0 0 0 0 0 0 0 0 
0 0 0 0 0 0 0 0 0 0 0 0 0 0 0 0 0 0 0 0 0 0 0 0 0 0 0 0 0 0 0 0 0 232 0 169 208 0 0 79 0 0 0 0 0 0 88 135 88 0 0 88 88 88 88 0 0 0 0 0 0 0 0 0 0 0 0 0 88 0 88 0 0 0 0 0 0 0 0 0 0 0 0 0 0 0 76 217 219 183 82 152 152 0 0 0 0 76 0 94 0 76 76 76 0 112 112 0 0 0 0 0 0 0 0 0 0 0 0 125 0 88 88 0 0 133 138 88 88 0 0 0 0 177 133 107 161 152 120 0 161 161 0 0 0 0 0 152 217 0 183 0 0 0 0 0 0 0 0 0 0 0 0 0 0 0 0 0 0 0 0 0 0 0 0 0 0 0 0 0 0 
0 0 0 0 0 0 0 0 0 0 0 0 0 0 0 0 0 0 0 0 0 0 0 0 0 0 0 0 0 0 0 0 0 232 0 152 162 0 88 0 0 0 0 0 0 88 118 154 180 80 0 88 88 0 0 0 0 0 0 0 0 0 0 0 0 0 0 0 0 0 0 0 0 0 0 0 0 0 0 0 0 0 88 79 0 0 120 169 0 0 0 120 169 0 0 0 96 112 96 0 76 76 76 76 0 112 112 0 0 0 0 0 0 0 0 0 0 0 0 112 0 0 0 0 76 0 94 79 118 88 0 0 0 88 125 93 120 152 169 161 0 161 169 120 76 120 152 243 101 246 82 0 0 0 0 0 0 0 0 0 0 0 0 0 0 0 0 0 0 0 0 0 0 0 0 0 0 0 0 0 0 
0 0 0 0 0 0 0 0 0 0 0 0 0 0 0 0 0 0 0 0 0 0 0 0 0 0 0 0 0 0 0 0 0 183 0 249 156 79 93 94 0 0 0 0 0 0 118 112 118 88 0 0 118 112 112 118 0 0 0 0 0 0 0 0 0 0 0 0 0 0 0 0 0 0 0 0 0 0 0 0 0 0 125 88 0 0 120 169 0 0 0 76 152 76 0 0 0 76 0 0 161 169 161 120 0 112 112 0 0 0 0 0 0 0 0 0 0 0 0 151 94 138 138 107 0 76 0 0 88 125 118 0 0 0 118 125 112 88 93 161 161 0 0 120 152 169 217 101 0 82 0 0 0 0 0 0 0 0 0 0 0 0 0 0 0 0 0 0 0 0 0 0 0 0 0 0 0 0 0 0 0 
0 0 0 0 0 0 0 0 0 0 0 0 0 0 0 0 0 0 0 0 0 0 0 0 0 0 0 0 0 0 0 0 0 82 246 101 249 93 94 0 94 0 0 94 0 0 88 112 88 0 0 0 0 0 0 125 88 0 0 0 0 0 0 0 0 0 0 0 0 0 0 0 0 0 0 0 0 88 112 112 88 0 88 125 0 0 66 204 207 120 0 120 169 0 0 0 120 152 152 169 161 0 169 120 0 112 112 0 0 0 0 0 0 0 0 0 0 0 0 162 118 96 107 0 0 76 0 0 0 66 180 172 0 0 0 88 112 125 125 138 200 152 120 146 0 0 0 246 82 0 0 0 0 0 0 0 0 0 0 0 0 0 0 0 0 0 0 0 0 0 0 0 0 0 0 0 0 0 0 0 0 
0 0 0 0 0 0 0 0 0 0 0 0 0 0 0 0 0 0 0 0 0 0 0 0 0 0 0 0 0 0 0 0 0 0 82 0 79 161 0 0 76 0 76 0 94 0 0 0 0 0 76 0 0 0 0 112 112 0 0 0 0 0 0 0 0 0 0 0 0 0 0 0 0 0 0 0 79 79 88 112 118 88 0 118 118 0 118 138 187 161 120 120 161 152 152 169 169 152 152 120 0 120 169 0 0 125 88 0 0 0 0 0 0 0 0 0 0 0 0 66 107 80 101 76 0 0 120 120 76 67 0 186 172 0 0 0 0 0 79 122 101 0 120 75 246 232 183 82 0 0 0 0 0 0 0 0 0 0 0 0 0 0 0 0 0 0 0 0 0 0 0 0 0 0 0 0 0 0 0 0 0 
0 0 0 0 0 0 0 0 0 0 0 0 0 0 0 0 0 0 0 0 0 0 0 0 0 0 0 0 0 0 0 0 0 0 0 183 0 79 217 182 221 182 120 0 0 76 0 0 0 76 0 76 0 0 0 125 88 0 0 0 0 0 0 0 0 0 0 0 0 0 0 0 0 0 0 88 79 0 0 0 88 118 88 0 125 0 112 0 112 120 169 0 120 152 152 120 0 0 0 0 0 152 152 0 0 112 0 0 0 0 0 0 0 0 0 0 0 0 0 0 0 112 0 0 0 107 0 76 0 0 76 0 180 118 0 118 112 125 125 180 0 76 152 128 232 0 0 0 0 0 0 0 0 0 0 0 0 0 0 0 0 0 0 0 0 0 0 0 0 0 0 0 0 0 0 0 0 0 0 0 0 
0 0 0 0 0 0 0 0 0 0 0 0 0 0 0 0 0 0 0 0 0 0 0 0 0 0 0 0 0 0 0 0 0 0 0 82 183 0 73 0 0 217 120 120 0 0 76 0 0 0 76 93 88 112 125 118 0 0 0 0 0 0 0 0 0 0 0 0 0 0 0 0 0 0 0 112 88 0 0 0 0 88 125 125 118 79 118 88 88 0 169 120 0 0 0 0 120 120 0 0 0 169 120 0 79 88 0 0 0 0 0 0 0 0 0 0 0 0 0 0 0 118 125 88 0 0 120 120 76 0 0 0 66 118 112 118 0 88 88 66 76 0 249 122 183 0 0 0 0 0 0 0 0 0 0 0 0 0 0 0 0 0 0 0 0 0 0 0 0 0 0 0 0 0 0 0 0 0 0 0 0 
0 0 0 0 0 0 0 0 0 0 0 0 0 0 0 0 0 0 0 0 0 0 0 0 0 0 0 0 0 0 0 0 0 0 0 0 0 82 183 232 246 183 120 169 76 76 0 0 0 0 0 88 118 112 88 0 0 0 0 0 0 0 0 0 0 0 0 0 0 0 0 0 0 0 0 112 112 0 0 120 120 0 0 88 88 0 0 0 0 0 152 152 0 120 152 169 169 169 169 120 107 169 0 88 118 88 0 0 0 0 0 0 0 0 0 0 0 0 0 0 0 0 88 118 88 0 0 0 0 76 0 0 0 0 0 0 0 0 0 0 120 169 79 0 82 0 0 0 0 0 0 0 0 0 0 0 0 0 0 0 0 0 0 0 0 0 0 0 0 0 0 0 0 0 0 0 0 0 0 0 0 
0 0 0 0 0 0 0 0 0 0 0 0 0 0 0 0 0 0 0 0 0 0 0 0 0 0 0 0 0 0 0 0 0 0 0 0 0 0 0 0 232 0 169 156 0 0 0 79 88 125 112 118 88 0 0 0 0 0 0 0 0 0 0 0 0 0 0 0 0 0 0 0 0 0 0 112 154 76 107 161 169 161 0 0 76 0 0 0 0 0 152 120 161 169 152 120 0 0 76 169 120 120 0 125 88 0 0 0 0 0 0 0 0 0 0 0 0 0 0 0 0 0 0 88 125 0 0 0 120 76 120 0 0 0 120 120 0 0 76 107 243 0 0 183 0 0 0 0 0 0 0 0 0 0 0 0 0 0 0 0 0 0 0 0 0 0 0 0 0 0 0 0 0 0 0 0 0 0 0 0 0 
0 0 0 0 0 0 0 0 0 0 0 0 0 0 0 0 0 0 0 0 0 0 0 0 0 0 0 0 0 0 0 0 0 0 0 0 0 0 0 0 232 92 169 138 0 0 0 79 0 0 88 88 0 0 0 0 0 0 0 0 0 0 0 0 0 0 0 0 0 0 0 0 0 0 0 88 196 0 76 152 0 161 161 0 0 76 0 0 76 0 152 0 169 0 0 0 76 0 76 0 76 93 118 118 0 0 0 0 0 0 0 0 0 0 0 0 0 0 0 0 0 0 0 0 118 125 88 0 120 76 120 0 0 161 169 161 120 76 0 76 0 183 164 82 0 0 0 0 0 0 0 0 0 0 0 0 0 0 0 0 0 0 0 0 0 0 0 0 0 0 0 0 0 0 0 0 0 0 0 0 0 
0 0 0 0 0 0 0 0 0 0 0 0 0 0 0 0 0 0 0 0 0 0 0 0 0 0 0 0 0 0 0 0 0 0 0 0 0 0 0 82 0 0 169 138 0 79 79 79 88 112 125 88 0 0 0 0 0 0 0 0 0 0 0 0 0 0 0 0 0 0 0 0 0 0 0 0 177 133 120 120 76 0 161 107 0 0 0 76 0 76 152 0 152 0 0 0 66 162 122 0 0 118 118 0 0 0 0 0 0 0 0 0 0 0 0 0 0 0 0 0 0 88 0 88 0 88 118 88 0 76 0 0 120 169 0 152 152 0 76 120 0 232 116 0 0 0 0 0 0 0 0 0 0 0 0 0 0 0 0 0 0 0 0 0 0 0 0 0 0 0 0 0 0 0 0 0 0 0 0 0 0 
0 0 0 0 0 0 0 0 0 0 0 0 0 0 0 0 0 0 0 0 0 0 0 0 0 0 0 0 0 0 0 0 0 0 0 0 0 0 0 116 232 192 152 132 0 0 0 122 208 174 138 125 118 0 0 0 0 0 0 0 0 0 0 0 0 0 0 0 0 0 0 0 0 0 0 0 88 125 156 120 152 169 76 107 161 0 0 0 0 76 161 76 169 0 0 0 0 0 0 88 125 118 0 0 0 0 0 0 0 0 0 0 0 0 0 0 0 0 0 0 79 0 0 88 0 0 88 125 66 76 0 0 120 169 76 169 76 76 76 169 0 0 82 0 0 0 0 0 0 0 0 0 0 0 0 0 0 0 0 0 0 0 0 0 0 0 0 0 0 0 0 0 0 0 0 0 0 0 0 0 0 
0 0 0 0 0 0 0 0 0 0 0 0 0 0 0 0 0 0 0 0 0 0 0 0 0 0 0 0 0 0 0 0 0 0 0 0 0 0 0 82 0 0 169 101 0 147 120 0 76 76 107 0 88 0 0 0 88 88 0 0 0 0 0 0 0 0 0 0 0 0 0 0 0 0 0 0 0 125 138 76 107 174 200 76 161 169 217 0 210 169 120 0 152 76 0 0 0 0 0 79 88 0 0 0 0 0 0 0 0 0 0 0 0 0 0 0 0 0 0 0 0 0 0 0 0 0 0 112 132 0 107 0 76 152 0 169 0 0 0 169 0 232 0 0 0 0 0 0 0 0 0 0 0 0 0 0 0 0 0 0 0 0 0 0 0 0 0 0 0 0 0 0 0 0 0 0 0 0 0 0 0 
0 0 0 0 0 0 0 0 0 0 0 0 0 0 0 0 0 0 0 0 0 0 0 0 0 0 0 0 0 0 0 0 0 0 0 0 0 0 0 0 183 122 243 156 101 107 76 0 120 120 101 0 0 88 0 0 0 0 0 79 0 88 125 88 88 0 0 0 88 0 88 0 0 0 0 0 0 88 125 0 0 0 174 169 0 120 191 152 138 0 0 120 169 0 0 0 88 88 88 88 0 0 0 0 0 0 0 0 0 0 0 0 0 0 0 0 0 88 88 88 0 118 88 0 0 0 118 118 66 120 76 169 120 120 76 152 0 0 120 196 0 183 0 0 0 0 0 0 0 0 0 0 0 0 0 0 0 0 0 0 0 0 0 0 0 0 0 0 0 0 0 0 0 0 0 0 0 0 0 0 0 
0 0 0 0 0 0 0 0 0 0 0 0 0 0 0 0 0 0 0 0 0 0 0 0 0 0 0 0 0 0 0 0 0 0 0 0 0 0 0 0 82 0 0 120 0 142 174 66 0 0 0 0 88 88 0 0 88 0 79 88 0 138 162 132 125 0 0 0 112 0 118 88 0 0 0 0 0 0 118 118 0 0 101 161 169 152 217 0 217 152 120 120 152 0 0 0 125 79 0 0 0 0 0 0 0 0 0 0 0 0 0 0 0 0 0 0 0 88 88 0 0 88 125 88 0 0 112 0 0 120 120 76 107 76 76 120 76 161 243 0 246 82 0 0 0 0 0 0 0 0 0 0 0 0 0 0 0 0 0 0 0 0 0 0 0 0 0 0 0 0 0 0 0 0 0 0 0 0 0 0 0 
0 0 0 0 0 0 0 0 0 0 0 0 0 0 0 0 0 0 0 0 0 0 0 0 0 0 0 0 0 0 0 0 0 0 0 0 0 0 0 0 0 232 92 169 0 0 0 0 0 118 88 0 125 0 0 0 0 79 125 0 101 200 120 156 125 79 88 88 88 88 88 118 88 0 0 0 0 0 0 118 112 88 88 0 120 152 152 152 152 152 161 0 169 0 0 88 125 0 0 0 0 0 0 0 0 0 88 88 0 0 88 88 0 88 88 0 0 0 151 96 0 0 0 88 118 0 125 88 0 107 76 142 152 0 0 76 0 169 232 0 82 0 0 0 0 0 0 0 0 0 0 0 0 0 0 0 0 0 0 0 0 0 0 0 0 0 0 0 0 0 0 0 0 0 0 0 0 0 0 0 0 
0 0 0 0 0 0 0 0 0 0 0 0 0 0 0 0 0 0 0 0 0 0 0 0 0 0 0 0 0 0 0 0 0 0 0 0 0 0 0 0 0 183 122 249 0 0 0 0 88 125 88 0 112 0 0 88 0 0 112 0 161 107 120 120 88 88 125 125 88 88 0 88 79 88 0 0 0 0 0 0 0 79 118 112 88 0 0 0 0 0 152 120 169 120 0 88 125 0 0 0 0 88 0 0 0 0 0 0 0 0 88 0 0 88 118 88 0 0 188 112 76 0 0 0 88 79 118 88 120 107 76 94 0 0 0 76 76 217 0 183 0 0 0 0 0 0 0 0 0 0 0 0 0 0 0 0 0 0 0 0 0 0 0 0 0 0 0 0 0 0 0 0 0 0 0 0 0 0 0 0 0 
0 0 0 0 0 0 0 0 0 0 0 0 0 0 0 0 0 0 0 0 0 0 0 0 0 0 0 0 0 0 0 0 0 0 0 0 0 0 0 0 0 82 0 96 120 0 0 88 118 88 88 0 88 0 0 88 0 0 88 120 169 76 120 0 93 0 0 0 0 0 0 0 0 0 0 0 0 0 0 0 0 0 88 112 118 79 0 0 0 0 152 120 169 120 0 0 118 88 0 132 132 172 112 88 0 0 88 88 0 0 112 0 0 0 112 112 0 0 154 135 0 0 0 0 0 0 0 88 187 156 161 0 94 0 0 0 189 101 246 82 0 0 0 0 0 0 0 0 0 0 0 0 0 0 0 0 0 0 0 0 0 0 0 0 0 0 0 0 0 0 0 0 0 0 0 0 0 0 0 0 0 
0 0 0 0 0 0 0 0 0 0 0 0 0 0 0 0 0 0 0 0 0 0 0 0 0 0 0 0 0 0 0 0 0 0 0 0 0 0 0 0 0 0 183 145 217 0 0 0 0 88 0 0 0 0 0 0 88 79 93 169 76 169 0 0 76 0 0 76 0 0 0 88 79 88 0 0 0 0 0 0 0 0 0 0 88 88 88 88 0 0 152 76 120 107 0 0 0 88 112 133 0 133 88 88 0 0 0 0 0 118 118 0 0 0 88 125 0 0 112 154 0 0 66 107 101 0 118 88 138 94 0 76 120 120 120 146 97 0 82 0 0 0 0 0 0 0 0 0 0 0 0 0 0 0 0 0 0 0 0 0 0 0 0 0 0 0 0 0 0 0 0 0 0 0 0 0 0 0 0 0 0 
0 0 0 0 0 0 0 0 0 0 0 0 0 0 0 0 0 0 0 0 0 0 0 0 0 0 0 0 0 0 0 0 0 0 0 0 0 0 0 0 0 0 82 101 151 217 156 138 112 112 118 79 88 112 112 125 118 0 120 120 107 107 0 0 0 0 120 120 161 66 0 88 112 0 0 0 0 0 0 0 0 0 0 0 0 0 132 133 0 0 152 120 120 161 120 0 0 120 152 120 76 120 149 151 0 0 0 0 88 125 0 0 76 0 0 118 118 0 88 196 79 0 215 120 107 135 138 118 118 0 0 76 120 107 82 0 0 82 0 0 0 0 0 0 0 0 0 0 0 0 0 0 0 0 0 0 0 0 0 0 0 0 0 0 0 0 0 0 0 0 0 0 0 0 0 0 0 0 0 0 0 
0 0 0 0 0 0 0 0 0 0 0 0 0 0 0 0 0 0 0 0 0 0 0 0 0 0 0 0 0 0 0 0 0 0 0 0 0 0 0 0 0 0 0 135 101 113 243 120 0 0 88 88 125 88 0 79 93 120 161 0 152 0 0 76 0 0 120 107 120 132 0 0 112 0 0 0 0 0 0 0 0 0 0 88 125 125 133 0 76 0 169 196 183 0 249 0 120 161 152 152 120 0 188 188 0 0 0 0 112 112 0 120 76 120 0 0 112 0 0 132 132 66 237 0 107 138 143 88 0 0 0 0 107 120 0 0 82 0 0 0 0 0 0 0 0 0 0 0 0 0 0 0 0 0 0 0 0 0 0 0 0 0 0 0 0 0 0 0 0 0 0 0 0 0 0 0 0 0 0 0 0 
0 0 0 0 0 0 0 0 0 0 0 0 0 0 0 0 0 0 0 0 0 0 0 0 0 0 0 0 0 0 0 0 0 0 0 0 0 0 0 0 0 0 0 0 82 246 101 243 152 120 93 0 0 0 0 0 120 161 76 0 120 0 76 0 0 0 0 120 156 132 0 79 88 0 0 0 0 0 0 0 0 0 88 118 88 0 0 0 76 169 243 0 0 0 79 161 76 169 0 0 120 161 188 154 0 0 0 0 125 88 0 152 0 152 0 0 88 88 88 0 88 122 166 107 76 142 122 0 88 0 0 0 120 249 0 183 0 0 0 0 0 0 0 0 0 0 0 0 0 0 0 0 0 0 0 0 0 0 0 0 0 0 0 0 0 0 0 0 0 0 0 0 0 0 0 0 0 0 0 0 0 
0 0 0 0 0 0 0 0 0 0 0 0 0 0 0 0 0 0 0 0 0 0 0 0 0 0 0 0 0 0 0 0 0 0 0 0 0 0 0 0 0 0 0 0 0 82 0 122 75 249 169 120 0 0 101 156 161 120 120 107 0 76 0 0 0 0 0 0 118 88 0 79 0 0 0 0 0 0 0 0 0 0 125 138 76 0 0 120 243 0 0 164 116 246 0 120 0 107 169 152 161 156 125 88 0 0 0 88 125 0 0 156 76 120 0 0 88 88 79 118 118 88 0 169 0 152 88 0 88 0 0 0 169 0 0 82 0 0 0 0 0 0 0 0 0 0 0 0 0 0 0 0 0 0 0 0 0 0 0 0 0 0 0 0 0 0 0 0 0 0 0 0 0 0 0 0 0 0 0 0 0 
0 0 0 0 0 0 0 0 0 0 0 0 0 0 0 0 0 0 0 0 0 0 0 0 0 0 0 0 0 0 0 0 0 0 0 0 0 0 0 0 0 0 0 0 0 0 82 183 0 0 92 135 96 217 169 249 0 212 217 76 0 76 0 0 0 0 88 125 118 0 0 0 0 0 0 0 0 0 0 0 0 0 125 107 0 76 0 152 75 246 183 116 0 0 249 76 0 76 120 152 156 172 118 0 0 0 0 88 118 125 88 132 162 154 88 0 0 0 0 88 0 0 0 152 0 152 0 0 0 0 120 169 243 0 183 0 0 0 0 0 0 0 0 0 0 0 0 0 0 0 0 0 0 0 0 0 0 0 0 0 0 0 0 0 0 0 0 0 0 0 0 0 0 0 0 0 0 0 0 0 0 
0 0 0 0 0 0 0 0 0 0 0 0 0 0 0 0 0 0 0 0 0 0 0 0 0 0 0 0 0 0 0 0 0 0 0 0 0 0 0 0 0 0 0 0 0 0 0 0 82 183 232 0 122 145 92 0 183 212 0 152 107 0 0 88 0 0 88 88 0 0 0 0 88 112 88 0 0 0 0 0 0 88 112 0 76 0 0 152 75 0 82 232 92 161 120 107 76 156 88 112 125 118 0 0 0 0 0 0 0 0 0 88 125 112 125 118 0 0 0 0 94 76 147 107 0 120 76 76 0 120 161 196 0 246 82 0 0 0 0 0 0 0 0 0 0 0 0 0 0 0 0 0 0 0 0 0 0 0 0 0 0 0 0 0 0 0 0 0 0 0 0 0 0 0 0 0 0 0 0 0 0 
0 0 0 0 0 0 0 0 0 0 0 0 0 0 0 0 0 0 0 0 0 0 0 0 0 0 0 0 0 0 0 0 0 0 0 0 0 0 0 0 0 0 0 0 0 0 0 0 0 0 0 0 82 183 232 183 116 122 79 101 79 88 125 118 0 0 0 0 88 125 112 112 125 112 125 125 125 88 88 0 88 118 88 0 0 0 0 169 173 0 183 232 128 120 0 0 107 138 118 112 88 0 0 0 0 0 0 0 88 79 0 0 0 0 0 125 88 0 0 76 0 101 200 120 76 107 0 0 0 169 196 246 246 82 0 0 0 0 0 0 0 0 0 0 0 0 0 0 0 0 0 0 0 0 0 0 0 0 0 0 0 0 0 0 0 0 0 0 0 0 0 0 0 0 0 0 0 0 0 0 0 
0 0 0 0 0 0 0 0 0 0 0 0 0 0 0 0 0 0 0 0 0 0 0 0 0 0 0 0 0 0 0 0 0 0 0 0 0 0 0 0 0 0 0 0 0 0 0 0 0 0 0 0 0 0 0 0 232 128 0 0 94 122 79 0 0 0 88 125 125 88 0 0 0 0 0 88 88 88 112 0 0 0 79 0 0 0 76 152 76 232 232 0 135 0 94 120 0 112 112 0 0 0 0 0 0 0 0 0 118 88 0 0 0 88 112 118 88 0 0 76 0 107 196 212 0 189 107 76 196 79 0 246 82 0 0 0 0 0 0 0 0 0 0 0 0 0 0 0 0 0 0 0 0 0 0 0 0 0 0 0 0 0 0 0 0 0 0 0 0 0 0 0 0 0 0 0 0 0 0 0 0 
0 0 0 0 0 0 0 0 0 0 0 0 0 0 0 0 0 0 0 0 0 0 0 0 0 0 0 0 0 0 0 0 0 0 0 0 0 0 0 0 0 0 0 0 0 0 0 0 0 0 0 0 0 0 0 0 232 92 0 0 88 180 118 0 0 0 88 79 0 0 120 120 0 0 0 0 0 112 112 0 0 0 79 88 0 76 0 161 161 0 232 0 92 0 66 115 0 88 118 112 112 88 0 0 0 0 0 88 88 0 0 88 112 125 112 88 0 0 0 76 120 189 0 0 0 0 92 128 122 0 183 82 0 0 0 0 0 0 0 0 0 0 0 0 0 0 0 0 0 0 0 0 0 0 0 0 0 0 0 0 0 0 0 0 0 0 0 0 0 0 0 0 0 0 0 0 0 0 0 0 0 
0 0 0 0 0 0 0 0 0 0 0 0 0 0 0 0 0 0 0 0 0 0 0 0 0 0 0 0 0 0 0 0 0 0 0 0 0 0 0 0 0 0 0 0 0 0 0 0 0 0 0 0 0 0 0 0 183 0 68 152 0 66 125 88 0 0 88 88 0 76 120 107 107 76 0 0 0 112 112 0 0 0 0 112 76 0 107 0 152 0 232 0 0 0 76 76 0 0 79 0 88 118 88 0 0 0 88 125 112 125 88 79 0 93 76 0 0 0 0 107 196 0 246 82 82 183 232 232 183 82 0 0 0 0 0 0 0 0 0 0 0 0 0 0 0 0 0 0 0 0 0 0 0 0 0 0 0 0 0 0 0 0 0 0 0 0 0 0 0 0 0 0 0 0 0 0 0 0 0 0 0 
0 0 0 0 0 0 0 0 0 0 0 0 0 0 0 0 0 0 0 0 0 0 0 0 0 0 0 0 0 0 0 0 0 0 0 0 0 0 0 0 0 0 0 0 0 0 0 0 0 0 0 0 0 0 0 0 82 246 83 0 120 0 88 112 0 0 79 88 0 0 161 76 76 152 161 0 0 112 112 0 88 88 88 112 0 107 0 0 152 0 0 183 92 0 0 120 0 0 0 0 0 112 112 101 133 122 88 0 0 0 0 0 0 76 0 0 120 152 249 96 122 0 82 0 0 0 0 0 0 0 0 0 0 0 0 0 0 0 0 0 0 0 0 0 0 0 0 0 0 0 0 0 0 0 0 0 0 0 0 0 0 0 0 0 0 0 0 0 0 0 0 0 0 0 0 0 0 0 0 0 0 
0 0 0 0 0 0 0 0 0 0 0 0 0 0 0 0 0 0 0 0 0 0 0 0 0 0 0 0 0 0 0 0 0 0 0 0 0 0 0 0 0 0 0 0 0 0 0 0 0 0 0 0 0 0 0 0 0 82 0 0 221 0 0 125 0 88 0 0 0 0 0 107 107 76 156 133 88 88 88 0 0 0 112 112 0 0 76 0 152 146 0 0 122 146 0 152 0 0 0 0 0 88 88 180 118 0 0 0 0 0 0 0 0 0 0 107 249 75 122 0 183 82 0 0 0 0 0 0 0 0 0 0 0 0 0 0 0 0 0 0 0 0 0 0 0 0 0 0 0 0 0 0 0 0 0 0 0 0 0 0 0 0 0 0 0 0 0 0 0 0 0 0 0 0 0 0 0 0 0 0 0 
0 0 0 0 0 0 0 0 0 0 0 0 0 0 0 0 0 0 0 0 0 0 0 0 0 0 0 0 0 0 0 0 0 0 0 0 0 0 0 0 0 0 0 0 0 0 0 0 0 0 0 0 0 0 0 0 0 0 183 0 0 204 101 130 226 203 66 0 0 0 0 0 142 208 194 172 125 88 0 0 88 0 88 125 0 0 0 76 120 107 232 183 217 0 196 152 0 0 0 88 0 0 0 151 0 0 0 0 107 101 0 0 0 108 249 79 0 0 183 82 0 0 0 0 0 0 0 0 0 0 0 0 0 0 0 0 0 0 0 0 0 0 0 0 0 0 0 0 0 0 0 0 0 0 0 0 0 0 0 0 0 0 0 0 0 0 0 0 0 0 0 0 0 0 0 0 0 0 0 0 0 
0 0 0 0 0 0 0 0 0 0 0 0 0 0 0 0 0 0 0 0 0 0 0 0 0 0 0 0 0 0 0 0 0 0 0 0 0 0 0 0 0 0 0 0 0 0 0 0 0 0 0 0 0 0 0 0 0 0 82 246 0 243 161 114 167 149 94 0 0 0 0 0 0 0 0 112 0 0 88 0 112 0 0 125 88 0 0 66 174 200 196 0 116 0 0 161 120 0 0 88 0 0 0 125 0 0 0 76 0 76 0 0 120 0 101 0 183 82 0 0 0 0 0 0 0 0 0 0 0 0 0 0 0 0 0 0 0 0 0 0 0 0 0 0 0 0 0 0 0 0 0 0 0 0 0 0 0 0 0 0 0 0 0 0 0 0 0 0 0 0 0 0 0 0 0 0 0 0 0 0 0 
0 0 0 0 0 0 0 0 0 0 0 0 0 0 0 0 0 0 0 0 0 0 0 0 0 0 0 0 0 0 0 0 0 0 0 0 0 0 0 0 0 0 0 0 0 0 0 0 0 0 0 0 0 0 0 0 0 0 0 82 246 0 243 120 0 169 0 0 0 0 0 0 0 0 79 118 112 112 118 0 125 0 0 112 112 0 0 0 0 208 217 0 183 232 0 107 120 0 76 93 0 88 88 118 118 0 0 93 107 101 0 66 201 83 0 82 0 0 0 0 0 0 0 0 0 0 0 0 0 0 0 0 0 0 0 0 0 0 0 0 0 0 0 0 0 0 0 0 0 0 0 0 0 0 0 0 0 0 0 0 0 0 0 0 0 0 0 0 0 0 0 0 0 0 0 0 0 0 0 0 0 
0 0 0 0 0 0 0 0 0 0 0 0 0 0 0 0 0 0 0 0 0 0 0 0 0 0 0 0 0 0 0 0 0 0 0 0 0 0 0 0 0 0 0 0 0 0 0 0 0 0 0 0 0 0 0 0 0 0 0 0 82 246 0 0 189 161 120 0 0 0 0 0 0 0 0 122 188 154 88 0 125 79 0 0 125 0 0 0 0 182 75 0 82 183 0 146 152 0 0 76 0 88 118 88 88 0 0 94 101 0 101 243 79 0 183 0 0 0 0 0 0 0 0 0 0 0 0 0 0 0 0 0 0 0 0 0 0 0 0 0 0 0 0 0 0 0 0 0 0 0 0 0 0 0 0 0 0 0 0 0 0 0 0 0 0 0 0 0 0 0 0 0 0 0 0 0 0 0 0 0 0 
0 0 0 0 0 0 0 0 0 0 0 0 0 0 0 0 0 0 0 0 0 0 0 0 0 0 0 0 0 0 0 0 0 0 0 0 0 0 0 0 0 0 0 0 0 0 0 0 0 0 0 0 0 0 0 0 0 0 0 0 0 82 183 0 0 0 249 169 152 152 152 120 76 120 120 107 76 107 76 0 112 0 0 0 125 88 0 0 0 169 92 232 0 82 246 0 249 76 76 0 0 0 88 112 138 132 101 0 107 101 0 151 0 183 82 0 0 0 0 0 0 0 0 0 0 0 0 0 0 0 0 0 0 0 0 0 0 0 0 0 0 0 0 0 0 0 0 0 0 0 0 0 0 0 0 0 0 0 0 0 0 0 0 0 0 0 0 0 0 0 0 0 0 0 0 0 0 0 0 0 0 
0 0 0 0 0 0 0 0 0 0 0 0 0 0 0 0 0 0 0 0 0 0 0 0 0 0 0 0 0 0 0 0 0 0 0 0 0 0 0 0 0 0 0 0 0 0 0 0 0 0 0 0 0 0 0 0 0 0 0 0 0 0 0 82 183 0 0 92 128 128 75 0 75 135 135 0 146 120 120 120 88 0 0 118 118 88 0 0 196 70 0 183 0 0 82 0 0 161 120 76 76 0 0 0 120 120 107 0 0 161 79 0 82 0 0 0 0 0 0 0 0 0 0 0 0 0 0 0 0 0 0 0 0 0 0 0 0 0 0 0 0 0 0 0 0 0 0 0 0 0 0 0 0 0 0 0 0 0 0 0 0 0 0 0 0 0 0 0 0 0 0 0 0 0 0 0 0 0 0 0 0 
0 0 0 0 0 0 0 0 0 0 0 0 0 0 0 0 0 0 0 0 0 0 0 0 0 0 0 0 0 0 0 0 0 0 0 0 0 0 0 0 0 0 0 0 0 0 0 0 0 0 0 0 0 0 0 0 0 0 0 0 0 0 0 0 0 82 183 232 232 232 0 0 73 0 0 73 0 146 107 161 156 101 0 88 88 0 0 0 0 0 164 82 0 0 0 183 0 0 249 152 152 161 76 76 76 120 120 107 161 243 0 183 0 0 0 0 0 0 0 0 0 0 0 0 0 0 0 0 0 0 0 0 0 0 0 0 0 0 0 0 0 0 0 0 0 0 0 0 0 0 0 0 0 0 0 0 0 0 0 0 0 0 0 0 0 0 0 0 0 0 0 0 0 0 0 0 0 0 0 0 0 
0 0 0 0 0 0 0 0 0 0 0 0 0 0 0 0 0 0 0 0 0 0 0 0 0 0 0 0 0 0 0 0 0 0 0 0 0 0 0 0 0 0 0 0 0 0 0 0 0 0 0 0 0 0 0 0 0 0 0 0 0 0 0 0 0 0 0 0 0 0 82 116 82 0 0 82 246 246 135 120 161 120 0 0 0 0 0 120 0 0 116 0 0 0 0 82 183 0 0 0 0 243 152 152 120 120 0 173 79 0 246 82 0 0 0 0 0 0 0 0 0 0 0 0 0 0 0 0 0 0 0 0 0 0 0 0 0 0 0 0 0 0 0 0 0 0 0 0 0 0 0 0 0 0 0 0 0 0 0 0 0 0 0 0 0 0 0 0 0 0 0 0 0 0 0 0 0 0 0 0 0 
0 0 0 0 0 0 0 0 0 0 0 0 0 0 0 0 0 0 0 0 0 0 0 0 0 0 0 0 0 0 0 0 0 0 0 0 0 0 0 0 0 0 0 0 0 0 0 0 0 0 0 0 0 0 0 0 0 0 0 0 0 0 0 0 0 0 0 0 0 0 0 0 0 0 0 0 82 246 0 232 0 243 152 152 152 152 152 243 101 246 82 0 0 0 0 0 0 82 183 232 0 0 0 0 92 92 0 73 0 183 82 0 0 0 0 0 0 0 0 0 0 0 0 0 0 0 0 0 0 0 0 0 0 0 0 0 0 0 0 0 0 0 0 0 0 0 0 0 0 0 0 0 0 0 0 0 0 0 0 0 0 0 0 0 0 0 0 0 0 0 0 0 0 0 0 0 0 0 0 0 0 
0 0 0 0 0 0 0 0 0 0 0 0 0 0 0 0 0 0 0 0 0 0 0 0 0 0 0 0 0 0 0 0 0 0 0 0 0 0 0 0 0 0 0 0 0 0 0 0 0 0 0 0 0 0 0 0 0 0 0 0 0 0 0 0 0 0 0 0 0 0 0 0 0 0 0 0 0 82 183 232 0 122 128 75 0 75 128 122 0 82 0 0 0 0 0 0 0 0 0 0 82 183 232 232 232 232 232 183 82 0 0 0 0 0 0 0 0 0 0 0 0 0 0 0 0 0 0 0 0 0 0 0 0 0 0 0 0 0 0 0 0 0 0 0 0 0 0 0 0 0 0 0 0 0 0 0 0 0 0 0 0 0 0 0 0 0 0 0 0 0 0 0 0 0 0 0 0 0 0 0 0 
0 0 0 0 0 0 0 0 0 0 0 0 0 0 0 0 0 0 0 0 0 0 0 0 0 0 0 0 0 0 0 0 0 0 0 0 0 0 0 0 0 0 0 0 0 0 0 0 0 0 0 0 0 0 0 0 0 0 0 0 0 0 0 0 0 0 0 0 0 0 0 0 0 0 0 0 0 0 0 0 82 183 232 0 232 0 232 183 82 0 0 0 0 0 0 0 0 0 0 0 0 0 0 0 0 0 0 0 0 0 0 0 0 0 0 0 0 0 0 0 0 0 0 0 0 0 0 0 0 0 0 0 0 0 0 0 0 0 0 0 0 0 0 0 0 0 0 0 0 0 0 0 0 0 0 0 0 0 0 0 0 0 0 0 0 0 0 0 0 0 0 0 0 0 0 0 0 0 0 0 0 
0 0 0 0 0 0 0 0 0 0 0 0 0 0 0 0 0 0 0 0 0 0 0 0 0 0 0 0 0 0 0 0 0 0 0 0 0 0 0 0 0 0 0 0 0 0 0 0 0 0 0 0 0 0 0 0 0 0 0 0 0 0 0 0 0 0 0 0 0 0 0 0 0 0 0 0 0 0 0 0 0 0 0 82 116 82 0 0 0 0 0 0 0 0 0 0 0 0 0 0 0 0 0 0 0 0 0 0 0 0 0 0 0 0 0 0 0 0 0 0 0 0 0 0 0 0 0 0 0 0 0 0 0 0 0 0 0 0 0 0 0 0 0 0 0 0 0 0 0 0 0 0 0 0 0 0 0 0 0 0 0 0 0 0 0 0 0 0 0 0 0 0 0 0 0 0 0 0 0 0 0 
0 0 0 0 0 0 0 0 0 0 0 0 0 0 0 0 0 0 0 0 0 0 0 0 0 0 0 0 0 0 0 0 0 0 0 0 0 0 0 0 0 0 0 0 0 0 0 0 0 0 0 0 0 0 0 0 0 0 0 0 0 0 0 0 0 0 0 0 0 0 0 0 0 0 0 0 0 0 0 0 0 0 0 0 0 0 0 0 0 0 0 0 0 0 0 0 0 0 0 0 0 0 0 0 0 0 0 0 0 0 0 0 0 0 0 0 0 0 0 0 0 0 0 0 0 0 0 0 0 0 0 0 0 0 0 0 0 0 0 0 0 0 0 0 0 0 0 0 0 0 0 0 0 0 0 0 0 0 0 0 0 0 0 0 0 0 0 0 0 0 0 0 0 0 0 0 0 0 0 0 0 
0 0 0 0 0 0 0 0 0 0 0 0 0 0 0 0 0 0 0 0 0 0 0 0 0 0 0 0 0 0 0 0 0 0 0 0 0 0 0 0 0 0 0 0 0 0 0 0 0 0 0 0 0 0 0 0 0 0 0 0 0 0 0 0 0 0 0 0 0 0 0 0 0 0 0 0 0 0 0 0 0 0 0 0 0 0 0 0 0 0 0 0 0 0 0 0 0 0 0 0 0 0 0 0 0 0 0 0 0 0 0 0 0 0 0 0 0 0 0 0 0 0 0 0 0 0 0 0 0 0 0 0 0 0 0 0 0 0 0 0 0 0 0 0 0 0 0 0 0 0 0 0 0 0 0 0 0 0 0 0 0 0 0 0 0 0 0 0 0 0 0 0 0 0 0 0 0 0 0 0 0 
0 0 0 0 0 0 0 0 0 0 0 0 0 0 0 0 0 0 0 0 0 0 0 0 0 0 0 0 0 0 0 0 0 0 0 0 0 0 0 0 0 0 0 0 0 0 0 0 0 0 0 0 0 0 0 0 0 0 0 0 0 0 0 0 0 0 0 0 0 0 0 0 0 0 0 0 0 0 0 0 0 0 0 0 0 0 0 0 0 0 0 0 0 0 0 0 0 0 0 0 0 0 0 0 0 0 0 0 0 0 0 0 0 0 0 0 0 0 0 0 0 0 0 0 0 0 0 0 0 0 0 0 0 0 0 0 0 0 0 0 0 0 0 0 0 0 0 0 0 0 0 0 0 0 0 0 0 0 0 0 0 0 0 0 0 0 0 0 0 0 0 0 0 0 0 0 0 0 0 0 0 
0 0 0 0 0 0 0 0 0 0 0 0 0 0 0 0 0 0 0 0 0 0 0 0 0 0 0 0 0 0 0 0 0 0 0 0 0 0 0 0 0 0 0 0 0 0 0 0 0 0 0 0 0 0 0 0 0 0 0 0 0 0 0 0 0 0 0 0 0 0 0 0 0 0 0 0 0 0 0 0 0 0 0 0 0 0 0 0 0 0 0 0 0 0 0 0 0 0 0 0 0 0 0 0 0 0 0 0 0 0 0 0 0 0 0 0 0 0 0 0 0 0 0 0 0 0 0 0 0 0 0 0 0 0 0 0 0 0 0 0 0 0 0 0 0 0 0 0 0 0 0 0 0 0 0 0 0 0 0 0 0 0 0 0 0 0 0 0 0 0 0 0 0 0 0 0 0 0 0 0 0 
0 0 0 0 0 0 0 0 0 0 0 0 0 0 0 0 0 0 0 0 0 0 0 0 0 0 0 0 0 0 0 0 0 0 0 0 0 0 0 0 0 0 0 0 0 0 0 0 0 0 0 0 0 0 0 0 0 0 0 0 0 0 0 0 0 0 0 0 0 0 0 0 0 0 0 0 0 0 0 0 0 0 0 0 0 0 0 0 0 0 0 0 0 0 0 0 0 0 0 0 0 0 0 0 0 0 0 0 0 0 0 0 0 0 0 0 0 0 0 0 0 0 0 0 0 0 0 0 0 0 0 0 0 0 0 0 0 0 0 0 0 0 0 0 0 0 0 0 0 0 0 0 0 0 0 0 0 0 0 0 0 0 0 0 0 0 0 0 0 0 0 0 0 0 0 0 0 0 0 0 0 
0 0 0 0 0 0 0 0 0 0 0 0 0 0 0 0 0 0 0 0 0 0 0 0 0 0 0 0 0 0 0 0 0 0 0 0 0 0 0 0 0 0 0 0 0 0 0 0 0 0 0 0 0 0 0 0 0 0 0 0 0 0 0 0 0 0 0 0 0 0 0 0 0 0 0 0 0 0 0 0 0 0 0 0 0 0 0 0 0 0 0 0 0 0 0 0 0 0 0 0 0 0 0 0 0 0 0 0 0 0 0 0 0 0 0 0 0 0 0 0 0 0 0 0 0 0 0 0 0 0 0 0 0 0 0 0 0 0 0 0 0 0 0 0 0 0 0 0 0 0 0 0 0 0 0 0 0 0 0 0 0 0 0 0 0 0 0 0 0 0 0 0 0 0 0 0 0 0 0 0 0 
0 0 0 0 0 0 0 0 0 0 0 0 0 0 0 0 0 0 0 0 0 0 0 0 0 0 0 0 0 0 0 0 0 0 0 0 0 0 0 0 0 0 0 0 0 0 0 0 0 0 0 0 0 0 0 0 0 0 0 0 0 0 0 0 0 0 0 0 0 0 0 0 0 0 0 0 0 0 0 0 0 0 0 0 0 0 0 0 0 0 0 0 0 0 0 0 0 0 0 0 0 0 0 0 0 0 0 0 0 0 0 0 0 0 0 0 0 0 0 0 0 0 0 0 0 0 0 0 0 0 0 0 0 0 0 0 0 0 0 0 0 0 0 0 0 0 0 0 0 0 0 0 0 0 0 0 0 0 0 0 0 0 0 0 0 0 0 0 0 0 0 0 0 0 0 0 0 0 0 0 0 
0 0 0 0 0 0 0 0 0 0 0 0 0 0 0 0 0 0 0 0 0 0 0 0 0 0 0 0 0 0 0 0 0 0 0 0 0 0 0 0 0 0 0 0 0 0 0 0 0 0 0 0 0 0 0 0 0 0 0 0 0 0 0 0 0 0 0 0 0 0 0 0 0 0 0 0 0 0 0 0 0 0 0 0 0 0 0 0 0 0 0 0 0 0 0 0 0 0 0 0 0 0 0 0 0 0 0 0 0 0 0 0 0 0 0 0 0 0 0 0 0 0 0 0 0 0 0 0 0 0 0 0 0 0 0 0 0 0 0 0 0 0 0 0 0 0 0 0 0 0 0 0 0 0 0 0 0 0 0 0 0 0 0 0 0 0 0 0 0 0 0 0 0 0 0 0 0 0 0 0 0 
0 0 0 0 0 0 0 0 0 0 0 0 0 0 0 0 0 0 0 0 0 0 0 0 0 0 0 0 0 0 0 0 0 0 0 0 0 0 0 0 0 0 0 0 0 0 0 0 0 0 0 0 0 0 0 0 0 0 0 0 0 0 0 0 0 0 0 0 0 0 0 0 0 0 0 0 0 0 0 0 0 0 0 0 0 0 0 0 0 0 0 0 0 0 0 0 0 0 0 0 0 0 0 0 0 0 0 0 0 0 0 0 0 0 0 0 0 0 0 0 0 0 0 0 0 0 0 0 0 0 0 0 0 0 0 0 0 0 0 0 0 0 0 0 0 0 0 0 0 0 0 0 0 0 0 0 0 0 0 0 0 0 0 0 0 0 0 0 0 0 0 0 0 0 0 0 0 0 0 0 0 
0 0 0 0 0 0 0 0 0 0 0 0 0 0 0 0 0 0 0 0 0 0 0 0 0 0 0 0 0 0 0 0 0 0 0 0 0 0 0 0 0 0 0 0 0 0 0 0 0 0 0 0 0 0 0 0 0 0 0 0 0 0 0 0 0 0 0 0 0 0 0 0 0 0 0 0 0 0 0 0 0 0 0 0 0 0 0 0 0 0 0 0 0 0 0 0 0 0 0 0 0 0 0 0 0 0 0 0 0 0 0 0 0 0 0 0 0 0 0 0 0 0 0 0 0 0 0 0 0 0 0 0 0 0 0 0 0 0 0 0 0 0 0 0 0 0 0 0 0 0 0 0 0 0 0 0 0 0 0 0 0 0 0 0 0 0 0 0 0 0 0 0 0 0 0 0 0 0 0 0 0 
0 0 0 0 0 0 0 0 0 0 0 0 0 0 0 0 0 0 0 0 0 0 0 0 0 0 0 0 0 0 0 0 0 0 0 0 0 0 0 0 0 0 0 0 0 0 0 0 0 0 0 0 0 0 0 0 0 0 0 0 0 0 0 0 0 0 0 0 0 0 0 0 0 0 0 0 0 0 0 0 0 0 0 0 0 0 0 0 0 0 0 0 0 0 0 0 0 0 0 0 0 0 0 0 0 0 0 0 0 0 0 0 0 0 0 0 0 0 0 0 0 0 0 0 0 0 0 0 0 0 0 0 0 0 0 0 0 0 0 0 0 0 0 0 0 0 0 0 0 0 0 0 0 0 0 0 0 0 0 0 0 0 0 0 0 0 0 0 0 0 0 0 0 0 0 0 0 0 0 0 0 
0 0 0 0 0 0 0 0 0 0 0 0 0 0 0 0 0 0 0 0 0 0 0 0 0 0 0 0 0 0 0 0 0 0 0 0 0 0 0 0 0 0 0 0 0 0 0 0 0 0 0 0 0 0 0 0 0 0 0 0 0 0 0 0 0 0 0 0 0 0 0 0 0 0 0 0 0 0 0 0 0 0 0 0 0 0 0 0 0 0 0 0 0 0 0 0 0 0 0 0 0 0 0 0 0 0 0 0 0 0 0 0 0 0 0 0 0 0 0 0 0 0 0 0 0 0 0 0 0 0 0 0 0 0 0 0 0 0 0 0 0 0 0 0 0 0 0 0 0 0 0 0 0 0 0 0 0 0 0 0 0 0 0 0 0 0 0 0 0 0 0 0 0 0 0 0 0 0 0 0 0 
0 0 0 0 0 0 0 0 0 0 0 0 0 0 0 0 0 0 0 0 0 0 0 0 0 0 0 0 0 0 0 0 0 0 0 0 0 0 0 0 0 0 0 0 0 0 0 0 0 0 0 0 0 0 0 0 0 0 0 0 0 0 0 0 0 0 0 0 0 0 0 0 0 0 0 0 0 0 0 0 0 0 0 0 0 0 0 0 0 0 0 0 0 0 0 0 0 0 0 0 0 0 0 0 0 0 0 0 0 0 0 0 0 0 0 0 0 0 0 0 0 0 0 0 0 0 0 0 0 0 0 0 0 0 0 0 0 0 0 0 0 0 0 0 0 0 0 0 0 0 0 0 0 0 0 0 0 0 0 0 0 0 0 0 0 0 0 0 0 0 0 0 0 0 0 0 0 0 0 0 0 
0 0 0 0 0 0 0 0 0 0 0 0 0 0 0 0 0 0 0 0 0 0 0 0 0 0 0 0 0 0 0 0 0 0 0 0 0 0 0 0 0 0 0 0 0 0 0 0 0 0 0 0 0 0 0 0 0 0 0 0 0 0 0 0 0 0 0 0 0 0 0 0 0 0 0 0 0 0 0 0 0 0 0 0 0 0 0 0 0 0 0 0 0 0 0 0 0 0 0 0 0 0 0 0 0 0 0 0 0 0 0 0 0 0 0 0 0 0 0 0 0 0 0 0 0 0 0 0 0 0 0 0 0 0 0 0 0 0 0 0 0 0 0 0 0 0 0 0 0 0 0 0 0 0 0 0 0 0 0 0 0 0 0 0 0 0 0 0 0 0 0 0 0 0 0 0 0 0 0 0 0 
0 0 0 0 0 0 0 0 0 0 0 0 0 0 0 0 0 0 0 0 0 0 0 0 0 0 0 0 0 0 0 0 0 0 0 0 0 0 0 0 0 0 0 0 0 0 0 0 0 0 0 0 0 0 0 0 0 0 0 0 0 0 0 0 0 0 0 0 0 0 0 0 0 0 0 0 0 0 0 0 0 0 0 0 0 0 0 0 0 0 0 0 0 0 0 0 0 0 0 0 0 0 0 0 0 0 0 0 0 0 0 0 0 0 0 0 0 0 0 0 0 0 0 0 0 0 0 0 0 0 0 0 0 0 0 0 0 0 0 0 0 0 0 0 0 0 0 0 0 0 0 0 0 0 0 0 0 0 0 0 0 0 0 0 0 0 0 0 0 0 0 0 0 0 0 0 0 0 0 0 0 
0 0 0 0 0 0 0 0 0 0 0 0 0 0 0 0 0 0 0 0 0 0 0 0 0 0 0 0 0 0 0 0 0 0 0 0 0 0 0 0 0 0 0 0 0 0 0 0 0 0 0 0 0 0 0 0 0 0 0 0 0 0 0 0 0 0 0 0 0 0 0 0 0 0 0 0 0 0 0 0 0 0 0 0 0 0 0 0 0 0 0 0 0 0 0 0 0 0 0 0 0 0 0 0 0 0 0 0 0 0 0 0 0 0 0 0 0 0 0 0 0 0 0 0 0 0 0 0 0 0 0 0 0 0 0 0 0 0 0 0 0 0 0 0 0 0 0 0 0 0 0 0 0 0 0 0 0 0 0 0 0 0 0 0 0 0 0 0 0 0 0 0 0 0 0 0 0 0 0 0 0 
0 0 0 0 0 0 0 0 0 0 0 0 0 0 0 0 0 0 0 0 0 0 0 0 0 0 0 0 0 0 0 0 0 0 0 0 0 0 0 0 0 0 0 0 0 0 0 0 0 0 0 0 0 0 0 0 0 0 0 0 0 0 0 0 0 0 0 0 0 0 0 0 0 0 0 0 0 0 0 0 0 0 0 0 0 0 0 0 0 0 0 0 0 0 0 0 0 0 0 0 0 0 0 0 0 0 0 0 0 0 0 0 0 0 0 0 0 0 0 0 0 0 0 0 0 0 0 0 0 0 0 0 0 0 0 0 0 0 0 0 0 0 0 0 0 0 0 0 0 0 0 0 0 0 0 0 0 0 0 0 0 0 0 0 0 0 0 0 0 0 0 0 0 0 0 0 0 0 0 0 0 
0 0 0 0 0 0 0 0 0 0 0 0 0 0 0 0 0 0 0 0 0 0 0 0 0 0 0 0 0 0 0 0 0 0 0 0 0 0 0 0 0 0 0 0 0 0 0 0 0 0 0 0 0 0 0 0 0 0 0 0 0 0 0 0 0 0 0 0 0 0 0 0 0 0 0 0 0 0 0 0 0 0 0 0 0 0 0 0 0 0 0 0 0 0 0 0 0 0 0 0 0 0 0 0 0 0 0 0 0 0 0 0 0 0 0 0 0 0 0 0 0 0 0 0 0 0 0 0 0 0 0 0 0 0 0 0 0 0 0 0 0 0 0 0 0 0 0 0 0 0 0 0 0 0 0 0 0 0 0 0 0 0 0 0 0 0 0 0 0 0 0 0 0 0 0 0 0 0 0 0 0 
0 0 0 0 0 0 0 0 0 0 0 0 0 0 0 0 0 0 0 0 0 0 0 0 0 0 0 0 0 0 0 0 0 0 0 0 0 0 0 0 0 0 0 0 0 0 0 0 0 0 0 0 0 0 0 0 0 0 0 0 0 0 0 0 0 0 0 0 0 0 0 0 0 0 0 0 0 0 0 0 0 0 0 0 0 0 0 0 0 0 0 0 0 0 0 0 0 0 0 0 0 0 0 0 0 0 0 0 0 0 0 0 0 0 0 0 0 0 0 0 0 0 0 0 0 0 0 0 0 0 0 0 0 0 0 0 0 0 0 0 0 0 0 0 0 0 0 0 0 0 0 0 0 0 0 0 0 0 0 0 0 0 0 0 0 0 0 0 0 0 0 0 0 0 0 0 0 0 0 0 0 
