P2
512 512
255
255 1 255 255 255 255 255 255 255 255 255 255 255 255 255 255 255 255 255 255 255 255 255 255 255 255 255 255 255 255 255 255 255 255 255 255 255 255 255 255 255 255 255 255 255 255 255 255 255 255 255 255 255 255 255 255 255 255 255 255 255 255 255 255 255 255 255 255 255 255 255 255 255 255 255 255 255 255 255 255 255 255 255 255 255 255 255 255 255 255 255 255 255 255 255 255 255 255 255 255 255 255 255 255 255 255 255 255 255 255 255 255 255 255 255 255 255 255 255 255 255 255 255 255 255 255 255 255 255 255 255 255 255 255 255 255 255 255 255 255 255 255 255 255 255 255 255 255 255 255 255 255 255 255 255 255 255 255 255 255 255 255 255 255 255 255 255 255 255 255 255 255 255 255 255 255 255 255 255 255 255 255 255 255 255 255 255 255 255 255 255 255 255 255 255 255 255 255 255 255 255 255 255 255 255 255 255 255 255 255 255 255 255 255 255 255 255 255 255 255 255 255 255 255 255 255 255 255 255 255 255 255 255 255 255 255 255 255 255 255 255 255 255 255 255 255 255 255 255 255 255 255 255 255 255 255 255 255 255 255 255 255 255 255 255 255 255 255 255 255 255 255 255 255 255 255 255 255 255 255 255 255 255 255 255 255 255 255 255 255 255 255 255 255 255 255 255 255 255 255 255 255 255 255 255 255 255 255 255 255 255 255 255 255 255 255 255 255 255 255 255 255 255 255 255 255 255 255 255 255 255 255 255 255 255 255 255 255 255 255 255 255 255 255 255 255 255 255 255 255 255 255 255 255 255 255 255 255 255 255 255 255 255 255 255 255 255 255 255 255 255 255 255 255 255 255 255 255 255 255 255 255 255 255 255 255 255 255 255 255 255 255 255 255 255 255 255 255 255 255 255 255 255 255 255 255 255 255 255 255 255 255 255 255 255 255 255 255 255 255 255 255 255 255 255 255 255 255 255 255 255 255 255 255 255 255 255 255 255 255 255 255 255 255 255 255 255 255 255 255 255 255 255 255 255 255 255 255 255 255 255 255 255 255 255 255 255 255 255 255 255 255 255 255 255 255 255 255 255 255 255 255 255 255 255 255 255 255 255 255 255 255 255 255 255 255 255 255 255 255 255 255 255 255 255 255 255 255 255 255 255 255 
1 1 1 1 1 1 1 1 1 1 1 1 1 1 1 1 1 1 1 255 255 255 255 17 17 17 17 17 255 255 255 63 255 255 255 255 63 63 255 255 255 255 255 255 255 255 255 17 17 17 17 255 255 255 255 17 17 17 17 17 17 255 255 255 17 17 17 17 17 17 17 17 17 17 17 17 17 17 17 17 17 17 17 17 17 17 17 17 17 17 17 17 17 17 17 17 17 17 17 17 17 17 17 17 17 17 17 17 17 17 17 17 17 17 17 17 17 17 17 17 17 17 255 255 255 255 255 255 255 17 17 17 17 17 17 17 17 17 255 255 255 255 255 255 255 255 255 17 255 255 255 255 17 17 17 17 17 17 17 17 255 255 255 17 17 17 17 17 17 17 17 17 17 17 17 17 17 17 17 17 17 17 17 17 17 17 17 17 17 255 255 255 17 17 17 17 17 255 255 255 17 17 255 255 255 255 17 17 17 17 17 17 17 17 17 17 17 17 17 17 17 17 17 17 17 17 17 17 17 17 17 17 17 17 17 255 255 255 255 255 255 255 255 17 17 17 255 255 255 17 17 17 17 17 17 17 17 17 17 17 17 17 17 17 17 17 17 17 255 255 255 17 17 17 17 17 17 17 17 17 17 17 17 17 255 255 255 17 17 17 17 17 17 255 255 255 17 17 17 17 17 17 17 17 17 17 17 17 17 17 17 17 17 17 17 17 17 17 17 17 17 17 17 17 17 17 17 17 17 17 17 17 17 17 17 17 255 255 255 255 255 255 2 2 2 2 2 2 2 2 2 2 2 2 2 2 2 2 2 2 2 2 2 2 2 2 2 2 2 2 2 2 2 2 2 2 2 2 2 2 2 2 2 2 2 2 2 2 2 2 2 2 2 2 2 2 2 2 2 2 2 2 2 2 2 2 2 2 2 2 2 2 2 2 2 2 2 2 2 2 2 2 2 2 2 2 2 255 255 255 48 48 48 48 48 48 48 48 48 48 48 48 48 48 48 48 255 255 255 255 255 255 18 255 255 255 18 18 18 18 18 18 18 18 18 18 18 18 18 18 18 18 18 18 18 18 18 18 18 18 18 18 18 18 18 18 18 18 18 18 18 18 18 18 18 18 18 18 18 18 18 18 18 18 18 18 18 18 18 18 18 255 
255 1 1 1 1 1 1 1 1 1 1 1 1 1 1 1 1 1 1 255 255 255 255 17 17 17 17 255 255 255 255 63 255 255 255 255 255 255 255 255 255 255 255 17 255 255 255 255 255 17 17 255 255 255 17 17 17 17 17 17 17 255 255 255 17 17 17 17 17 17 17 17 17 17 17 17 17 17 17 17 17 17 17 17 17 17 17 17 17 17 17 17 17 17 17 17 17 17 17 17 17 17 17 17 17 17 17 17 17 17 17 17 17 17 17 17 17 17 17 17 17 17 17 17 17 255 255 255 255 255 17 17 17 17 17 17 17 17 255 255 255 255 255 255 255 17 255 255 255 255 255 255 255 255 17 17 17 17 17 17 255 255 255 17 17 17 17 255 255 255 17 17 17 17 255 255 255 17 17 17 17 17 17 17 17 17 17 17 17 255 255 255 17 17 17 17 17 255 255 255 17 17 255 255 255 255 17 17 17 17 17 17 17 17 17 17 17 17 17 17 17 17 17 17 17 17 17 17 17 17 17 17 17 17 17 17 17 255 255 255 17 255 255 255 17 17 255 255 255 17 17 17 17 17 17 17 17 17 17 17 17 17 17 17 17 17 17 17 255 255 255 17 17 17 17 17 17 17 17 17 17 17 17 17 255 255 255 17 17 17 17 17 17 17 17 17 17 17 17 17 17 17 17 17 17 17 17 17 17 17 17 17 17 17 17 17 17 17 17 17 17 17 17 17 17 17 17 17 17 17 17 17 17 17 17 17 17 17 255 255 255 255 2 2 2 2 2 2 2 2 2 255 255 255 255 255 2 2 2 2 2 2 2 2 2 2 2 2 2 2 2 2 2 2 2 2 2 2 2 2 2 2 2 2 2 2 2 2 2 2 2 2 2 2 2 2 2 2 2 2 2 2 2 2 2 2 2 2 2 2 2 2 2 2 2 2 2 2 2 2 2 2 2 2 2 2 2 255 255 255 48 48 48 48 48 48 48 48 48 48 48 48 48 48 48 48 48 48 255 255 255 255 18 18 18 18 18 18 255 255 255 18 18 18 18 18 18 18 18 18 18 18 18 18 18 18 18 18 18 18 18 18 18 18 18 18 18 18 18 18 18 18 18 18 18 18 18 18 18 18 18 18 18 18 18 18 18 18 18 18 18 255 
255 1 1 1 1 1 1 1 1 1 1 1 1 1 1 1 1 1 1 255 255 255 255 17 17 17 17 255 255 255 255 63 63 63 63 63 255 255 255 255 255 255 255 17 255 255 255 255 255 17 255 255 255 255 255 255 17 17 17 17 17 17 17 17 255 255 255 17 17 17 17 17 17 17 17 17 17 17 17 17 17 17 17 17 17 17 17 17 17 17 17 17 17 17 17 17 17 17 17 17 17 17 17 17 17 17 17 17 17 17 17 17 17 17 17 17 17 17 17 17 17 17 17 17 17 255 255 255 255 255 17 17 17 17 17 17 17 17 255 255 255 255 255 255 255 17 255 255 255 17 17 255 255 255 17 255 255 255 17 17 17 17 17 17 17 17 17 255 255 255 17 17 17 17 255 255 255 17 17 17 17 17 17 17 17 17 17 17 17 17 17 17 17 17 17 17 17 17 17 17 17 255 255 255 255 255 17 17 17 17 17 17 17 17 17 17 17 17 17 17 17 17 17 17 17 17 17 17 17 17 17 17 17 17 17 17 17 255 255 255 17 255 255 255 17 17 255 255 255 17 17 17 17 17 17 17 17 17 17 17 17 17 17 17 17 17 17 17 17 17 17 17 17 17 17 17 17 17 17 17 17 17 17 17 17 17 17 17 17 17 17 17 17 17 17 17 17 17 17 17 17 17 17 17 17 17 17 17 17 17 17 17 17 17 17 17 17 17 17 17 17 17 17 17 17 17 17 17 17 17 17 17 17 17 17 17 17 17 255 255 255 255 255 255 255 2 2 2 2 2 2 255 255 255 255 255 2 2 2 2 2 2 2 2 2 2 2 2 2 2 2 2 2 2 2 2 2 2 2 2 2 2 2 2 2 2 2 2 2 2 2 2 2 2 2 2 2 2 2 2 2 2 2 2 2 2 2 2 2 2 2 2 2 2 2 2 2 2 2 2 2 2 2 2 2 2 2 2 255 255 255 48 48 48 48 48 48 48 48 48 48 48 48 48 48 48 48 48 48 255 255 255 255 18 18 18 18 18 255 255 255 18 18 18 18 18 18 18 18 18 18 18 18 18 18 18 18 18 18 18 18 18 18 18 18 18 18 18 18 18 18 18 18 18 18 18 18 18 18 18 18 18 18 18 18 18 18 18 18 18 18 255 
255 1 1 1 1 1 1 1 1 1 1 1 1 1 1 1 1 1 1 1 255 255 255 17 17 17 17 255 255 255 255 63 63 63 63 63 255 255 255 255 255 255 255 17 255 255 255 255 255 17 255 255 255 255 255 255 17 17 17 17 17 17 17 17 255 255 255 17 17 17 17 17 17 17 17 17 17 17 17 17 17 17 17 17 17 17 17 17 17 17 17 17 17 17 17 17 17 17 17 17 17 17 17 17 17 17 17 17 17 17 17 17 17 17 17 17 17 17 17 17 17 17 17 17 17 17 17 255 255 255 17 17 17 17 17 17 17 17 17 17 17 17 255 255 255 17 255 255 255 17 17 255 255 255 17 255 255 255 17 17 17 17 17 17 17 17 17 255 255 255 17 17 17 17 255 255 255 17 17 17 17 17 17 17 17 17 17 17 17 17 17 17 17 17 17 17 17 17 17 17 17 255 255 255 17 17 17 17 17 17 17 17 17 17 17 17 17 17 17 17 17 17 17 17 17 17 17 17 17 17 17 17 17 17 17 17 17 17 17 17 17 255 255 255 17 17 17 17 17 17 17 17 17 17 17 17 17 17 17 17 17 17 17 17 17 17 17 17 17 17 17 17 17 17 17 17 17 17 17 17 17 17 17 17 17 17 17 17 17 17 17 17 17 17 17 17 17 17 17 17 17 17 17 17 17 17 17 17 17 17 17 17 17 17 17 17 17 17 17 17 17 17 17 17 17 17 17 17 17 17 17 17 17 17 17 17 17 17 17 255 255 2 255 255 255 2 2 2 2 2 2 255 255 255 255 255 2 2 2 2 2 2 2 2 2 2 2 2 2 2 2 2 2 2 2 2 2 2 2 2 2 2 2 2 2 2 2 2 2 2 2 2 2 2 2 2 2 2 2 2 2 2 2 2 2 2 2 2 2 2 2 2 2 2 2 2 2 2 2 2 2 2 2 2 2 2 2 2 255 255 255 255 48 48 48 48 48 48 48 48 48 48 48 48 48 48 48 48 48 255 255 255 255 255 18 18 18 18 255 255 255 18 18 18 18 18 18 18 18 18 18 18 18 18 18 18 18 18 18 18 18 18 18 18 18 18 18 18 18 18 18 18 18 18 18 18 18 18 18 18 18 18 18 18 18 18 18 18 18 18 18 255 
255 1 1 1 1 1 1 1 1 1 1 1 1 1 1 1 1 1 1 1 255 255 17 17 17 17 17 255 255 255 255 63 63 63 63 63 63 63 255 255 255 255 255 17 17 17 17 255 255 255 255 255 255 255 255 255 17 17 17 17 17 17 17 17 255 255 255 17 17 17 17 17 17 17 17 17 17 17 17 17 17 17 17 17 17 17 17 17 17 17 17 17 17 17 17 17 17 17 17 17 17 17 17 17 17 17 17 17 17 17 255 255 255 17 17 17 17 17 17 17 17 17 17 17 17 17 17 17 17 17 17 17 17 17 17 17 17 17 255 255 255 17 17 255 255 255 255 255 255 17 17 17 17 17 17 255 255 255 17 17 17 17 17 17 17 17 17 17 17 17 17 17 17 17 17 17 17 17 17 17 17 17 17 17 17 17 17 17 17 17 17 17 17 17 17 17 17 17 17 17 17 255 255 255 17 17 17 17 17 17 17 17 17 17 17 17 17 17 17 17 17 17 17 17 17 17 17 17 17 17 17 17 17 17 17 17 17 17 17 17 17 255 255 255 17 17 17 17 17 17 17 17 17 17 17 17 17 17 17 17 17 17 17 17 17 17 17 17 17 17 17 17 17 17 17 17 17 17 17 17 17 17 17 17 17 17 17 17 17 17 17 17 17 17 17 17 17 17 17 17 17 17 17 17 17 17 17 17 17 17 17 17 17 17 17 17 17 17 17 17 17 17 17 17 17 17 17 17 17 17 17 17 17 17 17 17 17 17 255 255 255 255 255 255 255 2 2 2 2 2 2 2 2 2 2 2 2 2 2 2 2 2 2 2 2 2 2 2 2 2 2 2 2 2 2 2 2 2 2 2 2 2 2 2 2 2 2 2 2 2 2 2 2 2 2 2 2 2 2 2 2 2 2 2 2 2 2 2 2 2 2 2 2 2 2 2 2 2 2 2 2 2 2 2 2 2 2 2 2 255 255 255 48 48 48 48 48 48 48 48 48 48 48 48 48 48 48 48 48 48 255 255 255 255 18 18 18 18 18 18 18 18 18 18 18 18 18 18 18 18 18 18 18 18 18 18 18 18 18 18 18 18 18 18 18 18 18 18 18 18 18 18 18 18 18 18 18 18 18 18 18 18 18 18 18 18 18 18 18 18 18 255 
255 1 1 1 1 1 1 1 1 1 1 1 1 1 1 1 1 1 1 1 255 255 17 17 17 17 17 17 17 255 255 63 63 63 63 63 255 255 255 255 255 255 255 17 17 17 17 255 255 255 255 17 17 17 17 17 17 17 17 255 255 255 255 17 17 17 17 17 17 17 17 17 17 17 17 17 17 17 17 17 17 17 17 17 17 17 17 17 17 17 17 17 17 17 17 17 17 17 17 17 17 17 17 17 17 17 17 17 17 17 255 255 255 17 17 17 17 17 17 17 17 17 17 17 17 17 17 17 17 17 17 17 17 17 17 17 17 17 255 255 255 17 17 255 255 255 255 255 255 17 17 17 17 17 17 17 17 17 17 17 17 17 17 17 17 17 17 17 17 17 17 17 17 17 17 17 17 17 17 17 17 17 17 17 17 17 17 17 17 17 17 17 17 17 17 17 17 17 17 17 17 17 17 17 17 17 17 17 17 17 17 17 17 17 17 17 17 17 17 17 17 17 17 17 17 17 17 17 17 17 17 17 17 17 17 17 17 17 17 17 17 17 17 17 17 17 17 17 17 17 17 17 17 17 17 17 17 17 17 17 17 17 17 17 17 17 17 17 17 17 17 17 17 17 17 17 17 17 17 17 17 17 17 17 17 17 17 17 17 17 17 17 17 17 17 17 17 17 17 17 17 17 17 17 17 17 17 17 17 17 17 17 17 17 17 17 17 17 17 17 17 17 17 17 17 17 17 17 17 17 17 17 17 17 17 17 17 17 255 255 255 255 255 2 2 2 2 2 2 2 2 2 2 2 2 2 2 2 2 2 2 2 2 2 2 2 2 2 2 2 2 2 2 2 2 2 2 2 2 2 2 2 2 2 2 2 2 2 2 2 2 2 2 2 2 2 2 2 2 2 2 2 2 2 2 2 2 2 2 2 2 2 2 2 2 2 2 2 2 2 2 2 2 2 2 2 2 2 2 2 255 255 255 48 48 48 48 48 48 48 48 48 48 48 48 48 48 48 48 48 255 255 255 255 255 18 18 18 18 18 18 18 18 18 18 18 18 18 18 18 18 18 18 18 18 18 18 18 18 18 18 18 18 18 18 18 18 18 18 18 18 18 18 18 18 18 18 18 18 18 18 18 18 18 18 18 18 18 18 18 18 255 
255 1 1 1 1 1 1 1 1 1 1 1 1 1 1 1 1 1 1 1 255 255 17 17 17 17 17 255 255 255 255 63 63 63 63 63 255 255 255 255 255 255 255 17 255 255 255 255 255 255 255 17 17 17 17 17 17 17 17 255 255 255 255 255 255 255 255 17 17 17 255 255 255 17 17 17 17 17 17 17 17 17 17 17 17 17 17 17 17 17 17 17 17 17 17 17 17 17 17 17 17 17 17 17 17 17 17 17 17 17 255 255 255 17 17 17 17 17 17 17 17 17 17 17 17 17 17 17 17 17 17 17 17 17 17 17 17 17 255 255 255 17 17 255 255 255 17 17 17 17 17 17 17 17 17 17 17 17 17 17 17 17 17 17 17 17 17 17 17 17 17 255 255 255 17 17 17 17 17 17 17 17 17 17 17 17 17 17 17 17 17 17 17 17 17 17 17 17 17 17 17 17 17 17 17 17 17 17 17 17 17 17 17 17 17 17 17 17 17 17 17 17 17 17 17 17 17 17 17 17 17 17 17 17 17 17 17 17 17 17 17 17 17 17 17 17 17 17 17 17 17 17 17 17 17 17 17 17 17 17 17 17 17 17 17 17 17 17 17 17 17 17 17 17 17 17 17 17 17 17 17 17 17 17 17 17 17 17 17 17 17 17 17 17 17 17 17 17 17 17 17 17 255 255 255 17 17 17 17 17 17 17 17 17 17 17 17 17 17 17 17 17 17 17 17 17 17 17 17 17 17 17 17 17 17 17 17 17 255 255 255 255 255 2 2 2 2 2 2 2 2 2 2 2 2 2 2 2 2 2 2 2 2 2 2 2 2 2 2 2 2 2 2 2 2 2 2 2 2 2 2 2 2 2 2 2 2 2 2 2 2 2 2 2 2 2 2 2 2 2 2 2 2 2 2 2 2 2 2 2 2 2 2 2 2 2 2 2 2 2 2 2 2 2 2 2 2 2 2 2 255 255 255 255 48 48 48 48 48 48 48 48 48 48 48 48 48 48 48 48 48 255 255 255 255 255 18 18 18 18 18 18 18 18 18 18 18 18 18 18 18 18 18 18 18 18 18 18 18 18 18 18 18 18 18 18 18 18 18 18 18 18 18 18 18 18 18 18 18 18 18 18 18 18 18 18 18 18 18 18 18 255 
255 1 1 1 1 1 1 1 1 1 1 1 1 1 1 1 1 1 1 1 255 255 17 17 17 17 17 255 255 255 255 63 63 63 63 63 255 255 255 255 255 255 17 17 255 255 255 255 255 17 17 17 17 17 255 255 255 255 17 255 255 255 255 255 255 255 255 17 17 17 255 255 255 255 17 17 17 17 17 17 17 17 17 17 17 17 17 17 17 17 17 17 17 17 17 17 17 17 17 17 17 17 17 17 17 17 17 17 17 17 17 17 17 17 17 17 17 17 17 17 17 17 17 17 17 17 17 17 17 17 17 17 17 17 17 17 17 17 17 17 17 17 17 255 255 255 17 17 17 17 17 17 17 255 255 255 255 17 17 17 17 17 17 17 17 17 17 17 17 17 17 255 255 255 17 17 17 17 17 17 17 17 17 17 17 17 17 17 17 17 17 17 17 17 17 17 17 17 17 255 255 255 17 17 17 17 17 17 17 17 17 17 17 17 17 17 17 17 17 17 17 17 17 17 17 17 17 17 17 17 17 17 17 17 17 17 17 17 17 17 17 17 17 17 17 17 17 17 17 17 17 17 17 17 17 17 17 17 17 17 17 17 17 17 17 17 17 17 17 17 17 17 17 17 17 17 17 17 17 17 17 17 17 17 17 17 17 17 17 17 17 17 17 17 17 17 17 17 17 17 17 17 255 255 255 17 17 17 17 17 17 17 17 17 17 17 17 17 17 17 17 17 17 17 17 17 17 17 17 17 17 17 17 17 17 17 17 17 17 255 255 255 255 255 255 2 2 2 2 2 2 2 2 2 2 2 2 2 2 2 2 2 2 2 2 2 2 2 2 2 2 2 2 2 2 2 2 2 2 2 2 2 2 2 2 2 2 2 2 2 2 2 2 2 2 2 2 2 2 2 2 2 2 2 2 2 2 2 2 2 2 2 2 2 2 2 2 2 2 2 2 2 2 2 2 2 2 2 2 2 2 255 255 255 48 48 48 48 48 48 48 48 48 48 48 48 48 48 48 48 48 48 255 255 255 255 255 255 255 18 18 18 18 18 18 18 18 18 18 18 18 18 18 18 18 18 18 18 18 18 18 18 18 18 18 18 18 18 18 18 18 18 18 18 18 18 18 18 18 18 18 18 18 18 18 18 18 18 18 18 18 255 
255 1 1 1 1 1 1 1 1 1 1 1 1 1 1 1 1 1 1 1 255 255 17 17 17 17 17 255 255 255 255 63 63 63 63 63 63 255 255 255 255 255 255 255 255 255 255 255 255 255 255 255 255 255 255 255 255 255 17 17 17 17 255 255 255 255 255 17 17 17 255 255 255 255 17 17 17 17 17 17 17 17 17 17 17 17 17 17 17 17 17 17 17 17 17 17 17 17 17 17 17 17 17 17 17 17 17 17 17 17 17 17 17 17 17 17 17 17 17 17 17 17 17 17 17 17 17 17 17 17 17 17 17 17 17 17 17 17 17 17 17 17 17 17 17 17 17 17 17 17 17 17 17 255 255 255 255 17 17 17 17 17 17 17 17 17 17 17 17 17 17 255 255 255 17 17 17 17 17 17 17 17 17 17 17 17 17 17 17 17 17 17 17 17 17 17 17 17 17 255 255 255 17 17 17 17 17 17 17 17 17 17 17 17 17 17 17 17 17 17 17 17 17 17 17 17 17 17 17 17 17 17 17 17 17 17 17 17 17 17 17 17 17 17 17 17 17 17 17 17 17 17 17 17 17 17 17 17 17 17 17 17 17 17 17 17 17 17 17 17 17 17 17 17 17 17 17 17 17 17 17 17 17 17 17 17 17 17 17 17 17 17 17 17 17 17 17 17 17 17 17 17 255 255 255 17 17 17 17 17 17 17 17 17 17 17 17 17 17 17 17 17 17 17 17 17 17 17 17 17 17 17 17 17 17 17 17 17 17 255 255 255 255 255 255 2 2 2 2 2 2 2 2 2 2 2 2 2 2 2 2 2 2 2 2 2 2 2 2 2 2 2 2 2 2 2 2 2 2 2 2 2 2 2 2 2 2 2 2 2 2 2 2 2 2 2 2 2 2 2 2 2 2 2 2 2 2 2 2 2 2 2 2 2 2 2 2 2 2 2 2 2 2 2 2 2 2 2 2 2 2 2 255 255 255 48 48 48 48 48 48 48 48 48 48 48 48 48 48 48 48 48 255 255 255 255 255 255 255 18 18 18 18 18 18 18 18 18 18 18 18 18 18 18 18 18 18 18 18 18 18 18 18 18 18 18 18 18 18 18 18 18 18 18 18 18 18 18 18 18 18 18 18 18 18 18 18 18 18 18 255 255 
255 1 1 1 1 1 1 1 1 1 1 1 1 1 1 1 1 1 1 1 255 255 17 17 17 17 17 255 255 255 255 63 63 63 63 63 63 255 255 255 255 255 255 255 255 255 255 255 255 255 255 255 255 255 255 255 255 255 17 17 17 17 255 255 255 255 17 17 17 17 17 255 255 255 17 17 17 17 17 17 17 17 17 17 17 17 17 17 17 17 17 17 17 17 17 17 17 17 17 17 17 17 17 17 17 17 17 17 17 17 17 17 17 17 17 17 17 17 17 17 17 17 17 17 17 17 17 17 17 17 17 17 17 17 17 17 17 17 17 17 17 17 17 17 17 17 17 17 17 17 17 17 17 255 255 255 255 17 17 17 17 17 17 17 17 17 17 17 17 17 17 17 17 17 17 17 17 17 17 17 17 17 17 17 17 17 17 17 17 17 17 17 17 17 17 17 17 17 17 255 255 255 17 17 17 17 17 17 17 17 17 17 17 17 17 17 17 17 17 17 17 17 17 17 17 17 17 17 17 17 17 17 17 17 17 17 17 17 17 17 17 17 17 17 17 17 17 17 17 17 17 17 17 17 17 17 17 17 17 17 17 17 17 17 17 17 17 17 17 17 17 17 17 17 17 17 17 17 17 17 17 17 17 17 17 17 17 17 17 17 17 17 17 17 17 17 17 17 17 17 17 17 17 17 17 17 17 17 17 17 17 17 17 17 17 17 17 17 17 17 17 17 17 17 17 17 17 17 17 17 17 17 17 17 17 17 17 17 17 255 255 255 255 255 255 2 2 2 2 2 2 2 2 2 2 2 2 2 2 2 2 2 2 2 2 2 2 2 2 2 2 2 2 2 2 2 2 2 2 2 2 2 2 2 2 2 2 2 2 2 2 2 2 2 2 2 2 2 2 2 2 2 2 2 2 2 2 2 2 2 2 2 2 2 2 2 2 2 2 2 2 2 2 2 2 2 2 2 2 2 2 2 255 255 255 255 48 48 48 48 48 48 48 48 48 48 48 48 48 48 48 48 48 255 255 255 255 255 255 18 18 18 18 18 18 18 18 18 18 18 18 18 18 18 18 18 18 18 18 18 18 18 18 18 18 18 18 18 18 18 18 18 18 18 18 18 18 18 18 18 18 18 18 18 18 18 18 18 255 255 255 255 
255 1 1 1 1 1 1 1 1 1 1 1 1 1 1 1 1 1 255 255 255 255 17 17 17 17 17 255 255 255 63 63 63 63 63 63 255 255 255 255 255 255 255 255 255 255 255 255 255 255 255 255 255 255 255 255 255 255 17 17 17 17 17 255 255 255 255 255 17 17 17 17 17 17 17 17 17 17 17 17 17 17 17 17 17 17 17 17 17 17 17 17 17 17 17 17 17 17 17 17 17 17 17 17 17 17 17 17 17 17 17 17 17 17 17 17 17 17 17 17 17 17 17 17 17 17 17 17 17 17 17 17 17 17 17 17 17 17 17 17 17 17 17 17 17 17 17 17 17 17 17 17 17 17 17 17 17 17 17 17 17 17 17 17 17 17 17 17 17 17 17 17 17 17 17 17 17 17 17 17 17 17 17 17 17 17 17 17 17 17 17 17 17 17 17 17 17 17 17 17 17 17 17 17 17 17 17 17 17 17 17 17 17 17 17 17 17 17 17 17 17 17 17 17 17 17 17 17 17 17 17 17 17 17 17 17 17 17 17 17 17 17 17 17 17 17 17 17 17 17 17 17 17 17 17 17 17 17 17 17 17 17 17 17 17 17 17 17 17 17 17 17 17 17 17 17 17 17 17 17 17 17 17 17 17 17 17 17 17 17 17 17 17 17 17 17 17 17 17 17 17 17 17 17 17 17 17 17 17 17 17 17 17 17 17 17 17 17 17 17 17 17 17 17 17 17 17 17 17 17 17 17 17 17 17 17 17 17 17 17 17 255 255 2 2 2 2 2 2 2 2 2 2 2 2 2 2 2 2 2 2 2 2 2 2 2 2 2 2 2 2 2 2 2 2 2 2 2 2 2 2 2 2 2 2 2 2 2 2 2 2 2 2 2 2 2 2 2 2 2 2 2 2 2 2 2 2 2 2 2 2 2 2 2 2 2 2 2 2 2 2 2 2 2 2 2 2 2 2 2 2 2 2 255 255 255 48 48 48 48 48 48 48 48 48 48 48 48 48 48 48 48 48 255 255 255 255 255 18 18 18 18 255 255 255 18 18 18 18 18 18 18 18 18 18 18 18 18 18 18 18 18 18 18 18 18 18 18 18 18 18 18 18 18 18 18 18 18 18 18 18 18 18 18 18 18 18 255 255 255 255 255 
255 1 1 1 1 1 1 1 1 1 1 1 1 1 1 1 1 1 255 255 255 255 255 17 17 17 17 255 255 255 63 63 63 255 255 255 255 255 255 255 255 255 255 255 255 255 255 255 17 17 17 17 17 17 17 255 255 255 255 255 17 17 255 255 255 255 255 255 17 17 17 17 17 17 17 17 17 17 17 17 17 17 17 17 17 17 17 17 17 17 17 17 17 17 17 17 17 17 17 17 17 17 17 17 17 17 17 17 17 17 17 17 17 17 17 17 17 17 17 17 17 17 17 17 17 17 17 17 17 17 17 17 17 17 17 17 17 17 17 17 17 17 17 17 17 17 17 17 17 17 17 17 17 17 17 17 17 17 17 17 17 17 17 17 17 17 17 17 17 17 17 17 17 17 17 17 17 17 17 17 17 17 17 17 17 17 17 17 17 17 17 17 17 17 17 17 17 17 17 17 17 17 17 17 17 17 17 17 17 17 17 17 17 17 17 17 17 17 17 17 17 17 17 17 17 17 17 17 17 17 17 17 17 17 17 17 17 17 17 17 17 17 17 17 17 17 17 17 17 17 17 17 17 17 17 17 17 17 17 17 17 17 17 17 17 17 17 17 17 17 17 17 17 17 17 17 17 17 17 17 17 17 17 17 17 17 17 17 17 17 17 17 17 17 17 17 17 17 17 17 17 17 17 17 17 17 17 17 17 17 17 17 17 17 17 17 17 17 17 17 17 17 17 17 17 17 17 17 17 17 17 17 17 17 17 17 17 17 17 17 17 255 255 255 255 2 2 2 2 2 2 2 2 2 2 2 2 2 2 2 2 2 2 2 2 2 2 2 2 2 2 2 2 2 2 2 2 2 2 2 2 2 2 2 2 2 2 2 2 2 2 2 2 2 2 2 2 2 2 2 2 2 2 2 2 2 2 2 2 2 2 2 2 2 2 2 2 2 2 2 2 2 2 2 2 2 2 2 2 2 2 255 255 255 255 255 255 48 48 48 48 48 48 48 48 48 48 48 48 48 48 48 48 48 255 255 255 255 255 18 18 18 255 255 255 18 18 18 18 18 18 18 18 18 18 18 18 18 18 18 18 18 18 18 18 18 18 18 18 18 18 18 18 18 18 18 18 18 18 18 18 18 18 18 18 18 255 255 255 255 64 255 
255 1 1 1 1 1 1 1 1 1 1 1 1 1 1 1 1 1 255 255 255 255 255 17 17 17 17 255 255 255 63 63 63 255 255 255 255 255 255 255 255 255 255 255 255 255 255 255 255 17 17 17 17 17 17 255 255 255 255 255 255 255 255 255 255 255 255 255 17 17 17 17 17 17 17 17 17 17 17 17 17 17 17 17 17 17 17 17 17 17 17 17 17 17 17 17 17 17 17 17 17 17 17 17 17 17 17 17 17 17 17 17 17 17 17 17 17 17 17 17 17 17 17 17 17 17 17 17 17 17 17 17 17 17 17 17 17 17 17 17 17 17 17 17 17 17 17 17 17 17 17 17 17 17 17 17 17 17 17 17 17 17 17 17 17 17 17 17 17 17 17 17 17 17 17 17 17 17 17 17 17 17 17 17 17 17 17 17 17 17 17 17 17 17 17 17 17 17 17 17 17 17 17 17 17 17 17 17 17 17 17 17 17 17 17 17 17 17 17 17 17 17 17 17 17 17 17 17 17 17 17 17 17 17 17 17 17 17 17 17 17 17 17 17 17 17 17 17 17 17 17 17 17 17 17 17 17 17 17 17 17 17 17 17 17 17 17 17 17 17 17 17 17 17 17 17 17 17 17 17 17 17 17 17 17 17 17 17 17 17 17 17 17 17 17 17 17 17 17 17 17 17 17 17 17 17 17 17 17 17 17 17 17 17 17 17 17 17 17 17 17 17 17 17 17 17 17 17 17 17 17 17 17 17 17 17 17 17 17 17 17 255 255 255 255 2 2 2 2 2 2 2 2 2 2 2 2 2 2 2 2 2 2 2 2 2 2 2 2 2 2 2 2 2 2 2 2 2 2 2 2 2 2 2 2 2 2 2 2 2 2 2 2 2 2 2 2 2 2 2 2 2 2 2 2 2 2 2 2 2 2 2 2 2 2 2 2 2 2 2 2 2 2 2 2 2 2 2 2 2 2 255 255 255 255 255 255 48 48 48 48 48 48 48 48 48 48 48 48 48 48 48 48 48 48 255 255 255 255 18 18 18 255 255 255 18 18 18 18 18 18 18 18 18 18 18 18 18 18 18 18 18 18 18 18 18 18 18 18 18 18 18 18 18 18 18 18 18 18 18 18 18 18 18 18 255 255 255 255 64 64 255 
255 1 1 1 1 1 1 1 1 1 1 1 1 1 1 1 1 1 255 255 255 255 255 17 17 17 17 255 255 255 63 63 63 255 255 255 63 255 255 255 255 255 255 255 255 255 255 255 255 17 17 17 17 17 17 17 255 255 255 255 255 255 255 255 255 255 17 17 17 17 17 17 17 17 17 17 17 17 17 17 17 17 17 17 17 17 17 17 17 17 17 17 17 17 17 17 17 17 17 17 17 17 17 17 17 17 17 17 17 17 17 17 17 17 17 17 17 17 17 17 17 17 17 17 17 17 17 17 17 17 17 17 17 17 17 17 17 17 17 17 17 17 17 17 17 17 17 17 17 17 17 17 17 17 17 17 17 17 17 17 17 17 17 17 17 17 17 17 17 17 17 17 17 17 17 17 17 17 17 17 17 17 17 17 17 17 17 17 17 17 17 17 17 17 17 17 17 17 17 17 17 17 17 17 17 17 17 17 17 17 17 17 17 17 17 17 17 17 17 17 17 17 17 17 17 17 17 17 17 17 17 17 17 17 17 17 17 17 17 17 17 17 17 17 17 17 17 17 17 17 17 17 17 17 17 17 17 17 17 17 17 17 17 17 17 17 17 17 17 17 17 17 17 17 17 17 17 17 17 17 17 17 17 17 17 17 17 17 17 17 17 17 17 17 17 17 17 17 17 17 17 17 17 17 17 17 17 17 17 17 17 17 17 17 17 17 17 17 17 17 17 17 17 17 17 17 17 17 17 17 17 17 17 17 17 17 17 17 17 17 17 17 17 255 255 2 2 2 2 2 2 2 2 2 2 2 2 2 2 2 2 2 2 2 2 2 2 2 2 2 2 2 2 2 2 2 2 2 2 2 2 2 2 2 2 2 2 2 2 2 2 2 2 2 2 2 2 2 2 2 2 2 2 2 2 2 2 2 2 2 2 2 2 2 2 2 2 2 2 2 2 2 255 255 255 2 2 2 2 2 2 255 255 255 2 255 255 255 48 48 48 48 48 48 48 48 48 48 48 48 48 48 48 48 48 255 255 255 255 255 18 18 18 18 18 18 18 18 18 18 18 18 18 18 18 18 18 18 18 18 18 18 18 18 18 18 18 18 18 18 18 18 18 18 18 18 18 18 18 18 18 18 18 18 255 255 255 255 64 64 64 255 
255 1 1 1 1 1 1 1 1 1 1 1 1 1 1 1 1 1 255 255 255 255 255 17 17 17 17 255 255 255 63 63 63 63 63 63 63 63 255 255 255 255 255 255 255 255 255 255 255 17 17 17 17 17 17 17 17 17 17 255 255 255 255 255 255 255 255 255 255 17 17 17 17 17 17 17 17 17 17 17 17 17 17 17 17 17 17 17 17 17 17 17 17 17 17 17 17 17 17 17 17 17 17 17 17 17 17 17 17 17 17 17 17 17 17 17 17 17 17 17 17 17 17 17 17 17 17 17 17 17 17 17 17 17 17 17 17 17 17 17 17 17 17 17 17 17 17 17 17 17 17 17 17 17 17 17 17 17 17 17 17 17 17 17 17 17 17 17 17 17 17 17 17 17 17 17 17 17 17 17 17 17 17 17 17 17 17 17 17 17 17 17 17 17 17 17 17 17 17 17 17 17 17 17 17 17 17 17 17 17 17 17 17 17 17 17 17 17 17 17 17 17 17 17 17 17 17 17 17 17 17 17 17 17 17 17 17 17 17 17 17 17 17 17 17 17 17 17 17 17 17 17 17 17 17 17 17 17 17 17 17 17 17 17 17 17 17 17 17 17 17 17 17 17 17 17 17 17 17 17 17 17 17 17 17 17 17 17 17 17 17 17 17 17 17 17 17 17 17 17 17 17 17 17 17 17 17 17 17 17 17 17 17 17 17 17 17 17 17 17 17 17 17 17 17 17 17 17 17 17 17 17 17 17 17 17 17 17 17 17 17 255 255 255 255 2 2 2 2 2 2 2 2 2 2 2 2 2 2 2 2 2 2 2 2 2 2 2 2 2 2 2 2 2 2 2 2 2 2 2 2 2 2 2 2 2 2 2 2 2 2 2 2 2 2 2 2 2 2 2 2 2 2 2 2 2 2 2 2 2 2 2 2 2 2 2 2 2 2 2 2 2 255 255 255 2 2 2 2 2 2 255 255 255 255 255 255 255 255 48 48 48 48 48 48 48 48 48 48 48 48 48 48 48 48 48 255 255 255 255 255 18 18 18 18 18 18 18 18 18 18 18 18 18 18 18 18 18 18 18 18 18 18 18 18 18 18 18 18 18 18 18 18 18 18 18 18 18 18 18 18 18 18 255 255 255 255 64 64 64 64 255 
255 1 1 1 1 1 1 1 1 1 1 1 1 1 1 1 1 1 255 255 255 255 17 17 17 17 17 255 255 255 63 255 255 255 63 63 63 63 255 255 255 255 255 255 255 255 255 255 255 255 255 255 17 17 17 17 17 17 17 17 17 17 255 255 255 17 255 255 255 17 17 255 255 255 255 17 17 17 17 17 17 17 17 17 17 17 17 17 17 17 17 17 17 17 17 17 17 17 17 17 17 17 17 17 17 17 17 17 17 17 17 17 17 17 17 17 17 17 17 17 17 17 17 17 17 17 17 17 17 17 17 17 17 17 17 17 17 17 17 17 17 17 17 17 17 17 17 17 17 17 17 17 17 17 17 17 17 17 17 17 17 17 17 17 17 17 17 17 17 17 17 17 17 17 17 17 17 17 17 17 17 17 17 17 17 17 17 17 17 17 17 17 17 17 17 17 17 17 17 17 17 17 17 17 17 17 17 17 17 17 17 17 17 17 17 17 17 17 17 17 17 17 17 17 17 17 17 17 17 17 17 17 17 17 17 17 17 17 17 17 17 17 17 17 17 17 17 17 17 17 17 17 17 17 17 17 17 17 17 17 17 17 17 17 17 17 17 17 17 17 17 17 17 17 17 17 17 17 17 17 17 17 17 17 17 17 17 17 17 17 17 17 17 17 17 17 17 17 17 17 17 17 17 17 17 17 17 17 17 17 17 17 17 17 17 17 17 17 17 17 17 17 17 17 17 17 17 17 17 17 17 17 17 17 17 17 17 17 17 17 17 255 255 255 255 2 2 2 2 2 2 2 2 2 2 2 2 2 2 2 2 2 2 2 2 2 2 2 2 2 2 2 2 2 2 2 2 2 2 2 2 2 2 2 2 2 2 2 2 2 2 2 2 2 2 2 2 2 2 2 2 2 2 2 2 2 2 2 2 2 2 2 2 2 2 2 2 2 2 2 2 2 255 255 255 2 2 2 2 2 2 2 2 255 255 255 255 255 255 48 48 48 48 48 48 48 48 48 48 48 48 48 48 48 48 48 48 255 255 255 255 18 255 255 255 18 18 18 18 18 18 18 18 18 18 18 18 18 18 18 18 18 18 18 18 18 18 18 18 18 18 18 18 18 18 18 18 18 18 18 18 18 255 255 255 255 64 64 64 64 64 255 
255 1 1 1 1 1 1 1 1 1 1 1 1 1 1 1 1 1 1 1 255 255 17 17 17 17 17 255 255 255 63 255 255 255 63 63 63 63 255 255 255 255 255 255 255 255 255 255 17 255 255 255 17 17 17 255 255 255 255 255 255 255 255 255 255 255 255 255 255 17 17 255 255 255 255 17 17 17 17 17 17 17 17 17 17 17 17 17 17 17 17 17 17 17 17 17 17 17 17 17 17 17 17 17 17 17 17 17 17 17 17 17 17 17 17 17 17 17 17 17 17 17 17 17 17 17 17 17 17 17 17 17 17 17 17 17 17 17 17 17 17 17 17 17 17 17 17 17 17 17 17 17 17 17 17 17 17 17 17 17 17 17 17 17 17 17 17 17 17 17 17 17 17 17 17 17 17 17 17 17 17 17 17 17 17 17 17 17 17 17 17 17 17 17 17 17 17 17 17 17 17 17 17 17 17 17 17 17 17 17 17 17 17 17 17 17 17 17 17 17 17 17 17 17 17 17 17 17 17 17 17 17 17 17 17 17 17 17 17 17 17 17 17 17 17 17 17 17 17 17 17 17 17 17 17 17 17 17 17 17 17 17 17 17 17 17 17 17 17 17 17 17 17 17 17 17 17 17 17 17 17 17 17 17 17 17 17 17 17 17 17 17 17 17 17 17 17 17 17 17 17 17 17 17 17 17 17 17 17 17 17 17 17 17 17 17 17 17 17 17 17 17 17 17 17 17 17 17 17 17 17 17 17 17 17 17 17 17 17 17 17 255 255 255 255 255 255 2 2 2 2 2 2 2 2 2 2 2 2 2 2 2 2 2 2 2 2 2 2 2 2 2 2 2 2 2 2 2 2 2 2 2 2 2 2 2 2 2 2 2 2 2 2 2 2 2 2 2 2 2 2 2 2 2 2 2 2 2 2 2 2 2 2 2 2 2 2 2 2 2 2 2 2 2 2 2 2 2 2 2 2 2 255 255 255 255 255 255 255 255 48 48 48 48 48 48 48 48 48 48 48 48 48 48 48 48 48 255 255 255 255 255 255 255 255 18 18 18 18 18 18 18 18 18 18 18 18 18 18 18 18 18 18 18 18 18 18 18 18 18 18 18 18 18 18 18 18 18 18 18 18 255 255 255 255 64 64 64 64 64 64 255 
255 1 1 1 1 1 1 1 1 1 1 1 1 1 1 1 1 1 1 1 255 255 17 17 17 17 17 17 255 255 63 255 255 255 63 63 63 63 255 255 255 255 255 255 255 255 255 255 17 255 255 255 17 17 17 255 255 255 255 255 255 255 255 255 255 255 17 255 255 255 17 255 255 255 255 17 17 17 17 17 17 17 17 17 17 17 17 17 17 17 17 17 17 17 17 17 17 17 17 17 17 17 17 17 17 17 17 17 17 17 17 17 17 17 17 17 17 17 17 17 17 17 17 17 17 17 17 17 17 17 17 17 17 17 17 17 17 17 17 17 17 17 17 17 17 17 17 17 17 17 17 17 17 17 17 17 17 17 17 17 17 17 17 17 17 17 17 17 17 17 17 17 17 17 17 17 17 17 17 17 17 17 17 17 17 17 17 17 17 17 17 17 17 17 17 17 17 17 17 17 17 17 17 17 17 17 17 17 17 17 17 17 17 17 17 17 17 17 17 17 17 17 17 17 17 17 17 17 17 17 17 17 17 17 17 17 17 17 17 17 17 17 17 17 17 17 17 17 17 17 17 17 17 17 17 17 17 17 17 17 17 17 17 17 17 17 17 17 17 17 17 17 17 17 17 17 17 17 17 17 17 17 17 17 17 17 17 17 17 17 17 17 17 17 17 17 17 17 17 17 17 17 17 17 17 17 17 17 17 17 17 17 17 17 17 17 17 17 17 17 17 17 17 17 17 17 17 17 17 17 17 17 17 17 17 17 17 17 17 17 255 255 255 255 255 255 255 2 2 2 2 2 2 2 2 2 2 2 2 2 2 2 2 2 2 2 2 2 2 2 2 2 2 2 2 2 2 2 2 2 2 2 2 2 2 2 2 2 2 2 2 2 2 2 2 2 2 2 2 2 2 2 2 2 2 2 2 2 2 2 2 2 2 2 2 2 2 2 2 2 2 2 2 2 2 2 2 2 2 2 255 255 255 255 255 255 255 255 255 255 255 48 48 48 48 48 48 48 48 48 48 48 48 48 48 48 48 48 255 255 255 255 255 255 255 18 18 18 18 18 18 18 18 18 18 18 18 18 18 18 18 18 18 18 18 18 18 18 18 18 18 18 18 18 18 18 18 18 18 18 255 255 255 255 64 64 64 64 64 64 64 255 
255 1 1 1 1 1 1 1 1 1 1 1 1 1 1 1 1 1 1 1 255 255 255 17 17 17 17 17 255 255 63 63 63 63 63 63 63 63 63 63 63 255 255 255 255 255 255 255 255 255 255 255 255 255 255 255 255 255 255 255 255 255 255 255 255 255 255 255 255 255 17 17 17 17 17 17 17 17 17 17 17 17 17 17 17 17 17 17 17 17 17 17 17 17 17 17 17 17 17 17 17 17 17 17 17 17 17 17 17 17 17 17 17 17 17 17 17 17 17 17 17 17 17 17 17 17 17 17 17 17 17 17 17 17 17 17 17 17 17 17 17 17 17 17 17 17 17 17 17 17 17 17 17 17 17 17 17 17 17 17 17 17 17 17 17 17 17 17 17 17 17 17 17 17 17 17 255 255 255 17 17 17 17 17 17 17 17 17 17 17 17 17 17 17 17 17 17 17 17 17 17 17 17 17 17 17 17 17 17 17 17 17 17 17 17 17 17 17 17 17 17 17 17 17 17 17 17 17 17 17 17 17 17 17 17 17 17 17 17 17 17 17 17 17 17 17 17 17 17 17 17 17 17 17 17 17 17 17 17 17 17 17 17 17 17 17 17 17 17 17 17 17 17 17 17 17 17 17 17 17 17 17 17 17 17 17 17 17 17 17 17 17 17 17 17 17 17 17 17 17 17 17 17 17 17 17 17 17 17 17 17 17 17 17 17 17 17 17 17 17 17 17 17 17 17 17 17 17 17 17 17 17 17 17 17 17 17 17 17 17 255 255 255 255 255 255 255 2 2 2 2 2 2 2 2 2 2 2 2 2 2 2 2 2 2 2 2 2 2 2 2 2 2 2 2 2 2 2 2 2 2 2 2 2 2 2 2 2 2 2 2 2 2 2 2 2 2 2 2 2 2 2 2 2 2 2 2 2 2 2 2 2 2 2 2 2 2 2 2 2 2 2 2 2 2 2 2 2 2 2 255 255 255 255 255 255 255 255 255 255 255 48 48 48 48 48 48 48 48 48 48 48 48 48 48 48 48 48 48 255 255 255 255 255 18 18 18 255 255 255 18 18 18 18 18 18 18 18 18 18 18 18 18 18 18 18 18 18 18 18 18 18 18 18 18 18 18 18 18 255 255 255 255 64 64 64 64 64 64 64 64 255 
255 1 1 1 1 1 1 1 1 1 1 1 1 1 1 1 1 1 1 1 255 255 255 17 17 17 17 17 255 255 63 63 63 63 63 63 63 63 63 255 255 255 255 255 255 255 255 255 255 255 255 255 255 255 255 255 255 255 255 255 255 255 255 255 255 255 255 255 255 255 17 17 17 17 17 17 17 17 17 17 17 17 17 17 17 17 17 17 17 17 17 17 17 17 17 17 17 17 17 17 17 17 17 17 17 17 17 17 17 17 17 17 17 17 17 17 17 17 17 17 17 17 17 17 17 17 17 17 17 17 17 17 17 17 17 17 17 17 17 17 17 17 17 17 17 17 17 17 17 17 17 17 17 17 17 17 17 17 17 17 17 17 17 17 17 17 17 17 17 17 17 17 17 17 17 17 255 255 255 17 17 17 17 17 17 17 17 17 17 17 17 17 17 17 17 17 17 17 17 17 17 17 17 17 17 17 17 17 17 17 17 17 17 17 17 17 17 17 17 17 17 17 17 17 17 17 17 17 17 17 17 17 17 17 17 17 17 17 17 17 17 17 17 17 17 17 17 17 17 17 17 17 17 17 17 17 17 17 17 17 17 17 17 17 17 17 17 17 17 17 17 17 17 17 17 17 17 17 17 17 17 17 17 17 17 17 17 17 17 17 17 17 17 17 17 17 17 17 17 17 17 17 17 17 17 17 17 17 17 17 17 17 17 17 17 17 17 17 17 17 17 17 17 17 17 17 17 17 17 17 17 17 17 17 17 17 17 17 17 17 255 255 255 255 255 255 2 2 2 2 2 2 2 2 2 2 2 2 2 2 2 2 2 2 2 2 2 2 2 2 2 2 2 2 2 2 2 2 2 2 2 2 2 2 2 2 2 2 2 2 2 2 2 2 2 2 2 2 2 2 2 2 2 2 2 2 2 2 2 2 2 2 2 2 2 2 2 2 2 2 2 2 2 2 2 2 2 2 2 2 255 255 255 2 255 255 255 2 2 255 255 255 48 48 48 48 48 48 48 48 48 48 48 48 48 48 48 48 48 255 255 255 255 255 255 255 255 255 255 255 18 18 18 18 18 18 18 18 18 18 18 18 18 18 18 18 18 18 18 18 18 18 18 18 18 18 18 18 255 255 255 255 64 64 64 64 64 64 64 64 64 255 
255 1 1 1 1 1 1 1 1 1 1 1 1 1 1 1 1 1 1 255 255 255 255 17 17 17 17 17 255 255 63 63 63 63 63 63 63 63 63 255 255 255 255 255 255 255 255 255 255 255 255 255 255 255 255 255 255 255 255 255 255 255 255 255 255 255 255 255 255 255 17 17 17 17 17 17 17 17 17 17 17 17 17 17 17 17 17 17 17 17 17 17 17 17 17 17 17 17 17 17 17 17 17 17 17 17 17 17 17 17 17 17 17 17 17 17 17 17 17 17 17 17 17 17 17 17 17 17 17 17 17 17 17 17 17 17 17 17 17 17 17 17 17 17 17 17 17 17 17 17 17 17 17 17 17 17 17 17 17 17 17 17 17 17 17 17 17 17 17 17 17 17 17 17 17 17 255 255 255 17 17 17 17 17 17 17 17 17 17 17 17 17 17 17 17 17 17 17 17 17 17 17 17 17 17 17 17 17 17 17 17 17 17 17 17 17 17 17 17 17 17 17 17 17 17 17 17 17 17 17 17 17 17 17 17 17 17 17 17 17 17 17 17 17 17 17 17 17 17 17 17 17 17 17 17 17 17 17 17 17 17 17 17 17 17 17 17 17 17 17 17 17 17 17 17 17 17 17 17 17 17 17 17 17 17 17 17 17 17 17 17 17 17 17 17 17 17 17 17 17 17 17 17 17 17 17 17 17 17 17 17 17 17 17 17 17 17 17 17 17 17 17 17 17 17 17 17 17 17 17 17 17 17 17 17 17 17 17 17 17 17 17 255 255 255 255 255 255 255 2 2 2 2 2 2 2 2 2 2 2 2 2 2 2 2 2 2 2 2 2 2 2 2 2 2 2 2 2 2 2 2 2 2 2 2 2 2 2 2 2 2 2 2 2 2 2 2 2 2 2 2 2 2 2 2 2 2 2 2 2 2 2 2 2 2 2 2 2 2 2 2 2 2 2 2 2 2 2 2 2 255 255 255 255 255 255 255 2 2 255 255 255 48 48 48 48 48 48 48 48 48 48 48 48 48 48 48 48 48 48 255 255 255 255 255 255 255 255 255 255 18 18 18 18 18 18 18 18 18 18 18 18 18 18 18 18 18 18 18 18 18 18 18 18 18 18 255 255 255 255 255 64 64 64 64 64 64 64 64 64 64 255 
255 1 1 1 1 1 1 1 1 1 1 1 1 1 1 1 1 1 1 255 255 255 255 17 17 17 17 17 255 255 63 63 63 63 63 63 63 63 63 255 255 255 255 255 255 255 255 255 255 255 255 255 17 17 255 255 255 255 255 255 255 255 255 255 255 255 255 255 255 17 17 17 17 17 17 17 17 17 17 17 17 17 17 17 17 17 17 17 17 17 17 17 17 17 17 17 17 17 17 17 17 17 17 17 17 17 17 17 17 17 17 17 17 17 17 17 17 17 17 17 17 17 17 17 17 17 17 17 17 17 17 17 17 17 17 17 17 17 17 17 17 17 17 17 17 17 17 17 17 17 17 17 17 17 17 17 17 17 17 17 17 17 17 17 17 17 17 17 17 17 17 17 17 17 17 17 17 17 17 17 17 17 17 17 17 17 17 17 17 17 17 17 17 17 17 17 17 17 17 17 17 17 17 17 17 17 17 17 17 17 17 17 17 17 17 17 17 17 17 17 17 17 17 17 17 17 17 17 17 17 17 17 17 17 17 17 17 17 17 17 17 17 17 17 17 17 17 17 17 17 17 17 17 17 17 17 17 17 17 17 17 17 17 17 17 17 17 17 17 17 17 17 17 17 17 17 17 17 17 17 17 17 17 17 17 17 17 17 17 17 17 17 17 17 17 17 17 17 17 17 17 17 17 17 17 17 17 17 17 17 17 17 17 17 17 17 17 17 17 17 17 17 17 17 17 17 17 17 17 17 17 17 17 17 17 17 17 17 17 17 17 17 255 255 255 255 255 255 255 2 2 2 2 2 2 2 2 2 2 2 2 2 2 2 2 2 2 2 2 2 2 2 2 2 2 2 2 2 2 2 2 2 2 2 2 2 2 2 2 2 2 2 2 2 2 2 2 2 2 2 2 2 2 2 2 2 2 2 2 2 2 2 2 2 2 2 2 2 2 2 2 2 2 2 2 2 2 2 255 255 255 255 255 255 255 255 255 255 255 255 255 255 255 48 48 48 48 48 48 48 48 48 48 48 48 48 48 48 48 48 255 255 255 255 255 255 255 255 255 255 18 18 18 18 18 18 18 18 18 18 18 18 18 18 18 18 18 18 18 18 18 18 18 18 18 18 255 255 255 255 64 64 64 64 64 64 64 64 64 64 64 255 
255 1 1 1 1 1 1 1 1 1 1 1 1 1 1 1 1 1 1 255 255 255 17 17 17 17 17 255 255 255 63 63 63 63 63 63 63 63 255 255 255 255 255 255 255 255 255 255 255 255 255 255 255 255 255 255 255 255 255 255 255 255 255 255 255 255 255 255 255 255 255 255 255 17 17 17 17 17 17 17 17 17 17 17 17 17 17 17 17 17 17 17 17 17 17 17 17 17 17 17 17 17 17 17 17 17 17 17 17 17 17 17 17 17 17 17 17 17 17 17 17 17 17 17 17 17 17 17 17 17 17 17 17 17 17 17 17 17 17 17 17 17 17 17 17 17 17 17 17 17 17 17 17 17 17 17 17 17 17 17 17 17 17 17 17 17 17 17 17 17 17 17 17 17 17 17 17 17 17 17 17 17 17 17 17 17 17 17 17 17 17 17 17 17 17 17 17 17 17 17 17 17 17 17 17 17 17 17 17 17 17 17 17 17 17 17 17 17 17 17 17 17 17 17 17 17 17 17 17 17 17 17 17 17 17 17 17 17 17 17 17 17 17 17 17 17 17 17 17 17 17 17 17 17 17 17 17 17 17 17 17 17 17 17 17 17 17 17 17 17 17 17 17 17 17 17 17 17 17 17 17 17 17 17 17 17 17 17 17 17 17 17 17 17 17 17 17 17 17 17 17 17 17 17 17 17 17 17 17 17 17 17 17 17 17 17 17 17 17 17 17 17 17 17 17 17 17 17 17 17 17 17 17 17 17 17 17 17 17 17 17 17 255 255 255 255 255 255 255 2 2 2 2 2 2 2 2 2 2 2 2 2 2 2 2 2 2 2 2 2 2 2 2 2 2 2 2 2 2 2 2 2 2 2 2 2 2 2 2 2 2 2 2 2 2 2 2 2 2 2 2 2 2 2 2 2 2 2 2 2 2 2 2 2 2 2 2 2 2 2 2 2 2 2 2 2 2 2 255 255 255 255 255 255 255 255 255 255 255 255 255 255 255 255 48 48 48 48 48 48 48 48 48 48 48 48 48 48 48 48 48 255 255 255 255 255 255 255 255 255 18 18 18 18 18 18 18 18 18 18 18 18 18 18 18 18 18 18 18 18 18 18 18 18 255 255 255 255 64 64 64 64 64 64 64 64 64 64 64 64 64 255 
255 1 1 1 1 1 1 1 1 1 1 1 1 1 1 1 1 1 1 255 255 255 17 17 17 17 17 255 255 255 255 63 255 255 255 255 255 255 255 255 255 255 255 255 255 255 255 255 255 255 255 255 255 255 255 255 255 255 255 255 255 255 255 255 255 255 255 255 255 255 255 255 255 17 255 255 255 17 17 17 17 17 17 17 17 17 17 17 17 17 17 17 17 17 17 17 17 17 17 17 17 17 17 17 17 17 17 17 17 17 17 17 17 17 17 17 17 17 17 17 17 17 17 17 17 17 17 17 17 17 17 17 17 17 17 17 17 17 17 17 17 17 17 17 17 17 17 17 17 17 17 17 17 17 17 17 17 17 17 17 17 17 17 17 17 17 17 17 17 17 17 17 17 17 17 17 17 17 17 17 17 17 17 17 17 17 17 17 17 17 17 17 17 17 17 17 17 17 17 17 17 17 17 17 17 17 17 17 17 17 17 17 17 17 17 17 17 17 17 17 17 17 17 17 17 17 17 17 17 17 17 17 17 17 17 17 17 17 17 17 17 17 17 17 17 17 17 17 17 17 17 17 17 17 17 17 17 17 17 17 17 17 17 17 17 17 17 17 17 17 17 17 17 17 17 17 17 17 17 17 17 17 17 17 17 17 17 17 17 17 17 17 17 17 17 17 17 17 17 17 17 17 17 17 17 17 17 17 17 17 17 17 17 17 17 17 17 17 17 17 17 17 17 17 17 17 17 17 17 17 17 17 17 17 17 17 17 17 17 17 17 17 255 255 255 255 255 255 2 2 2 2 2 2 2 2 2 2 2 2 2 2 2 2 2 2 2 2 2 2 2 2 2 2 2 2 2 2 2 2 2 2 2 2 2 2 2 2 2 2 2 2 2 2 2 2 2 2 2 2 2 2 2 2 2 2 2 2 2 2 2 2 2 2 2 2 2 2 2 2 255 255 255 2 2 2 2 2 255 255 255 255 255 255 255 255 255 255 255 255 255 255 255 255 48 48 48 48 48 48 48 48 48 48 48 48 48 48 48 48 48 48 255 255 255 255 255 255 255 255 18 18 18 18 18 18 18 18 18 18 18 18 18 18 18 18 18 18 18 18 18 18 18 255 255 255 255 255 64 64 64 64 64 64 64 64 64 64 64 64 64 255 
255 1 1 1 1 1 1 1 1 1 1 1 1 1 1 1 1 1 1 1 255 255 17 17 17 17 17 255 255 255 255 63 255 255 255 255 255 255 255 255 255 255 255 255 255 255 255 255 255 255 255 255 255 255 255 255 255 255 255 255 255 255 255 255 255 255 255 255 255 255 255 255 255 17 255 255 255 17 17 17 17 17 17 17 17 17 17 17 17 17 17 17 17 17 17 17 17 17 17 17 17 17 17 17 17 17 17 17 17 17 17 17 17 17 17 17 17 17 17 17 17 17 17 17 17 17 17 17 17 17 17 17 17 17 17 17 17 17 17 17 17 17 17 17 17 17 17 17 17 17 17 17 17 17 17 17 17 17 17 17 17 17 17 17 17 17 17 17 17 17 17 17 17 17 17 17 17 17 17 17 17 17 17 17 17 17 17 17 17 17 17 17 17 17 17 17 17 17 17 17 17 17 17 17 17 17 17 17 17 17 17 17 17 17 17 17 17 17 17 17 17 17 17 17 17 17 17 17 17 17 17 17 17 17 17 17 17 17 17 17 17 17 17 17 17 17 17 17 17 17 17 17 17 17 17 17 17 17 17 17 17 17 17 17 17 17 17 17 17 17 17 17 17 17 17 17 17 17 17 17 17 17 17 17 17 17 17 17 17 17 17 17 17 17 17 17 17 17 17 17 17 17 17 17 17 17 17 17 17 17 17 17 17 17 17 17 17 17 17 17 17 17 17 17 17 17 17 17 17 17 17 17 17 17 17 17 17 17 17 17 17 17 17 255 255 255 255 255 2 2 2 2 2 2 2 2 2 2 2 2 2 2 2 2 2 2 2 2 2 2 2 2 2 2 2 2 2 2 2 2 2 2 2 2 2 2 2 2 2 2 2 2 2 2 2 2 2 2 2 2 2 2 2 2 2 2 2 2 2 2 2 2 2 2 2 2 2 2 2 2 255 255 255 2 2 2 2 2 255 255 255 255 255 2 2 255 255 255 255 255 255 2 255 255 255 48 48 48 48 48 48 48 48 48 48 48 48 48 48 48 48 48 255 255 255 255 255 255 255 255 18 18 18 18 18 18 18 18 18 18 18 18 18 18 18 18 18 18 18 18 18 18 18 255 255 255 64 64 64 64 64 64 64 64 64 64 64 64 64 64 64 255 
255 1 1 1 1 1 1 1 1 1 1 1 1 1 1 1 1 1 1 255 255 255 17 17 17 17 17 255 255 255 255 63 255 255 255 255 255 255 63 255 255 255 255 255 255 255 255 255 255 255 255 255 255 255 255 255 255 255 255 255 255 255 255 255 255 255 255 255 255 17 255 255 255 17 255 255 255 17 17 17 17 17 17 17 17 17 17 17 17 17 17 17 17 17 17 17 17 17 17 17 17 17 17 17 17 17 17 17 17 17 17 17 17 17 17 17 17 17 17 17 17 17 17 17 17 17 17 17 17 17 17 17 17 17 17 17 17 17 17 17 17 17 17 17 17 17 17 17 17 17 17 17 17 17 17 17 17 17 17 17 17 17 17 17 17 17 17 17 17 17 17 17 17 17 17 17 17 17 17 17 17 17 17 17 17 17 17 17 17 17 17 17 17 17 17 17 17 17 17 17 17 17 17 17 17 17 17 17 17 17 17 17 17 17 255 255 255 17 17 17 17 17 17 17 17 17 17 17 17 17 17 17 17 17 17 17 17 17 17 17 17 17 17 17 17 17 17 17 17 17 17 17 17 17 17 17 17 17 17 17 17 17 17 17 17 17 17 17 17 17 17 17 17 17 17 17 17 17 17 17 17 17 17 17 17 17 17 17 17 17 17 17 17 17 17 17 17 17 17 17 17 17 17 17 17 17 17 17 17 17 17 17 17 17 17 17 17 17 17 17 17 17 17 17 17 17 17 17 17 17 17 17 17 17 17 17 17 17 17 17 17 17 17 255 255 255 255 255 255 255 255 255 255 255 255 2 2 2 2 2 2 2 2 2 2 2 2 2 2 2 2 2 2 2 2 2 2 2 2 2 2 2 2 2 2 2 2 2 2 2 2 2 2 2 2 2 2 2 2 2 2 2 2 2 2 2 2 2 2 2 2 2 2 2 2 2 2 2 2 2 255 255 255 2 2 2 2 2 2 2 255 255 255 2 2 2 2 255 255 255 255 255 255 255 255 48 48 48 48 48 48 48 48 48 48 48 48 48 48 48 48 48 48 255 255 255 255 255 255 255 255 18 18 18 18 18 255 255 255 18 18 18 18 18 18 18 18 18 18 18 18 18 255 255 255 64 64 64 64 64 64 64 64 64 64 64 64 64 64 64 64 255 
255 1 1 1 1 1 1 1 1 1 1 1 1 1 1 1 1 1 1 255 255 255 17 17 17 17 17 255 255 255 63 63 63 63 63 63 63 63 63 255 255 255 255 255 255 255 255 255 255 255 255 255 255 255 255 255 255 255 255 255 255 255 255 255 255 255 255 255 255 255 255 255 255 17 17 17 17 17 17 17 17 17 17 17 17 17 17 17 17 17 17 17 17 17 17 17 17 17 17 17 17 17 17 17 17 17 17 17 17 17 17 17 17 17 17 17 17 17 17 17 17 17 17 17 17 17 17 17 17 17 17 17 17 17 17 17 17 17 17 17 17 17 17 17 17 17 17 17 17 17 17 17 17 17 17 17 17 17 17 17 17 17 17 17 17 17 17 17 17 17 17 17 17 17 17 17 17 17 17 17 17 17 17 17 17 17 17 17 17 17 17 17 17 17 17 17 17 17 17 17 17 17 17 17 17 17 17 17 17 17 17 17 17 17 255 255 255 17 17 17 17 17 17 17 17 17 17 17 17 17 17 17 17 17 17 17 17 17 17 17 17 17 17 17 17 17 17 17 17 17 17 17 17 17 17 17 17 17 17 17 17 17 17 17 17 17 17 17 17 17 17 17 17 17 17 17 17 17 17 17 17 17 17 17 17 17 17 17 17 17 17 17 17 17 17 17 17 17 17 17 17 17 17 17 17 17 17 17 17 17 17 17 17 17 17 17 17 17 17 17 17 17 17 17 17 17 17 255 255 255 17 17 17 17 17 17 17 17 17 17 17 17 17 255 255 255 255 255 255 255 255 255 255 255 255 2 2 2 2 2 2 2 2 2 2 2 2 2 2 2 2 2 2 2 2 2 2 2 2 2 2 2 2 2 2 2 2 2 2 2 2 2 2 2 2 2 2 2 2 2 2 2 2 2 2 2 2 2 2 2 2 2 2 2 2 2 2 2 2 2 2 2 2 2 2 2 2 2 2 2 2 2 2 255 255 255 255 255 255 255 255 255 2 255 255 255 48 48 48 48 48 48 48 48 48 48 48 48 48 48 48 48 48 255 255 255 255 255 255 255 255 18 18 18 18 18 255 255 255 18 18 18 18 18 18 18 18 18 18 18 255 255 255 255 255 64 64 64 64 64 64 64 64 64 64 64 64 64 64 64 64 255 
255 1 1 1 1 1 1 1 1 1 1 1 1 1 1 1 1 1 1 255 255 17 17 17 17 17 17 255 255 255 63 63 63 63 63 63 63 63 63 255 255 255 255 255 255 255 255 255 255 255 255 255 255 255 255 17 255 255 255 255 255 255 255 255 255 255 255 255 255 255 255 255 255 255 17 17 17 17 17 17 17 17 17 17 17 17 17 17 17 17 17 17 17 17 17 17 17 17 17 17 17 17 17 17 17 17 17 17 17 17 17 17 17 17 17 17 17 17 17 17 17 17 17 17 17 17 17 17 17 17 17 17 17 17 17 17 17 17 17 17 17 17 17 17 17 17 17 17 17 17 17 17 17 17 17 17 17 17 17 17 17 17 17 17 17 17 17 17 17 17 17 17 17 17 17 17 17 17 17 17 17 17 17 17 17 17 17 17 17 17 17 17 17 17 17 17 17 17 17 17 17 17 17 17 17 17 17 17 17 17 17 17 17 17 255 255 255 17 17 17 17 17 17 17 17 17 17 17 17 17 17 17 17 17 17 17 17 17 17 17 17 17 17 17 17 17 17 17 17 17 17 17 17 17 17 17 17 17 17 17 17 17 17 17 17 17 17 17 17 17 17 17 17 17 17 17 17 17 17 17 17 17 17 17 17 17 17 17 17 17 17 17 17 17 17 17 17 17 17 17 17 17 17 17 17 17 17 17 17 17 17 17 17 17 17 17 17 17 17 17 17 17 17 17 17 17 17 255 255 255 17 17 17 17 17 17 17 17 17 17 17 17 17 17 17 17 255 255 255 255 255 255 255 255 255 2 2 2 2 2 2 2 2 2 2 2 2 2 2 2 2 2 2 2 2 2 2 2 2 2 2 2 2 2 2 2 2 2 2 2 2 2 2 2 2 2 2 2 2 2 2 2 2 2 2 2 2 2 2 2 2 2 2 2 2 2 2 2 2 2 2 2 2 2 2 2 2 2 2 255 255 255 255 255 255 255 255 255 2 255 255 255 2 255 255 255 48 48 48 48 48 48 48 48 48 48 48 48 48 48 48 48 48 48 255 255 255 255 255 255 255 18 18 255 255 255 255 255 255 18 18 18 18 18 18 18 18 18 18 255 255 255 255 255 64 64 64 64 64 64 64 64 64 64 64 64 64 64 64 64 64 255 
255 1 1 1 1 1 1 1 1 1 1 1 1 1 1 1 1 1 1 255 255 17 17 17 17 17 17 255 255 255 63 63 63 63 63 63 63 63 63 63 63 255 255 255 255 255 255 255 255 255 255 255 255 255 255 255 255 255 255 255 255 255 255 255 255 255 255 255 255 255 255 255 255 255 17 17 17 17 17 17 17 17 17 17 17 17 17 17 17 17 17 17 17 17 17 17 17 17 17 17 17 17 17 17 17 17 17 17 17 17 17 17 17 17 17 17 17 17 17 17 17 17 17 17 17 17 17 17 17 17 17 17 17 17 17 17 17 17 17 17 17 17 17 17 17 17 17 17 17 17 17 17 17 17 17 17 17 17 17 17 17 17 17 17 17 17 17 17 17 17 17 17 17 17 17 17 17 17 17 17 17 17 17 17 17 17 17 17 17 17 17 17 17 17 17 17 17 17 17 17 17 17 17 17 17 17 17 17 17 17 17 17 17 17 17 17 17 17 17 17 17 17 17 17 17 17 17 17 17 17 17 17 17 17 17 17 17 17 17 17 17 17 17 17 17 17 17 17 17 17 17 17 17 17 17 17 17 17 17 17 17 17 17 17 17 17 17 17 17 17 17 17 17 17 17 17 17 17 17 17 17 17 17 17 17 17 17 17 17 17 17 17 17 17 17 17 17 17 17 17 17 17 17 17 17 17 17 17 17 17 17 17 17 17 17 17 17 17 17 17 17 17 17 17 17 17 17 255 255 255 17 17 17 17 17 17 17 17 17 17 17 17 17 17 255 255 255 255 255 255 255 2 255 255 255 2 2 2 2 2 2 2 2 2 2 2 2 2 2 2 2 2 2 2 2 2 2 2 2 2 2 2 2 2 2 2 2 2 2 2 2 2 2 2 2 2 2 2 2 2 2 2 2 2 2 2 2 2 2 2 2 2 2 2 2 2 2 2 2 2 2 2 2 2 2 255 255 255 255 255 255 255 255 255 255 255 255 255 255 255 255 2 2 2 255 255 255 48 48 48 48 48 48 48 48 48 48 48 48 48 48 48 48 48 255 255 255 255 255 255 255 18 18 255 255 255 18 18 18 18 18 18 18 18 18 18 18 18 255 255 255 255 64 64 64 64 64 64 64 64 64 64 64 64 64 64 64 64 64 64 64 255 
255 1 1 1 1 1 1 1 1 1 1 1 1 1 1 1 1 1 1 255 255 17 17 17 17 17 17 255 255 255 63 63 63 63 63 63 63 255 255 255 255 255 255 255 255 255 17 255 255 255 255 255 255 255 255 255 255 17 17 255 255 255 255 255 255 255 255 255 255 255 255 255 255 255 17 17 17 17 17 17 17 17 17 17 17 17 17 17 17 17 17 17 17 17 17 17 17 17 17 17 17 17 17 17 17 17 17 17 17 17 17 17 17 17 17 17 17 17 17 17 17 17 17 17 17 17 17 17 17 17 17 17 17 17 17 17 17 17 17 17 17 17 17 17 17 17 17 17 17 17 17 17 17 17 17 17 17 17 17 17 17 17 17 17 17 17 17 17 17 17 17 17 17 17 17 17 17 17 17 17 17 17 17 17 17 17 17 17 17 17 17 17 17 17 17 17 17 17 17 17 17 17 17 17 17 17 17 17 255 255 255 255 255 255 255 255 255 255 255 255 255 255 17 17 17 17 17 17 17 17 17 17 17 17 17 17 17 17 17 17 17 17 17 17 17 17 17 17 17 17 17 17 17 17 17 17 17 17 17 17 17 17 17 17 17 17 17 17 17 17 17 17 17 17 17 17 17 17 17 17 17 17 17 17 17 17 17 17 17 17 17 17 17 17 17 17 17 17 17 17 17 17 17 17 17 17 17 17 17 17 17 17 17 17 17 17 17 17 17 17 17 17 17 17 17 17 17 17 17 17 17 17 17 17 17 17 17 17 17 17 17 17 17 17 255 255 255 255 255 255 255 2 255 255 255 2 2 2 2 2 2 2 2 2 2 2 2 2 2 2 2 2 2 2 2 2 2 2 2 2 2 2 2 2 2 2 2 2 2 2 2 2 2 2 2 2 2 2 2 2 2 2 2 2 2 2 2 2 2 2 2 2 2 2 2 2 2 2 2 2 2 2 255 255 255 255 255 255 255 255 255 255 255 255 255 255 255 255 255 255 255 255 255 2 255 255 255 255 48 48 48 48 48 48 48 48 48 48 48 48 48 48 48 48 48 255 255 255 255 255 255 255 255 255 255 255 18 18 18 18 18 18 18 18 18 18 18 255 255 255 255 64 64 64 64 64 64 64 64 64 64 64 64 64 64 64 64 64 64 64 64 255 
255 1 1 1 1 1 1 1 1 1 1 1 1 1 1 1 1 1 1 255 255 17 17 17 17 17 17 255 255 63 63 63 63 63 63 63 63 255 255 255 255 255 255 255 255 255 255 255 255 255 255 255 255 255 255 255 255 255 255 255 255 255 255 255 255 255 255 255 255 255 255 255 255 17 17 17 17 17 17 17 17 17 17 17 17 17 17 17 17 17 17 17 17 17 17 17 17 17 17 17 17 17 17 17 17 17 17 17 17 17 17 17 17 17 17 17 17 17 17 17 17 17 17 17 17 17 17 17 17 17 17 17 17 17 17 17 17 17 17 17 17 17 17 17 17 17 17 17 17 17 17 17 17 17 17 17 17 17 17 17 17 17 17 17 17 17 17 17 17 17 17 17 17 17 17 17 17 17 17 17 17 17 17 17 17 17 17 17 17 17 17 17 17 17 17 17 17 17 17 17 17 17 17 17 255 255 255 255 255 255 255 255 255 255 255 255 255 255 255 255 255 255 255 255 255 255 255 255 255 17 17 17 17 17 17 17 17 17 17 17 17 17 17 17 17 17 17 17 17 17 17 17 17 17 17 17 17 17 17 17 17 17 17 17 17 17 17 17 17 17 17 17 17 17 17 17 17 17 17 17 17 17 17 17 17 17 17 17 17 17 17 17 17 17 17 17 17 17 17 17 17 17 17 17 17 17 17 17 17 17 17 17 17 17 17 17 17 17 17 17 17 17 17 17 17 17 17 17 17 17 17 17 17 17 17 17 17 17 17 17 17 17 17 17 255 255 255 255 255 2 2 255 255 255 255 2 2 255 255 255 2 2 2 2 2 2 2 2 2 2 2 2 2 2 2 2 2 2 2 2 2 2 2 2 2 2 2 2 2 2 2 2 2 2 2 2 2 2 2 2 2 2 2 2 2 2 2 2 2 2 2 2 2 2 2 2 2 2 2 2 2 2 255 255 255 255 255 255 255 255 255 255 255 255 2 255 255 255 255 255 255 255 255 255 2 255 255 255 48 48 48 48 48 48 48 48 48 48 48 48 48 48 48 48 48 48 255 255 255 255 255 255 255 255 255 255 18 18 18 18 18 18 18 18 18 18 18 255 255 255 64 64 64 64 64 64 64 64 64 64 64 64 64 64 64 64 64 64 64 64 64 255 
255 1 1 1 1 1 1 1 1 1 1 1 1 1 1 1 1 1 1 255 255 17 17 17 17 17 17 255 255 63 63 63 63 63 63 63 63 255 255 255 255 255 255 255 255 255 255 255 255 255 255 255 255 255 255 255 255 255 255 255 255 255 255 255 255 255 255 255 255 255 255 255 255 17 17 17 17 17 17 17 17 17 17 17 17 17 17 17 17 17 17 17 17 17 17 17 17 17 17 17 17 17 17 17 17 17 17 17 17 17 17 17 17 17 17 17 17 17 17 17 17 17 17 17 17 17 17 17 17 17 17 17 17 17 17 17 17 17 17 17 17 17 17 17 17 17 17 17 17 17 17 17 17 17 17 17 17 17 17 17 17 17 17 17 17 17 17 17 17 17 17 17 17 17 17 17 17 255 255 255 17 17 17 17 17 17 17 17 17 17 17 17 17 255 255 255 255 255 255 255 17 255 255 255 255 255 255 255 255 255 3 3 3 3 3 3 255 255 255 255 255 255 255 255 255 255 255 255 255 255 255 255 255 17 17 17 17 17 17 17 17 17 17 17 17 17 17 17 17 17 17 17 17 17 17 17 17 17 17 17 17 17 17 17 17 17 17 17 17 17 17 17 17 17 17 17 17 17 17 17 17 17 17 17 17 17 17 17 17 17 17 17 17 17 17 17 17 17 17 17 17 17 17 17 17 17 17 17 17 17 17 17 17 17 17 17 17 17 17 17 17 17 17 17 17 17 17 17 17 17 17 17 17 17 17 17 17 17 17 17 17 17 255 255 255 255 255 255 255 255 255 255 255 255 255 2 2 255 255 255 255 255 2 2 2 2 2 2 2 2 2 2 2 2 2 2 2 2 2 2 2 2 2 2 2 2 2 2 2 2 2 2 2 2 2 2 2 2 2 2 2 2 2 2 2 2 2 2 2 2 2 2 2 2 255 255 255 255 255 255 2 2 255 255 255 255 255 255 255 255 255 255 255 255 2 2 255 255 255 255 255 255 255 255 2 2 255 255 255 48 48 48 48 48 48 48 48 48 48 48 48 48 48 48 48 48 48 255 255 255 255 255 255 255 255 255 18 18 18 18 18 18 18 18 18 255 255 255 255 64 64 64 64 64 64 64 64 64 64 64 64 64 64 64 64 64 64 64 64 64 64 255 
255 1 1 1 1 1 1 1 1 1 1 1 1 1 1 1 1 1 1 255 255 255 255 17 17 17 17 255 255 255 63 63 63 63 63 63 63 63 255 255 255 255 255 255 255 255 255 255 255 255 255 255 255 255 255 255 255 255 255 255 255 255 255 255 255 255 255 17 17 17 255 255 255 17 17 17 17 17 17 17 17 17 17 17 17 17 17 17 17 17 17 17 17 17 17 17 17 17 17 17 17 17 17 17 17 17 17 17 17 17 17 17 17 17 17 17 17 17 17 17 17 17 17 17 17 17 17 17 17 17 17 17 17 17 17 17 17 17 17 17 17 17 17 17 17 17 17 17 17 17 17 17 17 17 17 17 17 17 17 17 17 17 17 17 17 17 17 17 17 17 17 17 17 17 17 17 17 255 255 255 17 17 17 17 17 17 17 17 17 255 255 255 17 255 255 255 255 255 255 255 255 255 255 255 255 255 3 255 255 255 3 3 3 3 3 3 3 3 3 3 3 255 255 255 255 255 255 255 255 255 255 255 255 255 255 255 17 17 17 17 17 17 17 17 17 17 17 17 17 17 17 17 17 17 17 17 17 17 17 17 17 17 17 17 17 17 17 17 17 17 17 17 17 17 17 17 17 17 17 17 17 17 17 17 17 17 17 17 17 17 17 17 17 17 17 17 17 17 17 17 17 17 17 17 17 17 17 17 17 17 17 17 17 17 17 17 17 17 17 17 17 17 17 17 17 17 17 17 17 17 17 17 17 17 17 17 17 17 17 17 17 255 255 255 255 255 255 255 255 255 255 255 255 255 255 255 255 255 255 255 255 255 2 2 2 2 2 2 2 2 2 2 2 2 2 2 2 2 2 2 2 2 2 2 2 2 2 2 2 2 2 2 2 2 2 2 2 2 2 2 2 2 2 2 2 2 2 2 2 2 2 2 2 255 255 255 255 255 255 255 255 255 255 255 255 255 255 255 255 255 255 255 255 255 255 255 255 255 255 255 255 255 255 255 2 2 255 255 255 255 48 48 48 48 48 48 48 48 48 48 48 48 48 48 48 48 48 255 255 255 255 255 255 255 255 255 18 18 18 18 18 18 18 18 255 255 255 255 255 64 64 64 64 64 64 64 64 64 64 64 64 64 64 64 64 64 64 64 64 64 64 255 
255 1 1 1 1 1 1 1 1 1 1 1 1 1 1 1 1 1 255 255 255 255 255 17 17 17 17 255 255 255 63 63 63 63 63 63 63 63 255 255 255 255 255 255 255 255 255 255 255 255 255 255 255 255 255 255 255 255 255 255 255 255 255 255 255 255 255 17 17 17 255 255 255 17 17 17 17 17 17 17 17 17 17 17 17 17 17 17 17 17 17 17 17 17 17 17 17 17 17 17 17 17 17 17 17 17 17 17 17 17 17 17 17 17 17 17 17 17 17 17 17 17 17 17 17 17 17 17 17 17 17 17 17 17 17 17 17 17 17 17 17 17 17 17 17 17 17 17 17 17 17 17 17 17 17 17 17 17 17 17 17 17 17 17 17 17 17 17 17 17 17 17 17 17 17 17 17 255 255 255 17 17 17 17 255 255 255 255 255 255 255 255 17 255 255 255 255 255 255 255 255 255 255 255 255 255 3 3 3 3 3 3 3 3 3 3 3 3 3 3 3 255 255 255 255 255 255 255 255 255 255 255 255 255 255 255 255 255 255 255 17 17 17 17 17 17 17 17 17 17 17 17 17 17 17 17 17 17 17 17 17 17 17 17 17 17 17 17 17 17 17 17 17 17 17 17 17 17 17 17 17 17 17 17 17 17 17 17 17 17 17 17 17 17 17 17 17 17 17 17 17 17 17 17 17 17 17 17 17 17 17 17 17 17 17 17 17 17 17 17 17 17 17 17 17 17 17 17 255 255 255 255 17 17 17 17 17 17 17 17 17 255 255 255 255 255 255 255 255 255 255 255 255 255 255 255 255 255 255 255 255 255 255 2 2 2 2 2 2 2 2 2 2 2 2 2 2 2 2 2 2 2 2 2 2 2 2 2 2 2 2 2 2 2 2 2 2 2 2 2 2 2 2 2 2 2 2 2 2 2 2 2 2 255 255 255 255 255 255 255 255 255 255 255 255 255 255 255 255 255 255 255 255 255 255 255 255 255 255 255 255 255 255 2 2 2 2 255 255 255 48 48 48 48 48 48 48 48 48 48 48 48 48 48 48 48 48 48 255 255 255 255 255 255 255 255 18 18 18 18 18 18 255 255 255 255 255 64 64 64 64 64 64 64 64 64 64 64 64 64 64 64 64 64 64 64 64 64 64 64 64 255 
255 1 1 1 1 1 1 1 1 1 1 1 1 1 1 1 1 1 255 255 255 255 255 17 17 17 17 255 255 255 63 63 63 63 63 63 63 63 63 255 255 255 255 255 255 255 255 255 255 255 255 255 255 255 255 255 255 255 255 255 255 255 255 255 255 17 17 17 17 17 17 17 17 17 17 17 17 17 17 17 17 17 17 17 17 17 17 17 17 17 17 17 17 17 17 17 17 17 17 17 17 17 17 17 17 17 17 17 17 17 17 17 17 17 17 17 17 17 17 17 17 17 17 17 17 17 17 17 17 17 17 17 17 17 17 17 17 17 17 17 17 17 17 17 17 17 17 17 17 17 17 17 17 17 17 17 17 17 17 17 17 17 17 17 17 17 17 17 17 17 17 17 17 17 17 17 17 17 17 17 255 255 255 255 255 255 255 255 255 255 255 255 255 255 255 255 255 255 255 255 255 255 3 255 255 255 3 3 3 3 3 3 3 3 3 3 3 3 3 3 3 3 3 3 255 255 255 255 255 255 255 255 255 255 255 255 255 255 255 255 255 255 255 255 17 17 17 17 17 17 17 17 17 17 17 17 17 17 17 17 17 17 17 17 17 17 17 17 17 17 17 17 17 17 17 17 17 17 17 17 17 17 17 17 17 17 17 17 17 17 17 17 17 17 17 17 17 17 17 17 17 17 17 17 17 17 17 17 17 17 17 17 17 17 17 17 17 17 17 17 17 17 17 17 17 17 17 17 255 255 255 255 17 17 17 17 17 17 17 17 17 255 255 255 255 255 255 255 2 2 255 255 255 255 255 255 255 255 255 255 255 255 255 2 2 2 2 2 2 2 2 2 2 2 2 2 2 2 2 2 2 2 2 2 2 2 2 2 2 2 2 2 2 2 2 2 2 2 2 2 2 2 2 2 2 2 2 2 2 2 2 2 2 255 255 255 255 255 255 255 255 255 255 255 255 255 255 255 255 255 255 255 255 255 255 255 255 255 255 255 255 255 255 2 255 255 255 2 255 255 255 48 48 48 48 48 48 48 48 48 48 48 48 48 48 48 48 48 255 255 255 255 255 255 255 255 18 18 18 18 18 18 255 255 255 255 64 64 64 64 64 64 64 64 64 64 64 64 64 64 64 64 64 64 64 64 64 64 64 64 64 255 
255 1 1 1 1 1 1 1 1 1 1 1 1 1 1 1 1 1 255 255 255 255 255 17 17 17 17 255 255 255 63 63 63 63 63 63 63 63 63 63 63 63 63 63 63 63 255 255 255 255 255 255 255 255 255 255 255 255 255 255 255 255 255 255 17 17 17 17 17 17 17 17 17 17 17 17 17 17 17 17 17 17 17 17 17 17 17 17 17 17 17 17 17 17 17 17 17 17 17 17 17 17 17 17 17 17 17 17 17 17 17 17 17 17 17 17 17 17 17 17 17 17 17 17 17 17 17 17 17 17 17 17 17 17 17 17 17 17 17 17 17 17 17 17 17 17 17 17 17 17 17 17 17 17 17 255 255 255 255 17 17 17 17 17 17 17 17 17 17 17 17 17 17 17 17 17 17 17 255 255 255 255 255 255 255 255 255 255 255 255 255 255 255 255 255 255 255 255 255 255 255 255 3 3 3 3 3 3 3 3 3 3 3 255 255 255 3 3 3 3 3 3 255 255 255 255 255 3 255 255 255 255 3 255 255 255 255 255 255 255 255 255 255 255 255 255 255 17 17 17 17 17 17 17 17 17 17 17 17 17 17 17 17 17 17 17 17 17 17 17 17 17 17 17 17 17 17 17 17 17 17 17 17 17 17 17 17 17 17 17 17 17 17 17 17 17 17 17 17 17 17 17 17 17 17 17 17 17 17 17 17 17 17 17 17 17 17 17 17 17 17 17 17 17 17 17 17 17 255 255 255 255 17 17 17 17 17 17 17 17 17 255 255 255 255 255 255 255 2 2 2 255 255 255 255 255 255 255 255 255 255 255 255 2 2 2 2 2 2 2 2 2 2 2 2 2 2 2 2 2 2 2 2 2 2 2 2 2 2 2 2 2 2 2 2 2 2 2 2 2 2 2 2 2 2 2 2 2 2 2 2 2 2 255 255 255 255 255 255 18 255 255 255 255 255 255 255 255 255 255 255 255 255 255 255 255 255 255 255 255 255 255 255 255 255 255 255 2 255 255 255 255 48 48 48 48 48 48 48 48 48 48 48 48 48 48 48 48 48 255 255 255 255 255 255 255 18 18 18 18 18 255 255 255 64 64 64 64 64 64 64 64 64 64 64 64 64 64 64 64 64 64 64 64 64 64 64 64 64 64 64 255 
255 1 1 1 1 1 1 1 1 1 1 1 1 1 1 1 1 1 1 255 255 255 255 17 17 17 17 17 255 255 63 63 63 63 63 63 63 255 255 255 255 255 63 255 255 255 255 255 255 255 255 255 255 255 255 255 255 255 255 255 17 255 255 255 17 17 17 17 17 17 17 17 17 17 17 17 17 17 17 17 17 17 17 17 17 17 17 17 17 17 17 17 17 17 17 17 17 17 17 17 17 17 17 17 17 17 17 17 17 17 17 17 17 17 17 17 17 17 17 17 17 17 17 17 17 17 17 17 17 17 17 17 17 17 17 17 17 17 17 17 17 17 17 17 17 17 17 17 17 17 17 17 17 17 17 255 255 255 255 17 17 17 17 17 17 17 17 17 17 17 17 17 17 17 17 17 17 17 255 255 255 255 255 255 255 255 255 255 255 255 255 255 255 255 255 255 255 255 255 255 255 255 3 3 3 3 3 3 3 3 3 3 3 255 255 255 255 255 3 3 3 3 255 255 255 3 3 3 3 3 3 3 3 255 255 255 255 255 255 255 255 255 255 255 255 255 255 255 255 17 17 17 17 17 17 17 17 17 17 17 17 17 17 17 17 17 17 17 17 17 17 17 17 17 17 17 17 17 17 17 17 17 17 17 17 17 17 17 17 17 17 17 17 17 17 17 17 17 17 17 17 17 17 17 17 17 17 17 17 17 17 17 17 17 17 17 17 17 17 17 17 17 17 17 17 17 17 17 17 17 17 17 17 17 17 17 17 17 17 17 17 255 255 255 255 255 255 2 2 255 255 255 255 255 255 255 255 255 255 255 255 255 2 2 2 2 2 255 255 255 2 2 2 2 2 2 2 2 2 2 2 2 2 2 2 2 2 2 2 2 255 255 255 2 2 2 2 2 2 2 2 2 2 2 2 2 2 2 2 2 255 255 255 255 255 255 255 255 255 18 255 255 255 255 255 255 255 255 255 255 255 255 255 255 255 255 255 255 255 255 255 255 255 255 255 255 255 2 2 255 255 255 48 48 48 48 48 48 48 48 48 48 48 48 48 48 48 48 48 48 255 255 255 255 255 18 18 18 18 18 255 255 255 255 64 64 64 64 64 64 64 64 64 64 64 64 64 64 64 64 64 64 64 64 64 64 64 64 64 64 64 255 
255 1 1 1 1 1 1 1 1 1 1 1 1 1 1 1 1 1 1 1 1 255 255 17 17 17 17 17 255 255 63 63 63 63 63 63 63 255 255 255 255 255 255 255 255 255 255 255 255 255 255 255 255 255 255 255 255 255 255 255 255 255 255 17 17 17 17 17 17 17 17 17 17 17 17 17 17 17 17 17 17 17 17 17 17 17 17 17 17 17 17 17 17 17 17 17 17 17 17 17 17 17 17 17 17 17 17 17 17 17 17 17 17 17 17 17 17 17 17 17 17 17 17 17 17 17 17 17 17 17 17 17 17 17 17 17 17 17 17 17 17 17 17 17 17 17 17 17 17 17 17 17 17 17 17 255 255 255 255 17 17 17 17 17 17 17 17 17 17 17 17 17 17 255 255 255 255 255 255 255 255 255 255 255 255 255 255 255 255 255 255 255 3 255 255 255 255 255 255 3 3 3 3 3 3 3 3 3 3 3 3 3 3 255 255 255 255 255 3 3 3 3 255 255 255 3 3 3 3 3 3 3 3 255 255 255 255 255 255 255 255 255 255 255 255 255 255 255 255 255 255 255 255 17 17 17 17 17 17 17 17 17 17 17 17 17 17 17 17 17 17 17 17 17 17 17 17 17 17 17 17 17 17 17 17 17 17 17 17 17 17 17 17 17 17 17 17 17 17 17 17 17 17 17 17 17 17 17 17 17 17 17 17 17 17 17 17 17 17 17 17 17 17 17 17 17 17 17 17 17 17 17 17 17 17 17 17 17 17 17 17 255 255 255 255 255 255 2 2 255 255 255 255 255 255 255 255 255 255 255 255 255 2 2 255 255 255 255 255 255 2 2 2 2 2 2 2 2 2 2 2 2 2 2 2 2 2 2 2 2 255 255 255 2 2 2 2 2 2 2 2 2 2 2 2 2 2 2 2 2 255 255 255 255 2 2 255 255 255 18 255 255 255 255 255 255 18 255 255 255 255 255 255 255 255 255 255 255 255 255 255 255 255 255 255 255 255 255 255 255 255 255 255 48 48 48 48 48 48 48 48 48 48 48 48 48 48 48 48 48 255 255 255 255 255 18 18 18 18 255 255 255 255 64 64 64 64 64 64 64 64 64 64 64 64 64 64 64 64 64 64 64 64 64 64 64 64 64 64 64 64 255 
255 1 1 1 1 1 1 1 1 1 1 1 1 1 1 1 1 1 1 1 1 255 255 17 17 17 17 17 255 255 63 63 63 63 63 63 63 255 255 255 255 255 255 255 255 255 255 255 255 255 255 255 255 255 255 255 255 255 255 255 255 255 255 17 17 17 17 17 17 17 17 17 17 17 17 17 17 17 17 17 17 17 17 17 17 17 17 17 17 17 17 17 17 17 17 17 17 17 17 17 17 17 17 17 17 17 17 17 17 17 17 17 17 17 17 17 17 17 17 17 17 17 17 17 17 17 17 17 17 17 17 17 17 17 17 17 17 17 17 17 17 17 17 17 17 17 17 17 17 17 17 17 17 17 17 17 17 17 17 17 17 17 17 17 17 17 17 17 17 17 255 255 255 255 255 255 255 255 255 255 255 255 255 255 255 255 255 255 255 255 255 255 255 255 255 255 255 255 255 3 3 3 3 3 3 3 3 3 3 3 3 3 3 255 255 255 255 255 3 3 3 3 3 3 3 3 3 3 3 3 3 3 3 3 3 3 255 255 255 255 255 255 255 255 255 255 255 255 255 255 255 255 255 255 255 17 17 17 17 17 17 17 17 17 17 17 17 17 17 17 17 17 17 17 17 17 17 17 17 17 17 17 17 17 17 17 17 17 17 17 17 17 17 17 17 17 17 17 17 17 17 17 17 17 17 17 17 17 17 17 17 17 17 17 17 17 17 17 17 17 17 17 17 17 17 17 17 17 17 17 17 17 17 17 17 17 17 17 17 17 17 17 255 255 255 255 255 255 2 255 255 255 255 255 255 255 255 255 255 255 255 255 255 2 255 255 255 255 255 255 2 2 2 2 2 2 2 2 2 2 2 2 2 2 2 2 2 2 2 2 255 255 255 2 2 2 2 2 2 2 2 2 2 2 2 2 2 2 2 2 255 255 255 255 255 255 2 255 255 255 255 255 18 255 255 255 18 255 255 255 255 255 255 18 255 255 255 255 255 255 255 255 255 255 255 255 255 255 255 255 255 255 255 255 48 48 48 48 48 48 48 48 48 48 48 48 48 48 48 48 48 255 255 255 255 255 18 18 18 255 255 255 64 64 64 64 64 64 64 64 64 64 64 64 64 64 64 64 64 64 64 64 64 64 64 64 64 64 64 64 64 255 
255 1 1 1 1 1 1 1 1 1 1 1 1 1 1 1 1 1 1 255 255 255 255 17 17 17 17 17 255 255 63 63 63 63 63 63 63 63 63 255 255 255 255 255 255 255 255 255 17 255 255 255 255 17 17 255 255 255 255 255 255 255 255 17 17 17 17 17 17 17 17 17 17 17 17 17 17 17 17 17 17 17 17 17 17 17 17 17 17 17 17 17 17 17 17 17 17 17 17 17 17 17 17 17 17 17 17 17 17 17 17 17 17 17 17 17 17 17 17 17 17 17 17 17 17 17 17 17 17 17 17 17 17 17 17 17 17 17 17 17 17 17 17 17 17 17 17 17 17 17 17 17 17 17 17 17 17 17 17 17 17 17 17 17 17 17 17 17 17 17 255 255 255 255 255 255 255 255 255 255 255 255 255 255 255 255 255 255 255 255 255 255 255 255 255 255 255 3 3 3 3 3 3 255 255 255 3 3 3 3 3 3 255 255 255 255 255 255 3 3 3 3 3 3 3 3 3 3 3 3 3 255 255 255 255 3 255 255 255 255 255 255 255 255 255 255 255 255 255 255 255 255 255 255 255 255 255 17 17 17 17 17 17 17 17 17 17 17 17 17 17 17 17 17 17 17 17 17 17 17 17 17 17 17 17 17 17 17 17 17 17 17 17 17 17 17 17 17 17 17 17 17 17 17 17 17 17 17 17 17 17 17 17 17 17 17 17 17 17 17 17 17 17 17 17 17 17 17 17 17 17 17 17 17 17 17 17 17 17 17 17 17 255 255 255 255 255 255 2 255 255 255 255 255 255 255 255 255 255 255 255 255 255 2 255 255 255 255 255 2 255 255 255 2 2 2 2 2 2 2 2 2 255 255 255 2 2 2 2 2 2 2 2 2 2 2 2 2 2 2 2 2 2 2 2 2 2 2 2 2 255 255 255 255 255 255 255 255 255 255 255 255 18 18 18 18 18 18 18 255 255 255 255 18 255 255 255 255 255 255 255 255 255 255 255 255 255 255 255 255 255 255 255 255 48 48 48 48 48 48 48 48 48 48 48 48 48 48 48 48 48 48 255 255 255 255 255 18 255 255 255 64 64 64 64 64 64 64 64 64 64 64 64 64 64 64 64 64 64 64 64 64 64 64 64 64 64 64 64 64 64 255 
255 1 1 1 1 1 1 1 1 1 1 1 1 1 1 1 1 1 1 255 255 255 255 17 17 17 255 255 255 255 63 63 63 63 63 63 63 63 63 255 255 255 63 255 255 17 17 17 17 17 17 17 17 255 255 255 255 255 255 255 17 17 17 17 17 17 17 17 17 17 17 17 17 17 17 17 17 17 17 17 17 17 17 17 17 17 17 17 17 17 17 17 17 17 17 17 17 17 17 17 17 17 17 17 17 17 17 17 17 17 17 17 17 17 17 17 17 17 17 17 17 17 17 17 17 17 17 17 17 17 17 17 17 17 17 17 17 17 17 17 17 17 17 17 17 17 17 17 17 17 17 17 17 17 17 17 17 17 17 17 17 17 17 17 17 17 17 17 17 17 255 255 255 255 255 255 255 255 255 255 255 255 255 255 255 255 255 255 17 255 255 255 255 255 255 255 255 255 255 255 3 3 3 255 255 255 3 3 3 3 3 3 255 255 255 255 255 255 255 255 255 3 3 3 3 3 3 3 3 3 3 255 255 255 255 3 3 3 255 255 255 255 255 255 255 255 255 255 49 255 255 255 255 255 255 255 255 255 255 17 17 17 17 17 17 17 17 17 17 17 17 17 17 17 17 17 17 17 17 17 17 17 17 17 17 17 17 17 17 17 17 17 17 17 17 17 17 17 17 17 17 17 17 17 17 17 17 17 17 17 17 17 17 17 17 17 17 17 17 17 17 17 17 17 17 17 17 17 17 17 17 17 17 17 17 17 17 17 17 17 17 17 255 255 255 255 255 255 255 2 2 255 255 255 255 255 255 255 255 255 255 255 255 255 255 255 255 255 255 255 255 255 255 2 2 2 2 2 2 2 2 2 255 255 255 2 2 2 2 2 2 2 2 255 255 255 2 2 2 2 2 2 2 2 2 2 2 255 255 255 255 2 2 255 255 255 255 255 255 255 255 255 18 18 18 18 18 18 18 18 18 18 18 18 255 255 255 255 255 255 255 255 255 255 255 255 255 255 255 255 255 255 255 255 255 48 48 48 48 48 48 48 48 48 48 48 48 48 48 48 48 48 255 255 255 255 255 255 255 255 255 64 64 64 64 64 64 64 64 64 64 64 64 64 64 64 64 64 64 64 64 64 64 64 64 64 64 64 64 64 64 255 
255 1 1 1 1 1 1 1 1 1 1 1 1 1 1 1 1 1 1 255 255 255 255 17 17 17 255 255 255 255 255 63 63 63 63 63 63 63 63 63 63 63 63 255 255 255 255 255 255 255 17 17 17 255 255 255 255 255 255 255 17 255 255 255 17 17 17 17 17 17 17 17 17 17 17 17 17 17 17 17 17 17 17 17 17 17 17 17 17 17 17 17 17 17 17 17 17 17 17 17 17 17 17 17 17 17 17 17 17 17 17 17 17 17 17 17 17 17 17 17 17 17 17 17 17 17 17 17 17 17 17 17 17 17 17 17 17 17 17 17 17 17 17 17 17 17 17 17 17 17 17 17 17 17 17 17 17 17 17 17 17 17 17 17 17 17 17 17 17 17 255 255 255 255 255 255 255 255 255 255 255 255 255 255 255 255 255 255 255 17 17 255 255 255 255 255 255 255 255 255 3 3 3 255 255 255 3 3 3 3 3 3 255 255 255 255 255 255 255 255 255 3 255 255 255 3 3 3 3 3 3 255 255 255 255 3 3 3 255 255 255 255 255 255 255 255 255 255 255 255 255 255 49 255 255 255 255 255 255 255 255 17 17 17 17 17 17 17 17 17 17 17 17 17 17 17 17 17 17 17 17 17 17 17 17 17 17 17 17 17 17 17 17 17 17 17 17 17 17 17 17 17 17 17 17 17 17 17 17 17 17 17 17 17 17 17 17 17 17 17 17 17 17 17 17 17 17 17 17 17 17 17 17 17 17 17 17 17 17 17 17 17 17 17 17 255 255 255 255 2 2 255 255 255 255 255 255 255 255 255 255 255 255 255 255 255 255 255 255 255 255 255 255 2 2 2 2 2 2 2 2 2 255 255 255 2 2 2 2 2 2 2 2 255 255 255 2 2 255 255 255 2 2 2 2 2 2 255 255 255 255 2 2 255 255 255 255 255 255 255 255 255 18 18 18 18 18 18 18 18 18 255 255 255 255 255 255 255 255 255 255 255 255 255 255 255 255 255 255 255 255 255 255 255 255 48 48 48 48 48 48 48 48 48 48 48 48 48 48 48 48 48 48 255 255 255 255 255 255 255 64 64 64 64 64 64 64 64 64 64 64 64 64 64 64 64 64 64 64 64 64 64 64 64 64 64 64 64 64 64 64 255 
255 1 1 1 1 1 1 1 1 1 1 1 1 1 1 1 1 1 1 1 255 255 255 17 17 17 255 255 255 255 255 63 63 63 63 63 63 63 63 63 63 63 63 255 255 255 255 255 255 255 17 17 255 255 255 255 255 255 255 255 255 255 255 255 17 17 17 17 17 17 17 17 17 17 17 17 17 17 17 17 17 17 17 17 17 17 17 17 17 17 17 17 17 17 17 17 17 17 17 17 17 17 17 17 17 17 17 17 17 17 17 17 17 17 17 17 17 17 17 17 17 17 17 17 17 17 17 17 17 17 17 17 17 17 17 17 17 17 17 17 17 17 17 17 17 17 17 17 17 17 17 17 17 17 17 17 17 17 17 17 255 255 255 17 17 17 17 17 17 255 255 255 255 255 255 255 255 255 255 255 255 255 255 255 255 255 255 255 255 255 255 255 255 255 255 255 255 255 255 255 255 3 3 3 3 3 3 3 3 3 3 3 3 3 3 255 255 255 255 255 255 3 255 255 255 3 3 3 3 3 3 3 255 255 255 255 3 3 3 3 255 255 255 255 255 255 255 255 255 255 255 255 49 49 49 255 255 255 255 255 255 255 17 17 17 17 17 17 17 17 17 17 17 17 17 17 17 17 17 17 17 17 17 17 17 17 17 17 17 17 17 17 17 17 17 17 17 17 17 17 17 17 17 17 17 17 17 17 17 17 17 17 17 17 17 17 17 17 17 17 17 17 17 17 17 17 17 17 17 17 17 17 17 17 17 17 17 17 17 17 17 17 17 17 17 17 255 255 255 2 2 255 255 255 255 255 255 255 255 255 255 255 255 255 255 2 255 255 255 255 255 255 255 2 2 2 2 2 2 2 2 2 2 2 2 2 2 2 2 2 2 2 2 255 255 255 2 2 255 255 255 2 2 2 2 2 2 255 255 255 255 2 2 255 255 255 255 255 255 255 255 255 18 18 18 18 18 18 18 18 18 255 255 255 255 255 255 255 255 255 18 18 18 255 255 255 255 18 18 18 18 255 255 255 255 255 48 48 48 48 48 48 48 48 48 48 48 48 48 48 48 48 48 48 255 255 255 255 255 64 64 64 64 64 64 64 64 64 64 64 64 64 64 64 64 64 64 64 64 64 64 64 64 64 64 64 64 64 64 64 64 255 
255 1 1 1 1 1 1 1 1 1 1 1 1 1 1 1 1 1 1 1 255 255 17 17 17 17 17 255 255 255 255 63 63 63 63 63 63 63 63 63 63 63 63 255 255 255 255 255 255 255 17 17 255 255 255 255 255 255 255 255 255 255 255 255 17 17 17 17 17 17 17 17 17 255 255 255 17 255 255 255 17 17 17 17 17 17 17 17 17 17 17 17 17 17 17 17 17 17 17 17 17 17 17 17 17 17 17 17 17 17 17 17 17 17 17 17 17 17 17 17 17 17 17 17 17 17 17 17 17 17 17 17 17 17 17 17 17 17 17 17 17 17 17 17 17 17 17 17 17 17 17 17 17 17 17 255 255 255 255 255 255 255 255 17 17 17 17 17 17 255 255 255 255 255 255 255 17 17 255 255 255 255 255 255 255 255 255 255 255 255 255 255 255 255 255 255 255 255 255 255 255 3 3 3 3 3 3 3 3 3 3 3 3 3 3 3 255 255 255 3 3 3 255 255 255 3 255 255 255 3 3 3 3 255 255 255 3 255 255 255 255 255 255 255 255 255 255 255 255 49 49 49 49 49 49 49 49 255 255 255 255 255 255 255 17 17 17 17 17 17 17 17 17 17 17 17 17 17 17 17 17 17 17 17 17 17 17 17 17 17 17 17 17 17 17 17 17 17 17 17 17 17 17 17 17 17 17 17 17 17 17 17 17 17 17 17 17 17 17 17 17 17 17 17 17 17 17 17 17 17 17 17 17 17 17 17 17 17 17 17 17 17 17 17 17 17 255 255 255 255 2 255 255 255 255 255 255 255 255 255 255 255 255 255 255 255 255 255 255 255 255 255 255 2 2 2 2 2 2 2 2 2 2 2 2 2 2 2 255 255 255 2 2 2 2 2 2 2 255 255 255 2 2 2 2 2 2 2 255 255 255 255 255 255 255 255 255 255 255 255 255 255 255 255 255 18 18 18 18 18 18 255 255 255 255 255 18 255 255 255 255 18 255 255 255 255 255 255 18 18 18 255 255 255 255 255 48 48 48 48 48 48 48 48 48 48 48 48 48 48 48 48 48 48 255 255 255 255 255 64 64 64 64 64 64 64 64 64 64 64 64 64 64 64 64 64 64 64 64 64 64 64 64 64 64 64 64 64 64 64 64 255 
255 1 1 1 1 1 1 1 1 1 1 1 1 1 1 1 1 1 1 1 255 255 255 17 17 17 17 255 255 63 63 63 63 63 63 63 63 63 63 63 63 63 63 63 63 255 255 255 255 255 255 17 255 255 255 255 255 255 255 255 255 255 255 255 255 255 255 17 17 17 17 17 17 255 255 255 17 255 255 255 17 17 17 17 17 17 17 17 17 17 17 17 17 17 17 17 17 17 17 17 17 17 17 17 17 17 17 17 17 17 17 17 17 17 17 17 17 17 17 17 17 17 17 17 17 17 17 17 17 17 17 17 17 17 17 17 17 17 17 17 17 17 17 17 17 17 17 17 17 255 255 255 255 255 255 255 255 255 255 255 255 255 255 17 17 17 17 255 255 255 255 255 255 255 255 255 255 255 255 255 255 255 255 255 255 255 255 255 255 255 255 255 255 255 255 255 255 255 255 255 255 255 255 255 255 3 3 3 3 3 3 3 3 3 3 3 255 255 255 3 3 3 3 3 3 3 255 255 255 3 3 3 3 255 255 255 255 255 255 255 255 255 255 255 255 255 255 255 255 49 49 49 49 49 49 49 255 255 255 255 255 255 255 255 255 17 17 17 17 17 17 17 17 17 17 17 17 17 17 17 17 17 17 17 17 17 17 17 17 17 17 17 17 17 17 17 17 17 17 17 17 17 17 17 17 17 17 17 17 17 17 17 17 17 17 17 17 17 17 17 17 17 17 17 17 17 17 17 17 17 17 17 17 17 17 17 17 17 17 17 17 17 17 17 17 17 255 255 255 255 2 255 255 255 255 255 255 255 255 255 255 255 255 255 255 255 255 255 255 255 255 255 255 2 2 2 2 2 2 2 2 2 2 2 2 2 2 2 255 255 255 255 255 2 2 2 255 255 255 255 255 2 2 2 2 2 2 255 255 255 255 255 255 255 255 255 255 255 255 255 255 255 255 255 255 255 255 255 255 255 18 255 255 255 255 255 255 255 255 255 255 255 255 255 255 255 255 255 18 18 255 255 255 255 255 255 255 48 48 48 48 48 48 48 48 48 48 48 48 48 48 48 48 48 255 255 255 255 255 64 64 64 64 64 64 64 64 64 64 64 64 64 64 64 64 64 64 64 64 64 64 64 64 64 64 64 64 64 64 64 64 255 
255 1 1 1 1 1 1 1 1 1 1 1 1 1 1 1 1 1 1 1 255 255 255 17 17 17 17 255 255 63 63 63 63 63 63 63 63 63 63 63 63 255 255 255 255 63 255 255 255 255 255 17 17 17 255 255 255 255 255 255 255 255 255 255 255 255 255 17 17 17 17 17 17 255 255 255 17 255 255 255 17 17 17 17 17 17 17 17 17 17 17 17 17 17 17 17 17 17 17 17 17 17 17 17 17 17 17 17 17 17 17 17 17 17 17 17 17 17 17 17 17 17 17 17 17 17 17 17 17 17 17 17 17 17 17 17 17 17 17 17 17 17 17 17 17 17 17 17 255 255 255 255 255 255 255 255 255 255 255 255 255 17 17 17 17 17 17 255 255 255 17 255 255 255 17 255 255 255 255 255 255 255 255 255 255 255 255 255 255 255 255 255 255 3 255 255 255 255 255 255 3 255 255 255 255 3 3 3 3 3 3 3 3 3 3 3 3 3 3 3 3 3 3 3 3 3 255 255 255 3 3 3 3 255 255 255 255 255 255 255 255 255 255 255 49 255 255 255 255 49 49 49 49 49 49 49 255 255 255 255 49 255 255 255 255 255 255 255 255 255 17 17 17 17 17 17 17 17 17 17 17 17 17 17 17 17 17 17 17 17 17 17 17 17 17 17 17 17 17 17 17 17 17 17 17 17 17 17 17 17 17 17 17 17 17 17 17 17 17 17 17 17 17 17 17 17 17 17 17 17 17 17 17 17 17 17 17 17 17 17 17 17 17 17 17 17 17 255 255 255 2 255 255 255 255 255 255 255 255 255 255 255 255 255 255 255 255 255 255 255 255 255 255 2 2 2 2 2 2 2 2 2 2 2 2 2 2 2 255 255 255 255 255 2 255 255 255 255 255 255 255 255 2 2 2 2 2 255 255 255 255 255 255 255 255 255 255 255 255 255 255 255 255 255 255 255 255 255 255 255 255 255 255 255 255 255 255 255 255 255 255 255 255 255 2 2 255 255 18 18 255 255 255 255 255 255 255 255 48 48 48 48 48 48 48 48 48 48 48 48 48 48 48 48 255 255 255 255 255 64 64 64 64 64 64 64 64 64 64 64 64 64 64 64 64 64 64 64 64 64 64 64 64 64 64 64 64 64 64 64 64 255 
255 1 1 1 1 1 1 1 1 1 1 1 1 1 1 1 1 1 1 1 255 255 255 17 17 17 17 255 255 255 63 63 63 63 63 63 63 63 63 63 63 255 255 255 255 63 63 63 255 255 255 255 255 255 255 255 255 255 255 255 255 255 255 255 255 255 255 17 17 17 17 17 17 17 17 17 17 17 17 17 17 17 17 17 17 17 17 17 17 17 17 17 17 17 17 17 17 17 17 17 17 17 17 17 17 17 17 17 17 17 17 17 17 17 17 17 17 17 17 17 17 17 17 17 17 17 17 17 17 17 17 17 17 17 17 17 17 17 17 17 17 17 255 255 255 255 255 255 255 255 255 255 255 255 255 255 255 255 255 17 17 17 17 17 17 17 17 255 255 255 17 17 17 17 17 255 255 255 255 255 255 255 255 255 255 255 255 3 3 255 255 255 255 3 255 255 255 255 255 255 3 255 255 255 255 3 3 3 3 3 3 3 3 3 3 3 3 3 3 3 3 3 3 3 255 255 255 3 3 3 3 3 3 3 255 255 255 255 255 255 255 255 255 255 255 255 255 255 255 49 49 49 49 49 255 255 255 255 255 255 49 49 255 255 255 255 255 255 255 255 255 17 17 17 17 17 17 17 17 17 17 17 17 17 17 17 17 17 17 17 17 17 17 17 17 17 17 17 17 17 17 17 17 17 17 17 17 17 17 17 17 17 17 17 17 17 17 17 17 17 17 17 17 17 17 17 17 17 17 17 17 17 17 17 17 17 17 17 17 17 17 17 17 17 17 255 255 255 255 255 2 2 2 255 255 255 255 255 255 255 255 255 255 255 255 255 255 255 255 255 255 255 255 2 2 2 2 2 2 2 2 2 2 2 2 2 2 255 255 255 255 255 255 255 255 255 255 255 255 255 255 255 2 2 2 2 2 255 255 255 255 255 255 255 255 255 255 255 255 255 255 255 255 255 255 255 255 255 255 255 255 255 255 255 255 255 255 255 255 255 255 255 255 2 2 2 255 255 18 255 255 255 255 255 255 255 255 255 255 48 48 48 48 48 48 48 48 48 48 48 48 48 48 255 255 255 255 255 64 64 64 64 64 64 64 64 64 64 64 64 64 64 64 64 64 64 64 64 64 64 64 64 64 64 64 64 64 64 64 64 64 255 
255 1 1 1 1 1 1 1 1 1 1 1 1 1 1 1 1 1 1 1 255 255 255 17 17 17 17 255 255 255 63 63 63 63 63 63 63 63 63 63 63 255 255 255 255 255 255 63 255 255 255 255 255 255 255 255 255 255 255 255 255 255 255 255 255 255 255 17 17 17 17 17 17 17 17 17 17 17 17 17 17 17 17 17 17 17 17 17 17 17 17 17 17 17 17 17 17 17 17 17 17 17 17 17 17 17 17 17 17 17 17 17 17 17 17 17 17 17 17 17 17 17 17 17 17 17 17 17 17 17 17 17 17 17 17 17 17 17 17 17 17 17 255 255 255 255 255 255 255 255 255 255 255 255 255 255 255 255 17 17 17 17 17 17 17 17 17 17 17 17 17 17 17 17 17 17 17 17 17 17 17 17 17 17 17 255 255 255 255 255 255 255 255 3 255 255 255 255 255 255 255 255 255 255 255 3 3 3 3 3 3 3 3 3 3 3 3 3 3 3 3 3 3 3 255 255 255 255 3 3 3 255 255 255 255 255 255 255 255 255 255 255 255 255 255 255 255 255 255 255 255 49 49 49 255 255 255 49 49 255 255 255 49 49 255 255 255 255 255 255 255 255 17 17 17 17 17 17 17 17 17 17 17 17 17 17 17 17 17 17 17 17 17 17 17 17 17 17 17 17 17 17 17 17 17 17 17 17 17 17 17 17 17 17 17 17 17 17 17 17 17 17 17 17 17 17 17 255 255 255 17 17 17 17 17 17 17 17 17 17 17 17 17 255 255 255 255 255 255 2 2 2 2 255 255 255 255 255 255 255 255 255 255 255 255 2 255 255 255 255 255 255 255 2 255 255 255 2 2 2 2 2 2 2 2 2 2 255 255 255 255 2 255 255 255 255 255 255 255 255 255 255 2 2 2 2 2 255 255 255 255 255 255 255 255 255 255 255 255 255 255 255 255 255 255 255 255 255 255 255 255 255 255 255 255 255 255 255 255 255 255 2 2 2 2 255 255 255 18 255 255 255 255 255 255 255 255 255 255 255 48 48 48 48 48 48 48 48 48 48 48 48 48 255 255 255 255 255 64 64 64 64 64 64 64 64 64 64 64 64 64 64 64 64 64 64 64 64 64 64 64 64 64 64 64 64 64 64 64 64 64 255 
255 1 1 1 1 1 1 1 1 1 1 1 1 1 1 1 1 1 1 1 255 255 17 17 17 17 17 255 255 255 63 63 63 63 63 63 63 63 63 63 63 255 255 255 255 255 255 255 255 255 255 255 255 255 255 255 255 255 255 255 255 255 255 255 255 255 255 255 17 17 17 17 17 17 17 17 17 17 17 17 17 17 17 17 17 17 17 17 17 17 17 17 17 17 17 17 17 17 17 17 17 17 17 17 17 17 17 17 17 17 17 17 17 17 17 17 17 17 17 17 17 17 17 17 17 17 17 17 17 17 17 17 17 17 17 17 17 17 17 17 17 255 255 255 255 255 255 255 255 255 255 255 255 255 255 17 17 17 17 17 17 17 17 17 17 17 17 17 17 255 255 255 255 255 17 17 17 17 17 17 17 17 17 17 255 255 255 255 255 255 255 255 255 255 255 255 255 255 255 255 255 255 255 255 3 3 3 3 3 3 3 3 3 3 3 3 3 3 3 3 3 3 3 3 255 255 255 255 3 255 255 255 255 255 255 255 255 255 255 255 255 255 255 255 255 255 255 255 255 255 255 49 49 49 255 255 255 49 49 255 255 255 49 255 255 255 255 255 255 255 255 255 17 17 17 17 17 17 17 17 17 17 17 17 17 17 17 17 17 17 17 17 17 17 17 17 17 17 17 17 17 17 17 17 17 17 17 17 17 17 17 17 17 17 17 17 17 17 17 17 17 17 17 17 17 17 17 255 255 255 17 17 17 17 17 17 17 17 17 17 17 17 255 255 255 255 255 255 2 2 2 2 2 255 255 255 255 255 255 255 255 255 255 255 255 255 255 255 255 255 255 255 2 2 255 255 255 255 2 2 2 2 2 2 2 2 2 255 255 255 255 255 255 255 255 255 255 255 255 255 255 255 2 255 255 255 2 255 255 255 255 255 2 255 255 255 255 255 255 255 255 255 255 255 255 255 255 255 255 255 255 255 255 255 255 255 255 255 255 255 255 2 2 2 255 255 255 255 255 255 255 255 255 255 255 255 255 255 255 255 255 48 48 48 48 48 48 48 48 48 48 255 255 255 255 255 255 64 64 64 64 64 64 64 64 64 64 64 64 64 64 64 64 64 64 64 64 64 64 64 64 64 64 64 64 64 64 64 64 64 64 255 
255 1 1 1 1 1 1 1 1 1 1 1 1 1 1 1 1 1 1 1 255 255 17 17 17 17 17 255 255 255 63 63 63 63 63 63 63 63 63 63 63 255 255 255 255 255 255 255 255 255 255 255 255 255 255 255 255 255 255 255 255 255 255 255 255 255 255 255 17 17 17 17 17 17 17 17 17 17 17 17 17 17 17 17 17 17 17 17 17 17 17 17 17 17 17 17 17 17 17 17 17 17 17 17 17 17 17 17 17 17 17 17 17 17 17 17 17 17 17 17 17 17 17 17 17 17 17 17 17 17 17 17 17 17 17 17 255 255 255 255 17 255 255 255 255 255 255 255 255 255 255 255 17 17 17 17 17 17 17 17 17 17 17 17 17 17 17 17 17 255 255 255 255 255 17 17 17 17 17 17 17 17 17 17 255 255 255 255 17 17 255 255 255 255 255 255 255 3 255 255 255 255 255 255 3 3 3 3 3 3 3 3 3 3 3 3 3 3 3 3 3 3 3 3 255 255 255 255 255 255 255 255 255 255 255 255 255 255 255 255 255 255 255 255 255 255 255 255 255 255 255 49 49 49 49 49 49 49 49 255 255 255 49 255 255 255 255 255 255 255 255 255 255 17 17 17 17 17 17 17 17 17 17 17 17 17 17 17 17 17 17 17 17 17 17 17 17 17 17 17 17 17 17 17 17 17 17 17 17 17 17 17 17 17 17 17 17 17 17 17 17 17 17 17 17 17 17 255 255 255 17 17 17 17 17 17 17 17 17 17 17 17 255 255 255 255 255 255 255 255 255 2 2 255 255 255 255 255 255 255 255 255 255 255 255 255 255 255 255 255 255 255 2 255 255 255 255 255 2 2 2 2 2 2 2 2 2 2 255 255 255 255 255 255 255 255 255 255 255 255 255 255 255 255 255 255 2 255 255 255 255 255 255 255 255 255 255 255 255 255 255 255 255 255 255 255 255 255 255 255 255 255 255 255 255 255 255 255 255 255 255 255 255 2 255 255 255 255 255 255 255 255 255 255 255 255 255 255 255 255 255 48 48 48 48 48 48 48 48 48 255 255 255 255 255 255 255 64 64 64 64 64 64 64 64 64 64 64 64 64 64 64 64 64 64 64 64 64 64 64 64 64 64 64 64 64 64 64 64 64 64 255 
255 1 1 1 1 1 1 1 1 1 1 1 1 1 1 1 1 1 1 1 255 255 17 17 17 17 17 17 255 255 63 63 63 63 63 63 63 63 63 63 63 63 63 63 63 63 255 255 255 255 255 255 255 255 255 255 255 255 255 255 255 255 255 255 255 255 255 255 255 255 255 17 255 255 255 255 17 17 17 17 17 17 17 17 17 17 17 17 17 17 17 17 17 17 17 17 17 17 17 17 17 17 17 17 17 17 17 17 17 17 17 17 17 17 17 17 17 17 17 17 17 17 17 17 17 17 17 17 17 17 17 17 17 17 17 17 255 255 255 255 255 255 255 255 255 255 255 255 255 255 255 17 17 17 17 17 17 17 17 17 17 17 17 17 17 17 17 17 17 255 255 255 255 255 17 17 17 17 17 17 255 255 255 17 255 255 255 255 17 17 255 255 255 255 255 255 255 255 255 255 255 255 255 255 3 3 3 255 255 255 255 255 255 3 3 3 3 3 3 3 3 3 3 3 255 255 255 255 255 255 255 255 255 255 255 255 255 255 255 255 255 255 255 255 49 255 255 255 255 49 255 255 255 49 49 49 49 49 49 49 49 49 49 255 255 255 255 49 49 255 255 255 255 255 255 17 17 17 17 17 17 17 17 17 17 17 17 17 17 17 17 17 17 17 17 17 17 17 17 17 17 17 17 17 17 17 17 17 17 17 17 17 17 17 17 17 17 17 17 17 17 17 17 17 17 17 17 17 17 255 255 255 17 17 17 17 17 17 17 17 17 17 255 255 255 255 255 255 255 255 255 2 2 2 2 2 255 255 255 255 255 255 255 255 255 255 255 255 255 255 255 255 255 255 255 255 255 255 2 2 2 2 2 2 2 2 2 2 255 255 255 255 255 255 255 255 255 255 255 255 255 255 255 255 255 255 2 2 2 255 255 255 255 255 255 255 255 255 255 255 255 255 255 255 255 255 255 255 255 255 255 255 255 255 255 255 255 255 255 255 255 255 255 255 255 255 255 255 255 255 255 255 255 255 255 255 255 255 255 255 255 48 48 48 48 48 48 48 48 48 255 255 255 255 255 255 64 64 64 64 64 64 64 64 64 64 64 64 64 64 64 64 64 64 64 64 64 64 64 64 64 64 64 64 64 64 64 64 64 64 64 255 
255 1 1 1 1 1 1 1 1 1 1 1 1 1 1 1 1 1 1 1 255 255 17 17 17 17 17 255 255 255 63 63 63 63 63 63 63 63 63 63 63 63 63 63 63 63 255 255 255 255 255 255 255 255 255 255 255 255 255 255 255 255 255 255 255 17 255 255 255 255 255 17 255 255 255 255 17 17 17 17 17 17 17 17 17 17 17 17 17 17 17 17 17 17 17 17 17 17 17 17 17 17 17 17 17 17 17 17 17 17 17 17 17 17 17 17 17 17 17 17 17 17 17 17 17 17 17 17 17 17 17 17 17 17 17 17 255 255 255 255 255 17 17 17 17 17 17 17 17 17 17 17 17 17 17 17 17 17 17 17 17 17 17 17 17 17 17 17 17 17 17 17 17 17 17 17 17 17 17 17 255 255 255 17 17 255 255 255 255 255 255 255 255 255 255 255 255 255 255 255 255 255 255 3 3 3 3 255 255 255 255 255 255 3 3 3 3 3 3 3 3 3 3 3 255 255 255 255 255 255 255 255 255 255 255 255 255 255 255 255 255 255 255 49 49 49 255 255 255 255 255 255 255 49 49 49 49 49 49 49 49 49 49 49 49 49 49 49 255 255 255 255 255 255 255 255 255 255 255 17 17 17 17 17 17 17 17 17 17 17 17 17 17 17 17 17 17 17 17 17 17 17 17 17 17 17 17 17 17 17 17 17 17 17 17 17 17 17 17 17 17 17 17 17 17 17 17 17 17 255 255 255 17 17 17 17 17 17 17 17 17 17 255 255 255 255 255 255 255 255 255 2 2 2 2 2 2 2 2 255 255 255 255 255 255 255 255 255 255 255 255 255 255 255 255 255 255 255 255 255 255 255 2 2 2 2 2 2 2 255 255 255 255 255 255 255 255 255 255 255 255 255 255 255 255 255 255 255 255 2 2 2 255 255 255 255 255 255 255 255 255 255 255 255 255 255 255 255 255 255 255 255 255 255 255 255 255 255 255 255 255 255 255 255 255 255 255 255 255 255 255 255 255 255 255 255 255 255 255 255 255 255 48 48 48 48 48 48 48 255 255 255 255 255 255 64 64 64 64 64 64 64 64 64 64 64 64 64 64 64 64 64 64 64 64 64 64 64 64 64 64 64 64 64 64 64 64 64 64 64 64 255 
255 1 1 1 1 1 1 1 1 1 1 1 1 1 1 1 1 1 1 1 255 255 17 17 17 17 17 255 255 255 63 63 63 63 63 63 63 63 63 63 63 63 63 63 63 63 255 255 255 255 63 63 63 63 255 255 255 255 255 255 255 255 255 255 255 255 255 255 255 255 255 17 255 255 255 255 17 17 17 17 17 17 17 17 17 17 17 17 17 17 17 17 17 17 17 17 17 17 17 17 17 17 17 17 17 17 17 17 17 17 17 17 17 17 17 17 17 17 17 17 17 17 17 17 17 17 17 17 17 17 17 17 17 17 17 255 255 255 255 255 255 255 17 17 17 17 17 17 17 17 17 17 17 17 17 17 17 17 17 17 17 17 17 17 17 17 17 17 17 17 17 17 17 17 17 17 17 17 17 17 255 255 255 17 17 17 17 255 255 255 255 17 255 255 255 255 255 255 255 255 255 255 255 3 3 3 3 255 255 255 255 255 255 3 3 3 3 3 3 3 3 3 3 3 3 255 255 255 255 255 255 255 255 255 255 255 255 255 255 255 255 255 255 49 49 255 255 255 255 255 255 255 255 49 49 49 49 49 49 49 49 49 49 49 49 49 49 49 255 255 255 255 255 255 255 255 255 255 255 255 255 17 17 17 17 17 17 17 17 17 17 17 17 17 17 17 17 17 17 17 17 17 17 17 17 17 17 17 17 17 17 17 17 17 17 17 17 17 17 17 17 17 17 17 17 17 17 17 17 255 255 255 17 17 17 17 17 17 17 17 17 17 17 17 255 255 255 255 2 2 2 2 2 2 2 2 2 255 255 255 255 255 255 255 255 255 255 255 255 255 255 255 255 255 255 255 255 255 255 255 255 255 2 2 2 2 2 2 2 255 255 255 255 255 255 255 255 255 255 255 255 255 255 255 255 255 255 255 255 255 255 255 255 255 255 255 255 255 255 255 255 255 255 255 255 255 255 255 255 255 255 255 255 255 255 255 255 255 255 255 255 255 255 255 255 255 255 255 255 255 255 255 255 255 255 255 255 255 255 255 255 255 255 48 48 48 48 48 255 255 255 255 255 255 255 64 64 64 64 64 64 64 64 64 64 64 64 64 64 64 64 64 64 64 64 64 64 64 64 64 64 64 64 64 64 64 64 64 64 64 64 255 
255 1 1 1 1 1 1 1 1 1 1 1 1 1 1 1 1 1 1 1 255 255 17 17 17 17 17 255 255 63 63 63 63 63 63 63 63 63 63 63 63 63 63 63 63 63 255 255 255 63 63 63 63 255 255 255 255 255 255 255 255 255 255 255 255 255 255 255 255 255 255 17 17 17 17 17 17 17 17 17 17 17 17 17 17 17 17 17 17 17 17 17 17 17 17 17 17 17 17 17 17 17 17 17 17 17 17 17 17 17 17 17 17 17 17 17 17 17 17 17 17 17 17 17 17 17 17 17 17 17 17 17 17 17 255 255 255 255 255 255 255 255 255 17 17 17 17 17 17 17 17 17 17 17 17 17 17 17 17 17 17 17 17 17 17 17 17 17 17 17 17 17 17 17 17 17 17 17 17 17 17 17 17 17 17 17 17 255 255 255 255 17 17 255 255 255 255 255 255 255 255 255 255 3 3 255 255 255 255 3 3 3 3 3 3 3 3 3 3 3 3 3 3 3 3 255 255 255 255 255 255 255 255 255 255 255 255 255 255 255 255 255 255 255 255 255 255 255 255 255 255 255 255 49 49 49 49 49 49 49 49 49 49 49 49 49 49 49 255 255 255 255 255 255 255 255 255 255 255 255 255 255 255 17 17 17 17 17 17 17 17 17 17 17 17 17 17 17 17 17 17 17 17 17 17 17 17 17 17 17 17 17 17 17 17 17 17 17 17 255 255 255 17 17 17 17 17 17 17 255 255 255 17 17 17 17 17 17 17 17 17 17 17 255 255 255 255 255 2 2 2 2 2 2 2 2 2 255 255 255 255 255 255 255 255 255 255 255 255 18 18 18 18 18 255 255 255 255 255 18 255 255 255 2 2 2 2 2 2 255 255 255 255 255 255 255 255 255 255 255 255 255 255 255 255 255 255 255 255 255 255 255 255 255 255 255 255 255 255 255 255 255 255 255 255 255 255 255 255 255 255 255 255 255 255 255 255 255 255 255 255 255 255 18 255 255 255 255 255 255 255 255 2 255 255 255 255 255 255 255 255 255 255 48 48 48 255 255 255 255 255 255 255 255 64 64 64 64 64 64 64 64 64 64 64 64 64 64 64 64 64 64 64 64 64 64 64 64 64 64 64 64 64 64 64 64 64 64 64 64 64 255 
255 1 1 1 1 1 1 1 1 1 1 1 1 1 1 1 1 1 1 1 255 255 17 17 17 17 17 255 255 63 63 63 63 63 63 63 63 63 63 63 63 63 63 63 63 63 63 63 63 63 63 255 255 255 255 255 255 255 255 255 255 255 255 255 255 255 255 255 255 255 255 255 255 255 255 17 17 17 17 17 17 17 17 17 17 17 17 17 17 17 17 17 17 17 17 17 17 17 17 17 17 17 17 17 17 17 17 17 17 17 17 17 17 17 17 17 17 17 17 17 17 17 17 17 17 17 17 17 17 17 17 17 17 17 255 255 255 255 255 255 255 255 255 17 17 17 17 17 17 17 17 17 17 17 17 17 17 17 17 17 17 17 17 17 17 17 17 17 17 17 17 17 17 17 17 17 17 17 17 17 17 17 17 17 17 17 17 17 255 255 255 17 255 255 255 255 255 255 255 255 255 255 255 255 255 255 255 255 255 3 3 3 3 3 3 3 3 3 3 3 3 3 3 3 3 255 255 255 255 255 255 255 255 255 255 255 255 255 255 255 255 255 255 255 255 255 255 255 255 255 255 255 255 49 49 49 49 49 49 49 49 49 49 49 49 49 49 255 255 255 255 255 255 255 49 255 255 255 255 255 255 255 255 255 17 17 17 17 17 17 17 17 17 17 17 17 17 17 17 17 17 17 17 17 17 17 17 17 17 17 17 17 17 17 17 17 17 17 17 255 255 255 17 17 17 17 17 17 17 255 255 255 17 17 17 17 17 17 17 17 17 255 255 255 255 255 2 2 2 2 2 2 2 2 2 2 2 255 255 255 255 255 255 255 255 255 255 255 255 18 18 18 255 255 255 255 255 255 255 18 255 255 255 255 255 255 2 2 2 255 255 255 255 255 255 255 255 255 255 255 255 255 255 2 255 255 255 255 255 255 255 255 255 255 255 255 255 255 255 255 255 255 255 255 255 255 255 255 255 255 255 255 255 255 255 255 255 255 255 255 255 255 255 255 255 255 255 255 255 255 255 255 2 255 255 255 255 255 255 255 2 255 255 255 48 255 255 255 255 255 255 255 255 64 64 64 64 64 64 64 64 64 64 64 64 64 64 64 64 64 64 64 64 64 64 64 64 64 64 64 64 64 64 64 64 64 64 64 64 64 64 255 
255 1 1 1 1 1 1 1 1 1 1 1 1 1 1 1 1 1 1 255 255 255 255 17 17 17 17 255 255 63 63 63 63 63 63 63 63 63 63 63 63 63 63 255 255 255 255 255 255 63 63 255 255 255 255 255 255 255 255 255 255 255 255 255 255 255 255 255 255 255 255 255 255 255 255 17 17 17 17 17 17 17 17 17 17 17 17 17 17 17 17 17 17 17 17 17 17 17 17 17 17 17 17 17 17 17 17 17 17 17 17 17 17 17 17 17 17 17 17 17 17 17 17 17 17 17 17 17 17 17 17 17 17 17 255 255 255 255 255 255 255 255 255 17 17 17 17 17 17 17 17 17 17 17 17 17 17 17 17 17 17 17 17 17 17 17 17 17 17 17 17 17 17 17 17 17 17 17 17 17 17 17 17 17 17 17 17 17 255 255 255 255 255 255 255 255 255 255 255 255 255 255 255 255 255 255 255 255 255 255 3 3 3 3 3 255 255 255 3 3 3 3 3 3 3 3 3 3 255 255 255 255 255 255 255 255 255 255 255 255 255 255 255 255 255 255 255 255 255 49 49 49 49 49 49 49 49 49 49 49 49 49 49 49 49 49 49 255 255 255 255 255 255 49 49 49 255 255 255 255 255 255 255 255 17 17 17 17 17 17 17 17 17 17 17 17 17 17 17 17 17 17 17 17 17 17 17 17 17 17 17 17 17 17 17 17 17 17 17 255 255 255 255 255 255 17 255 255 255 17 17 17 17 17 17 17 17 17 17 17 17 255 255 255 255 255 2 2 2 2 2 2 2 2 2 2 2 2 2 255 255 255 255 255 255 255 255 255 255 255 255 18 255 255 255 255 255 255 255 18 18 255 255 255 255 255 2 2 2 255 255 255 255 255 255 255 255 255 255 255 255 255 255 255 255 255 255 255 255 255 255 255 255 255 255 255 255 255 255 255 255 255 255 255 255 255 255 255 255 255 255 255 255 255 255 255 255 255 255 255 255 255 255 255 255 255 255 255 255 255 255 255 255 255 255 255 255 255 255 255 2 255 255 255 255 255 255 255 255 255 255 255 64 64 64 64 64 64 64 64 64 64 64 64 64 64 64 64 64 64 64 64 64 64 64 64 64 64 64 64 64 64 64 64 64 64 64 64 64 64 64 255 
255 1 1 1 1 1 1 1 1 1 1 1 1 1 1 1 1 1 1 255 255 255 255 17 17 17 17 255 255 63 63 63 63 63 63 63 63 63 63 63 63 63 63 255 255 255 255 255 255 255 255 255 255 255 255 255 255 255 255 255 255 255 255 255 255 255 255 255 255 255 255 255 255 255 255 17 17 17 17 17 17 17 17 17 17 17 17 17 17 17 17 17 17 17 17 17 17 17 17 17 17 17 17 17 17 17 17 17 17 17 17 17 17 17 17 17 17 17 17 17 17 17 17 17 17 17 17 17 17 17 17 17 17 17 255 255 255 255 255 255 255 255 17 17 17 17 17 17 17 17 17 17 17 17 17 17 17 17 17 17 17 17 17 17 17 17 17 17 17 17 17 17 17 17 17 17 17 17 17 17 17 17 17 17 17 17 17 17 17 255 255 255 255 255 255 255 255 255 255 255 255 255 255 255 255 255 3 255 255 255 3 3 3 3 3 255 255 255 3 3 3 3 3 3 3 255 255 255 255 255 255 255 255 255 255 255 255 255 255 255 255 255 255 255 255 255 255 255 255 49 49 49 49 49 49 49 49 49 49 49 49 49 49 49 49 49 49 255 255 255 49 49 49 49 49 49 49 49 255 255 255 255 255 255 255 255 255 255 17 17 17 17 17 17 17 17 17 17 17 17 17 17 17 17 17 17 17 17 17 17 17 17 17 17 17 17 17 17 17 17 255 255 255 255 255 17 255 255 255 255 255 255 255 17 17 17 17 17 17 17 255 255 255 255 255 255 2 2 2 2 2 2 2 2 2 2 2 2 2 255 255 255 255 255 255 255 255 255 255 255 255 18 255 255 255 255 255 18 18 255 255 255 255 255 255 255 2 2 2 255 255 255 255 255 255 255 255 255 255 255 255 255 2 255 255 255 255 255 255 255 2 2 255 255 255 255 255 255 255 255 255 255 255 255 255 255 255 255 255 255 255 255 255 255 255 255 255 255 255 255 255 2 2 255 255 255 255 255 255 255 255 255 255 255 255 255 255 255 255 255 255 2 255 255 255 255 255 255 255 255 64 64 64 64 64 64 64 64 64 64 64 64 64 64 64 64 64 64 64 64 64 64 64 64 64 64 64 64 64 64 64 64 64 64 64 64 64 64 64 64 64 255 
255 1 1 1 1 1 1 1 1 1 1 1 1 1 1 1 1 1 1 255 255 255 255 17 17 17 17 255 255 63 63 63 63 63 63 63 63 63 63 63 63 63 63 255 255 255 255 255 255 255 255 255 255 255 255 255 255 255 255 255 255 255 255 255 255 255 255 255 17 255 255 255 255 17 17 17 17 17 17 17 17 17 17 17 17 17 17 17 17 17 17 17 17 17 17 17 17 17 17 17 17 17 17 17 17 17 17 17 17 17 17 17 17 17 17 17 17 17 17 17 17 17 17 17 17 17 255 255 255 17 17 17 17 17 255 255 255 255 255 255 255 255 17 17 17 17 17 17 17 17 17 17 17 17 17 17 17 17 17 17 17 17 17 17 17 17 17 17 17 17 17 17 17 17 17 17 17 17 17 17 17 17 17 17 17 17 17 17 17 255 255 255 17 17 17 17 255 255 255 255 255 255 255 255 255 255 3 255 255 255 3 3 3 3 3 255 255 255 3 3 3 3 3 3 3 255 255 255 255 255 255 255 255 255 255 255 255 255 255 255 255 255 255 255 255 255 255 255 255 49 49 255 255 255 49 49 49 49 49 49 49 49 49 49 49 49 49 49 49 49 49 49 49 49 49 49 49 49 49 255 255 255 255 255 255 255 255 255 17 17 17 17 17 17 17 17 17 17 17 17 17 17 17 17 17 17 17 17 17 17 17 17 17 17 17 17 17 17 17 17 255 255 255 255 255 17 255 255 255 255 255 255 255 17 17 17 17 17 17 17 255 255 255 255 255 255 2 2 2 2 2 2 2 2 2 2 2 2 2 255 255 255 2 2 2 255 255 255 255 255 255 18 18 18 18 18 18 18 18 255 255 255 18 255 255 255 255 2 2 2 2 2 2 255 255 255 255 255 255 255 255 255 2 255 255 255 255 255 255 255 2 2 255 255 255 255 255 255 255 255 255 255 255 255 255 255 255 255 255 255 255 255 255 255 255 255 255 255 255 255 255 255 255 255 255 255 255 255 255 255 255 255 255 255 255 255 255 255 255 255 255 255 255 255 255 255 255 255 255 255 64 64 64 64 64 64 64 64 64 64 64 64 64 64 64 64 64 64 64 64 64 64 64 64 64 64 64 64 64 64 64 64 64 64 64 64 64 64 64 64 64 255 
255 1 1 1 1 1 1 1 1 1 1 1 1 1 1 1 1 1 1 255 255 17 17 17 17 17 17 255 255 63 63 63 63 63 63 63 63 63 63 63 63 63 63 63 63 63 63 255 255 255 255 255 255 255 255 255 255 255 255 255 255 255 255 255 255 255 255 255 255 255 255 255 255 17 255 255 255 17 17 17 17 17 17 17 17 17 17 17 17 17 17 17 17 17 17 17 17 17 17 17 17 17 17 17 17 17 17 17 17 17 17 17 17 17 17 17 17 17 17 17 17 17 17 17 17 17 255 255 255 17 17 17 17 17 255 255 255 17 17 17 17 17 17 17 17 17 17 17 17 17 17 17 17 17 17 17 17 17 17 17 17 17 17 17 17 17 17 17 17 17 17 17 17 17 17 17 17 17 17 17 17 17 17 17 17 17 17 17 17 17 17 17 17 255 255 255 255 17 17 255 255 255 255 255 255 255 255 255 255 3 3 3 3 3 3 255 255 255 3 3 3 3 3 3 3 255 255 255 3 255 255 255 255 255 255 255 255 255 255 255 255 49 49 255 255 255 255 49 49 49 49 255 255 255 49 49 49 49 49 49 49 49 49 49 49 49 49 49 49 49 49 49 49 49 49 49 49 49 49 49 49 255 255 255 255 255 255 255 255 17 17 17 17 255 255 255 17 17 17 17 17 17 17 17 17 17 17 17 17 17 17 17 17 17 17 17 17 17 17 17 17 17 17 17 17 17 17 17 255 255 255 255 255 17 17 17 17 17 17 17 255 255 255 255 255 255 2 2 2 2 2 2 2 2 2 2 2 2 2 2 2 2 255 255 255 255 255 255 255 18 18 18 18 18 18 18 18 18 18 255 255 255 18 18 255 255 255 2 2 2 255 255 255 2 255 255 255 255 255 2 2 2 2 2 255 255 255 255 255 255 2 255 255 255 255 255 255 255 255 255 255 255 255 255 255 255 255 255 255 255 255 255 255 255 255 255 255 255 255 255 255 255 255 255 255 255 255 255 255 255 255 255 255 255 255 255 255 255 255 255 255 255 255 255 255 255 255 255 64 64 64 64 64 64 64 64 64 64 64 64 64 64 64 64 64 64 64 64 64 64 64 64 64 64 64 64 64 64 64 64 64 64 64 64 64 64 64 64 64 64 64 255 
255 1 1 1 1 1 1 1 1 1 1 1 1 1 1 1 1 1 1 255 255 17 17 17 17 17 17 255 255 63 63 63 63 63 63 63 63 63 63 63 63 63 63 63 63 63 255 255 255 255 255 255 255 255 255 255 255 255 255 255 255 255 255 255 255 255 255 255 255 255 255 255 255 17 255 255 255 17 17 17 17 17 17 17 17 17 17 17 17 17 17 17 17 17 17 17 17 17 17 17 17 17 17 17 17 17 17 17 17 17 17 17 17 17 17 17 17 17 17 17 17 17 17 17 17 17 255 255 255 17 17 255 255 255 255 17 17 17 17 17 17 17 17 17 17 17 17 17 17 17 17 17 17 17 17 17 17 17 17 17 17 17 17 17 17 17 17 17 17 255 255 255 17 17 17 17 17 17 17 17 17 17 17 17 17 17 17 17 17 17 17 17 17 255 255 255 255 255 255 255 255 255 255 255 255 255 255 255 255 3 3 3 3 3 3 255 255 255 3 3 3 3 3 3 3 3 3 255 255 255 255 255 255 255 255 255 255 255 255 255 255 49 49 255 255 255 255 49 49 49 49 255 255 255 49 49 49 49 49 49 49 49 49 49 49 49 49 49 49 49 49 49 49 49 49 49 49 49 49 49 49 49 255 255 255 255 255 255 255 255 255 255 17 255 255 255 17 17 17 17 17 17 17 17 17 17 17 17 17 17 17 17 17 17 17 17 17 17 17 17 17 17 17 17 17 17 17 17 17 17 17 17 17 17 17 17 17 17 17 17 17 255 255 255 255 255 2 2 2 2 2 2 2 2 2 2 2 2 2 2 2 2 255 255 255 255 255 255 255 18 18 18 18 18 18 18 18 18 18 18 18 18 18 18 18 255 255 2 2 2 255 255 255 2 255 255 255 2 2 255 255 255 2 2 255 255 255 2 2 2 2 255 255 255 255 255 255 2 2 255 255 255 255 255 255 255 255 255 255 255 255 255 255 255 255 255 255 255 255 255 255 255 255 255 255 255 2 2 2 2 2 2 2 255 255 255 2 2 2 2 255 255 255 255 255 255 255 64 64 64 64 64 64 64 64 64 64 64 64 64 64 64 64 64 64 64 64 64 64 64 64 64 64 64 64 64 64 64 64 64 64 64 64 64 64 64 64 64 64 64 64 255 
255 1 1 1 1 1 1 1 1 1 1 1 1 1 1 1 1 1 1 255 255 17 17 17 17 17 17 255 255 63 63 63 63 63 63 63 63 63 63 63 63 63 63 63 63 63 255 255 255 255 63 63 255 255 255 255 255 255 255 255 255 255 255 255 255 255 255 255 255 255 255 255 255 17 255 255 255 255 255 17 17 17 17 17 17 17 17 17 17 17 17 17 17 17 17 17 17 17 17 17 17 17 17 17 17 17 17 17 17 17 17 17 17 17 17 17 17 17 17 17 17 17 17 17 17 17 255 255 255 17 17 255 255 255 255 17 17 17 17 17 17 17 17 17 17 17 255 255 255 17 17 17 17 17 17 17 17 17 17 17 17 17 17 17 17 17 17 17 17 255 255 255 17 17 17 17 17 17 17 17 17 17 17 17 17 17 17 17 17 17 17 17 17 255 255 255 255 255 255 255 255 255 255 255 255 255 255 255 255 3 3 3 3 3 3 255 255 255 3 3 3 3 3 3 3 3 3 255 255 255 255 255 255 255 255 255 255 255 255 255 255 255 49 255 255 255 49 49 49 49 49 49 49 49 49 49 49 49 49 49 49 49 49 49 49 49 49 49 49 49 49 49 49 49 49 49 49 49 49 49 49 49 49 255 255 255 255 255 255 255 255 255 255 255 255 255 255 255 17 17 17 17 17 17 17 17 17 17 17 17 17 17 17 17 17 17 17 17 17 17 17 17 17 17 17 17 17 17 17 255 255 255 17 17 17 17 17 17 17 17 17 255 255 255 255 255 2 2 2 2 2 2 2 2 2 2 2 2 2 2 2 2 255 255 255 255 255 255 255 18 18 18 18 18 18 18 18 18 18 18 18 18 18 18 18 255 255 2 2 2 255 255 255 2 2 2 2 2 2 255 255 255 2 2 255 255 255 2 2 2 2 255 255 255 255 255 255 255 255 255 255 255 255 255 255 255 255 255 255 255 255 255 255 255 255 255 255 2 2 255 255 255 255 255 255 255 2 2 2 2 2 255 255 255 255 255 255 255 2 255 255 255 255 255 255 255 64 64 64 64 64 64 64 64 64 64 64 64 64 64 64 64 64 64 64 64 64 64 64 64 64 64 64 64 64 64 64 64 64 64 64 64 64 64 64 64 64 64 64 64 64 255 
255 1 1 1 1 1 1 1 1 1 1 1 1 1 1 1 1 1 255 255 255 17 17 17 17 17 17 255 255 63 63 63 63 63 63 63 63 63 63 63 63 63 63 63 63 63 255 255 255 255 63 63 255 255 255 255 255 255 255 255 255 255 255 63 63 255 255 255 255 255 255 255 255 17 255 255 255 255 255 17 17 17 17 17 17 17 17 17 17 17 17 17 17 17 17 17 17 17 17 17 17 17 17 17 17 17 17 17 17 17 17 17 17 17 17 17 17 17 17 17 17 17 17 17 17 17 17 17 17 255 255 255 255 255 255 17 17 17 17 17 17 17 17 17 17 17 255 255 255 17 17 17 17 17 17 17 17 17 17 17 17 17 17 17 17 17 17 17 17 255 255 255 17 17 17 17 255 255 255 17 17 17 17 17 17 17 17 17 17 17 17 255 255 255 17 255 255 255 255 255 255 255 255 255 255 255 255 255 255 255 255 3 3 3 3 3 3 3 3 3 3 3 3 3 255 255 255 255 255 255 255 255 255 255 255 255 255 255 255 255 255 255 49 49 49 49 49 49 49 49 49 49 49 49 49 49 49 49 49 49 49 49 49 49 49 49 49 49 49 49 49 49 49 49 49 49 255 255 255 255 255 255 255 49 255 255 255 255 255 255 255 255 255 255 255 255 255 255 17 17 17 17 17 17 17 17 17 17 17 17 17 17 17 17 17 17 17 17 17 17 17 17 17 17 17 17 17 17 17 255 255 255 17 17 17 17 17 17 17 17 17 255 255 2 2 2 2 2 2 2 2 2 2 2 2 2 2 2 2 2 255 255 255 2 2 255 255 255 18 18 18 18 18 18 18 18 18 18 18 18 18 18 18 18 18 255 255 255 255 255 255 255 255 2 2 2 2 2 2 255 255 255 2 2 255 255 255 2 2 2 2 2 255 255 255 255 255 255 255 255 255 255 255 255 255 255 255 255 255 255 255 255 255 255 255 255 255 2 2 2 255 255 255 255 255 2 2 2 2 2 2 255 255 255 255 255 255 255 255 255 255 255 255 255 255 64 64 64 64 64 64 64 64 64 64 64 64 64 64 64 64 64 64 64 64 64 64 64 64 64 64 64 64 64 64 64 64 64 64 64 64 64 64 64 64 64 64 64 64 64 64 255 
255 1 1 1 1 1 1 1 1 1 1 1 1 1 1 1 1 1 255 255 255 17 17 17 17 17 17 255 255 255 63 63 63 63 63 63 63 63 63 63 63 63 63 63 63 63 63 255 255 255 63 63 255 255 255 255 255 255 255 255 255 63 63 255 255 255 255 255 255 255 255 255 255 255 255 17 255 255 255 17 17 17 17 17 17 17 17 17 17 17 17 17 17 17 17 17 17 17 17 17 17 17 17 17 17 17 17 17 17 17 17 17 17 17 17 17 17 17 17 17 17 17 17 17 17 17 17 17 255 255 255 255 255 17 17 17 17 17 17 17 17 17 17 17 17 17 255 255 255 17 17 17 17 17 17 17 17 17 17 17 17 17 17 17 17 17 17 17 17 17 17 17 17 17 17 17 255 255 255 17 17 255 255 255 255 17 17 17 255 255 255 255 255 255 17 255 255 255 255 255 255 255 255 255 255 255 255 255 255 255 255 3 3 3 3 3 3 3 3 3 3 3 255 255 255 255 255 3 255 255 255 255 255 255 255 255 255 255 255 255 255 255 49 49 49 49 49 49 49 49 49 49 49 49 49 49 49 49 49 49 49 49 49 49 49 49 49 49 49 49 49 49 255 255 255 255 255 255 255 255 255 255 255 49 49 49 255 255 255 255 255 255 255 255 255 255 255 255 255 255 255 255 255 255 17 17 17 17 17 17 17 17 17 17 17 17 17 17 17 17 17 17 17 17 17 17 17 17 17 255 255 255 17 17 17 17 17 17 17 17 17 255 255 255 2 2 2 2 2 2 2 2 2 2 2 2 2 2 2 2 255 255 255 2 255 255 255 255 18 18 18 18 18 18 18 18 18 18 18 18 18 18 18 18 18 255 255 255 255 255 2 2 2 2 2 2 2 2 2 255 255 255 2 2 255 255 255 2 2 2 2 2 255 255 255 255 255 255 255 255 255 255 255 255 255 255 255 255 255 255 255 255 255 255 255 255 255 255 255 255 255 255 255 255 2 2 255 255 255 2 2 255 255 255 2 255 255 255 255 255 255 255 255 255 64 64 64 64 64 64 64 64 64 64 64 64 64 64 64 64 64 64 64 64 64 64 64 64 64 64 64 64 64 64 64 64 64 64 64 64 64 64 64 64 64 64 64 64 64 64 64 255 
255 1 1 1 1 1 1 1 1 1 1 1 1 1 1 1 1 1 255 255 17 17 17 17 17 17 17 255 255 255 63 63 63 63 63 63 63 63 63 63 63 63 63 63 255 255 255 63 63 63 63 63 255 255 255 255 255 255 255 255 255 255 255 255 255 255 255 255 255 255 255 255 255 255 255 17 255 255 255 17 17 17 17 17 17 17 17 17 17 17 17 17 17 17 17 17 17 17 17 17 17 17 17 17 17 17 17 17 17 17 17 17 17 17 17 17 17 17 17 17 17 17 17 17 17 17 17 17 255 255 255 255 255 17 17 17 17 17 17 17 17 17 17 17 17 17 17 17 17 17 17 17 17 17 17 17 17 17 17 17 17 17 17 17 17 17 17 17 17 17 17 17 17 17 17 17 255 255 255 17 17 255 255 255 255 255 255 255 255 255 255 255 255 255 17 255 255 255 255 255 255 255 255 255 255 255 255 255 255 255 255 255 255 255 3 3 3 3 3 3 3 3 255 255 255 255 255 3 3 255 255 255 255 255 255 255 255 255 255 255 255 255 49 49 49 49 49 49 49 49 49 49 49 49 49 49 49 49 49 49 49 49 49 49 255 255 255 49 49 49 255 255 255 255 255 255 255 255 255 255 255 255 255 49 49 49 255 255 255 255 255 255 255 255 255 255 255 255 255 255 255 255 255 255 17 17 17 17 17 17 17 17 17 17 17 17 17 255 255 255 17 17 17 17 17 17 17 255 255 255 255 255 17 17 17 17 17 17 17 17 17 255 255 255 2 2 2 2 2 2 2 2 2 2 2 2 2 2 2 2 255 255 255 2 255 255 255 255 255 18 18 18 18 18 18 18 18 18 18 18 18 18 18 18 18 18 18 255 255 255 2 2 2 2 2 2 2 2 2 2 255 255 255 255 255 255 255 2 2 2 2 2 255 255 255 255 255 255 255 255 255 255 255 255 255 255 255 255 255 255 255 255 255 255 255 255 255 255 255 255 255 255 255 255 255 255 255 255 255 255 255 255 255 255 255 255 255 255 255 255 255 255 255 255 64 64 64 64 64 64 64 64 64 64 64 64 64 64 64 64 64 64 64 64 64 64 64 64 64 64 64 64 64 64 64 64 64 64 64 64 64 64 64 64 64 64 64 64 64 64 64 255 
255 1 1 1 1 1 1 1 1 1 1 1 1 1 1 1 1 1 255 255 255 17 17 17 17 17 17 255 255 255 63 63 63 63 63 63 63 63 63 63 63 63 63 63 255 255 255 63 63 63 63 63 63 255 255 255 255 255 255 255 255 255 255 255 255 255 255 255 255 255 255 255 255 255 255 17 17 17 17 17 17 17 17 17 17 17 17 17 17 17 17 17 17 17 17 17 17 17 17 17 17 17 17 17 17 17 17 17 17 17 17 17 17 17 17 17 17 17 17 17 17 17 17 17 17 17 17 17 255 255 255 255 255 17 17 17 17 17 17 17 17 17 17 17 17 17 17 17 17 17 17 17 17 17 17 17 17 17 17 17 17 17 17 17 17 17 17 17 17 17 17 17 17 17 17 255 255 255 17 17 17 255 255 255 255 255 255 255 255 255 255 255 17 17 17 17 17 255 255 255 255 255 255 255 255 255 255 255 255 255 255 255 255 255 3 3 3 3 255 255 255 3 255 255 255 255 255 255 3 255 255 255 255 255 255 255 255 255 255 255 255 255 49 49 49 49 255 255 255 255 49 255 255 255 49 49 49 49 49 49 49 49 49 49 255 255 255 255 255 255 255 255 255 255 255 255 255 255 255 255 255 49 49 49 49 49 49 49 49 49 49 255 255 255 255 255 255 255 255 255 255 255 255 255 255 255 255 17 17 17 17 17 17 17 17 17 17 255 255 255 17 17 17 17 17 17 255 255 255 255 255 17 17 17 17 17 17 17 17 17 255 255 255 255 255 255 2 2 2 2 2 2 2 2 2 2 2 2 255 255 255 2 2 2 255 255 255 255 255 18 18 18 18 18 18 18 18 18 18 18 18 18 18 18 18 18 18 255 255 255 255 255 2 2 2 2 2 2 2 2 255 255 255 255 255 255 255 2 2 2 2 255 255 255 255 255 255 255 255 255 255 255 255 255 255 255 255 255 255 255 255 255 255 255 255 255 255 255 255 255 255 255 255 255 255 255 255 255 255 255 255 255 255 255 255 255 255 255 255 255 255 255 255 64 64 64 64 64 64 64 64 64 64 64 64 64 64 64 64 64 64 64 64 64 64 64 64 64 64 64 64 64 64 64 64 64 64 64 64 64 64 64 64 64 64 64 64 64 64 64 64 255 
255 1 1 1 1 1 1 1 1 1 1 1 1 1 1 1 1 1 255 255 255 17 17 17 17 17 17 255 255 63 63 63 63 63 63 63 63 63 63 63 63 63 63 63 255 255 255 255 255 63 255 255 255 255 255 255 255 255 255 255 255 255 255 255 255 255 255 255 255 255 255 255 255 255 255 17 17 17 17 255 255 255 17 17 17 17 17 17 17 17 17 17 17 17 17 17 17 17 17 17 17 17 17 17 17 17 17 17 17 17 17 17 17 17 17 17 17 17 17 17 17 17 17 17 17 17 17 255 255 255 255 255 255 17 17 17 17 17 17 17 17 17 17 17 17 17 17 17 17 17 17 17 17 17 17 17 17 17 17 17 17 17 17 17 17 17 17 17 17 17 17 17 17 17 17 255 255 255 17 17 17 17 255 255 255 255 255 255 17 255 255 255 17 17 17 255 255 255 255 255 255 255 255 255 255 255 255 255 255 255 255 255 255 255 3 3 3 3 255 255 255 3 3 255 255 255 255 255 255 255 255 255 255 255 255 255 255 255 255 255 255 255 255 255 255 49 255 255 255 255 255 255 255 255 49 49 49 49 49 49 49 49 49 49 255 255 255 255 255 255 255 255 255 255 255 255 255 49 49 49 49 49 49 49 49 49 49 49 49 49 49 49 49 255 255 255 255 255 255 255 255 255 255 255 255 255 255 17 17 17 17 17 17 17 17 17 17 255 255 255 17 17 17 17 17 17 255 255 255 255 255 17 17 17 17 17 17 17 17 17 255 255 255 255 255 255 2 2 2 2 2 2 2 2 2 2 2 2 255 255 255 2 2 2 2 255 255 255 255 18 18 18 18 18 18 18 18 18 18 18 18 18 18 18 18 18 18 255 255 255 255 255 2 2 2 2 2 2 2 2 255 255 255 255 2 2 2 2 2 2 2 255 255 255 255 255 255 255 255 255 255 255 255 255 255 255 255 255 255 255 255 255 255 255 255 255 255 255 255 255 255 255 255 255 255 255 255 255 255 255 255 255 255 255 255 255 255 255 255 255 255 255 64 64 64 64 64 64 64 64 64 64 64 64 64 64 64 64 64 64 64 64 64 64 64 64 64 64 64 64 64 64 64 64 64 64 64 64 64 64 64 64 64 64 64 64 64 64 64 64 64 255 
255 1 1 1 1 1 1 1 1 1 1 1 1 1 1 1 1 1 1 255 255 255 255 17 17 17 17 255 255 63 63 63 63 63 63 63 63 63 63 63 63 63 63 63 255 255 255 255 255 63 255 255 255 63 255 255 255 255 255 255 63 255 255 255 255 255 255 255 255 255 255 255 255 17 255 255 255 17 17 255 255 255 17 17 17 17 17 17 17 17 17 17 17 17 17 17 17 17 17 17 17 17 17 17 17 17 17 17 17 17 17 17 17 17 17 17 17 17 17 17 17 17 17 17 17 17 17 255 255 255 255 255 17 17 17 17 17 17 17 17 17 17 17 17 17 17 17 17 17 17 17 17 17 17 17 17 17 17 17 17 17 17 17 17 17 17 17 17 17 17 17 17 17 17 17 255 255 255 17 17 17 17 17 255 255 255 255 17 17 255 255 255 17 17 255 255 255 255 255 255 255 255 255 255 255 255 255 255 255 255 255 255 255 255 3 3 3 3 255 255 255 3 3 255 255 255 255 255 255 255 255 255 255 255 255 255 255 255 255 255 255 255 255 255 255 49 255 255 255 255 255 255 255 255 49 49 49 49 49 49 49 49 49 255 255 255 255 255 255 255 255 255 255 255 255 49 49 49 49 49 49 49 49 49 49 49 49 49 49 49 49 49 49 49 49 255 255 255 255 65 65 255 255 255 255 255 255 17 17 17 17 255 255 255 17 17 17 255 255 255 17 17 17 17 17 17 255 255 255 255 17 17 17 17 17 17 17 17 17 17 255 255 255 255 255 255 255 255 255 2 2 2 2 2 2 2 2 2 255 255 255 2 2 2 2 2 2 255 255 18 18 18 18 18 18 18 18 18 18 255 255 255 18 18 18 18 18 255 255 255 255 255 2 2 2 2 2 2 2 2 2 2 2 2 2 255 255 255 2 2 2 255 255 255 255 255 255 255 255 255 255 255 255 255 255 255 255 255 255 18 255 255 255 255 255 255 255 255 255 255 255 255 255 255 255 255 255 255 255 255 255 255 255 255 2 255 255 255 255 255 255 64 64 64 64 64 64 64 64 64 64 64 64 64 64 64 64 64 64 64 64 64 64 64 64 64 64 64 64 64 64 64 64 64 64 64 64 64 64 64 64 64 64 64 64 64 64 64 64 64 64 255 
255 1 1 1 1 1 1 1 1 1 1 1 1 1 1 1 1 1 1 255 255 255 255 17 17 17 17 255 255 63 63 63 63 63 63 63 63 63 63 63 63 63 63 63 255 255 255 255 255 63 255 255 255 255 255 255 255 255 255 255 63 255 255 255 255 255 255 255 255 255 255 255 255 17 255 255 255 17 17 255 255 255 17 17 17 17 17 17 17 17 17 17 17 17 17 17 17 17 17 17 17 17 17 17 17 17 17 17 17 17 17 17 17 17 17 17 17 17 17 17 17 17 17 17 17 17 17 255 255 255 255 17 17 17 17 17 17 17 17 17 17 17 17 17 17 17 17 17 17 17 17 17 17 17 17 17 17 17 17 17 17 17 17 17 17 17 17 17 17 17 17 17 17 17 17 17 17 17 17 17 17 17 17 255 255 255 17 17 17 255 255 255 17 17 255 255 255 255 255 255 255 255 255 255 255 255 255 255 255 255 255 255 255 255 3 3 3 3 3 3 3 3 3 255 255 255 255 255 255 255 255 255 255 255 255 255 255 255 255 255 255 255 255 255 255 49 49 49 49 255 255 255 255 255 49 255 255 255 255 255 255 255 255 255 255 255 255 255 255 255 255 255 255 49 49 49 49 49 49 49 49 49 49 49 49 49 49 49 49 49 49 49 49 49 49 255 255 255 255 255 65 255 255 255 255 255 255 255 255 17 17 255 255 255 17 17 17 255 255 255 17 255 255 255 255 17 255 255 255 255 255 255 255 17 17 17 17 17 17 17 17 17 17 255 255 2 255 255 255 2 2 2 2 2 2 2 2 2 2 2 2 2 2 2 2 2 2 255 255 18 18 18 18 18 18 255 255 255 255 255 255 255 18 18 18 18 18 255 255 255 255 255 255 255 2 2 2 255 255 255 2 2 2 2 2 255 255 255 2 2 2 255 255 255 255 255 255 255 255 255 255 255 255 255 255 255 255 255 255 18 255 255 255 255 255 255 255 255 255 255 255 255 255 255 255 255 255 255 255 255 255 255 255 255 255 255 255 255 255 255 64 64 64 64 64 64 64 64 64 64 64 64 64 64 64 64 64 64 64 64 64 64 64 64 64 64 64 64 64 64 64 64 64 64 64 64 64 64 64 64 64 64 64 64 64 64 64 64 64 64 64 255 
255 1 1 1 1 1 1 1 1 1 1 1 1 1 1 1 1 1 1 255 255 255 255 17 17 17 17 255 255 63 63 63 63 63 63 63 63 63 63 63 63 63 63 63 63 255 255 255 255 255 255 255 255 255 255 255 255 255 255 255 255 255 255 255 255 255 255 255 255 255 17 17 17 17 255 255 255 255 17 17 17 17 17 17 17 17 17 17 17 17 17 17 17 17 17 17 17 17 17 17 17 17 17 17 17 17 17 17 17 17 17 17 17 17 17 17 17 17 17 17 17 17 17 17 17 17 17 255 255 255 255 17 17 17 17 17 17 17 17 255 255 255 17 17 17 17 17 17 17 17 17 17 17 17 17 17 17 17 17 17 17 17 17 17 17 17 17 17 17 17 17 17 17 17 17 17 17 17 17 17 17 17 17 255 255 255 17 17 17 255 255 255 255 255 255 255 255 255 255 255 255 255 255 255 255 255 255 255 255 255 255 255 255 255 255 255 255 3 3 3 3 3 3 255 255 255 255 255 255 255 255 255 255 255 255 255 255 255 255 255 255 255 255 255 255 255 255 255 255 255 255 255 255 255 255 255 255 255 255 255 255 255 255 255 255 255 255 255 49 49 49 49 49 49 49 49 49 49 49 49 49 49 49 49 49 49 49 49 49 49 49 49 49 49 49 49 255 255 255 255 65 65 65 65 255 255 255 255 255 17 17 255 255 255 17 17 17 255 255 255 17 255 255 255 255 17 255 255 255 255 255 255 255 17 17 17 17 17 17 17 17 17 255 255 255 2 255 255 255 2 2 2 2 2 2 2 2 2 2 2 2 2 2 2 2 255 255 255 255 18 18 18 18 18 18 255 255 255 255 255 255 255 255 255 18 18 18 18 18 18 255 255 255 255 2 2 2 255 255 255 2 2 2 2 2 255 255 255 2 2 2 255 255 255 255 255 255 255 255 255 255 255 255 255 255 255 255 255 255 255 255 255 255 255 255 255 255 255 255 255 255 255 255 255 255 255 255 255 255 255 2 2 255 255 255 255 255 255 255 255 64 64 64 64 64 64 64 64 64 64 64 64 64 64 64 64 64 64 64 64 64 64 64 64 64 64 64 64 64 64 64 64 64 64 64 64 64 64 64 64 64 64 64 64 64 64 64 64 64 64 64 255 
255 1 1 1 1 1 1 1 1 1 1 1 1 1 1 1 1 1 1 255 255 255 255 17 17 17 17 255 255 63 63 63 63 63 63 63 63 63 63 63 63 63 63 63 63 255 255 255 255 255 63 63 255 255 255 255 255 255 255 255 255 255 255 255 255 255 255 255 255 255 17 255 255 255 255 255 255 255 17 17 17 17 17 17 17 17 17 17 17 17 17 17 17 17 17 17 17 17 17 17 17 17 17 17 17 17 17 17 17 17 17 17 17 17 17 17 17 17 17 17 17 17 17 17 17 17 17 255 255 255 255 17 17 17 17 17 17 17 17 255 255 255 17 17 17 17 17 17 17 17 17 17 17 17 17 17 17 17 17 17 17 17 17 17 17 17 17 17 17 17 17 17 17 17 17 17 17 17 17 17 17 17 17 17 17 17 17 17 17 17 255 255 255 255 17 17 255 255 255 255 255 255 255 255 255 255 255 255 3 255 255 255 255 3 255 255 255 3 3 3 3 3 255 255 255 255 255 255 255 255 255 255 255 255 255 255 255 255 255 255 255 255 255 255 255 255 255 255 255 49 49 49 49 255 255 255 255 255 255 255 255 255 255 255 255 255 255 49 49 49 49 49 49 49 49 49 49 49 49 49 49 49 49 49 49 49 49 49 49 49 49 49 49 49 49 49 49 255 255 255 255 65 65 65 255 255 255 255 255 17 17 255 255 255 255 255 17 17 255 255 255 255 255 255 255 255 255 255 255 255 255 255 255 255 255 17 17 17 17 17 17 255 255 255 255 2 2 2 2 2 2 2 2 2 2 2 2 2 2 2 2 2 2 2 2 255 255 255 255 255 18 18 18 18 18 255 255 255 255 255 255 255 255 255 255 255 18 18 18 18 255 255 255 255 2 2 2 255 255 255 2 2 2 2 2 2 2 255 255 255 255 255 255 255 255 255 255 255 255 255 255 255 255 255 255 255 255 255 255 255 255 255 255 255 255 255 255 255 255 255 255 255 255 255 255 255 255 255 255 255 2 2 255 255 255 255 255 255 255 64 64 64 64 64 64 64 64 64 64 64 64 64 64 64 64 64 64 64 64 64 64 64 64 64 64 64 64 64 64 64 64 64 64 64 64 64 64 64 64 64 64 64 64 64 64 64 64 64 64 64 64 255 
255 1 1 1 1 1 1 1 1 1 1 1 1 1 1 1 1 1 1 255 255 255 255 17 17 17 17 255 255 63 63 63 63 63 63 63 63 63 63 255 255 255 63 63 63 255 255 255 255 255 255 255 255 255 255 255 255 255 255 255 255 255 255 255 255 255 255 255 255 255 255 255 255 255 255 255 255 255 17 17 17 17 17 17 17 17 17 17 17 17 17 17 17 17 17 17 17 17 17 17 17 17 17 17 17 17 17 17 17 17 17 17 17 17 17 17 17 17 17 17 17 17 17 17 17 17 17 17 17 17 17 17 17 17 17 17 17 17 17 255 255 255 17 17 17 17 17 17 17 17 17 17 17 17 17 17 17 17 17 17 17 17 17 17 17 17 17 17 17 17 17 17 17 17 17 17 17 17 17 17 17 17 17 17 17 17 17 17 17 17 255 255 255 255 255 255 255 255 255 255 255 255 255 255 17 255 255 255 255 3 255 255 255 255 255 255 255 3 3 3 3 255 255 255 255 255 255 255 255 255 255 255 255 255 255 255 255 255 255 255 255 255 255 255 255 255 255 255 255 255 255 255 255 255 255 255 255 255 255 255 255 255 255 49 49 49 49 49 49 49 49 49 49 49 49 49 49 49 49 49 49 49 49 49 49 49 49 49 49 49 49 49 49 49 49 49 49 255 255 255 255 255 65 65 255 255 255 255 255 17 17 255 255 255 255 255 17 17 255 255 255 17 255 255 255 255 255 255 255 255 255 255 255 255 255 17 17 17 17 17 17 255 255 255 255 2 2 2 2 2 2 2 2 2 2 2 2 2 2 2 2 2 2 2 2 255 255 255 255 255 18 18 18 18 255 255 255 66 66 66 66 66 255 255 255 255 18 18 18 18 255 255 255 255 255 2 2 2 2 2 2 2 2 2 2 2 2 255 255 255 255 255 255 255 255 255 255 255 255 255 255 255 255 255 255 255 255 255 255 255 255 255 255 255 255 255 255 255 255 255 255 255 255 255 255 255 255 255 255 255 2 2 255 255 18 255 255 255 64 64 64 64 64 64 64 64 64 64 64 64 64 64 64 64 64 64 64 64 64 64 64 64 64 64 64 64 64 64 64 64 64 64 64 64 64 64 64 64 64 64 64 64 64 64 64 64 64 64 64 64 64 255 
255 1 1 1 1 1 1 1 1 1 1 1 1 1 1 1 1 1 255 255 255 255 17 17 17 17 17 255 255 63 63 63 63 63 63 63 63 63 63 255 255 255 63 63 63 255 255 255 63 63 255 255 255 255 255 255 255 255 255 255 255 255 255 255 255 255 255 255 255 255 255 255 255 255 255 255 17 255 255 255 17 17 17 17 17 17 17 17 17 17 17 17 17 17 17 17 17 17 17 17 17 17 17 17 17 17 17 17 17 17 17 17 17 17 17 17 17 17 17 17 17 17 17 17 17 17 17 17 17 17 17 17 17 17 17 17 17 17 17 17 17 17 17 17 17 17 17 17 17 17 17 17 17 17 17 17 17 17 17 17 17 17 17 17 17 17 17 17 17 17 17 17 17 17 17 17 17 17 17 17 17 17 17 17 17 17 17 17 17 17 17 255 255 255 255 255 255 255 255 255 255 255 255 255 255 255 255 255 255 3 255 255 255 255 3 3 3 3 3 3 3 255 255 255 255 255 255 255 255 255 255 255 255 255 255 255 255 255 49 255 255 255 255 255 255 255 49 255 255 255 255 255 255 255 255 255 255 255 255 255 255 255 49 49 49 49 49 49 49 49 49 49 49 49 49 49 49 49 49 49 49 49 49 49 49 49 49 49 49 49 49 49 49 49 49 49 49 49 255 255 255 255 255 65 255 255 255 255 255 255 255 255 255 255 255 255 255 255 255 255 255 255 255 255 255 255 255 255 255 255 255 255 255 255 255 17 17 17 17 17 17 255 255 255 255 2 2 2 2 2 2 2 2 2 2 2 2 2 2 2 2 2 255 255 255 255 255 255 255 255 18 18 18 18 255 255 255 66 66 66 66 66 66 66 255 255 18 18 18 18 255 255 255 255 255 2 2 2 2 2 2 2 2 2 2 2 2 255 255 255 255 255 255 255 255 255 255 255 255 255 255 18 18 255 255 255 255 255 255 255 255 255 255 255 255 255 255 255 255 255 255 255 255 255 255 255 255 255 255 255 255 255 255 255 255 255 255 64 64 64 64 64 64 64 64 64 64 64 64 64 64 64 64 64 64 64 64 64 64 64 64 64 64 64 64 64 64 64 64 64 64 64 64 64 64 64 64 64 64 64 64 64 64 64 64 64 64 64 64 64 64 255 
255 1 1 1 1 1 1 1 1 1 1 1 1 1 1 1 1 1 255 255 255 255 17 17 17 17 17 255 255 255 63 63 63 63 63 63 63 63 63 255 255 255 63 63 63 63 63 63 63 63 255 255 255 255 255 255 255 255 255 255 255 255 255 255 255 255 255 255 255 255 255 255 255 255 255 255 17 255 255 255 17 17 17 17 17 17 17 17 17 17 17 17 17 17 17 17 17 17 17 17 17 17 17 17 17 17 17 17 17 17 17 17 17 17 17 17 17 17 17 17 17 17 17 17 17 17 17 17 17 17 17 17 17 17 17 17 17 17 17 17 17 17 17 17 17 17 17 17 17 17 17 17 17 17 17 17 17 17 255 255 255 17 17 17 17 17 17 17 17 17 17 17 17 17 17 17 17 17 17 17 17 17 17 17 17 17 255 255 255 17 17 255 255 255 255 255 255 255 255 255 255 255 255 255 255 255 255 255 255 255 255 255 255 255 3 3 3 3 3 3 3 255 255 255 255 255 255 255 255 255 255 255 255 255 255 255 255 49 255 255 255 255 255 255 255 255 255 255 255 255 255 255 255 255 255 255 255 255 255 49 49 49 49 49 49 49 49 49 49 49 49 49 49 49 49 49 49 49 49 49 49 49 49 49 49 49 49 49 49 49 49 49 49 49 49 49 49 49 49 255 255 255 255 65 65 65 65 255 255 255 255 255 255 255 255 255 255 255 255 255 255 255 255 255 255 255 255 255 255 255 255 255 255 255 17 17 17 17 17 17 17 17 255 255 255 255 2 2 2 2 2 2 2 2 2 2 2 2 2 2 2 2 255 255 255 255 255 255 255 18 18 18 18 18 255 255 255 66 66 66 66 66 66 66 255 255 255 18 18 18 18 18 18 255 255 255 2 2 2 2 2 2 2 2 2 2 2 2 2 2 255 255 255 255 255 255 255 255 255 255 255 255 255 255 255 255 18 255 255 255 255 255 255 255 255 255 255 255 255 255 255 255 255 255 255 255 255 2 2 255 255 255 255 255 255 255 255 64 64 64 64 64 64 64 64 64 64 64 64 64 64 64 64 64 64 64 64 64 64 64 64 64 64 64 64 64 64 64 64 64 64 64 64 64 64 64 64 64 64 64 64 64 64 64 64 64 64 64 64 64 64 255 
255 1 1 1 1 1 1 1 1 1 1 1 1 1 1 1 1 1 255 255 255 255 17 17 17 17 17 255 255 255 63 63 63 63 63 63 63 63 63 255 255 255 63 255 255 255 255 63 63 255 255 255 255 255 255 255 255 255 255 255 255 255 255 255 255 255 255 255 255 255 17 17 17 17 17 17 17 255 255 255 17 17 17 17 17 17 17 17 17 17 17 17 17 17 17 17 17 17 17 17 17 17 17 17 17 17 17 17 17 17 17 17 17 17 17 17 17 17 17 17 17 17 17 17 17 17 17 17 17 17 17 17 17 17 17 17 17 17 17 17 17 17 17 17 17 17 17 17 17 17 17 17 17 17 17 17 17 17 255 255 255 17 17 17 17 255 255 255 17 17 17 17 17 17 17 17 17 17 17 17 17 17 17 255 255 255 255 255 255 255 255 255 255 255 17 255 255 255 255 255 255 255 255 255 255 255 255 255 255 255 255 255 255 3 3 3 3 3 3 3 3 3 3 255 255 255 255 255 255 255 255 255 255 255 255 255 255 255 255 255 255 255 255 255 255 255 255 255 255 3 255 255 255 255 255 255 255 49 49 49 49 49 49 49 49 49 49 49 49 49 49 49 49 49 49 49 49 49 49 49 49 49 49 49 49 49 49 49 49 49 49 49 49 49 49 49 49 49 49 49 255 255 255 255 65 65 65 65 255 255 255 255 255 255 255 255 255 255 255 255 255 255 255 255 255 255 255 255 255 255 255 255 255 255 17 17 17 17 17 17 17 17 255 255 255 255 2 2 2 2 2 2 2 2 2 2 2 2 2 2 2 2 255 255 255 255 255 255 255 255 18 18 18 18 255 255 255 66 66 66 66 66 66 66 255 255 255 18 18 18 18 18 18 255 255 255 2 2 2 2 2 2 2 2 2 2 2 2 2 2 255 255 255 255 255 255 255 255 255 255 255 255 255 255 255 255 255 255 255 255 255 255 18 255 255 255 255 255 255 255 255 255 255 255 255 255 255 2 2 255 255 18 18 255 255 255 64 64 64 64 64 64 64 64 64 64 64 64 64 64 64 64 64 64 64 64 64 64 64 64 64 64 64 64 64 64 64 64 64 64 64 64 64 64 64 64 64 64 64 64 64 64 64 64 64 64 64 64 64 64 64 255 
255 1 1 1 1 1 1 1 1 1 1 1 1 1 1 1 1 1 255 255 255 255 17 17 17 17 17 255 255 255 63 63 63 63 63 63 63 63 63 255 255 255 63 255 255 255 255 255 255 255 255 255 255 255 255 255 255 255 255 255 255 255 255 255 255 255 255 63 255 255 255 255 255 255 255 17 17 17 17 17 17 17 17 17 17 17 17 17 17 17 17 17 17 17 17 17 17 17 17 17 17 17 17 17 17 17 17 17 17 17 17 17 17 17 17 17 17 17 17 17 17 17 17 17 17 17 17 17 17 17 17 17 17 17 17 17 17 17 17 17 17 17 17 17 17 17 17 17 17 17 17 17 17 17 17 17 17 17 255 255 255 17 17 17 17 255 255 255 17 17 17 17 17 17 17 17 17 17 17 17 17 17 17 255 255 255 255 255 255 255 255 255 255 255 255 255 255 255 255 255 255 255 255 255 255 255 255 255 255 255 255 255 255 3 3 3 3 3 3 3 3 3 3 255 255 255 255 255 255 255 255 255 255 255 255 255 255 255 255 255 255 255 255 255 255 3 3 3 255 255 255 255 255 255 49 49 49 49 49 49 49 49 49 49 49 49 49 49 49 49 49 49 49 49 49 49 49 49 49 49 49 49 49 49 49 49 49 49 49 49 49 49 49 49 49 49 49 49 49 49 255 255 255 255 255 65 65 65 65 255 255 255 255 255 255 255 255 255 255 255 255 255 255 255 255 255 255 255 255 255 255 255 255 255 17 17 17 17 17 17 17 17 255 255 255 255 2 2 2 2 2 2 2 2 2 2 2 2 2 2 2 2 2 2 2 255 255 255 255 255 18 18 18 18 255 255 255 66 66 66 66 66 66 66 66 255 255 255 255 18 18 18 18 255 255 255 255 2 2 2 2 2 2 2 2 2 255 255 255 255 2 2 255 255 255 255 255 255 255 255 255 255 255 255 255 255 255 255 255 255 255 255 255 18 18 18 255 255 255 255 255 255 255 255 2 2 2 2 255 255 255 18 255 255 255 64 64 64 64 64 64 64 64 64 64 64 64 64 64 64 64 64 64 64 64 64 64 64 64 64 64 64 64 64 64 64 64 64 64 64 64 64 64 64 64 64 64 64 64 64 64 64 64 64 64 64 64 64 64 64 64 255 
255 1 1 1 1 1 1 1 1 1 1 1 1 1 1 1 1 1 255 255 255 255 17 17 17 17 17 255 255 255 63 63 63 63 63 63 63 63 63 63 63 63 63 255 255 255 255 255 255 255 255 255 255 255 255 255 255 255 255 255 255 255 255 255 255 255 255 255 255 255 255 255 255 255 255 255 255 17 17 17 17 17 17 17 17 17 17 17 17 17 17 17 17 17 17 17 17 17 17 17 17 17 17 17 17 17 17 17 17 17 17 17 17 17 17 17 17 17 17 17 17 17 17 17 17 17 17 17 17 17 17 17 17 17 17 17 17 17 17 17 17 17 17 17 17 17 17 17 17 17 17 17 17 17 17 17 17 17 17 17 17 17 17 17 17 255 255 255 17 17 17 17 17 17 17 17 17 17 17 17 17 255 255 255 255 255 17 17 255 255 255 255 255 255 255 255 17 17 17 255 255 255 255 255 255 255 255 255 255 255 255 3 3 3 3 3 3 3 3 3 255 255 255 255 255 255 255 255 255 255 255 255 255 255 255 255 255 255 49 49 255 255 255 3 3 3 3 255 255 255 255 255 49 49 49 49 49 49 49 49 49 49 49 49 49 49 49 49 49 49 49 49 49 49 49 49 49 49 49 49 49 49 49 49 49 49 49 49 49 49 49 49 49 49 49 49 49 49 49 49 49 255 255 255 255 255 65 65 65 65 65 255 255 255 255 255 255 255 255 255 255 255 255 255 255 255 255 255 255 255 255 255 255 17 17 17 17 17 17 17 17 17 255 255 255 255 2 2 2 2 2 2 2 2 2 2 2 2 2 2 2 2 2 2 2 255 255 255 255 255 18 18 18 18 255 255 255 66 66 66 66 66 66 66 66 255 255 255 255 18 18 18 18 255 255 255 255 255 2 2 2 2 2 2 2 2 255 255 255 255 2 2 2 2 255 255 255 18 255 255 255 255 255 255 255 255 255 255 255 255 255 255 255 18 18 255 255 255 255 2 2 255 255 255 2 2 2 2 255 255 255 255 255 255 255 64 64 64 64 64 64 64 64 64 64 64 64 64 64 64 64 64 64 64 64 64 64 64 64 64 64 64 64 64 64 64 64 64 64 64 64 64 64 64 64 64 64 64 64 64 64 64 64 64 64 64 64 64 64 64 64 255 
255 1 1 1 1 1 1 1 1 1 1 1 1 1 1 1 1 1 255 255 255 255 17 17 17 17 17 255 255 255 63 63 63 63 63 63 63 63 63 63 63 63 63 63 63 63 63 255 255 255 255 255 255 255 255 255 255 255 255 255 255 255 255 255 17 255 255 255 255 255 255 255 255 255 255 255 255 17 17 17 17 17 17 17 17 17 17 17 17 17 17 17 17 17 17 17 17 17 17 17 17 17 17 17 17 17 17 17 17 17 17 17 17 17 17 17 17 17 17 17 17 17 17 17 17 17 17 17 17 255 255 255 255 255 255 17 17 17 17 17 17 17 17 17 17 17 17 17 17 17 17 17 17 17 17 17 17 17 17 17 255 255 255 17 17 17 17 17 17 17 17 17 17 17 17 17 17 17 17 17 17 255 255 255 255 255 17 17 255 255 255 255 255 255 255 255 255 255 255 255 255 255 255 255 255 255 255 255 255 255 255 255 3 3 3 3 3 3 3 3 255 255 255 255 255 255 255 255 255 255 255 255 3 255 255 255 255 255 255 255 255 255 3 3 3 255 255 255 255 255 49 49 49 49 49 49 49 49 49 49 49 49 49 49 49 49 49 49 49 49 49 49 49 49 49 49 49 49 49 49 49 49 49 49 49 49 49 49 49 49 49 49 49 49 49 49 49 49 49 49 49 49 255 255 255 255 255 65 65 255 255 255 255 255 255 255 255 255 255 255 255 255 255 255 255 255 255 255 255 255 255 255 255 17 17 17 17 17 17 17 17 17 255 255 255 2 2 2 2 2 2 2 2 2 2 2 2 2 2 2 2 2 2 2 2 2 2 255 255 255 18 18 18 18 255 255 255 66 66 66 66 66 66 66 66 66 66 255 255 18 18 18 18 18 18 255 255 255 2 2 2 2 2 2 2 2 255 255 255 255 2 2 2 2 255 255 255 255 255 255 255 255 255 255 255 255 255 255 255 255 255 255 255 255 18 255 255 255 2 2 2 255 255 255 2 2 2 2 255 255 255 255 255 255 64 64 64 64 64 64 64 64 64 64 64 64 64 64 64 64 64 64 64 64 64 64 64 64 64 64 64 64 64 64 64 64 64 64 64 64 64 64 64 64 64 64 64 64 64 64 64 64 64 64 64 64 64 64 64 64 64 255 
255 1 1 1 1 1 1 1 1 1 1 1 1 1 1 1 1 1 255 255 255 255 17 17 17 17 17 255 255 63 63 63 63 63 63 63 63 63 63 63 63 63 63 63 63 63 63 255 255 255 255 255 255 255 255 255 255 255 255 255 255 255 255 255 255 255 255 255 255 255 255 255 255 255 255 255 255 17 17 17 17 17 17 17 17 17 17 17 17 17 17 17 17 17 17 17 17 17 17 17 17 17 17 17 17 17 17 17 17 17 17 17 17 17 17 17 17 17 17 17 17 17 17 17 17 17 17 17 17 255 255 255 255 255 255 17 17 17 17 17 17 17 17 17 17 17 17 17 17 17 17 17 17 17 17 17 17 17 17 17 255 255 255 17 17 17 17 17 17 17 17 17 17 17 17 17 17 17 17 17 17 255 255 255 255 255 17 17 17 255 255 255 255 255 17 255 255 255 255 255 255 255 255 255 255 255 255 255 255 255 255 255 3 3 255 255 255 3 3 3 255 255 255 3 255 255 255 255 255 255 255 255 255 255 255 255 255 255 255 255 255 255 3 255 255 255 255 255 255 49 49 49 49 49 49 49 49 49 49 49 49 49 49 49 49 49 49 49 49 49 49 49 49 49 49 49 49 49 49 49 49 49 49 49 49 49 49 49 49 49 49 49 49 49 49 49 49 49 49 49 49 49 49 255 255 255 255 255 65 255 255 255 255 255 255 255 255 65 255 255 255 65 65 255 255 255 255 255 255 255 65 255 255 17 17 17 17 17 17 17 17 17 255 255 255 2 2 2 2 2 2 2 2 2 2 2 2 2 2 2 2 2 2 2 2 2 2 255 255 18 18 18 18 18 18 255 255 66 66 66 66 66 66 66 66 66 66 255 255 255 255 18 18 18 18 18 255 255 255 2 2 2 2 2 2 2 255 255 255 255 2 2 2 255 255 255 255 255 255 255 255 255 255 255 255 255 255 255 255 255 255 255 255 255 18 255 255 255 2 2 2 2 2 2 2 2 2 255 255 255 255 255 255 64 64 64 64 64 64 64 64 64 64 64 64 64 64 64 64 64 64 64 64 64 64 64 64 64 64 64 64 64 64 64 64 64 64 64 64 64 64 64 64 64 64 64 64 64 64 64 64 64 64 64 64 64 64 64 64 64 64 255 
255 1 1 1 1 1 1 1 1 1 1 1 1 1 1 1 1 255 255 255 255 17 17 17 17 17 17 255 255 63 63 63 63 63 63 63 63 63 63 63 63 63 255 255 255 255 63 255 255 255 255 255 255 255 255 255 255 255 255 255 255 255 255 255 255 255 255 255 255 255 255 255 255 17 17 17 17 17 17 17 17 17 17 17 17 17 17 17 17 17 17 17 17 17 17 17 17 17 17 17 17 17 17 17 17 17 17 17 17 17 17 17 17 17 17 17 17 17 17 17 17 17 17 17 17 17 17 17 17 255 255 255 255 255 255 17 17 17 17 17 17 17 17 17 17 17 17 17 17 17 17 17 17 17 17 17 17 17 17 17 255 255 255 17 17 17 17 17 17 17 17 17 17 17 17 17 17 17 255 255 255 17 17 17 17 17 17 17 17 255 255 255 255 255 17 255 255 255 255 255 255 255 255 255 255 255 255 255 255 255 255 255 255 3 255 255 255 3 3 3 3 3 3 255 255 255 255 255 255 255 255 255 255 255 255 255 255 255 3 3 3 3 255 255 255 255 255 49 49 49 49 49 49 49 49 49 49 49 49 49 49 49 49 49 49 49 49 49 49 49 49 49 49 49 49 49 49 49 49 49 49 49 49 49 49 49 49 49 49 49 49 49 49 49 49 49 49 49 49 49 49 49 49 49 255 255 255 255 65 255 255 255 65 65 255 255 255 65 255 255 255 65 65 255 255 255 255 255 255 255 255 255 255 255 255 255 255 17 17 17 17 17 255 255 255 2 2 2 2 2 2 2 2 2 2 2 2 2 2 2 2 2 2 2 2 2 2 255 255 18 18 18 18 18 18 255 255 66 66 66 66 66 66 66 66 66 66 255 255 255 255 18 18 18 18 18 255 255 255 255 255 2 2 2 2 2 2 255 255 255 255 2 255 255 255 255 255 255 255 255 255 255 255 255 255 255 255 255 255 255 255 255 255 255 18 255 255 255 255 2 2 2 2 2 2 2 255 255 255 255 255 255 64 64 64 64 64 64 64 64 64 64 64 64 64 64 64 64 64 64 64 64 64 64 64 64 64 64 64 64 64 64 64 64 64 64 64 64 64 64 64 64 64 64 64 64 64 64 64 64 64 64 64 64 64 64 64 64 64 64 64 255 
255 1 1 1 1 1 1 1 1 1 1 1 1 1 1 1 1 255 255 255 255 17 17 17 17 17 17 255 255 63 63 63 63 63 63 63 63 63 63 63 63 63 255 255 255 255 63 255 255 255 255 255 255 255 255 255 255 255 255 255 255 255 255 255 255 255 255 255 255 255 255 255 255 17 17 17 17 17 17 17 17 17 17 17 17 17 17 17 17 17 17 17 17 17 17 17 17 17 17 17 17 17 17 17 17 17 17 17 17 17 17 17 17 17 17 17 17 17 17 17 17 17 17 17 17 17 17 17 255 255 255 255 255 255 255 17 17 17 17 17 17 17 17 17 17 17 17 17 17 17 17 17 17 17 17 17 17 17 17 17 17 17 17 17 17 17 17 17 17 17 17 17 17 17 17 17 17 17 255 255 255 17 17 17 17 17 17 255 255 255 255 255 255 255 255 255 255 255 255 255 255 255 255 255 255 255 255 255 255 255 255 255 255 255 255 255 255 3 3 3 3 3 255 255 255 255 255 255 3 3 255 255 255 255 255 255 3 3 3 255 255 255 255 255 255 49 49 49 49 49 49 49 49 49 49 49 49 49 49 49 49 49 49 49 49 49 49 49 49 49 49 49 49 49 49 49 49 49 49 49 49 49 49 49 49 49 49 49 49 49 49 49 49 49 49 49 49 49 49 49 49 49 49 49 49 255 255 255 255 65 65 65 65 65 255 255 255 65 255 255 255 65 65 65 255 255 255 255 255 255 255 255 255 255 255 255 255 17 17 17 17 17 255 255 255 2 2 2 2 2 2 2 2 2 2 2 2 2 2 2 2 2 2 2 2 2 2 255 255 255 18 18 18 18 18 255 255 66 66 66 66 66 66 66 66 66 66 255 255 255 255 255 18 18 18 18 18 255 255 255 255 2 2 2 2 2 2 255 255 255 255 255 255 255 255 255 255 255 255 255 255 255 255 255 255 255 255 255 255 255 255 255 255 255 18 18 255 255 255 255 255 255 255 2 255 255 255 255 255 255 255 64 64 64 64 64 64 64 64 64 64 64 64 64 64 64 64 64 64 64 64 64 64 64 64 64 64 64 64 64 64 64 64 64 64 64 64 64 64 64 64 64 64 64 64 64 64 64 64 64 64 64 64 64 64 64 64 64 64 64 64 255 
255 1 1 1 1 1 1 1 1 1 1 1 1 1 1 1 1 255 255 255 255 17 17 17 17 17 17 255 255 255 63 63 63 63 63 63 63 63 63 63 63 63 255 255 255 255 63 255 255 255 255 255 255 255 255 255 255 255 255 255 255 255 255 255 255 255 255 255 255 255 255 255 255 255 255 17 17 17 17 17 17 17 17 17 17 17 17 17 17 17 17 17 17 17 17 17 17 17 17 17 17 17 17 17 17 17 17 17 17 17 17 17 17 17 17 17 17 17 17 17 17 17 17 17 17 17 17 17 255 255 255 255 255 255 255 17 17 17 17 17 17 17 17 17 17 17 17 17 17 17 17 17 17 17 17 17 17 17 17 17 255 255 255 17 17 17 17 17 17 17 17 17 17 17 17 17 17 17 255 255 255 255 255 255 255 255 255 255 255 255 255 255 255 255 255 255 255 255 255 255 255 255 255 255 255 255 255 255 255 255 255 255 255 255 255 255 255 3 3 3 255 255 255 255 255 255 255 3 3 3 255 255 255 255 255 3 3 3 255 255 255 255 255 255 49 49 49 49 49 49 49 49 49 49 49 49 49 49 49 49 49 49 49 49 49 49 49 49 49 49 49 49 49 49 49 49 49 49 49 49 49 49 49 49 49 49 49 49 49 49 49 49 49 49 49 49 49 49 49 49 49 49 49 49 49 255 255 255 255 255 65 65 65 65 65 65 65 65 255 255 255 65 65 65 65 65 65 65 255 255 255 255 255 255 255 255 255 17 17 17 17 17 255 255 255 2 2 2 2 2 2 2 2 2 2 2 2 2 2 2 2 2 2 2 2 2 2 255 255 255 18 18 18 18 18 255 255 66 66 66 66 66 66 66 66 66 66 66 66 255 255 255 18 18 18 18 18 18 255 255 255 2 2 2 2 2 2 255 255 255 255 255 255 255 255 18 255 255 255 255 255 255 255 255 255 255 255 255 255 255 255 255 255 255 255 255 255 255 255 255 255 255 255 2 255 255 255 255 255 255 255 64 64 64 64 64 64 64 64 64 64 64 64 64 64 64 64 64 64 64 64 64 64 64 64 64 64 64 64 64 64 64 64 64 64 64 64 64 64 64 64 64 64 64 64 64 64 64 64 64 64 64 64 64 64 64 64 64 64 64 64 255 
255 1 1 1 1 1 1 1 1 1 1 1 1 1 1 1 1 1 255 255 255 17 17 17 17 17 17 255 255 255 63 63 63 63 63 63 63 63 63 63 63 63 63 63 63 63 63 255 255 255 63 255 255 255 255 255 255 255 255 255 255 255 255 255 255 255 255 255 255 255 255 255 255 255 255 255 255 17 17 17 17 17 17 17 17 17 17 17 17 17 17 17 17 17 17 17 17 17 17 17 17 17 17 17 17 17 17 17 17 17 17 17 17 17 17 17 17 17 17 17 17 17 17 17 17 17 17 17 255 255 255 255 17 17 17 17 17 17 17 17 17 17 17 17 17 17 17 17 17 17 17 17 17 17 17 17 17 17 255 255 255 255 255 17 17 17 17 17 17 17 17 17 17 17 17 17 17 17 255 255 255 255 255 255 255 255 255 255 255 255 255 255 255 255 255 255 255 255 255 255 255 255 255 255 255 255 255 255 255 255 255 255 255 255 255 255 255 3 3 3 255 255 255 255 255 255 255 255 3 3 255 255 255 255 3 3 255 255 255 255 255 49 49 49 49 49 49 49 49 49 49 49 49 49 49 49 49 49 49 49 49 49 49 49 49 49 49 49 49 49 49 49 49 49 49 49 49 49 49 49 49 49 49 49 49 49 49 49 49 49 49 49 49 49 49 49 49 49 49 49 49 49 49 49 49 49 255 255 255 255 255 65 65 65 65 65 65 65 255 255 255 255 255 255 255 65 65 65 255 255 255 255 255 255 255 255 17 17 17 17 17 17 255 255 255 255 2 2 2 2 2 2 2 2 2 2 2 2 2 2 2 2 2 2 2 2 2 255 255 255 18 18 18 18 18 255 255 66 66 66 66 66 66 66 66 66 66 66 66 66 255 255 255 18 18 18 18 18 255 255 255 255 2 2 2 2 2 255 255 255 255 255 255 255 255 255 255 255 255 255 255 255 255 255 255 255 255 255 255 255 255 255 255 255 255 255 255 255 255 255 255 255 255 2 255 255 255 255 255 255 64 64 64 64 64 64 64 64 64 64 64 64 64 64 64 64 64 64 64 64 64 64 64 64 64 64 64 64 64 64 64 64 64 64 64 64 64 64 64 64 64 64 64 64 64 64 64 64 64 64 64 64 64 64 64 64 64 64 64 64 64 255 
255 1 1 1 1 1 1 1 1 1 1 1 1 1 1 1 1 1 255 255 255 17 17 17 17 17 17 255 255 255 63 63 63 63 63 63 63 63 63 63 63 63 63 63 63 63 255 255 255 63 63 63 255 255 255 255 255 255 255 255 255 255 255 255 255 255 255 255 255 255 255 255 255 255 255 255 255 17 17 17 17 17 17 17 17 17 17 17 17 17 17 17 17 17 17 17 17 17 17 17 17 17 17 17 17 17 17 17 17 17 17 17 17 17 17 17 17 17 17 17 17 17 17 17 17 17 17 17 17 17 17 17 17 17 17 17 17 17 17 17 17 17 17 17 17 17 17 17 17 17 17 17 17 17 17 17 17 17 255 255 255 255 255 17 17 17 17 17 17 17 17 17 17 17 17 17 17 17 255 255 255 255 255 255 255 255 255 255 255 255 255 255 255 255 255 255 255 255 255 255 255 255 255 255 255 255 255 255 255 255 255 255 255 255 255 255 255 3 3 3 255 255 255 3 3 255 255 255 3 3 255 255 255 255 3 255 255 255 255 255 49 49 49 49 49 49 49 49 49 49 49 49 49 49 49 49 49 49 49 49 49 49 49 49 49 49 49 49 49 49 49 49 49 49 49 49 49 49 49 49 49 49 49 49 49 49 49 49 49 49 49 49 49 49 49 49 49 49 49 49 49 49 49 49 49 49 49 255 255 255 255 65 65 65 65 65 65 65 65 65 65 255 255 255 255 65 65 255 255 255 255 255 255 255 255 255 17 17 17 17 17 17 255 255 255 255 2 2 2 2 2 2 2 2 2 2 2 2 2 255 255 255 2 2 2 2 255 255 255 18 18 18 18 18 18 255 255 66 66 66 66 66 66 66 66 66 66 66 66 66 255 255 255 18 18 18 18 18 255 255 255 255 2 2 2 2 2 2 2 2 2 2 2 255 255 255 255 255 255 255 255 255 255 255 255 255 255 255 255 255 255 255 255 255 255 255 255 255 255 255 255 255 2 2 255 255 255 255 255 64 64 64 64 64 64 64 64 64 64 64 64 64 64 64 64 64 64 64 64 64 64 64 64 64 64 64 64 64 64 64 64 64 64 64 64 64 64 64 64 64 64 64 64 64 64 64 64 64 64 64 64 64 64 64 64 64 64 64 64 64 64 255 
255 1 1 1 1 1 1 1 1 1 1 1 1 1 1 1 1 1 1 255 255 17 17 17 17 17 17 255 255 63 63 63 63 63 63 63 63 63 63 63 63 63 63 63 63 63 255 255 255 63 63 63 255 255 255 255 255 255 255 255 255 255 255 255 255 255 255 255 255 255 255 255 255 255 255 255 255 17 17 17 17 17 17 17 17 17 17 17 17 17 17 17 17 17 17 17 17 17 17 17 17 17 17 17 17 17 17 17 17 17 17 17 17 17 17 17 17 17 17 17 17 17 17 17 17 17 17 17 17 17 17 255 255 255 17 17 17 17 17 17 17 17 17 17 17 17 17 17 17 17 17 255 255 255 17 17 17 17 255 255 255 255 17 17 17 17 17 17 17 17 17 17 17 17 17 17 255 255 255 255 255 255 255 255 255 255 255 255 255 255 255 255 255 255 255 255 255 255 255 255 255 255 255 255 255 255 255 255 255 255 255 255 3 255 255 255 255 3 3 3 3 255 255 255 3 255 255 255 3 3 255 255 255 255 255 255 255 255 49 49 49 49 49 49 49 49 49 49 49 49 49 49 49 49 49 49 49 49 49 49 49 49 49 49 49 49 49 49 49 49 49 49 49 49 49 49 49 49 49 49 49 49 49 49 49 49 49 49 49 49 49 49 49 49 49 49 49 49 49 49 49 49 49 49 49 49 49 49 255 255 255 255 65 65 65 65 65 65 65 65 65 255 255 255 255 65 65 255 255 255 255 255 255 255 255 255 17 17 17 17 17 17 255 255 255 255 2 2 2 2 2 2 2 2 2 2 2 2 2 255 255 255 2 2 2 2 255 255 255 18 18 18 18 18 18 255 255 66 66 66 66 66 66 66 66 66 66 66 66 66 66 255 255 255 255 18 18 18 18 18 255 255 255 2 2 2 2 2 2 2 2 2 255 255 255 255 255 255 255 255 255 255 255 255 255 255 255 255 255 255 255 255 255 255 255 255 255 255 255 255 2 2 2 255 255 255 255 255 255 64 64 64 64 64 64 64 64 64 64 64 64 64 64 64 64 64 64 64 64 64 64 64 64 64 64 64 64 64 64 64 64 64 64 64 64 64 64 64 64 64 64 64 64 64 64 64 64 64 64 64 64 64 64 64 64 64 64 64 64 64 64 255 
255 1 1 1 1 1 1 1 1 1 1 1 1 1 1 1 1 1 1 255 255 17 17 17 17 17 255 255 255 63 63 63 63 63 63 63 63 63 63 63 63 63 63 63 63 63 255 255 255 63 63 63 255 255 255 255 255 255 255 255 255 255 255 255 255 255 255 255 255 255 255 255 255 255 255 255 17 17 17 17 17 17 17 17 17 17 17 17 17 17 17 17 17 17 17 17 17 17 17 17 17 17 17 17 17 17 17 17 17 17 17 17 17 17 17 17 17 17 17 17 17 17 17 17 17 17 17 17 17 17 17 255 255 255 17 17 17 17 17 17 17 17 17 17 17 17 17 17 17 255 255 255 255 255 255 255 255 17 17 17 17 17 17 17 17 17 17 17 17 17 17 17 17 17 17 17 255 255 255 255 255 255 255 255 255 255 255 255 255 255 255 255 255 255 255 255 255 255 255 255 255 255 17 255 255 255 255 255 255 255 255 255 3 255 255 255 3 3 3 3 3 255 255 255 3 3 3 3 255 255 255 255 255 255 255 255 255 49 49 49 49 49 49 49 49 49 49 49 49 49 49 49 49 49 49 49 49 49 49 49 49 49 49 49 49 49 49 49 49 49 49 49 49 49 49 49 49 49 49 49 49 49 49 49 49 49 49 49 49 49 49 49 49 49 49 49 49 49 49 49 49 49 49 49 49 49 49 49 255 255 255 255 255 255 65 65 65 65 65 65 65 65 65 65 65 65 65 255 255 255 255 255 255 255 255 255 17 17 17 17 17 17 255 255 255 255 2 2 2 2 2 2 2 2 2 2 2 2 2 255 255 255 2 2 2 2 255 255 255 18 18 18 18 18 18 255 255 66 66 66 66 66 66 66 66 66 66 66 66 66 66 255 255 255 255 18 18 18 18 18 255 255 255 2 2 2 2 2 2 2 2 2 255 255 255 255 255 255 255 255 255 255 255 255 255 255 255 255 255 255 255 255 255 255 255 255 255 2 2 2 2 255 255 255 255 255 255 255 64 64 64 64 64 64 64 64 64 64 64 64 64 64 64 64 64 64 64 64 64 64 64 64 64 64 64 64 64 64 64 64 64 64 64 64 64 64 64 64 64 64 64 64 64 64 64 64 64 64 64 64 64 64 64 64 64 64 64 64 64 64 64 255 
255 1 1 1 1 1 1 1 1 1 1 1 1 1 1 1 1 1 1 255 255 17 17 17 17 17 255 255 255 63 63 63 63 63 63 63 63 63 63 63 63 63 63 63 63 255 255 255 63 63 255 255 255 255 255 255 255 255 255 255 255 255 255 255 255 255 255 255 255 255 255 255 255 255 255 255 255 255 255 17 17 17 17 17 17 17 17 17 17 17 17 17 17 17 17 17 17 17 17 17 17 17 17 17 17 17 17 17 17 17 17 17 17 17 17 17 17 17 17 17 17 17 17 17 17 17 17 17 17 17 17 255 255 255 17 17 17 17 17 17 17 17 17 17 17 17 17 17 17 255 255 255 255 255 255 255 255 17 17 17 17 17 17 17 17 17 17 17 17 17 17 17 17 17 255 255 255 255 255 17 17 255 255 255 255 255 255 255 255 255 255 255 255 255 255 255 255 255 255 255 255 255 255 255 255 255 255 255 255 255 255 255 3 3 3 3 3 3 3 3 3 255 255 255 3 255 255 255 255 255 255 255 255 255 255 255 49 49 49 49 49 49 49 49 49 49 49 49 49 49 49 49 49 49 49 49 49 49 49 49 255 255 255 49 49 49 49 49 49 49 49 49 49 49 49 49 49 49 49 49 49 49 49 49 49 49 49 49 49 49 49 49 49 49 49 49 49 49 49 49 49 49 49 49 49 49 49 49 49 255 255 255 255 255 255 255 65 65 65 65 65 65 65 65 65 65 65 255 255 255 255 255 255 255 255 255 17 17 17 17 17 17 255 255 255 255 2 2 2 2 2 2 2 2 2 2 2 2 2 255 255 255 2 2 2 2 255 255 255 18 18 18 18 18 18 255 255 66 66 66 66 66 66 66 66 66 66 66 66 66 66 66 66 255 255 18 18 18 18 18 18 255 255 2 2 2 2 2 2 2 2 2 255 255 255 255 255 18 255 255 255 255 255 255 255 255 255 255 255 255 255 255 255 255 255 255 2 2 2 2 2 255 255 255 255 255 255 255 64 64 64 64 64 64 64 64 64 64 64 64 64 64 64 64 64 64 64 64 64 64 64 64 64 64 64 64 64 64 64 64 64 64 64 64 64 64 64 64 64 64 64 64 64 64 64 64 64 64 64 64 64 64 64 64 64 64 64 64 64 64 64 255 
255 1 1 1 1 1 1 1 1 1 1 1 1 1 1 1 1 1 1 255 255 255 17 17 17 17 255 255 255 63 63 63 63 63 63 63 63 63 63 63 63 63 63 63 63 255 255 255 63 63 255 255 255 255 255 255 255 255 255 255 255 255 255 255 63 63 255 255 255 255 255 255 255 255 255 255 255 255 255 17 17 17 17 17 17 17 17 17 17 17 17 17 17 17 17 17 17 17 17 17 17 17 17 17 17 17 17 17 17 17 17 17 17 17 17 17 17 17 17 17 17 17 17 17 17 17 17 17 17 17 17 17 17 17 17 17 17 17 17 17 17 17 17 17 17 17 17 17 17 255 255 255 255 255 255 255 255 17 17 17 17 17 17 17 17 17 17 17 17 17 17 17 17 17 255 255 255 255 255 255 255 17 17 17 255 255 255 255 255 255 255 255 255 255 255 255 255 255 255 255 255 255 255 255 255 255 255 255 255 255 255 255 3 3 3 3 3 3 3 3 3 3 3 3 255 255 255 255 255 255 255 255 255 255 49 49 49 49 49 49 49 49 49 49 49 49 49 49 49 49 49 49 49 49 49 49 49 49 49 49 255 255 255 255 255 49 49 49 49 49 49 49 49 49 49 49 49 49 49 49 49 49 49 49 49 49 49 49 49 49 49 49 49 49 49 49 49 49 49 49 49 49 49 49 49 49 49 49 49 49 255 255 255 255 255 255 255 255 65 65 65 65 65 65 65 65 65 255 255 255 255 255 255 255 255 255 17 17 17 17 17 17 255 255 255 255 2 2 2 2 2 2 2 2 2 2 2 2 2 255 255 255 2 2 2 255 255 255 255 255 255 18 18 18 18 255 255 66 66 66 66 66 66 66 66 66 66 66 66 66 66 66 66 255 255 18 18 18 18 18 18 255 255 255 2 2 2 2 2 2 2 2 2 255 255 255 255 18 18 255 255 255 255 255 255 255 255 255 255 255 255 255 255 255 255 255 2 2 2 2 2 255 255 18 255 255 255 64 64 64 64 64 64 64 64 64 64 64 64 64 64 64 64 64 64 64 64 64 64 64 64 64 64 64 64 64 64 64 64 64 64 64 64 64 64 64 64 64 64 64 64 64 64 64 64 64 64 64 64 64 64 64 64 64 64 64 64 64 64 64 64 255 
255 1 1 1 1 1 1 1 1 1 1 1 1 1 1 1 1 1 1 255 255 255 17 17 17 17 17 255 255 63 63 63 63 63 63 63 63 63 63 63 63 63 63 63 63 255 255 255 63 63 255 255 255 255 255 255 255 255 255 255 255 255 255 255 255 255 255 255 255 255 255 255 255 255 255 255 255 255 255 255 255 255 17 17 17 17 17 17 17 17 17 17 17 17 17 17 17 17 17 17 17 17 17 17 17 17 17 17 17 17 17 17 17 17 17 17 17 17 17 17 17 17 17 17 17 17 17 17 17 17 17 17 17 17 17 17 17 17 17 17 17 17 17 17 17 17 17 17 17 17 17 17 255 255 255 17 17 17 17 17 17 17 17 17 17 17 17 17 17 17 17 255 255 255 255 255 255 255 255 255 255 255 255 255 255 255 255 255 255 255 255 255 255 255 255 255 255 255 255 255 255 255 255 255 255 255 255 255 255 255 255 255 3 255 255 255 255 3 3 3 3 255 255 255 255 255 255 255 255 255 255 255 255 255 255 49 49 49 49 49 49 49 49 49 49 49 49 49 49 49 49 49 49 49 49 49 49 49 255 255 255 255 255 255 255 49 49 49 49 49 49 49 49 49 49 49 49 49 49 49 49 49 49 49 49 49 49 49 49 49 49 49 49 49 49 49 49 49 49 49 49 49 49 49 49 49 49 49 49 49 49 49 255 255 255 255 255 255 255 65 65 65 65 65 65 65 65 255 255 255 255 255 255 255 17 17 17 17 17 17 17 255 255 255 255 255 2 2 2 2 2 2 2 2 2 2 2 2 2 2 2 2 2 2 2 255 255 255 255 255 255 18 18 18 18 255 255 255 66 66 66 66 66 66 66 66 66 66 66 66 66 66 66 255 255 255 18 18 18 18 18 255 255 255 255 255 2 2 2 2 2 2 2 2 255 255 255 18 18 255 255 255 255 255 255 255 255 255 255 255 255 255 255 255 255 255 2 2 255 255 255 255 255 255 255 255 64 64 64 64 64 64 64 64 64 64 64 64 64 64 64 64 64 64 64 64 64 64 64 64 64 64 64 64 64 64 64 64 64 64 64 64 64 64 64 64 64 64 64 64 64 64 64 64 64 64 64 64 64 64 64 64 64 64 64 64 64 64 64 64 64 255 
255 1 1 1 1 1 1 1 1 1 1 1 1 1 1 1 1 1 255 255 255 255 17 17 17 17 17 255 255 63 63 63 63 63 63 63 63 63 63 63 63 63 63 63 63 63 63 255 255 255 63 63 63 255 255 255 255 255 255 255 255 255 255 255 255 255 255 255 255 255 255 255 255 255 17 17 255 255 255 255 255 255 17 17 17 17 17 17 17 17 17 17 17 17 17 17 17 17 17 17 17 17 17 17 17 17 17 17 17 17 17 17 17 17 17 17 17 17 17 17 17 17 17 17 17 17 17 17 17 17 17 17 17 17 17 17 17 17 17 17 17 17 17 17 17 17 17 17 17 17 17 17 17 17 17 17 17 17 17 17 17 17 17 17 255 255 255 255 17 17 17 255 255 255 255 255 255 255 255 255 255 255 255 255 255 255 255 255 255 255 255 255 255 255 255 255 255 255 255 255 255 255 255 255 255 255 255 255 255 255 255 255 255 255 255 255 255 3 3 3 3 255 255 255 255 255 255 255 255 255 255 255 255 255 255 49 49 49 49 49 49 49 49 49 49 49 49 49 49 49 49 49 255 255 255 49 49 49 255 255 255 49 255 255 255 255 49 49 49 49 49 49 49 49 49 49 49 49 49 49 49 49 49 49 49 49 49 49 49 49 49 49 49 49 49 49 49 49 49 49 49 49 49 49 49 49 49 49 49 49 49 49 49 49 255 255 255 255 255 255 65 65 65 65 65 65 65 65 65 255 255 255 255 255 255 17 17 17 17 17 17 255 255 255 255 255 2 2 2 2 2 2 2 2 2 2 2 2 2 2 2 2 2 2 2 255 255 255 255 255 255 18 18 18 18 255 255 255 66 66 66 66 66 66 66 66 66 66 66 66 66 66 66 255 255 255 255 255 18 18 18 18 255 255 255 255 255 255 255 2 2 2 2 2 255 255 255 255 18 255 255 255 255 255 255 255 255 255 255 255 255 255 255 255 255 255 2 2 255 255 255 255 255 255 255 255 64 64 64 64 64 64 64 64 64 64 64 64 64 64 64 64 64 64 64 64 64 64 64 64 64 64 64 64 64 64 64 64 64 64 64 64 64 64 64 64 64 64 64 64 64 64 64 64 64 64 64 64 64 64 64 64 64 64 64 64 64 64 64 64 64 255 
255 1 1 1 1 1 1 1 1 1 1 1 1 1 1 1 1 1 255 255 255 255 17 17 17 17 17 255 255 63 63 63 63 63 63 63 63 63 63 255 255 255 63 63 63 63 63 255 255 255 63 63 255 255 255 255 255 255 255 255 255 255 255 255 255 255 255 255 255 255 255 255 255 255 17 17 17 17 255 255 255 255 17 17 17 17 17 17 17 17 17 17 17 17 17 17 17 17 17 17 17 17 17 17 17 17 17 17 17 17 17 17 17 17 17 17 17 17 17 17 17 17 17 17 17 17 17 17 17 17 17 17 17 17 17 17 17 17 17 17 17 17 17 17 17 17 17 17 17 17 17 17 17 17 17 17 17 17 17 17 17 17 17 17 255 255 255 255 17 17 17 255 255 255 255 255 255 255 255 255 255 255 255 255 255 255 255 255 255 255 255 17 255 255 255 255 255 255 255 255 255 255 255 255 255 255 255 255 255 255 255 255 255 255 255 255 255 3 3 3 255 255 255 255 255 255 255 255 255 255 255 255 255 255 255 49 49 49 49 49 49 49 49 49 49 49 49 49 49 49 49 49 255 255 255 49 49 49 255 255 255 49 49 255 255 255 49 255 255 255 49 49 49 49 49 49 49 49 49 49 49 49 49 49 49 49 49 49 49 49 49 49 49 49 49 49 49 49 49 49 49 49 49 49 49 49 49 49 49 49 49 49 49 49 49 49 255 255 255 255 255 255 255 65 65 65 65 65 65 255 255 255 255 255 255 17 17 17 17 17 17 255 255 255 255 255 2 2 2 2 2 2 2 2 2 2 2 2 2 2 2 2 2 2 2 255 255 255 255 18 18 18 18 18 18 255 255 255 66 66 66 66 66 66 66 66 66 66 66 66 66 66 66 66 255 255 255 255 18 18 18 18 18 255 255 255 255 255 255 2 2 2 2 2 255 255 255 255 18 255 255 255 255 255 255 255 255 255 255 255 255 255 255 255 255 255 2 2 255 255 255 255 255 255 255 64 64 64 64 64 64 64 64 64 64 64 64 64 64 64 64 64 64 64 64 64 64 64 64 64 64 64 64 64 64 64 64 64 64 64 64 64 64 64 64 64 64 64 64 64 64 64 64 64 64 64 64 64 64 64 64 64 64 64 64 64 64 64 64 64 64 255 
255 1 1 1 1 1 1 1 1 1 1 1 1 1 1 1 1 1 255 255 255 255 255 17 17 17 17 255 255 63 63 63 63 63 63 63 63 63 63 255 255 255 63 63 63 63 63 255 255 255 63 255 255 255 255 255 255 255 255 255 255 255 255 255 255 255 255 255 255 255 255 255 255 255 255 255 17 17 255 255 255 17 17 17 17 17 17 17 17 17 17 17 17 17 17 17 17 17 17 17 17 17 17 17 17 17 17 17 17 17 255 255 255 17 17 17 17 17 17 17 17 17 17 17 17 17 17 17 17 17 17 17 17 17 17 17 17 17 17 17 17 17 17 17 17 17 17 17 17 17 17 17 17 17 17 17 17 17 17 17 17 17 17 17 255 255 255 255 255 255 17 17 255 255 255 255 255 255 255 255 255 255 255 255 17 255 255 255 255 255 255 255 255 255 255 255 255 255 255 255 255 17 255 255 255 255 17 255 255 255 255 255 255 255 255 3 3 3 255 255 255 255 255 255 255 255 255 255 49 255 255 255 255 49 49 49 49 49 49 49 49 49 49 49 49 49 49 49 49 49 49 49 255 255 255 49 49 49 255 255 255 255 49 255 255 255 49 255 255 255 255 255 49 49 49 49 49 49 49 49 49 49 49 49 49 49 49 49 49 49 49 49 49 49 49 49 49 49 49 49 49 49 49 49 49 49 49 49 49 49 49 49 49 49 49 49 49 255 255 255 255 255 255 65 65 65 65 65 65 65 65 65 255 255 255 17 17 17 17 17 17 255 255 255 255 2 2 2 2 2 2 2 2 2 2 2 2 2 2 2 2 2 2 2 2 255 255 255 255 18 18 18 18 18 18 255 255 255 66 66 66 66 66 66 66 66 66 66 66 66 66 66 66 66 66 66 255 255 255 18 18 18 18 255 255 255 255 255 255 2 2 2 2 2 255 255 255 255 18 18 18 18 255 255 255 255 255 255 255 255 255 255 255 255 255 255 2 2 255 255 255 255 255 255 64 64 64 64 64 64 64 64 64 64 64 64 64 64 64 64 64 64 64 64 64 64 64 64 64 64 64 64 64 64 64 64 64 64 64 64 64 64 64 64 64 64 64 64 64 64 64 64 64 64 64 64 64 64 64 64 64 64 64 64 64 64 64 64 64 64 64 255 
255 1 1 1 1 1 1 1 1 1 1 1 1 1 1 1 1 1 255 255 255 255 255 17 17 17 17 255 255 255 63 63 63 63 63 63 63 63 63 255 255 255 255 255 255 63 63 63 63 63 63 255 255 255 255 255 255 255 255 255 255 255 255 255 255 255 255 255 255 255 255 255 255 255 255 255 17 17 17 17 17 17 17 17 17 17 17 17 17 17 17 17 17 17 17 17 17 17 17 17 17 17 17 17 17 17 17 17 17 17 255 255 255 17 17 17 17 17 17 17 17 17 17 17 17 17 17 17 17 17 17 17 17 17 17 17 17 17 17 17 17 17 17 17 17 17 17 17 17 17 17 17 17 17 17 17 17 17 17 17 17 17 17 17 17 17 17 255 255 255 17 17 255 255 255 255 255 255 255 255 255 255 255 255 255 255 255 255 255 255 255 255 255 255 255 255 255 255 255 17 17 17 255 255 255 255 255 255 255 255 255 255 255 255 255 255 3 255 255 255 255 255 255 255 255 255 49 49 49 255 255 255 255 255 49 49 255 255 255 49 49 49 49 49 49 49 49 49 49 49 49 49 49 49 49 49 49 49 49 255 255 255 49 255 255 255 49 255 255 255 255 255 49 49 49 49 49 49 49 49 49 49 49 49 49 49 49 49 49 49 49 49 49 49 49 49 49 49 49 49 49 49 49 49 49 49 49 49 49 49 49 49 49 49 49 49 49 49 255 255 255 255 255 65 65 65 65 65 65 65 65 65 255 255 255 17 17 17 17 17 17 255 255 255 255 2 2 2 2 2 2 2 2 2 2 2 2 2 2 2 2 2 2 2 2 255 255 255 255 18 18 18 18 18 18 255 255 255 66 66 66 66 66 66 66 66 66 66 66 66 66 66 66 66 66 66 255 255 255 18 18 18 18 18 18 255 255 255 255 2 2 2 2 2 255 255 255 255 18 18 18 18 18 255 255 255 255 255 255 255 255 255 255 255 255 255 2 2 255 255 255 255 255 64 64 64 64 64 64 64 64 64 64 64 64 64 64 64 64 64 64 64 64 64 64 64 64 64 64 64 64 64 64 64 64 64 64 64 64 64 64 64 64 64 64 64 64 64 64 64 64 64 64 64 64 64 64 64 64 64 64 64 64 64 64 64 64 64 64 64 64 255 
255 1 1 1 1 1 1 1 1 1 1 1 1 1 1 1 1 1 1 255 255 255 255 17 17 17 17 255 255 255 63 63 63 63 63 63 63 63 63 63 63 63 255 255 255 63 63 63 255 255 255 255 255 255 255 255 255 255 255 255 255 255 255 255 255 255 255 255 255 255 255 255 255 255 255 255 255 255 255 17 17 17 17 17 17 17 17 17 17 17 17 17 17 17 17 17 17 17 17 17 17 17 17 17 17 17 17 17 17 17 255 255 255 17 17 17 17 17 17 17 17 17 17 17 17 17 17 17 17 17 17 17 17 17 17 17 17 17 17 17 17 17 17 17 17 17 17 17 17 17 17 17 17 17 17 17 17 17 17 17 17 17 17 17 17 17 17 255 255 255 255 255 255 255 255 255 255 255 255 255 255 255 255 255 255 255 255 255 17 17 255 255 255 255 17 255 255 255 255 17 17 17 17 17 255 255 255 255 17 255 255 255 255 255 255 255 255 255 255 255 255 255 255 255 255 49 49 49 49 49 255 255 255 255 255 49 255 255 255 255 255 255 49 49 49 49 49 49 49 49 49 49 49 49 49 49 255 255 255 255 255 255 49 255 255 255 49 49 49 255 255 255 255 255 49 49 49 49 49 49 49 49 49 49 49 49 49 49 49 49 49 49 49 49 49 49 49 49 49 49 49 49 49 49 49 49 49 49 49 49 49 49 49 49 49 49 49 49 49 255 255 255 255 255 65 65 65 65 65 65 65 65 65 255 255 17 17 17 17 17 17 255 255 255 255 2 2 2 2 2 2 2 2 2 2 2 2 2 2 2 2 2 2 2 2 2 255 255 255 18 18 18 18 18 18 255 255 255 66 66 66 66 66 66 66 66 66 66 66 66 66 66 66 66 66 66 66 255 255 255 18 18 18 18 18 255 255 255 255 2 2 2 2 2 255 255 255 18 18 18 18 18 18 18 18 255 255 255 255 255 255 255 255 255 255 255 255 255 255 255 255 255 255 64 64 64 64 64 64 64 64 64 64 64 64 64 64 64 64 64 64 64 64 64 64 64 64 64 64 64 64 64 64 64 64 64 64 64 64 64 64 64 64 64 64 64 64 64 64 64 64 64 64 64 64 64 64 64 64 64 64 64 64 64 64 64 64 64 64 64 255 255 
255 1 1 1 1 1 1 1 1 1 1 1 1 1 1 1 1 1 1 255 255 17 17 17 17 17 17 255 255 255 63 63 63 63 63 63 63 63 63 63 63 63 255 255 255 63 63 63 255 255 255 255 255 255 255 255 255 255 255 255 255 255 255 255 255 255 255 255 255 255 255 255 255 255 255 255 255 255 255 17 17 17 17 17 17 17 17 17 17 17 17 17 17 17 17 17 17 17 17 17 17 17 17 17 17 17 17 17 17 17 255 255 255 17 17 17 17 17 255 255 255 255 17 17 17 17 17 17 17 17 17 17 17 17 17 17 17 17 17 17 17 17 17 17 17 17 17 17 17 17 17 17 17 17 17 17 17 17 17 17 17 17 17 17 17 17 255 255 255 255 255 255 255 255 255 255 255 255 255 255 255 255 255 255 255 17 17 17 17 17 255 255 255 255 17 17 17 17 255 255 255 17 17 255 255 255 255 255 255 255 255 255 255 255 255 255 255 255 255 255 255 255 255 255 255 255 49 49 49 49 49 255 255 255 255 255 255 255 255 255 255 255 49 49 49 49 49 255 255 255 49 49 49 49 49 49 255 255 255 255 255 255 49 49 49 49 49 49 49 49 49 255 255 255 49 49 49 49 49 49 49 49 49 49 49 49 49 49 49 49 49 49 49 49 49 49 49 49 49 49 49 49 49 49 49 49 49 49 49 49 49 49 49 49 49 49 49 49 49 49 255 255 255 255 255 65 65 65 65 65 65 65 65 255 255 17 17 17 17 17 17 17 17 255 255 255 2 2 2 2 2 2 2 2 2 2 2 2 2 2 2 2 2 2 2 2 2 255 255 255 18 18 18 18 18 255 255 255 66 66 66 66 66 66 66 66 66 66 66 66 66 66 66 66 66 66 66 255 255 255 18 18 18 18 18 18 255 255 255 2 2 2 2 2 255 255 255 255 255 18 18 18 18 255 255 255 255 255 255 255 255 255 255 255 2 2 255 255 255 255 255 255 64 64 64 64 64 64 64 64 64 64 64 64 64 64 64 64 64 64 64 64 64 64 64 64 64 64 64 64 64 64 64 64 64 64 64 64 64 64 64 64 64 64 64 64 64 64 64 64 64 64 64 64 64 64 64 64 64 64 64 64 64 64 64 64 64 64 64 255 255 255 
255 1 1 1 1 1 1 1 1 1 1 1 1 1 1 1 1 1 255 255 255 17 17 17 17 17 17 255 255 63 63 63 63 63 63 63 63 63 63 63 63 63 63 63 63 63 63 63 255 255 255 255 255 255 255 255 255 255 255 255 255 255 255 255 255 255 255 255 255 255 255 255 255 255 255 255 255 255 255 17 17 17 17 17 17 17 17 17 17 17 17 17 17 17 17 17 17 17 17 17 17 17 17 17 17 17 17 17 17 17 17 17 17 17 17 17 17 17 255 255 255 255 17 17 17 17 17 17 17 255 255 255 17 17 17 17 17 17 17 17 17 17 17 17 17 17 17 17 17 17 17 17 17 17 17 17 17 17 17 17 17 17 17 17 17 17 255 255 255 255 255 255 255 255 255 255 255 255 255 17 255 255 255 255 17 17 17 17 17 17 17 17 17 17 17 17 17 17 255 255 255 17 17 255 255 255 255 255 255 255 255 255 17 17 17 255 255 255 255 255 255 255 255 255 255 255 49 49 49 49 49 49 255 255 255 255 255 255 255 255 255 255 255 255 255 49 49 255 255 255 49 49 49 49 49 49 255 255 255 49 49 49 49 49 49 49 255 255 255 49 49 255 255 255 49 49 49 49 49 49 49 49 49 49 49 49 49 49 49 49 49 49 49 49 49 49 49 49 49 49 49 49 49 49 49 49 49 49 49 49 49 49 49 49 49 49 49 49 49 49 49 255 255 255 255 65 65 65 65 65 65 65 255 255 255 17 17 17 17 17 17 17 17 255 255 255 2 2 2 2 2 2 2 2 2 2 2 2 2 2 2 2 255 255 255 255 2 255 255 255 18 18 18 18 18 255 255 255 66 66 66 66 66 66 66 66 66 66 66 66 66 66 66 66 66 66 66 66 255 255 255 255 18 18 18 18 18 255 255 255 255 255 2 2 255 255 255 255 255 18 18 18 18 255 255 255 255 255 255 255 255 2 2 2 2 255 255 255 255 255 255 64 64 64 64 64 64 64 64 64 64 64 64 64 64 64 64 64 64 64 64 64 64 64 64 64 64 64 64 64 64 64 64 64 64 64 64 64 64 64 64 64 64 64 64 64 64 64 64 64 64 64 64 64 64 64 64 64 64 64 64 64 64 64 64 64 64 64 255 255 255 255 
255 1 1 1 1 1 1 1 1 1 1 1 1 1 1 1 1 1 255 255 255 17 17 17 17 17 17 255 255 63 63 63 63 63 63 63 63 63 63 63 63 63 63 63 63 63 63 63 63 63 63 63 255 255 255 255 255 255 255 255 255 255 255 255 255 255 255 255 255 255 255 255 255 255 255 17 17 17 17 17 17 17 17 17 17 17 17 17 17 17 17 17 17 17 17 17 17 17 17 17 17 17 17 17 17 17 255 255 255 255 17 17 17 17 255 255 255 17 255 255 255 255 17 17 17 17 17 17 17 255 255 255 17 17 17 17 17 17 17 17 17 17 17 17 17 17 17 17 17 17 17 17 17 17 17 17 17 17 17 17 17 17 17 17 255 255 255 255 255 255 255 255 255 255 255 255 255 255 17 17 255 255 255 255 255 255 255 17 17 17 17 17 17 17 17 17 17 17 255 255 255 17 17 255 255 255 17 255 255 255 17 17 255 255 255 255 255 255 255 3 255 255 255 255 255 255 255 49 49 49 49 49 49 255 255 255 255 255 255 255 255 255 255 255 255 49 49 255 255 255 255 255 255 255 255 255 255 49 49 49 49 49 49 49 49 49 255 255 255 49 49 49 49 49 49 49 49 49 49 49 49 49 49 49 49 49 49 49 49 49 49 49 49 49 49 49 49 49 49 49 49 49 49 49 49 49 49 49 49 49 49 49 49 49 49 49 49 49 49 49 49 49 255 255 255 255 65 65 65 65 65 65 255 255 255 255 17 17 17 17 17 17 17 17 255 255 2 2 2 2 2 2 2 2 2 2 2 2 2 2 2 2 255 255 255 255 255 255 255 255 18 18 18 18 18 255 255 255 255 66 66 66 66 66 66 66 66 66 66 66 66 66 66 66 66 66 66 66 255 255 255 255 18 18 18 18 18 255 255 255 255 255 2 2 255 255 255 255 255 255 255 255 18 255 255 255 255 255 255 255 255 255 255 2 2 255 255 255 255 255 255 64 64 64 64 64 64 64 64 64 64 64 64 64 64 64 64 64 64 64 64 64 64 64 64 64 64 64 64 64 64 64 64 64 64 64 64 64 64 64 64 64 64 64 64 64 64 64 64 64 64 64 64 64 64 64 64 64 64 64 64 64 64 64 64 64 64 255 255 255 255 255 
255 1 1 1 1 1 1 1 1 1 1 1 1 1 1 1 1 1 255 255 255 255 17 17 17 17 17 255 255 63 63 63 63 63 63 63 63 63 63 63 63 63 63 63 63 63 63 63 63 63 63 255 255 255 255 255 255 255 255 255 255 255 255 255 255 255 255 255 255 255 255 255 255 255 255 255 255 255 255 17 17 17 17 17 17 17 17 17 17 17 17 17 17 17 17 17 17 17 17 17 17 17 17 17 17 255 255 255 255 255 17 17 17 255 255 255 255 255 255 255 255 255 17 17 17 17 17 17 17 255 255 255 17 17 17 17 17 17 17 17 17 17 17 17 17 255 255 255 17 17 17 17 17 17 17 17 17 17 17 17 17 17 17 17 255 255 255 255 255 255 255 255 255 255 255 255 255 17 17 17 17 17 255 255 255 255 255 17 17 255 255 255 17 17 17 17 17 255 255 255 17 17 17 17 17 17 17 255 255 255 17 17 255 255 255 255 255 255 255 3 3 255 255 255 255 255 255 49 49 49 49 49 49 255 255 255 255 255 255 49 255 255 255 255 255 49 49 49 255 255 255 255 255 255 255 255 255 49 49 49 49 49 49 49 49 49 255 255 255 49 49 49 49 49 49 255 255 255 49 49 49 49 49 49 49 49 49 49 49 49 49 49 49 49 49 49 49 49 49 49 49 49 49 49 49 49 49 49 49 49 49 49 49 49 49 49 49 49 49 49 49 49 255 255 255 255 255 65 65 65 65 65 255 255 255 255 255 17 17 17 17 17 17 17 255 255 2 2 2 2 2 2 2 2 2 2 2 2 2 2 2 2 255 255 255 255 255 255 255 255 18 18 18 18 18 255 255 255 255 66 66 66 66 66 66 66 66 66 66 66 66 66 66 66 66 66 66 66 66 66 255 255 255 255 18 18 18 18 18 18 255 255 255 255 255 255 255 255 255 255 255 255 18 18 18 255 255 255 255 255 255 255 255 255 255 255 255 255 255 255 64 64 64 64 64 64 64 64 64 64 64 64 64 64 64 64 64 64 64 64 64 64 64 64 64 64 64 64 64 64 64 64 64 64 64 64 64 64 64 64 64 64 64 64 64 64 64 64 64 64 64 64 64 64 64 64 64 64 64 64 64 64 64 64 64 64 64 255 255 255 19 255 
255 1 1 1 1 1 1 1 1 1 1 1 1 1 1 1 1 1 255 255 255 255 17 17 17 17 255 255 255 63 63 63 63 63 63 63 63 63 63 63 63 63 63 63 63 255 255 255 63 63 63 255 255 255 255 255 255 255 255 255 255 255 255 255 255 255 255 255 255 255 255 255 255 255 255 255 255 255 255 17 17 17 17 17 17 17 17 17 17 17 17 17 17 17 17 17 17 17 17 17 17 17 17 17 17 255 255 255 255 255 17 255 255 255 255 255 255 255 255 255 255 255 17 17 17 17 17 17 17 17 17 17 17 17 17 17 17 17 17 17 17 17 17 17 17 255 255 255 17 17 17 17 17 17 17 17 17 17 17 17 17 17 17 17 255 255 255 255 255 255 255 255 255 255 255 255 17 17 17 17 17 17 255 255 255 255 255 255 255 255 255 255 255 255 255 17 17 255 255 255 17 17 255 255 255 255 17 17 17 17 17 17 255 255 255 255 255 255 255 255 255 255 255 255 255 255 255 255 255 49 255 255 255 255 255 255 255 255 255 255 255 255 255 255 49 255 255 255 255 255 255 255 255 255 255 255 255 49 49 49 49 49 49 49 49 49 49 49 49 49 49 49 49 49 49 255 255 255 49 49 49 49 49 49 49 49 49 49 49 49 49 49 49 49 49 49 49 49 49 49 49 49 49 49 49 49 49 49 49 49 49 49 49 49 49 49 49 49 49 49 49 49 49 255 255 255 255 65 65 65 65 65 65 255 255 255 255 17 17 17 17 17 255 255 255 255 2 2 2 2 2 2 2 2 2 2 2 2 2 2 2 2 2 2 255 255 255 255 255 255 18 18 18 18 18 18 255 255 255 66 66 66 66 66 66 66 66 66 66 66 66 66 66 66 66 66 66 66 66 66 255 255 255 255 18 18 18 18 18 18 255 255 255 255 255 255 255 18 255 255 255 255 18 18 18 18 18 255 255 255 255 255 255 255 255 255 255 255 255 64 64 64 64 64 64 64 64 64 64 64 64 64 64 64 64 64 64 64 64 64 64 64 64 64 64 64 64 64 64 64 64 64 64 64 64 64 64 64 64 64 64 64 64 64 64 64 64 64 64 64 64 64 64 64 64 64 64 64 64 64 64 64 64 64 64 64 255 255 255 255 255 255 
255 1 1 1 1 1 1 1 1 1 1 1 1 1 1 1 1 1 255 255 255 255 17 17 17 17 255 255 255 63 63 63 63 63 63 63 63 63 63 63 63 63 63 63 63 255 255 255 63 63 63 255 255 255 255 255 255 255 255 255 255 255 255 255 255 255 255 255 255 255 255 255 255 255 255 255 255 255 255 17 17 17 17 17 17 17 17 17 17 17 17 17 17 17 17 17 17 17 17 17 17 17 17 17 17 255 255 255 255 255 17 255 255 255 255 255 255 255 255 255 255 17 17 17 17 17 17 17 17 17 17 17 17 17 17 17 17 17 17 17 17 17 17 17 17 255 255 255 17 17 17 17 17 17 17 17 17 17 17 255 255 255 255 255 17 255 255 255 255 255 255 255 255 255 255 255 17 17 255 255 255 255 17 255 255 255 255 255 255 255 255 255 255 255 255 17 17 255 255 255 17 17 255 255 255 255 17 17 17 255 255 255 255 255 255 255 255 255 255 255 255 255 255 255 255 255 255 255 255 255 255 255 255 255 49 49 255 255 255 255 255 255 255 255 255 255 255 255 255 255 255 255 255 255 49 49 49 49 49 49 49 49 49 49 49 49 49 49 49 49 255 255 255 49 49 255 255 255 49 49 49 49 49 49 49 49 49 49 49 49 49 49 49 49 49 49 49 49 49 49 49 49 49 49 49 49 49 49 49 49 49 49 49 49 49 49 49 49 49 49 49 49 49 255 255 255 255 255 255 255 255 65 65 255 255 255 255 17 17 17 17 17 255 255 255 255 2 2 2 2 2 2 2 2 2 2 2 2 2 2 2 2 2 2 255 255 255 255 255 255 18 18 18 18 18 18 255 255 66 66 66 66 66 66 66 66 66 66 66 66 66 66 66 66 66 66 66 66 66 66 66 255 255 255 255 18 18 18 18 18 255 255 255 255 255 255 255 255 255 255 18 18 255 255 255 18 18 255 255 255 255 255 255 255 18 255 255 255 255 64 64 64 64 64 64 64 64 64 64 64 64 64 64 64 64 64 64 64 64 64 64 64 64 64 64 64 64 64 64 64 64 64 64 64 64 64 64 64 64 64 64 64 64 64 64 64 64 64 64 64 64 64 64 64 64 64 64 64 64 64 64 64 64 64 64 255 255 255 255 255 255 255 
255 1 1 1 1 1 1 1 1 1 1 1 1 1 1 1 1 1 255 255 255 17 17 17 17 17 255 255 255 63 63 63 63 63 63 63 63 63 63 63 63 63 63 63 63 255 255 255 63 63 63 255 255 255 255 255 255 255 255 255 255 255 255 255 255 255 255 255 255 255 255 255 255 255 255 255 255 255 255 17 17 17 17 17 17 17 17 17 17 17 17 17 17 17 17 17 17 17 17 17 17 17 17 17 17 255 255 255 255 255 255 255 255 255 255 255 255 255 255 255 255 255 17 17 17 17 17 17 17 17 17 17 17 17 17 17 17 17 17 17 17 17 17 17 17 17 17 17 17 17 17 17 17 17 17 17 17 17 17 255 255 255 255 255 17 255 255 255 255 255 255 255 255 255 255 255 17 17 255 255 255 255 17 255 255 255 255 255 255 17 17 255 255 255 255 17 17 17 17 17 17 17 255 255 255 255 17 17 17 255 255 255 255 255 255 255 255 255 255 255 255 255 255 255 255 255 255 255 255 255 255 255 255 255 49 49 255 255 255 255 255 255 255 255 255 255 255 255 255 255 255 255 49 49 49 49 49 49 49 49 49 49 49 49 49 49 49 49 49 49 255 255 255 49 49 49 49 49 49 49 49 49 49 49 49 49 49 49 49 49 49 49 49 49 49 49 49 49 49 49 49 49 49 49 49 49 49 49 49 49 49 49 49 49 49 49 49 49 49 49 49 49 49 49 255 255 255 255 255 255 255 65 65 255 255 255 255 17 17 17 17 17 255 255 255 255 2 2 2 2 2 2 2 2 2 2 2 2 2 2 2 2 2 2 2 2 255 255 255 18 18 18 18 18 18 255 255 255 66 66 66 66 66 66 66 66 66 66 66 66 66 66 66 66 66 66 66 66 66 66 66 255 255 255 255 255 18 18 18 18 255 255 255 255 255 255 255 255 255 255 255 18 255 255 255 255 255 255 255 255 255 255 255 255 18 255 255 255 64 64 64 64 64 64 64 64 64 64 64 64 64 64 64 64 64 64 64 64 64 64 64 64 64 64 64 64 64 64 64 64 64 64 64 64 64 64 64 64 64 64 64 64 64 64 64 64 64 64 64 64 64 64 64 64 64 64 64 64 64 64 64 64 64 64 255 255 255 255 255 255 255 255 
255 1 1 1 1 1 1 1 1 1 1 1 1 1 1 1 1 1 255 255 255 17 17 17 17 17 255 255 255 63 63 63 63 63 63 63 63 63 63 63 63 63 63 63 63 63 63 255 255 255 63 255 255 255 255 255 255 255 255 255 255 255 63 63 63 63 63 255 255 255 255 255 255 255 255 255 255 255 255 17 17 17 17 17 17 17 17 17 17 17 17 17 17 17 17 17 17 17 17 17 17 17 255 255 255 255 255 255 255 255 255 255 255 17 17 17 17 255 255 255 255 255 17 17 17 17 17 17 17 17 17 17 17 17 17 17 17 17 17 17 17 17 17 17 17 17 17 17 17 17 17 17 17 17 17 17 17 17 17 255 255 255 255 255 17 255 255 255 255 255 255 255 255 255 17 17 17 17 255 255 255 255 17 255 255 255 255 17 17 17 17 17 17 17 17 17 17 17 17 17 17 17 17 17 17 17 17 255 255 255 255 255 255 255 255 255 255 255 255 255 255 255 255 255 255 255 255 255 255 255 255 255 255 255 49 49 49 255 255 255 255 255 255 255 255 255 255 255 49 49 49 49 49 49 49 49 49 49 49 49 49 49 49 49 49 49 49 49 49 49 255 255 255 49 49 49 49 49 49 49 49 49 49 49 49 49 49 49 49 49 49 49 49 49 49 49 49 49 49 49 49 49 49 49 49 49 49 49 49 49 49 49 49 49 49 49 49 49 49 49 49 49 49 49 255 255 255 255 255 255 255 65 65 65 65 255 255 255 17 17 17 17 17 255 255 255 2 2 2 2 2 2 2 2 2 2 2 2 2 2 2 2 2 2 2 2 2 255 255 18 18 18 18 18 18 255 255 255 66 66 66 66 66 66 66 66 66 66 66 66 66 66 66 66 66 66 66 66 66 66 66 66 66 255 255 255 255 255 18 255 255 255 255 255 255 255 255 255 255 255 255 255 255 255 255 255 255 255 255 255 18 255 255 255 255 255 255 64 64 64 64 64 64 64 64 64 64 64 64 64 64 64 64 64 64 64 64 64 64 64 64 64 64 64 64 64 64 64 64 64 64 64 64 64 64 64 64 64 64 64 64 64 64 64 64 64 64 64 64 64 64 64 64 64 64 64 64 64 64 64 64 64 64 255 255 255 255 255 255 255 255 255 
255 1 1 1 1 1 1 1 1 1 1 1 1 1 1 1 1 1 255 255 255 17 17 17 17 17 17 255 255 255 63 63 63 63 63 63 63 63 63 63 63 63 63 63 63 63 63 255 255 255 63 255 255 255 255 255 255 255 255 255 255 255 255 255 255 63 255 255 255 255 255 255 255 255 255 255 17 17 17 17 17 17 17 17 17 17 17 17 17 17 17 17 17 17 17 17 17 17 17 17 17 17 255 255 255 255 255 255 255 255 255 255 255 255 255 255 17 255 255 255 255 255 17 17 17 17 17 17 17 255 255 255 17 17 17 17 17 17 17 17 17 17 17 17 17 17 17 17 17 17 17 17 17 17 17 255 255 255 17 17 17 17 255 255 255 255 255 255 255 255 255 255 17 255 255 255 255 255 17 17 255 255 255 255 255 255 17 17 17 17 17 17 17 17 17 17 17 17 17 17 17 17 17 17 17 17 255 255 255 255 255 255 255 255 255 255 255 255 49 255 255 255 255 255 255 255 255 255 255 255 255 255 255 49 49 49 255 255 255 255 255 255 255 255 255 255 255 49 49 49 49 49 49 49 49 49 49 49 49 49 49 49 49 49 49 49 49 49 49 49 255 255 255 49 49 49 49 49 49 49 49 49 49 49 49 49 49 49 49 49 49 49 49 49 49 49 49 49 49 49 49 49 49 49 49 49 49 49 49 49 49 49 49 49 49 49 49 49 49 49 49 49 49 49 49 255 255 255 255 255 65 65 65 65 65 255 255 255 17 17 17 17 17 255 255 255 255 255 2 2 2 2 2 2 2 2 2 2 2 2 2 2 2 2 2 2 2 255 255 18 18 18 18 18 18 255 255 255 66 66 66 66 66 66 66 66 66 66 66 66 66 66 66 66 66 66 66 66 66 66 66 66 66 255 255 255 255 255 255 255 255 255 255 255 255 255 255 255 255 255 255 255 255 255 255 255 255 255 255 255 255 255 255 255 255 255 255 64 64 64 64 64 64 64 64 64 64 64 64 64 64 64 64 64 64 64 64 64 64 64 64 64 64 64 64 64 64 64 64 64 64 64 64 64 64 64 64 64 64 64 64 64 64 64 64 64 64 64 64 64 64 64 64 64 64 64 64 64 64 64 64 64 64 255 255 255 255 255 255 255 255 255 
255 1 1 1 1 1 1 1 1 1 1 1 1 1 1 1 1 1 255 255 255 17 17 17 17 17 17 255 255 255 63 63 63 63 63 63 63 63 63 63 63 63 63 255 255 255 63 255 255 255 255 255 255 255 255 255 255 255 255 255 255 255 255 255 255 255 255 255 255 255 255 255 255 255 17 17 17 17 17 17 17 17 17 17 17 17 17 17 17 17 17 17 17 17 17 17 17 17 17 17 17 17 255 255 255 255 255 255 255 255 17 255 255 255 255 255 17 255 255 255 255 255 17 17 17 17 17 17 17 255 255 255 17 17 17 17 17 17 17 17 17 17 17 17 17 17 17 17 17 17 17 17 17 17 17 255 255 255 17 17 17 17 255 255 255 255 255 255 255 255 255 255 255 255 255 255 255 255 17 17 255 255 255 255 17 255 255 255 17 17 17 17 17 17 17 17 17 17 17 17 17 17 17 17 255 255 255 255 255 255 255 255 255 255 255 255 255 255 49 49 255 255 255 255 255 255 255 255 255 255 255 255 255 255 255 255 255 255 255 255 255 255 255 255 49 49 49 255 255 255 49 49 49 49 49 49 49 49 49 49 49 49 49 49 49 49 49 49 49 49 49 49 49 49 49 49 49 49 49 49 49 49 49 49 49 49 49 49 255 255 255 49 49 49 49 49 49 49 49 49 49 49 49 49 49 49 49 49 49 49 49 49 49 49 49 49 49 49 49 49 49 49 49 49 49 49 255 255 255 255 255 65 65 65 65 255 255 255 17 17 17 17 17 255 255 255 255 255 2 2 2 2 2 2 2 2 2 2 2 2 2 2 2 2 2 2 2 255 255 18 18 18 18 18 18 255 255 255 66 66 66 66 66 66 66 66 66 66 66 66 66 66 66 66 66 66 66 66 66 66 66 66 66 255 255 255 255 255 255 255 255 255 255 49 49 49 49 49 49 49 255 255 255 255 255 255 255 255 255 255 255 255 255 255 255 255 64 64 64 64 64 64 64 64 64 64 64 64 64 64 64 64 64 64 64 64 64 64 64 64 64 64 64 64 64 64 64 64 64 64 64 64 64 64 64 64 64 64 64 64 64 64 64 64 64 64 64 64 64 64 64 64 64 64 64 64 64 64 64 64 64 64 64 255 255 255 255 255 255 255 255 255 
255 1 1 1 1 1 1 1 1 1 1 1 1 1 1 1 1 1 255 255 255 17 17 17 17 17 17 255 255 255 63 63 63 63 63 63 63 63 63 63 63 63 63 255 255 255 63 63 255 255 255 255 255 255 255 255 255 255 255 255 255 255 255 255 255 255 255 255 255 255 255 255 255 255 255 255 255 255 255 17 17 17 17 17 17 17 17 17 17 17 17 17 17 17 17 17 17 17 17 17 255 255 255 255 255 255 255 255 255 255 255 255 255 255 255 255 17 255 255 255 255 255 17 17 17 17 17 17 17 255 255 255 255 17 17 17 17 17 17 17 17 17 17 17 17 17 17 17 17 17 17 17 17 17 17 255 255 255 17 17 17 17 255 255 255 255 255 255 255 255 255 255 255 255 255 255 255 255 255 255 255 255 255 255 255 255 255 255 17 17 17 17 17 17 17 17 17 17 255 255 255 17 17 255 255 255 255 255 255 255 255 255 255 255 255 255 255 255 255 49 255 255 255 255 255 255 255 255 255 255 255 255 255 255 255 255 255 255 255 255 255 255 255 255 49 49 49 255 255 255 49 49 49 49 49 49 255 255 255 49 49 49 49 49 49 49 49 49 49 49 49 49 49 49 49 49 49 49 49 49 49 49 49 49 49 49 49 49 255 255 255 49 49 49 49 49 49 49 49 49 49 49 49 49 49 49 49 49 49 49 49 49 49 49 49 49 49 49 49 49 49 49 49 49 49 49 49 255 255 255 255 65 65 65 65 255 255 255 17 17 17 17 17 255 255 255 255 255 2 2 2 2 2 2 2 2 2 2 2 2 2 2 2 2 2 2 255 255 255 255 255 18 18 18 18 18 255 255 66 66 66 66 66 66 66 66 66 66 66 66 66 66 66 66 66 66 66 66 66 66 66 66 66 255 255 255 255 255 255 255 255 49 49 49 49 49 255 255 255 255 49 255 255 255 255 255 49 49 255 255 255 255 255 255 255 64 64 64 64 64 64 64 64 64 64 64 64 64 64 64 64 64 64 64 64 64 64 64 64 64 64 64 64 64 64 64 64 64 64 64 64 64 64 64 64 64 64 64 64 64 64 64 64 64 64 64 64 64 64 64 64 64 64 64 64 64 64 64 64 64 64 255 255 255 255 255 255 255 5 255 255 255 
255 1 1 1 1 1 1 1 1 1 1 1 1 1 1 1 1 1 255 255 255 17 17 17 17 17 17 255 255 255 63 63 63 63 63 63 63 63 63 63 63 63 63 255 255 255 63 255 255 255 255 255 255 255 255 255 255 255 255 255 255 255 255 255 255 255 255 255 255 255 255 255 255 255 255 255 255 255 255 17 17 17 17 17 17 17 17 17 17 17 17 17 17 17 17 17 17 17 17 17 255 255 255 255 255 255 255 255 255 255 255 255 255 255 255 255 255 255 255 255 255 255 17 17 255 255 255 255 17 17 255 255 255 17 17 17 17 17 17 17 17 17 17 17 17 17 17 17 17 17 17 17 17 17 17 17 255 255 255 17 17 17 17 17 17 17 17 17 255 255 255 255 255 255 255 255 255 255 255 255 255 17 255 255 255 255 255 255 17 17 17 17 17 17 17 17 17 17 255 255 255 17 255 255 255 255 255 255 255 255 255 255 255 255 255 255 255 255 255 255 255 255 255 255 255 255 255 255 255 255 255 255 255 255 255 255 255 255 255 255 255 255 49 49 49 49 49 255 255 255 49 49 49 49 49 49 255 255 255 255 49 49 49 49 49 49 49 49 49 49 49 49 49 49 49 49 49 49 49 49 49 49 49 49 49 49 49 49 255 255 255 49 49 49 49 49 49 49 49 49 49 49 49 49 49 49 49 49 49 49 49 49 49 49 49 49 49 49 49 49 49 49 49 49 49 49 49 49 255 255 255 255 65 65 65 255 255 255 255 17 17 17 255 255 255 255 255 255 2 2 2 2 2 2 2 2 2 2 2 2 2 2 2 2 2 2 255 255 255 255 255 18 18 18 18 18 255 255 255 66 66 66 66 66 66 66 66 66 66 66 66 66 66 66 66 66 66 66 66 66 66 66 66 255 255 255 255 255 255 49 49 49 49 255 255 255 255 255 255 255 49 49 49 49 49 49 49 49 49 255 255 255 255 255 64 64 64 64 64 64 64 64 64 64 64 64 64 64 64 64 64 64 64 64 64 64 64 64 64 64 64 64 64 64 64 64 64 64 64 64 64 64 64 64 64 64 64 64 64 64 64 64 64 64 64 64 64 64 64 64 64 64 64 64 64 64 64 64 64 64 255 255 255 255 255 255 255 255 255 255 255 255 
255 1 1 1 1 1 1 1 1 1 1 1 1 1 1 1 1 1 255 255 255 17 17 17 17 17 17 255 255 255 63 63 63 63 63 63 63 63 63 63 63 63 63 63 63 63 63 255 255 255 63 63 255 255 255 255 255 255 255 255 255 255 255 255 255 255 255 255 255 255 255 255 255 255 255 255 255 255 255 255 255 17 17 17 17 17 17 17 17 17 17 17 17 17 17 17 17 17 17 17 255 255 255 255 255 255 255 255 255 255 255 255 255 255 255 255 255 255 255 255 255 17 17 17 255 255 255 255 255 255 255 255 255 17 17 255 255 255 17 17 17 17 17 17 17 17 17 17 17 17 17 17 17 17 17 17 255 255 255 17 17 17 17 17 17 17 17 255 255 255 255 255 255 17 255 255 255 255 255 255 255 17 255 255 255 255 255 255 17 17 17 17 17 17 17 17 17 17 255 255 255 255 255 255 255 255 255 255 255 255 255 255 255 255 255 255 255 255 255 255 255 255 255 255 255 255 255 255 255 255 255 255 255 255 255 255 255 255 255 255 255 49 49 49 49 49 49 49 49 49 49 49 49 49 49 49 255 255 255 255 49 49 49 49 49 49 49 49 49 49 49 49 49 49 49 49 49 49 49 49 49 49 49 49 49 49 49 49 49 49 49 49 49 49 49 49 49 49 49 49 49 49 49 49 49 49 49 49 49 49 49 49 49 49 49 49 49 49 49 49 49 49 49 49 49 49 49 49 255 255 255 255 65 65 65 255 255 255 255 17 17 17 255 255 255 255 255 2 2 2 2 2 2 2 2 2 2 2 2 2 2 2 2 2 2 255 255 255 255 255 255 18 18 18 18 18 255 255 255 66 66 66 66 66 66 66 66 66 66 66 66 66 66 66 66 66 66 66 66 66 66 66 255 255 255 255 255 49 49 49 49 255 255 255 255 255 255 255 255 255 49 49 49 49 49 49 49 49 49 49 255 255 255 255 64 64 64 64 64 64 64 64 64 64 64 64 64 64 64 64 64 64 64 64 64 64 64 64 64 64 64 64 64 64 64 64 64 64 64 64 64 64 64 64 64 64 64 64 64 64 64 64 64 64 64 64 64 64 64 64 64 64 64 64 64 64 64 64 64 255 255 255 255 255 255 255 255 255 255 255 255 255 
255 1 1 1 1 1 1 1 1 1 1 1 1 1 1 1 1 1 255 255 255 17 17 17 17 17 17 255 255 255 63 63 63 63 63 63 63 63 63 63 63 63 63 63 63 63 63 255 255 255 255 255 255 255 255 255 255 255 255 255 255 255 255 255 255 255 255 255 255 255 255 255 255 255 255 255 255 255 255 255 255 17 17 17 17 17 17 17 17 17 17 17 17 17 17 17 17 17 17 17 17 255 255 255 255 255 255 255 255 255 255 255 255 255 255 255 255 255 255 255 255 17 17 17 255 255 255 255 255 255 17 17 17 17 17 255 255 255 17 17 17 17 17 17 17 17 17 17 17 17 17 17 17 17 17 17 255 255 255 17 17 17 17 17 17 255 255 255 255 255 255 255 255 255 255 255 255 17 17 17 255 255 255 255 255 255 17 255 255 255 255 17 17 17 17 17 17 17 255 255 255 255 255 255 3 255 255 255 255 255 255 255 255 255 255 255 255 255 255 255 255 255 255 255 255 255 49 49 255 255 3 3 255 255 255 255 255 255 255 255 255 49 49 49 49 49 49 49 49 49 49 49 255 255 255 49 49 255 255 255 49 49 49 49 49 49 49 49 49 49 49 49 49 49 49 49 49 49 49 49 49 49 49 49 49 49 49 49 49 49 49 49 49 49 49 49 49 49 49 49 49 49 49 49 49 49 49 49 49 49 49 49 49 49 49 49 49 49 49 49 49 49 49 49 49 49 49 49 49 255 255 255 65 65 65 65 255 255 255 17 17 17 255 255 255 255 255 2 2 2 2 2 2 2 2 2 2 2 2 2 2 2 2 2 2 255 255 255 255 255 255 18 18 18 18 255 255 255 255 66 66 66 66 66 66 66 66 66 66 66 66 66 66 66 66 66 66 66 66 66 66 255 255 255 255 255 49 49 49 49 255 255 255 255 255 255 255 255 49 49 49 49 49 49 49 49 49 49 49 49 49 255 255 255 255 64 64 64 64 64 64 64 64 64 64 64 64 64 64 64 64 64 64 64 64 64 64 64 64 64 64 64 64 64 64 64 64 64 64 64 64 64 64 64 64 64 64 64 64 64 64 64 64 64 64 64 64 64 64 64 64 64 64 64 64 64 64 64 64 255 255 255 255 255 255 255 255 255 255 255 20 255 
255 1 1 1 1 1 1 1 1 1 1 1 1 1 1 1 1 1 255 255 255 17 17 17 17 17 17 255 255 255 63 63 63 63 63 63 63 63 63 63 63 63 63 63 63 63 63 63 63 255 255 255 255 255 255 255 255 255 255 255 255 255 63 63 63 63 63 255 255 255 255 255 255 255 255 255 255 255 255 255 255 17 17 17 17 17 17 17 17 17 17 17 17 17 17 17 17 17 17 17 17 255 255 255 50 255 255 255 255 255 255 255 255 255 255 255 255 255 255 255 255 255 255 255 255 17 255 255 255 255 17 17 17 17 17 255 255 255 255 255 17 17 17 17 17 17 17 17 17 17 17 255 255 255 17 17 255 255 255 255 255 17 17 17 17 255 255 255 255 255 255 255 255 255 255 255 255 255 255 255 255 255 255 17 17 17 17 255 255 255 255 17 17 17 17 17 17 255 255 255 255 255 255 255 3 255 255 255 51 255 255 255 255 255 255 255 255 255 255 3 255 255 255 255 255 255 255 255 255 255 3 3 255 255 255 255 255 255 255 255 255 255 49 49 49 49 49 49 49 49 49 49 255 255 255 255 49 49 49 49 49 49 49 49 49 49 49 49 49 49 49 49 49 49 49 49 49 49 49 49 49 49 49 49 49 49 49 49 49 49 49 49 49 49 49 49 49 49 49 49 49 49 49 49 49 49 49 49 49 49 49 49 49 49 49 49 49 49 49 49 49 49 49 49 49 49 49 49 49 255 255 255 255 65 65 65 255 255 255 17 17 17 17 255 255 255 255 2 2 2 255 255 255 2 2 2 2 2 2 2 2 2 2 2 2 255 255 255 255 255 255 18 18 18 18 255 255 255 66 66 66 66 66 66 66 66 66 66 66 66 66 66 66 66 66 66 66 66 66 255 255 255 255 255 255 49 49 49 255 255 255 255 255 255 255 255 49 49 49 49 49 49 49 49 49 49 49 49 49 49 49 49 255 255 255 64 64 64 64 64 64 64 64 64 64 64 64 64 64 64 64 64 64 64 64 64 64 64 64 64 64 64 64 64 64 64 64 64 64 64 64 64 64 64 64 64 64 64 64 64 64 64 64 64 64 64 64 64 64 64 64 64 64 64 64 64 64 64 255 255 255 255 255 255 255 255 255 255 255 255 255 255 
255 1 1 1 1 1 1 1 1 1 1 1 1 1 1 1 1 1 255 255 17 17 17 17 17 17 17 255 255 255 63 63 63 63 63 63 63 63 63 63 63 63 63 63 63 63 63 63 63 255 255 255 255 255 255 255 255 255 255 255 255 63 63 63 63 63 63 255 255 255 255 255 255 255 255 255 255 255 255 17 17 17 17 17 17 17 17 17 17 17 17 17 17 17 17 17 17 17 17 17 255 255 255 255 255 255 255 255 255 255 255 255 255 255 255 255 255 255 255 255 255 255 255 255 255 17 255 255 255 17 17 255 255 255 17 17 17 255 255 255 17 17 17 17 17 17 17 17 17 17 17 255 255 255 17 17 255 255 255 255 255 17 17 17 17 255 255 255 255 255 255 255 255 255 255 255 255 255 255 255 255 255 255 17 17 17 17 255 255 255 255 17 17 17 17 17 255 255 255 255 3 255 255 255 255 255 255 255 51 255 255 255 255 255 255 255 3 3 3 3 255 255 255 255 255 255 255 255 255 255 255 255 255 255 255 255 255 255 255 255 255 255 49 49 49 49 49 49 255 255 255 49 255 255 255 255 255 49 49 49 49 49 49 49 49 49 49 49 49 49 49 49 49 49 49 49 49 49 49 49 49 49 49 49 49 49 49 49 49 49 49 49 49 49 49 49 49 49 49 49 49 49 49 49 49 49 49 49 49 49 49 49 49 49 49 49 49 49 49 49 49 49 49 49 49 49 49 49 49 49 255 255 255 65 65 65 255 255 255 17 17 17 17 255 255 255 255 2 2 2 255 255 255 2 2 2 2 2 2 2 2 2 2 2 2 2 255 255 255 255 18 18 18 18 18 255 255 66 66 66 66 66 66 66 66 66 66 66 66 66 66 66 66 66 66 66 66 66 255 255 255 255 255 255 49 49 255 255 255 255 255 255 255 255 49 49 49 49 49 49 49 49 49 49 49 49 49 49 49 49 49 49 255 255 255 255 64 64 64 64 64 64 64 64 64 64 64 64 64 64 64 64 64 64 64 64 64 64 64 64 64 64 64 64 64 64 64 64 64 64 64 64 64 64 64 64 64 64 64 64 64 64 64 64 64 64 64 64 64 64 64 64 64 64 64 64 64 255 255 255 255 255 255 255 255 255 255 255 20 255 255 255 
255 1 1 1 1 1 1 1 1 1 1 1 1 1 1 1 1 1 255 255 17 17 17 17 17 17 17 255 255 255 63 63 63 63 63 63 63 63 63 63 63 63 63 63 63 63 63 63 63 63 63 63 255 255 255 255 255 255 255 63 63 63 63 63 63 63 63 63 63 63 255 255 255 255 255 255 255 255 255 17 17 17 17 17 17 17 17 17 17 17 17 17 17 17 17 17 17 17 255 255 255 255 255 50 255 255 255 255 255 255 255 255 255 255 255 255 255 255 255 255 255 255 255 255 255 255 17 17 17 17 17 255 255 255 17 17 17 255 255 255 17 17 17 17 17 17 17 17 17 17 17 255 255 255 17 17 255 255 255 255 255 255 17 17 17 17 17 17 255 255 255 17 17 255 255 255 17 255 255 255 255 255 255 17 17 17 17 17 17 17 17 17 17 17 255 255 255 255 255 3 3 255 255 255 255 255 255 255 51 255 255 255 255 255 255 255 255 255 3 3 255 255 255 255 255 255 255 3 3 255 255 255 255 255 255 255 255 255 255 255 255 255 49 49 49 49 49 49 255 255 255 49 49 255 255 255 255 49 49 49 49 49 49 49 49 49 49 49 49 49 49 49 49 49 49 49 49 49 49 49 49 49 49 49 49 49 49 49 49 49 49 49 49 49 49 49 49 49 49 49 49 49 49 49 49 49 49 49 49 49 49 49 49 49 49 49 49 49 49 49 49 49 49 49 49 49 49 49 49 49 255 255 255 255 65 65 65 255 255 17 17 17 17 255 255 255 255 2 2 2 255 255 255 2 2 2 2 2 2 2 2 2 2 2 2 2 255 255 255 18 18 18 18 18 18 255 255 255 66 66 66 66 66 66 66 66 66 66 66 66 66 66 66 66 66 66 66 255 255 255 255 255 49 49 49 255 255 255 255 255 255 255 255 49 49 49 49 49 49 49 49 49 49 49 49 49 49 49 49 49 49 49 255 255 255 255 64 64 64 64 64 64 64 64 64 64 64 64 64 64 64 64 64 64 64 64 64 64 64 64 64 64 64 64 64 64 64 64 64 64 64 64 64 64 64 64 64 64 64 64 64 64 64 64 64 64 64 64 64 64 64 64 64 64 64 64 64 255 255 255 255 255 255 5 255 255 255 255 20 255 255 255 
255 1 1 1 1 1 1 1 1 1 1 1 1 1 1 1 1 1 255 255 17 17 17 17 17 17 17 255 255 255 63 63 63 63 63 63 63 63 63 63 63 63 63 63 63 63 63 63 63 63 63 63 255 255 255 63 63 63 63 63 63 63 255 255 255 63 63 63 63 255 255 255 255 255 255 255 255 255 255 255 255 255 17 17 17 17 17 17 17 17 17 17 17 17 17 17 17 17 255 255 255 255 255 255 255 255 255 255 255 255 255 255 255 255 17 17 255 255 255 255 17 17 17 255 255 255 17 17 17 17 17 255 255 255 17 17 17 17 17 17 17 17 17 17 17 17 17 17 17 17 17 17 17 17 17 17 17 17 17 255 255 255 17 17 17 17 17 17 255 255 255 17 17 255 255 255 255 255 255 255 255 17 17 17 17 17 17 17 17 17 17 17 17 255 255 255 255 255 3 3 255 255 255 255 255 255 255 255 255 255 255 255 3 255 255 255 255 255 255 255 255 255 255 255 255 255 255 255 255 255 255 49 255 255 255 255 255 255 255 255 255 255 49 49 49 49 49 49 255 255 255 49 49 255 255 255 255 255 255 49 49 49 49 49 49 49 49 49 49 255 255 255 255 49 49 49 49 49 49 49 49 49 49 49 49 49 49 49 49 49 49 49 49 49 49 49 49 49 49 49 49 49 49 49 49 49 49 49 49 49 49 49 49 49 49 49 49 49 49 49 49 49 49 49 49 49 49 49 49 49 255 255 255 255 255 65 65 255 255 17 17 17 17 17 255 255 255 2 2 2 2 2 2 2 2 2 2 2 2 2 2 2 2 2 2 2 255 255 255 18 18 18 18 18 18 255 255 255 66 66 66 66 66 66 66 66 66 66 66 66 66 66 66 66 66 255 255 255 255 255 255 49 49 255 255 255 255 255 255 255 255 49 49 49 49 49 49 49 49 49 49 49 49 49 49 49 49 49 49 49 49 49 49 255 255 255 64 64 64 64 64 64 64 64 64 64 64 64 64 64 64 64 64 64 64 64 64 64 64 64 64 64 64 64 64 64 64 64 64 64 64 64 64 64 64 64 64 64 64 64 64 64 64 64 64 64 64 64 64 64 64 64 64 64 64 64 255 255 255 255 255 255 255 255 255 255 255 255 20 20 20 255 
255 1 1 1 1 1 1 1 1 1 1 1 1 1 1 1 1 1 255 255 17 17 17 17 17 17 17 255 255 63 63 63 63 63 63 63 63 63 63 63 63 63 63 63 63 63 63 255 255 255 63 63 255 255 255 63 63 63 63 63 63 63 255 255 255 63 63 63 255 255 255 255 63 255 255 255 255 17 17 255 255 255 17 17 17 17 17 17 17 17 17 17 17 17 17 17 17 255 255 255 255 255 255 255 255 255 255 255 17 17 17 255 255 255 255 255 255 17 17 17 17 17 17 255 255 255 17 255 255 255 17 17 17 17 17 17 17 17 17 17 17 17 17 17 17 17 17 17 17 17 17 17 17 17 17 17 17 17 17 255 255 255 17 17 17 17 17 17 17 17 17 255 255 255 255 255 255 17 17 17 17 17 17 17 17 17 17 17 17 17 17 255 255 255 255 255 3 3 3 3 255 255 255 255 255 255 255 255 255 255 255 255 3 3 3 255 255 255 255 255 255 255 255 255 3 255 255 255 255 255 255 255 255 255 255 255 255 255 255 255 255 255 255 49 49 49 255 255 255 49 49 49 49 49 255 255 255 255 255 49 49 49 49 49 49 49 49 49 49 255 255 255 255 49 49 49 49 49 49 49 49 49 49 49 49 49 49 49 49 49 49 49 49 49 49 49 49 49 49 49 49 49 49 49 49 49 49 49 49 49 49 49 49 49 49 49 49 49 49 49 49 49 49 49 49 49 49 49 49 49 49 255 255 255 255 65 65 255 255 17 17 17 17 17 255 255 255 2 2 2 2 2 2 2 2 2 2 2 2 2 2 2 2 2 2 2 255 255 255 255 18 18 18 18 18 18 255 255 66 66 66 66 66 66 66 66 66 66 66 66 66 66 66 66 255 255 255 255 255 255 49 49 255 255 255 255 255 255 255 255 49 49 49 49 49 49 49 49 49 49 49 49 49 49 49 49 49 49 49 49 49 49 49 255 255 255 64 64 64 64 64 64 64 64 64 64 64 64 64 64 64 64 64 64 64 64 64 64 64 64 64 64 64 64 64 64 64 64 64 64 64 64 64 64 64 64 64 64 64 64 64 64 64 64 64 64 64 64 64 64 64 64 64 64 64 255 255 255 255 255 255 5 5 255 255 255 255 255 20 20 255 255 
255 1 1 1 1 1 1 1 1 1 1 1 1 1 1 1 1 1 255 255 255 17 17 17 17 17 255 255 255 63 63 63 63 63 63 63 63 63 63 63 63 63 63 63 63 63 63 255 255 255 255 63 255 255 255 255 255 63 63 63 255 255 255 255 255 63 255 255 255 255 255 255 255 255 255 255 255 17 17 255 255 255 17 17 17 17 17 17 17 17 17 17 17 17 17 17 17 255 255 255 255 255 255 255 255 4 255 255 17 17 17 255 255 255 255 255 255 255 255 255 17 255 255 255 17 17 17 255 255 255 17 17 17 17 17 17 17 17 17 17 17 17 17 17 17 17 17 17 17 17 17 17 17 255 255 255 17 17 17 17 17 17 17 17 17 17 17 17 17 255 255 255 255 255 255 255 255 17 17 17 17 17 17 17 17 17 17 17 17 17 255 255 255 255 255 255 255 255 255 255 255 255 255 255 255 3 3 255 255 255 255 255 255 3 255 255 255 255 255 255 255 3 3 3 255 255 255 255 255 255 255 255 255 255 255 255 255 255 255 255 255 255 255 255 49 49 255 255 255 255 49 49 49 49 49 255 255 255 255 49 49 49 49 255 255 255 255 255 255 255 255 255 255 49 49 49 49 49 49 49 49 49 49 49 49 49 49 49 49 49 49 49 49 49 49 49 49 49 49 49 49 49 49 49 49 49 49 49 49 49 49 49 49 49 49 49 49 49 49 49 49 49 49 49 49 49 49 49 49 49 49 255 255 255 255 255 65 255 255 255 17 17 17 17 255 255 255 255 2 2 2 2 2 2 2 2 2 2 2 2 2 2 2 2 2 2 2 255 255 255 255 18 18 18 18 18 255 255 255 66 66 66 66 66 66 66 66 66 66 66 66 66 255 255 255 255 255 255 49 49 255 255 255 255 255 255 255 255 255 49 49 49 49 49 49 49 49 49 49 49 49 49 49 49 49 49 49 49 49 49 49 49 49 49 255 255 255 64 64 64 64 64 64 64 64 64 64 64 64 64 64 64 64 64 64 64 64 64 64 64 64 64 64 64 64 64 64 64 64 64 64 64 64 64 64 64 64 64 64 64 64 64 64 64 64 64 64 64 64 64 64 64 64 64 255 255 255 255 255 255 255 255 255 255 255 255 255 255 20 20 255 255 
255 1 1 1 1 1 1 1 1 1 1 1 1 1 1 1 1 1 255 255 255 17 17 17 17 17 255 255 255 63 63 63 63 63 63 63 63 63 63 63 63 63 63 63 63 63 63 255 255 255 255 63 255 255 255 255 255 63 63 63 255 255 255 63 63 255 255 255 255 255 255 255 255 255 255 255 255 17 17 17 17 17 17 17 17 17 17 17 17 17 17 17 17 17 17 255 255 255 255 255 255 255 255 255 255 4 255 255 255 255 255 255 255 255 255 255 255 255 255 255 17 255 255 255 255 255 255 255 255 255 17 17 17 17 17 17 17 17 17 17 17 17 17 17 17 17 17 17 17 17 17 17 17 255 255 255 17 17 17 17 17 17 17 255 255 255 255 255 255 255 255 255 255 255 17 17 17 17 17 17 17 17 17 17 17 17 17 17 17 255 255 255 255 3 255 255 255 255 255 255 255 255 255 255 255 3 3 3 255 255 255 255 255 255 255 255 255 255 255 255 255 3 3 255 255 255 255 255 255 255 255 255 255 255 255 255 255 255 255 255 255 255 255 255 49 49 255 255 255 255 255 49 49 49 49 49 255 255 255 255 255 255 49 255 255 255 255 255 255 49 49 49 49 49 49 49 49 49 49 49 49 49 49 49 49 49 49 49 49 49 49 49 49 49 49 49 49 49 49 49 49 49 49 49 49 49 49 49 49 49 49 49 49 49 49 49 49 49 49 49 49 49 49 49 49 49 49 49 49 49 49 49 255 255 255 255 255 255 255 255 255 17 17 17 255 255 255 255 2 2 2 2 2 2 2 2 2 2 2 2 2 2 2 2 2 255 255 255 255 255 255 18 18 18 18 255 255 255 255 66 66 66 66 66 66 66 66 66 66 66 66 255 255 255 255 255 255 49 49 255 255 255 255 255 255 255 255 255 49 49 49 49 49 49 49 49 49 49 49 49 49 49 49 49 49 49 49 49 49 49 49 49 49 49 255 255 255 64 64 64 64 64 64 64 64 64 64 64 64 64 64 64 64 64 64 64 64 64 64 64 64 64 64 64 64 64 64 64 64 64 64 64 64 64 64 64 64 64 64 64 64 64 64 64 64 64 64 64 64 64 64 64 64 64 255 255 255 255 255 255 255 255 255 255 255 255 255 255 20 255 255 255 
255 1 1 1 1 1 1 1 1 1 1 1 1 1 1 1 1 1 1 255 255 17 17 17 17 17 255 255 255 255 63 63 63 63 63 63 63 63 63 63 63 63 63 63 63 63 63 63 255 255 255 255 255 255 255 255 255 255 255 255 255 255 255 255 255 255 255 255 255 255 255 255 255 255 255 255 255 17 17 17 17 17 17 17 17 17 17 17 17 17 17 17 17 17 17 255 255 255 255 255 255 50 255 255 255 4 255 255 255 255 255 255 255 255 255 255 255 255 255 255 255 255 255 255 255 255 255 255 17 17 17 17 17 17 17 17 17 17 17 17 17 17 17 17 17 17 17 17 17 17 17 17 17 255 255 255 17 17 17 17 17 17 255 255 255 255 255 255 255 255 255 255 255 255 255 17 17 17 17 255 255 255 17 17 17 17 17 17 255 255 255 255 3 3 255 255 255 255 255 255 255 255 255 255 255 3 3 3 3 3 255 255 255 255 255 255 255 255 255 255 255 255 255 255 255 255 255 255 255 255 255 255 255 255 255 49 49 255 255 255 255 255 255 255 255 255 255 255 255 255 255 255 49 49 49 49 49 49 49 255 255 255 255 255 255 255 255 255 255 49 49 49 49 49 49 49 49 49 49 49 49 49 49 49 49 49 49 49 49 49 49 49 49 49 49 49 49 49 49 49 49 49 49 49 49 49 49 49 49 49 49 49 49 49 49 49 49 49 49 49 49 49 49 49 49 49 49 49 49 49 49 49 49 255 255 255 255 255 255 255 255 17 17 17 17 255 255 255 2 2 2 2 2 2 2 2 2 2 2 2 2 2 2 2 2 255 255 255 255 255 255 18 18 18 18 255 255 255 255 66 66 66 66 66 66 66 66 66 66 66 255 255 255 255 255 255 49 49 255 255 255 255 6 255 255 255 49 49 49 49 49 49 49 49 49 49 49 49 49 49 49 49 49 49 49 49 49 49 49 49 49 49 49 49 255 255 255 64 64 64 64 64 64 64 64 64 64 64 64 64 64 64 64 64 64 64 64 64 64 64 64 64 64 64 64 64 64 64 64 64 64 64 64 64 64 64 64 64 64 64 64 64 64 64 64 64 64 64 64 64 64 64 64 255 255 255 255 255 255 255 255 255 255 255 20 20 20 20 255 255 255 255 
255 1 1 1 1 1 1 1 1 1 1 1 1 1 1 1 1 1 1 255 255 17 17 17 17 17 17 255 255 255 63 63 63 63 63 63 63 63 63 63 63 63 63 63 255 255 255 63 63 63 255 255 255 255 255 255 255 255 255 255 63 255 255 255 255 255 255 255 255 255 255 255 255 255 255 255 255 17 17 17 17 17 17 17 17 17 17 17 17 17 17 17 17 17 17 255 255 255 255 255 255 50 50 255 255 255 255 255 255 255 255 255 255 255 255 255 255 255 255 255 255 17 255 255 255 255 255 255 17 17 17 17 17 17 17 17 17 17 17 17 17 17 255 255 255 17 17 17 17 17 17 255 255 255 17 17 17 17 255 255 255 255 255 255 255 255 255 255 255 255 255 255 255 255 255 17 17 17 17 255 255 255 17 17 17 17 255 255 255 255 255 3 3 3 255 255 255 255 255 255 255 255 255 3 3 3 3 3 3 3 255 255 255 255 255 255 255 255 3 255 255 255 255 255 255 255 255 255 255 255 255 255 255 255 255 255 49 255 255 255 255 255 49 255 255 255 255 49 255 255 255 255 255 49 49 49 49 49 49 255 255 255 255 255 255 255 255 255 49 49 49 49 49 49 49 49 49 49 49 49 49 49 49 49 49 49 49 49 49 49 49 49 49 49 49 49 49 49 49 49 49 49 49 49 49 49 49 49 49 49 49 49 49 49 49 49 49 49 49 49 49 49 49 49 49 49 49 49 49 49 49 49 49 255 255 255 255 255 255 255 255 17 17 17 17 255 255 255 2 2 2 2 2 2 2 2 2 2 2 2 2 2 2 2 2 255 255 255 255 255 18 18 18 18 18 255 255 66 66 66 66 66 66 66 66 66 66 66 66 255 255 255 255 255 49 49 255 255 255 255 255 255 255 255 255 255 49 49 49 49 49 49 49 49 49 49 49 49 49 49 49 49 49 49 49 49 49 49 49 49 49 49 49 49 255 255 255 64 64 64 64 64 64 64 64 64 64 64 64 64 64 64 64 64 64 64 64 64 64 64 64 64 64 64 64 64 64 64 64 64 64 64 64 64 64 64 64 64 64 64 64 64 64 64 64 64 64 64 64 64 64 64 255 255 255 255 255 255 5 255 255 255 255 255 255 255 255 255 255 255 255 255 
255 1 1 1 1 1 1 1 1 1 1 1 1 1 1 1 1 1 1 255 255 17 17 17 17 17 17 255 255 255 63 63 63 63 63 63 63 63 63 63 63 63 63 63 255 255 255 63 63 63 255 255 255 255 255 255 255 255 255 255 255 255 255 255 255 63 255 255 255 255 255 255 255 255 255 255 255 17 17 17 17 17 17 17 17 17 17 17 17 17 17 17 17 17 17 17 255 255 255 255 255 50 50 255 255 255 255 255 17 17 255 255 255 255 255 255 255 255 255 255 255 17 255 255 255 255 255 17 17 255 255 255 17 17 17 17 17 17 17 17 17 17 255 255 255 255 255 255 17 17 17 255 255 255 17 17 17 17 255 255 255 255 255 255 255 255 255 255 17 17 17 17 255 255 255 17 17 17 17 255 255 255 17 255 255 255 255 255 255 255 3 3 3 3 255 255 255 255 255 3 3 3 3 3 3 3 3 3 3 3 255 255 255 255 255 255 3 255 255 255 255 255 255 255 255 255 255 255 3 255 255 255 255 255 255 255 255 49 255 255 255 255 255 255 255 255 255 255 255 255 255 255 255 255 49 255 255 255 255 255 255 255 255 49 49 49 49 49 49 49 49 49 49 49 49 49 255 255 255 49 49 49 49 49 49 49 49 49 49 49 49 49 49 49 49 49 49 49 49 49 49 49 49 49 49 49 49 49 49 49 49 49 49 49 49 49 49 49 49 49 49 49 49 49 49 49 49 49 49 49 49 49 49 49 255 255 255 255 255 255 255 17 17 17 255 255 255 255 2 2 2 2 2 2 2 2 2 2 2 2 2 2 2 2 2 255 255 255 255 255 255 18 18 18 18 255 255 66 66 66 66 66 66 66 66 66 66 255 255 255 255 255 255 49 49 255 255 255 255 255 255 255 255 255 255 49 49 49 49 49 49 49 49 49 49 49 49 49 49 49 49 49 49 49 49 49 49 49 49 49 49 49 49 49 255 255 255 64 64 64 64 64 64 64 64 64 64 64 64 64 64 64 64 64 64 64 64 64 64 64 64 64 64 64 64 64 64 64 64 64 64 64 64 64 64 64 64 64 64 64 64 64 64 64 64 64 64 64 64 64 64 64 255 255 255 255 255 255 5 255 255 255 255 20 255 255 255 255 255 255 5 255 
255 1 1 1 1 1 1 1 1 1 1 1 1 1 1 1 1 1 1 255 255 17 17 17 17 17 17 255 255 63 63 63 63 63 63 63 63 63 63 63 63 63 63 63 255 255 255 255 255 63 255 255 255 255 255 255 255 255 255 255 255 255 255 255 255 255 255 255 255 255 255 255 255 255 255 255 255 17 17 17 17 17 17 17 17 17 17 17 17 17 17 17 17 17 17 17 255 255 255 255 255 50 50 255 255 255 255 255 17 255 255 255 255 255 255 255 255 255 255 255 255 255 255 255 255 17 17 17 17 255 255 255 255 255 255 17 17 17 17 17 17 17 255 255 255 255 255 255 17 17 17 255 255 255 17 17 17 17 255 255 255 255 255 255 255 255 255 255 17 17 17 17 17 17 17 17 17 17 17 17 17 17 17 255 255 255 255 255 3 3 3 255 255 255 255 255 255 255 3 3 3 3 3 3 3 3 3 3 255 255 255 255 255 3 3 3 3 255 255 255 255 255 255 255 255 255 255 255 255 255 255 255 255 255 255 255 255 255 49 255 255 255 255 255 255 255 255 255 255 255 255 255 255 255 255 255 255 255 255 255 255 255 255 49 49 49 49 49 49 49 49 49 49 49 49 49 255 255 255 49 49 49 49 49 49 49 49 49 49 49 49 49 49 49 49 49 49 49 49 49 49 49 49 49 49 49 49 49 49 49 49 49 49 49 49 49 49 49 49 49 49 49 49 49 49 49 49 49 49 49 49 49 49 49 49 255 255 255 255 255 255 17 17 17 255 255 255 2 2 2 2 2 2 2 2 2 2 2 2 2 2 2 2 2 2 2 255 255 255 255 255 18 18 255 255 255 255 66 66 66 66 66 66 66 66 66 255 255 255 255 255 255 49 49 255 255 255 255 6 255 255 255 49 49 49 49 49 49 49 49 49 49 49 49 49 49 49 49 49 49 49 49 49 49 49 49 49 49 49 49 49 49 49 49 49 255 255 64 64 64 64 64 64 64 64 64 64 64 64 64 64 64 64 64 64 64 64 64 64 64 64 64 64 64 64 64 64 64 64 64 64 64 64 64 64 64 64 64 64 64 64 64 64 64 64 64 64 64 64 64 64 255 255 255 255 255 255 255 5 255 255 255 255 20 255 255 255 255 255 5 5 255 
255 1 1 1 1 1 1 1 1 1 1 1 1 1 1 1 1 1 1 255 255 255 17 17 17 17 17 255 255 255 63 63 63 63 63 63 63 63 63 63 63 63 63 63 63 255 255 255 255 63 63 255 255 255 255 255 255 255 255 255 255 255 255 255 255 255 255 255 255 255 255 255 255 255 255 255 255 255 255 255 17 17 17 17 17 17 17 17 17 17 17 17 17 17 17 17 255 255 255 255 50 255 255 255 255 255 255 255 255 255 255 255 255 255 255 255 255 255 255 255 255 255 255 255 17 17 255 255 255 255 255 255 255 255 255 17 17 17 17 17 17 17 17 17 255 255 255 255 17 17 17 17 17 17 17 17 17 17 255 255 255 255 255 255 255 255 255 255 17 17 17 17 17 17 17 17 17 17 17 17 17 17 17 255 255 255 255 3 3 3 3 255 255 255 255 255 255 255 3 3 3 3 3 3 3 3 255 255 255 255 255 255 255 255 255 255 255 255 255 255 255 255 255 255 255 255 255 255 255 255 255 255 255 255 255 255 255 255 255 49 255 255 255 255 255 255 255 255 255 255 255 255 255 255 255 255 255 255 255 255 255 49 49 49 49 49 49 49 49 49 49 49 49 49 49 49 255 255 255 255 255 255 255 49 49 49 49 49 49 49 49 49 49 49 49 49 49 49 49 49 49 49 49 49 49 49 49 49 49 49 49 49 49 49 49 49 49 49 49 49 49 49 49 49 49 49 49 49 49 49 49 49 49 49 49 49 255 255 255 255 255 17 17 17 255 255 255 255 2 2 2 2 2 2 2 2 2 2 2 2 2 2 2 2 2 255 255 255 255 255 255 18 18 255 255 255 255 66 66 66 66 66 66 66 66 255 255 255 255 255 49 49 255 255 255 255 255 255 255 255 255 49 49 49 49 49 49 49 49 49 49 49 49 49 49 49 49 49 49 49 49 49 49 49 49 49 49 49 49 49 49 49 49 49 49 255 255 64 64 64 64 64 64 64 64 64 64 64 64 64 64 64 64 64 64 64 64 64 64 64 64 64 64 64 64 64 64 64 64 64 64 64 64 64 64 64 64 64 64 64 64 64 64 64 64 64 64 64 64 64 255 255 255 255 255 255 5 5 255 255 255 255 255 20 255 255 255 255 255 5 5 255 
255 1 1 1 1 1 1 1 1 1 1 1 1 1 1 1 1 1 1 255 255 255 17 17 17 17 17 255 255 255 63 63 63 63 63 63 63 63 63 63 63 63 63 63 63 255 255 255 255 63 63 255 255 255 255 255 255 255 255 255 17 255 255 255 255 255 255 255 255 255 255 255 255 255 255 255 17 255 255 255 17 17 17 17 17 17 17 17 17 17 17 17 17 17 17 17 255 255 255 255 50 255 255 255 255 255 255 255 255 255 255 255 255 255 255 255 255 255 255 255 255 255 255 255 17 17 255 255 255 255 255 255 255 255 255 17 17 17 17 17 17 17 17 17 17 17 17 17 17 17 17 17 17 17 255 255 255 17 17 17 17 17 255 255 255 17 17 17 17 17 17 17 17 17 17 17 17 17 17 17 17 17 255 255 255 255 3 3 3 3 255 255 255 255 255 3 3 3 3 3 3 3 3 3 255 255 255 255 255 255 255 3 3 255 255 255 255 255 255 255 255 255 255 255 255 255 255 255 255 255 255 255 255 255 255 255 255 255 255 255 49 255 255 255 255 255 255 255 255 255 255 255 255 255 255 255 255 255 255 255 255 255 49 49 49 49 49 49 49 49 49 49 49 49 49 49 49 49 49 255 255 255 255 255 49 49 49 49 49 49 49 49 49 49 49 49 49 49 49 49 49 49 49 49 49 49 49 49 49 49 49 49 49 49 49 49 49 49 49 49 49 49 49 49 49 49 49 49 49 49 49 49 49 49 49 49 255 255 255 255 255 255 17 17 255 255 255 255 2 2 2 2 2 2 2 2 2 2 2 2 2 2 2 2 2 255 255 255 255 255 18 18 18 255 255 255 66 66 66 66 66 66 66 255 255 255 255 255 255 49 49 255 255 255 255 255 255 255 255 255 255 49 49 49 49 49 49 49 49 49 49 49 49 49 49 49 49 49 49 49 49 49 49 49 49 49 49 49 49 49 49 49 49 49 255 255 255 64 64 64 64 64 64 64 64 64 64 64 64 64 64 64 64 64 64 64 64 64 64 64 64 64 64 64 64 64 64 64 64 64 64 64 64 64 64 64 64 64 64 64 64 64 64 64 64 64 64 64 64 64 255 255 255 255 255 5 5 5 255 255 255 255 255 20 255 255 255 255 255 5 5 255 
255 1 1 1 1 1 1 1 1 1 1 1 1 1 1 1 1 1 1 1 255 255 255 17 17 17 17 255 255 255 63 63 63 63 63 63 63 63 63 63 63 63 63 63 63 63 63 63 63 63 63 63 255 255 17 255 255 255 255 255 255 255 255 255 255 255 255 255 255 255 255 255 255 255 255 255 17 255 255 255 17 255 255 255 17 17 17 17 17 17 17 17 17 17 17 255 255 255 255 255 50 255 255 255 255 255 255 255 255 255 255 255 255 255 255 255 255 255 255 255 255 255 255 255 17 255 255 255 255 255 255 255 255 255 17 17 17 17 17 17 17 17 17 17 17 17 17 17 17 17 17 17 17 255 255 255 255 17 17 17 17 17 255 255 255 17 17 17 17 17 17 17 17 17 17 17 17 17 17 17 255 255 255 255 255 3 3 3 255 255 255 255 255 255 255 3 3 3 3 3 3 3 255 255 255 255 255 255 255 3 3 255 255 255 255 255 255 255 255 255 255 255 255 255 255 255 255 255 255 255 255 255 255 255 255 255 255 255 255 255 255 255 255 255 255 255 255 255 255 255 255 255 255 255 255 255 255 255 255 255 255 255 255 49 49 49 49 49 49 49 49 255 255 255 49 49 49 49 49 255 255 255 255 255 49 49 49 49 49 49 49 49 49 49 49 49 49 49 49 49 49 255 255 255 49 49 49 255 255 255 49 49 49 49 49 49 49 49 49 49 49 49 49 49 49 49 49 49 49 49 49 49 49 49 49 49 255 255 255 255 255 255 17 17 255 255 255 255 2 2 2 2 2 2 2 2 2 2 2 2 2 2 2 2 2 255 255 255 255 255 18 18 18 255 255 255 66 66 66 66 66 255 255 255 255 255 255 49 49 255 255 255 255 255 255 255 255 255 255 49 49 49 49 49 49 49 49 49 49 49 49 49 49 49 49 49 49 49 49 49 49 49 49 49 49 49 49 49 49 49 49 49 49 49 255 255 255 64 64 64 64 64 64 64 64 64 64 64 64 64 64 64 64 64 64 64 64 64 64 64 64 64 64 64 64 64 64 64 64 64 64 64 64 64 64 64 64 64 64 64 64 64 64 64 64 64 64 64 64 255 255 255 255 255 255 5 5 5 255 255 255 255 20 255 255 255 5 5 5 5 5 255 
255 1 1 1 1 1 1 1 1 1 1 1 1 1 1 1 1 1 1 255 255 255 255 17 17 17 17 255 255 255 63 63 63 63 63 63 63 63 63 63 63 63 63 63 63 63 63 63 63 63 63 255 255 255 255 255 255 255 255 255 255 255 255 255 255 255 255 255 255 255 255 255 255 255 17 17 17 17 17 17 17 255 255 255 17 17 17 17 17 17 17 17 17 17 17 255 255 255 255 255 50 255 255 255 4 255 255 255 255 255 255 255 255 255 255 255 255 255 255 255 255 255 255 255 255 255 255 255 255 255 255 255 255 17 17 17 17 17 17 17 17 17 17 17 17 17 17 17 17 17 17 17 17 255 255 255 255 17 17 17 17 17 255 255 255 17 17 17 17 17 17 17 17 17 17 17 17 17 17 17 255 255 255 255 3 3 3 3 255 255 255 255 255 3 3 3 3 3 3 3 3 3 255 255 255 255 255 255 255 255 255 255 255 255 255 255 255 255 255 255 255 255 255 255 255 255 255 255 255 255 255 255 255 255 255 255 255 255 255 255 255 255 255 255 255 255 255 255 255 255 255 255 255 255 255 255 255 49 49 255 255 255 255 49 49 49 49 49 49 49 49 255 255 255 49 49 49 49 49 49 49 255 255 255 49 49 49 49 49 49 49 49 49 49 49 49 49 49 49 255 255 255 255 255 49 49 49 255 255 255 49 49 49 49 49 49 49 49 49 49 49 49 49 49 49 49 49 49 49 49 49 49 49 49 49 49 49 255 255 255 255 255 255 17 255 255 255 255 2 2 2 2 2 2 2 2 2 2 2 2 2 2 2 2 2 2 255 255 255 255 18 18 18 255 255 255 66 66 66 255 255 255 255 255 255 255 49 49 255 255 255 255 255 255 255 255 255 49 49 49 49 49 49 49 49 49 49 49 49 49 49 49 49 49 49 49 49 49 49 49 49 49 49 49 49 49 49 49 49 49 49 49 49 49 255 255 255 64 64 64 64 64 64 64 64 64 64 64 64 64 64 64 64 64 64 64 64 64 64 64 64 64 64 64 64 64 64 64 64 64 64 64 64 64 64 64 64 64 64 64 64 64 64 64 64 64 64 64 255 255 255 255 255 255 5 5 5 5 255 255 255 255 20 255 255 255 5 5 5 5 5 255 
255 1 1 1 1 1 1 1 1 1 1 1 1 1 1 1 1 1 1 255 255 255 255 17 17 17 17 255 255 255 63 63 63 63 63 63 63 63 63 63 63 63 63 63 63 63 63 63 63 63 63 255 255 255 255 255 255 255 255 255 255 255 255 255 255 255 255 255 255 255 17 255 255 255 17 17 17 17 17 17 17 255 255 255 17 17 17 17 17 17 17 17 17 17 17 255 255 255 255 50 50 255 255 255 4 255 255 255 255 255 255 255 255 255 255 255 255 255 255 255 255 17 17 255 255 255 255 255 255 255 255 255 17 17 17 17 17 17 17 17 17 17 17 17 17 17 17 17 17 17 17 17 17 255 255 255 17 17 17 17 17 17 17 17 17 17 17 17 17 17 17 17 17 17 17 255 255 255 17 255 255 255 3 3 3 3 3 3 255 255 255 3 3 3 3 3 3 3 3 3 3 3 255 255 255 255 3 255 255 255 255 255 255 255 255 255 255 255 255 255 255 3 255 255 255 255 255 255 255 255 255 255 255 255 255 255 255 255 255 255 255 255 255 255 255 255 255 255 255 3 3 3 3 255 255 49 49 255 255 255 255 255 255 49 49 49 49 49 49 49 49 255 255 255 49 49 49 49 49 49 49 49 49 49 49 49 49 49 49 49 49 49 49 49 49 255 255 255 255 255 255 255 255 255 49 49 49 255 255 255 49 49 49 49 49 49 49 49 49 49 49 49 49 49 49 49 49 49 49 49 49 49 49 49 49 49 49 49 49 255 255 255 255 255 255 255 255 255 255 255 2 2 2 2 2 2 2 2 2 2 2 2 2 2 2 255 255 255 255 255 18 18 255 255 255 255 66 66 255 255 255 255 255 255 49 49 255 255 255 255 255 255 255 255 255 49 49 49 49 49 49 49 49 49 49 49 49 49 49 49 49 49 49 49 49 49 49 49 49 49 49 49 49 49 49 49 49 49 49 49 49 49 49 49 255 255 255 64 64 64 64 64 64 64 64 64 64 64 64 64 64 64 64 64 64 64 64 64 64 64 64 64 64 64 64 64 64 64 64 64 64 64 64 64 64 64 64 64 64 64 64 64 64 64 64 64 64 64 255 255 255 255 255 255 5 5 5 255 255 255 20 20 20 255 255 5 5 5 5 5 5 255 
255 1 1 1 1 1 1 1 1 1 1 1 1 1 1 1 1 1 1 255 255 255 17 17 17 17 17 17 255 255 63 63 63 63 63 63 63 63 63 63 63 63 63 63 63 63 63 63 63 63 63 255 255 255 255 255 255 255 255 255 255 255 255 255 255 255 255 255 255 255 17 255 255 255 17 17 17 17 17 17 17 17 17 17 17 17 17 17 17 17 17 17 17 17 17 255 255 255 255 50 50 255 255 4 255 255 255 255 255 255 255 255 255 255 17 255 255 255 255 255 255 255 255 255 255 255 255 255 255 255 255 17 17 17 17 17 17 17 17 17 17 17 17 17 17 17 17 17 17 17 17 17 17 17 17 17 17 17 17 17 17 17 17 17 17 17 17 17 17 17 17 17 17 17 255 255 255 255 255 255 255 255 3 3 3 3 3 3 3 3 3 3 3 3 3 3 3 3 255 255 255 255 255 255 3 3 3 255 255 255 255 255 255 255 255 255 255 255 255 255 255 255 255 255 255 255 255 255 255 255 255 255 255 255 255 255 255 255 255 255 255 255 255 255 255 255 255 255 255 3 255 255 255 255 255 49 49 255 255 255 255 49 49 49 49 49 49 49 49 49 49 49 49 49 49 49 49 49 49 49 49 49 49 49 49 255 255 255 49 49 49 49 49 49 255 255 255 255 255 255 255 255 255 255 49 49 49 255 255 255 49 49 49 49 49 49 49 49 49 49 49 49 49 49 49 49 49 49 49 49 49 49 49 49 49 49 49 49 49 49 255 255 255 255 255 255 255 255 255 255 2 2 2 2 2 2 2 2 2 2 2 2 2 2 2 255 255 255 255 255 18 18 255 255 255 255 255 255 255 255 255 255 255 49 49 49 255 255 255 255 255 255 255 255 255 49 49 49 49 49 49 49 49 49 49 49 49 49 49 49 49 49 49 49 49 49 49 49 49 49 49 49 49 49 49 49 49 49 49 49 49 49 49 49 255 255 255 64 64 64 64 64 64 64 64 64 64 64 64 64 64 64 64 64 64 64 64 64 64 64 64 64 64 64 64 64 64 64 64 64 64 64 64 64 64 64 64 64 64 64 64 64 64 64 64 64 64 255 255 255 255 255 255 255 5 5 255 255 255 255 20 20 255 255 255 5 5 5 5 5 5 255 
255 1 1 1 1 1 1 1 1 1 1 1 1 1 1 1 1 1 1 255 255 255 17 17 17 17 17 17 255 255 63 63 63 63 63 63 63 63 63 63 63 63 63 63 63 63 255 255 255 63 63 63 63 255 255 255 255 255 255 255 255 255 255 255 255 255 255 255 255 255 255 255 255 17 17 17 17 17 17 17 17 17 17 17 17 17 17 17 17 17 17 17 17 17 17 255 255 255 255 50 50 255 255 255 255 255 255 17 255 255 255 255 255 17 17 255 255 255 255 255 255 255 255 255 255 255 255 255 255 255 17 17 17 17 17 17 17 17 17 17 17 17 17 17 17 17 17 17 17 17 17 17 17 17 17 17 17 17 17 17 17 17 17 17 17 17 17 17 17 17 17 17 17 17 255 255 255 255 255 255 255 3 3 3 3 3 3 3 3 3 3 3 3 3 3 3 255 255 255 255 255 255 255 255 3 3 3 3 255 255 255 255 255 255 3 3 255 255 255 255 255 255 255 255 255 255 255 255 255 255 255 255 255 255 255 255 255 255 255 255 255 255 255 255 255 255 255 3 3 3 255 255 255 255 255 49 49 255 255 255 255 255 255 49 49 49 49 49 49 49 49 49 49 49 49 49 49 49 49 49 49 49 49 49 49 255 255 255 49 49 49 49 49 49 255 255 255 255 255 255 255 255 255 49 49 49 49 49 49 49 49 49 49 49 49 49 49 49 49 49 49 49 49 49 49 49 49 49 49 49 49 49 49 49 49 49 49 49 49 49 49 49 255 255 255 255 255 255 255 255 2 2 2 2 2 2 2 2 2 2 2 2 2 2 2 255 255 255 255 18 18 18 255 255 255 255 255 255 255 255 255 49 49 255 255 255 255 255 255 255 255 255 255 49 49 49 49 49 49 49 49 49 49 49 49 49 49 49 49 49 49 49 49 49 49 49 49 49 49 49 49 49 49 49 49 49 49 49 49 49 49 49 49 49 255 255 255 64 64 64 64 64 64 64 64 64 64 64 64 64 64 64 64 64 64 64 64 64 64 64 64 64 64 64 64 64 64 64 64 64 64 64 64 64 64 64 64 64 64 64 64 64 64 64 64 64 64 255 255 255 255 255 5 5 5 5 255 255 255 20 20 255 255 255 255 5 5 5 5 5 5 255 
255 1 1 1 1 1 1 1 1 1 1 1 1 1 1 1 1 1 1 1 255 255 17 17 17 17 17 17 255 255 63 63 63 63 63 63 63 63 63 63 63 63 63 63 63 255 255 255 255 63 63 63 63 255 255 255 255 255 255 255 255 255 255 255 255 17 17 255 255 255 255 255 255 255 255 17 17 17 17 17 17 17 17 17 17 17 17 17 17 17 17 17 17 17 17 255 255 255 255 50 50 255 255 255 255 255 17 17 17 255 255 255 255 17 17 255 255 255 255 255 255 255 255 255 255 255 255 255 17 17 17 17 17 17 17 17 17 17 17 17 17 17 17 17 17 17 17 17 17 17 17 17 17 17 17 17 17 17 17 17 17 17 17 17 17 17 17 17 17 17 17 255 255 255 255 255 255 255 255 3 3 3 255 255 255 3 3 3 3 3 3 255 255 255 255 255 255 255 255 255 255 255 255 255 3 3 3 3 3 255 255 255 255 255 255 3 255 255 255 255 255 255 255 255 3 3 3 255 255 255 255 255 255 255 255 255 255 255 255 255 255 255 255 255 255 255 255 3 3 3 255 255 255 255 49 49 49 49 255 255 255 255 255 255 49 255 255 255 49 49 49 49 49 49 49 49 49 49 49 49 49 49 49 49 49 255 255 255 49 49 49 49 49 49 255 255 255 255 3 255 255 255 255 49 49 49 49 49 49 49 49 49 49 49 49 49 49 49 49 49 49 49 49 49 49 49 49 49 49 49 49 49 49 49 49 49 49 49 49 49 49 49 49 255 255 255 255 255 255 2 2 2 2 2 2 2 2 2 2 2 2 2 2 2 2 255 255 255 255 18 18 18 255 255 255 255 255 255 255 49 255 255 255 255 255 255 255 255 255 255 255 255 49 49 49 49 49 49 49 49 49 49 49 49 49 49 49 49 49 49 49 49 49 49 49 49 49 49 49 49 49 49 49 49 49 49 49 49 49 49 49 49 49 49 255 255 255 64 64 64 64 64 64 64 64 64 64 64 64 64 64 64 64 64 64 64 64 64 64 64 64 64 64 64 64 64 64 64 64 64 64 64 64 64 64 64 64 64 64 64 64 64 64 64 64 64 255 255 255 255 255 255 5 5 5 255 255 255 20 20 255 255 255 255 5 5 5 5 5 5 5 255 
255 1 1 1 1 1 1 1 1 1 1 1 1 1 1 1 1 1 1 255 255 255 17 17 17 17 17 255 255 255 63 63 63 63 63 63 63 63 63 63 63 63 63 63 63 255 255 255 255 255 255 63 255 255 255 255 255 255 255 255 255 255 255 255 255 17 17 255 255 255 255 255 255 255 255 17 17 17 17 17 17 17 17 17 17 17 17 17 17 17 17 17 17 17 255 255 255 255 255 50 50 255 255 255 255 255 17 17 17 255 255 255 255 255 255 255 17 17 255 255 255 255 255 255 255 255 255 255 17 17 17 17 17 17 17 17 17 17 17 17 17 17 17 17 17 17 17 17 17 17 17 17 17 255 255 255 17 17 17 17 17 17 17 17 17 17 17 17 17 17 255 255 255 255 255 255 255 255 3 3 3 3 255 255 255 255 3 3 3 255 255 255 255 255 255 255 255 255 255 255 255 255 3 255 255 255 3 3 3 3 255 255 255 255 255 255 255 255 255 255 255 255 255 255 3 3 3 255 255 255 255 255 255 255 255 255 255 255 255 255 255 255 255 255 255 255 255 255 255 255 255 255 255 255 255 49 49 49 49 255 255 255 255 255 255 255 255 255 49 49 49 49 49 49 49 49 49 49 49 49 49 49 49 49 49 49 49 49 49 49 49 255 255 255 255 255 3 255 255 255 255 49 49 49 49 49 49 49 49 49 49 49 49 49 49 49 49 49 49 49 49 49 49 49 49 49 49 49 49 49 49 49 49 49 49 49 49 49 49 49 49 49 49 49 255 255 255 255 255 255 2 2 2 2 2 2 2 2 2 2 2 2 2 2 2 255 255 255 18 18 255 255 255 255 255 255 255 255 49 49 255 255 255 255 255 255 255 255 255 49 49 49 49 49 49 49 49 49 49 49 49 49 49 49 49 49 49 49 49 49 49 49 49 49 49 49 49 49 49 49 49 49 49 49 49 49 49 49 49 49 49 49 49 49 255 255 255 64 64 64 64 64 64 64 64 64 64 64 64 64 64 64 64 64 64 64 64 64 64 64 64 64 64 64 64 64 64 64 64 64 64 64 64 64 64 64 64 64 64 64 64 64 64 64 64 255 255 255 255 255 255 5 5 255 255 255 255 255 20 255 255 255 255 5 5 5 5 5 5 5 5 255 
255 1 1 1 1 1 1 1 1 1 1 1 1 1 1 1 1 1 1 255 255 255 17 17 17 17 255 255 255 255 63 63 63 63 63 63 63 63 63 63 63 63 63 63 63 255 255 255 255 255 255 63 255 255 255 255 255 255 255 255 17 255 255 255 255 255 17 255 255 255 255 255 255 255 255 255 17 17 17 17 17 17 17 17 17 17 17 17 17 17 17 17 17 17 255 255 255 255 50 50 255 255 255 255 255 255 17 255 255 255 255 255 255 255 255 255 17 17 255 255 255 255 255 255 255 17 17 17 17 17 17 17 17 17 17 255 255 255 17 17 17 17 17 17 17 17 17 17 17 17 17 17 17 255 255 255 17 17 17 17 17 17 17 17 17 17 17 17 17 255 255 255 255 255 255 255 255 255 3 3 3 3 255 255 255 255 255 3 3 255 255 255 255 255 255 255 255 255 255 255 255 255 255 255 255 255 3 3 3 3 3 255 255 255 255 255 255 255 255 255 255 255 255 255 3 3 3 255 255 255 255 255 255 255 255 255 255 255 255 255 255 255 255 255 255 255 255 255 255 255 255 255 255 255 255 255 49 49 49 49 255 255 255 255 255 255 255 255 49 49 49 49 49 49 49 49 49 49 49 49 49 49 49 49 49 49 49 49 49 49 49 255 255 255 255 255 255 255 255 255 255 255 49 49 49 49 49 49 49 49 49 49 49 49 49 49 49 49 49 49 49 49 49 49 49 49 49 49 49 49 49 49 49 49 49 49 49 49 49 49 49 49 49 49 255 255 255 255 255 255 2 2 2 2 2 2 2 2 2 2 2 2 2 2 255 255 255 255 255 255 255 255 255 255 255 255 49 49 255 255 255 255 255 255 255 255 255 255 255 49 49 49 49 49 49 49 49 49 49 49 49 49 49 49 49 49 49 49 49 49 49 49 49 49 49 49 49 49 49 49 49 49 49 49 49 49 49 49 49 49 49 49 49 255 255 255 255 64 64 64 64 64 64 64 64 64 64 64 64 64 64 64 64 64 64 64 64 64 64 64 64 64 64 64 64 64 64 64 64 64 64 64 64 64 64 64 64 64 64 64 64 64 64 64 64 255 255 255 255 255 5 5 5 255 255 255 255 20 255 255 255 255 5 5 5 5 5 5 5 5 5 255 
255 1 1 1 1 1 1 1 1 1 1 1 1 1 1 1 1 1 1 255 255 255 17 17 17 17 255 255 255 63 63 63 63 63 63 63 63 63 63 255 255 255 255 63 63 255 255 255 255 255 255 255 255 255 255 255 255 255 255 255 17 255 255 255 255 255 255 255 255 255 255 255 255 255 255 255 17 17 17 17 17 17 17 17 17 17 17 17 17 17 17 17 17 17 255 255 255 255 50 50 255 255 255 255 255 255 17 255 255 255 255 255 67 67 255 255 255 255 255 255 255 255 255 255 17 17 17 17 17 17 17 17 255 255 255 255 255 255 17 17 17 17 255 255 255 17 17 17 17 17 17 17 17 255 255 255 17 17 17 17 17 17 17 17 17 17 17 255 255 255 255 255 255 255 255 255 255 255 3 3 3 3 3 255 255 255 255 255 255 255 255 255 3 3 255 255 255 255 255 255 255 255 255 255 255 255 3 3 255 255 255 3 255 255 255 255 255 255 255 255 255 255 255 255 255 3 3 255 255 255 255 255 255 255 255 255 255 255 255 255 255 255 255 255 255 255 255 255 255 255 255 255 3 255 255 255 255 49 49 49 255 255 255 255 255 255 49 49 49 49 255 255 255 49 49 255 255 255 49 49 49 49 49 49 49 49 49 49 49 49 255 255 255 255 255 255 255 255 255 255 255 255 49 49 49 49 49 49 49 49 49 49 49 49 49 49 49 49 49 49 49 49 49 49 49 49 49 49 49 49 49 49 49 49 49 49 49 49 49 49 49 49 49 49 49 255 255 255 255 255 2 2 2 2 2 2 2 2 2 2 2 2 2 255 255 255 255 255 255 255 255 255 255 255 49 255 255 255 255 255 255 255 255 255 255 255 49 49 49 49 49 49 49 49 49 49 49 49 49 49 49 49 49 49 49 49 49 49 49 49 49 49 49 49 49 49 49 49 49 49 49 49 49 49 49 49 49 49 49 49 49 49 49 255 255 255 255 64 64 64 64 64 64 64 64 64 64 64 64 64 64 64 64 64 64 64 64 64 64 64 64 64 64 64 64 64 64 64 64 64 64 64 64 64 64 64 64 64 64 64 64 64 64 64 255 255 255 255 255 255 5 255 255 255 255 255 255 255 255 255 255 5 5 5 5 5 5 5 5 5 5 255 
255 1 1 1 1 1 1 1 1 1 1 1 1 1 1 1 1 1 1 1 255 255 17 17 17 17 255 255 255 255 63 63 63 63 63 63 63 63 63 255 255 255 255 63 63 255 255 255 255 255 255 255 255 255 255 255 255 255 255 255 255 255 255 255 255 255 255 255 255 255 255 255 255 255 255 255 17 17 17 17 17 17 17 17 17 17 17 17 17 17 17 17 17 17 255 255 255 255 50 50 255 255 255 255 255 255 17 255 255 255 255 255 255 67 255 255 255 255 255 255 255 17 17 17 17 17 255 255 255 17 17 17 255 255 255 255 255 255 17 17 17 17 255 255 255 17 17 17 17 17 17 17 17 17 17 17 17 17 17 17 17 17 17 17 17 17 17 255 255 255 255 255 255 255 3 3 3 3 3 3 3 3 3 255 255 255 255 255 255 255 3 3 255 255 255 255 255 255 255 3 255 255 255 255 255 255 3 255 255 255 255 255 3 255 255 255 255 255 255 255 255 255 255 255 255 255 3 3 255 255 255 255 255 255 255 255 255 255 255 255 255 255 255 255 255 255 255 255 255 255 255 255 3 255 255 255 255 255 255 49 255 255 255 255 255 255 255 255 49 49 255 255 255 49 49 255 255 255 49 49 49 49 49 49 49 49 49 49 49 255 255 255 255 255 255 255 255 49 49 255 255 255 49 49 49 49 49 49 49 49 49 49 49 49 49 49 49 49 49 49 49 49 49 49 49 49 49 49 49 49 49 49 49 49 49 49 49 49 49 49 49 49 49 49 49 49 255 255 255 255 2 2 2 2 2 2 2 2 2 2 2 255 255 255 255 255 255 255 255 255 255 255 49 49 255 255 255 255 255 255 255 255 255 255 255 49 49 49 49 49 49 49 49 49 49 49 49 49 49 49 49 49 49 49 49 49 49 49 49 49 49 49 49 49 49 49 49 49 49 49 49 49 49 49 49 49 49 49 49 49 49 49 49 255 255 255 255 64 64 64 64 64 64 64 64 64 64 64 64 64 64 64 64 64 64 64 64 64 64 64 64 64 64 64 64 64 64 64 64 64 64 64 64 64 64 64 64 64 64 64 64 64 64 255 255 255 255 255 255 255 5 255 255 255 255 255 255 255 255 255 5 5 5 5 5 5 5 5 5 5 5 255 
255 1 1 1 1 1 1 1 1 1 1 1 1 1 1 1 1 1 1 1 255 255 17 17 17 17 17 255 255 255 63 63 63 63 63 63 63 63 63 255 255 255 255 63 63 255 255 255 255 255 255 255 255 255 255 255 255 255 255 255 255 255 255 255 255 255 255 255 17 255 255 255 17 17 17 255 255 255 17 17 17 17 17 17 17 17 17 17 17 17 17 17 17 17 255 255 255 255 50 50 255 255 255 255 255 17 17 17 255 255 255 255 255 67 255 255 255 255 255 255 255 17 17 17 17 17 255 255 255 17 17 17 255 255 255 255 255 17 17 17 17 17 255 255 255 17 17 17 17 17 17 17 17 17 17 17 17 17 17 17 17 17 17 17 17 17 17 255 255 255 255 255 255 255 3 3 3 3 3 3 3 3 3 255 255 255 255 255 255 255 255 3 255 255 255 255 255 255 3 3 255 255 255 255 255 255 255 255 255 255 255 255 255 255 255 255 255 255 255 255 3 255 255 255 255 255 255 255 3 255 255 255 255 255 255 255 255 255 3 3 3 255 255 255 255 255 255 255 255 255 255 255 255 255 255 255 255 255 255 255 255 255 49 255 255 255 255 255 255 49 255 255 255 49 49 255 255 255 49 49 49 49 49 49 49 49 49 255 255 255 255 255 255 255 255 255 255 49 255 255 255 49 49 49 49 49 49 49 49 49 49 49 49 49 49 49 49 49 49 49 49 49 49 49 49 49 49 49 49 49 49 49 255 255 255 49 49 49 49 49 49 49 49 49 49 49 255 255 255 255 2 2 2 2 2 2 2 2 2 2 255 255 255 255 255 255 255 255 255 255 49 49 255 255 255 255 255 255 255 255 255 255 255 255 255 49 49 49 49 49 49 49 49 49 49 49 49 49 49 49 49 49 49 49 49 49 49 49 49 49 49 49 49 49 49 49 49 49 49 49 49 49 49 49 49 49 49 49 49 49 49 49 49 255 255 255 64 64 64 64 64 64 64 64 64 64 64 64 64 64 64 64 64 64 64 64 64 64 64 64 64 64 64 64 64 64 64 64 64 64 64 64 64 64 64 64 64 64 64 64 64 64 64 255 255 255 255 255 255 5 5 255 255 255 255 255 255 255 255 255 5 5 5 5 5 5 5 5 5 5 5 255 
255 1 1 1 1 1 1 1 1 1 1 1 1 1 1 1 1 1 1 1 255 255 17 17 17 17 17 255 255 255 63 63 63 63 63 63 63 63 63 63 63 63 63 63 63 63 63 255 255 255 255 255 255 255 255 255 255 255 255 255 255 255 255 255 255 255 255 255 255 255 255 255 17 17 255 255 255 255 17 17 17 17 17 17 17 17 17 17 17 17 17 17 255 255 255 255 255 255 50 50 255 255 255 255 255 17 17 17 255 255 255 255 255 255 255 255 255 255 255 17 17 17 17 255 255 255 255 255 255 255 255 255 255 255 255 255 255 17 17 17 17 17 17 17 17 17 17 17 17 17 17 17 17 17 17 17 17 17 17 17 17 17 17 17 17 17 17 255 255 255 255 255 255 3 3 3 3 3 3 255 255 255 3 3 3 255 255 255 255 255 255 255 255 255 255 255 255 255 3 3 255 255 255 255 255 255 255 255 255 255 255 255 255 255 255 255 255 255 255 255 3 3 3 255 255 255 255 255 255 255 255 255 255 255 255 255 255 255 3 3 3 255 255 255 255 255 255 255 255 255 255 255 255 255 255 255 255 255 255 255 255 255 255 255 255 255 255 255 255 255 255 49 49 49 49 49 49 49 49 49 49 49 49 49 49 49 255 255 255 255 255 255 255 255 255 255 49 49 255 255 255 49 49 49 49 49 49 49 49 49 49 49 49 49 49 49 49 49 49 49 49 49 49 49 49 49 49 49 49 49 49 49 255 255 255 255 49 49 49 49 49 49 49 49 49 49 255 255 255 255 255 2 2 2 2 2 2 2 2 2 255 255 255 255 255 255 255 255 49 49 255 255 255 255 255 255 255 255 255 255 255 255 255 49 49 49 49 49 49 49 49 49 49 49 49 49 49 49 49 49 49 49 49 49 49 49 49 49 49 49 49 49 49 49 49 49 49 49 49 49 49 49 49 49 49 49 49 49 49 49 49 49 49 255 255 255 64 64 64 64 64 64 64 64 64 64 64 64 64 64 64 64 64 64 64 64 64 64 64 64 64 64 64 64 64 64 64 64 64 64 64 64 64 64 64 64 64 64 64 64 64 64 255 255 255 19 255 255 255 255 255 255 255 255 255 255 255 255 255 5 5 5 5 5 5 5 5 5 5 5 5 255 
255 1 1 1 1 1 1 1 1 1 1 1 1 1 1 1 1 1 1 1 255 255 17 17 17 17 17 255 255 255 255 63 63 63 63 63 63 63 63 63 63 63 63 63 63 63 63 255 255 255 255 255 255 255 255 255 255 255 255 255 255 255 255 255 255 255 255 255 255 255 255 255 17 17 255 255 255 255 17 17 17 17 17 17 17 17 17 17 17 17 17 17 255 255 255 255 255 255 50 255 255 255 255 255 17 17 17 17 255 255 255 255 255 255 255 255 255 255 17 17 17 17 17 255 255 255 255 255 255 255 255 255 17 17 17 17 17 17 17 17 17 17 17 17 17 17 17 17 17 17 17 17 17 17 17 17 17 17 17 17 17 17 17 17 17 17 17 255 255 255 255 255 3 255 255 255 3 3 255 255 255 255 255 255 255 255 255 255 255 255 255 255 255 255 255 255 255 3 3 3 3 3 3 3 3 255 255 255 255 255 255 255 255 255 255 255 255 3 3 3 3 255 255 255 255 255 255 255 255 255 255 255 255 255 255 255 255 255 255 255 255 255 255 255 255 255 255 255 255 255 255 255 255 255 255 3 3 255 255 255 255 255 255 255 255 255 255 255 255 255 255 255 49 49 49 49 49 49 255 255 255 49 49 49 49 255 255 255 255 255 255 255 255 255 255 49 49 49 255 255 255 255 255 255 255 255 255 255 255 49 49 49 49 49 49 49 49 49 49 49 49 49 49 255 255 255 49 49 49 49 49 49 255 255 255 255 49 49 49 49 255 255 255 49 49 49 49 255 255 255 255 2 2 2 2 2 2 2 2 2 255 255 255 255 255 255 49 49 255 255 255 255 255 255 255 255 255 255 255 255 255 255 49 49 49 49 49 49 49 49 49 49 49 49 49 49 49 49 49 49 49 49 49 49 49 49 49 49 49 49 49 49 49 49 49 49 49 49 49 49 49 49 49 49 49 49 49 49 49 49 49 49 49 255 255 255 64 64 64 64 64 64 64 64 64 64 64 64 64 64 64 64 64 64 64 64 64 64 64 64 64 64 64 64 64 64 64 64 64 64 64 64 64 64 64 64 64 64 64 64 64 255 255 255 255 255 255 255 255 255 255 255 255 255 255 255 255 255 255 5 5 5 5 5 5 5 5 5 5 5 5 255 
255 1 1 1 1 1 1 1 1 1 1 1 1 1 1 1 1 1 1 1 255 255 17 17 17 17 17 255 255 255 255 63 63 63 63 63 63 63 63 63 63 63 63 63 63 63 63 255 255 255 255 255 255 255 17 255 255 255 255 255 255 255 255 255 255 255 255 255 255 255 255 255 17 17 255 255 255 17 17 17 17 17 17 17 17 17 17 17 17 17 17 17 255 255 255 255 255 255 50 255 255 255 255 255 255 17 17 17 17 17 255 255 255 255 255 255 17 17 17 17 17 17 255 255 255 255 255 255 255 255 255 255 17 17 17 17 17 17 17 255 255 255 17 17 17 17 17 17 17 17 17 17 17 17 17 17 17 17 17 17 17 17 17 17 17 17 17 255 255 255 255 255 255 255 255 255 3 3 255 255 255 255 255 255 255 255 3 255 255 255 255 255 255 255 3 3 3 3 3 255 255 255 3 3 3 255 255 255 255 255 255 3 3 3 255 255 255 3 3 3 3 255 255 255 255 255 255 255 255 255 255 255 255 255 3 255 255 255 255 255 255 255 255 255 255 255 255 255 255 255 255 255 255 255 255 3 3 255 255 255 255 255 255 255 255 255 255 255 255 255 255 255 255 49 49 49 49 49 255 255 255 255 255 255 255 255 255 255 3 255 255 255 49 49 49 255 255 255 255 255 255 255 255 255 255 255 255 255 255 49 49 49 49 49 49 49 255 255 255 255 49 49 49 255 255 255 49 49 49 49 49 49 255 255 255 255 255 49 49 255 255 255 255 49 49 49 49 255 255 255 255 2 2 2 2 2 2 2 2 255 255 255 255 255 255 49 49 49 255 255 255 255 255 255 255 255 255 255 255 255 49 49 49 49 49 49 49 49 49 49 49 49 49 49 49 49 49 49 49 49 49 49 49 49 49 49 49 49 49 49 49 49 49 49 49 49 49 49 49 49 49 49 49 49 49 49 49 49 49 49 49 49 255 255 255 255 64 64 64 64 64 64 64 64 64 64 64 64 64 64 64 64 64 64 64 64 64 64 64 64 64 64 64 64 64 64 64 64 64 64 64 64 64 64 64 64 64 64 64 64 64 255 255 255 19 255 255 255 255 255 255 255 255 255 255 255 255 255 5 5 5 5 5 5 5 5 5 5 5 5 5 255 
255 1 1 1 1 1 1 1 1 1 1 1 1 1 1 1 1 1 1 1 255 255 17 17 17 17 17 255 255 255 255 63 63 63 63 63 63 63 63 63 63 63 63 63 63 63 63 255 255 255 255 255 255 255 255 255 255 255 255 255 255 255 255 255 255 17 17 17 255 255 255 255 255 255 17 17 17 17 17 17 17 17 17 17 17 17 17 17 17 17 17 17 17 255 255 255 255 50 50 255 255 4 255 255 255 255 17 17 17 17 255 255 255 255 255 255 17 17 17 17 17 17 255 255 255 255 255 255 255 255 255 255 255 255 17 17 17 255 255 255 255 255 17 17 17 17 17 17 17 17 17 17 17 17 17 17 17 17 17 17 17 17 17 17 17 255 255 255 255 255 255 255 255 255 255 255 255 255 255 255 255 255 255 255 255 255 255 255 255 255 255 255 255 255 3 3 3 3 3 255 255 255 3 255 255 255 255 255 255 255 255 3 3 3 3 3 3 3 3 3 3 255 255 255 255 255 255 255 255 255 255 255 255 255 255 255 255 255 255 255 255 255 255 255 255 255 255 255 255 255 255 255 255 255 255 255 3 255 255 255 255 255 255 255 255 255 255 255 255 255 255 255 255 49 49 255 255 255 255 255 255 255 255 255 255 255 255 255 255 255 255 255 255 255 255 255 255 255 255 255 255 255 255 255 255 255 255 255 255 49 49 49 49 49 49 49 255 255 255 255 49 49 49 255 255 255 255 255 49 49 49 49 49 255 255 255 255 255 255 255 255 255 255 49 49 49 49 255 255 255 255 255 255 2 2 2 2 255 255 255 255 255 49 49 49 255 255 255 255 255 255 255 255 255 255 255 255 255 255 49 49 49 49 49 49 49 49 49 49 49 49 49 49 49 49 49 49 49 49 49 49 49 49 49 49 49 49 49 49 49 49 49 49 49 49 49 49 49 49 49 49 49 49 49 49 49 49 49 49 49 49 49 255 255 255 255 64 64 64 64 64 64 64 64 64 64 64 64 64 64 64 64 64 64 64 64 64 64 64 64 64 64 64 64 64 64 64 64 64 64 64 64 64 64 64 64 64 64 64 64 255 255 255 19 255 255 255 255 255 255 255 255 255 255 255 255 255 255 5 5 5 5 5 5 5 5 5 5 5 5 5 255 
255 1 1 1 1 1 1 1 1 1 1 1 1 1 1 1 1 1 1 1 255 255 17 17 17 17 17 255 255 255 255 63 63 63 63 63 63 63 63 63 63 255 255 255 63 63 63 63 63 255 255 255 255 255 255 255 255 255 255 255 255 255 255 255 255 255 255 255 255 255 255 255 255 255 255 17 17 17 17 17 17 17 17 17 17 17 17 17 17 255 255 255 255 255 255 255 255 50 50 255 255 4 255 255 255 255 17 17 17 17 255 255 255 255 255 255 17 17 17 255 255 255 255 255 255 255 255 255 255 255 255 255 255 255 17 17 255 255 255 255 255 255 17 17 17 17 17 17 17 17 17 17 17 17 17 17 17 17 17 17 17 17 17 255 255 255 255 255 255 255 255 255 255 255 255 255 255 255 255 255 255 255 255 255 255 255 255 255 255 255 255 255 255 3 3 3 3 3 3 255 255 255 3 255 255 255 255 255 255 255 255 3 3 3 3 3 3 3 3 255 255 255 255 255 255 255 255 255 255 255 255 255 255 255 255 255 255 255 255 255 255 255 3 3 255 255 255 255 255 255 255 255 255 255 255 255 255 3 255 255 255 255 255 3 255 255 255 255 255 255 255 255 255 255 255 255 255 255 255 255 3 3 3 3 3 3 255 255 255 255 255 255 255 255 255 255 255 255 255 255 255 255 255 255 255 49 49 49 49 49 49 49 49 49 49 49 255 255 255 255 255 255 49 255 255 255 255 255 255 49 255 255 255 255 255 255 255 255 255 255 255 255 255 49 255 255 255 255 255 255 255 255 255 2 2 255 255 255 255 255 255 49 49 255 255 255 255 255 255 49 49 49 255 255 255 255 49 49 49 49 49 49 49 49 49 49 49 49 49 49 49 49 49 49 49 49 49 49 49 49 49 49 49 49 49 49 49 49 49 49 49 49 49 49 49 49 49 49 49 49 49 49 49 49 49 49 49 49 49 49 49 49 255 255 255 64 64 64 64 64 64 64 64 64 64 64 64 64 64 64 64 64 64 64 64 64 64 64 64 64 64 64 64 64 64 64 64 64 64 64 64 64 64 64 64 64 64 64 64 255 255 255 255 255 255 255 255 255 255 255 255 255 255 255 255 255 255 5 5 5 5 5 5 5 5 5 5 5 5 5 5 255 
255 1 1 1 1 1 1 1 1 1 1 1 1 1 1 1 1 1 1 1 255 255 255 255 17 17 17 255 255 255 255 63 63 63 63 63 63 63 63 63 63 255 255 255 63 63 255 255 255 255 255 255 255 255 255 255 255 255 255 255 255 255 255 255 255 255 255 255 255 255 255 255 255 255 255 17 17 17 17 17 17 17 17 17 17 17 17 17 17 255 255 255 255 255 255 255 255 50 50 255 255 4 255 255 255 255 17 17 17 17 17 255 255 255 255 255 255 17 255 255 255 255 255 255 255 255 255 255 255 255 255 255 255 255 255 255 255 255 255 255 255 255 17 17 17 17 17 17 17 17 17 17 17 17 17 17 17 17 17 17 17 17 17 255 255 255 255 255 255 255 255 255 255 255 255 255 255 255 255 255 255 255 255 255 255 255 255 255 255 255 255 3 3 3 3 3 3 3 3 3 3 3 3 255 255 255 255 255 3 3 3 3 3 3 3 3 3 3 3 255 255 255 255 255 255 255 255 255 255 255 255 255 255 255 255 255 255 255 255 255 255 255 255 255 255 255 255 255 255 255 255 255 255 255 255 255 255 255 255 255 255 255 255 255 3 255 255 255 255 255 255 255 255 255 255 255 255 255 255 3 255 255 255 255 255 255 255 255 255 255 255 255 255 255 255 255 255 255 255 255 255 255 255 255 255 49 49 49 49 49 255 255 255 49 49 49 255 255 255 255 255 255 255 49 255 255 255 255 255 255 255 255 255 49 255 255 255 255 255 255 255 255 255 255 255 255 255 255 255 255 255 255 255 2 255 255 255 255 255 49 49 255 255 255 255 255 255 255 255 255 49 49 49 255 255 255 49 49 49 49 49 49 49 49 49 49 49 49 49 49 49 49 49 49 49 49 49 49 49 49 49 49 49 49 49 49 49 49 49 49 49 49 49 49 49 49 49 49 49 49 49 49 49 49 49 49 49 49 49 49 49 49 255 255 255 64 64 64 64 64 64 64 64 64 64 64 64 64 64 64 64 64 64 64 64 64 64 64 64 64 64 64 64 64 64 64 64 64 64 64 64 64 64 64 64 64 64 64 64 255 255 255 255 255 255 255 255 255 255 255 255 255 255 255 5 5 5 5 5 5 5 5 5 5 5 5 5 5 5 5 5 255 
255 1 1 1 1 1 1 1 1 1 1 1 1 1 1 1 1 1 1 1 255 255 255 255 17 17 17 255 255 255 63 63 255 255 255 63 63 63 63 63 63 255 255 255 63 63 255 255 255 255 255 255 255 255 255 255 255 255 255 255 255 255 255 255 255 255 63 255 255 255 255 255 255 255 255 255 255 17 17 17 17 17 17 17 17 17 17 17 17 255 255 255 255 255 255 255 255 50 50 255 255 4 255 255 255 17 17 17 17 17 255 255 255 255 255 255 255 17 255 255 255 255 255 255 255 255 255 255 255 255 255 255 255 255 255 255 255 255 255 255 17 17 17 17 17 17 17 17 17 17 17 17 17 17 17 17 17 17 17 17 17 17 255 255 255 3 3 255 255 255 3 255 255 255 255 255 255 255 255 255 255 255 255 255 255 255 255 255 255 255 255 3 3 3 3 3 3 3 3 3 3 3 3 255 255 255 255 255 3 3 3 3 3 255 255 255 3 3 255 255 255 255 255 255 255 255 255 255 3 3 3 3 255 255 255 255 255 255 255 255 255 255 255 255 255 255 255 255 255 255 255 255 255 255 255 255 255 255 255 255 255 255 255 255 255 255 255 255 255 255 255 255 255 255 255 255 3 3 3 255 255 255 255 255 255 255 255 255 255 255 255 255 255 255 255 255 255 255 255 255 255 255 255 255 255 49 49 49 49 49 255 255 255 49 49 255 255 255 255 255 255 255 255 255 255 49 255 255 255 255 255 255 255 49 255 255 255 255 255 49 255 255 255 255 255 255 255 255 49 255 255 255 255 255 255 255 255 49 49 49 255 255 255 255 255 255 255 255 255 255 49 49 49 255 255 255 49 49 49 49 49 49 49 49 49 49 49 49 49 49 49 49 49 49 49 49 49 49 49 49 49 49 49 49 49 49 49 49 49 49 49 49 49 49 49 49 49 49 49 49 49 49 49 49 49 49 49 49 49 49 49 49 255 255 255 64 64 64 64 64 64 64 64 64 64 64 64 64 64 64 64 64 64 64 64 64 64 64 64 64 64 64 64 64 64 64 64 64 64 64 64 64 64 64 64 64 64 64 255 255 255 255 255 255 255 255 255 255 255 255 255 255 255 255 5 5 5 5 5 5 5 5 5 5 5 5 5 5 5 5 5 255 
255 1 1 1 1 1 1 1 1 1 1 1 1 1 1 1 1 1 1 1 1 255 255 255 17 17 17 17 255 255 63 63 255 255 255 63 63 63 63 63 63 63 63 63 255 255 255 255 255 255 255 255 255 255 255 255 255 255 255 255 255 255 255 255 255 255 255 255 255 255 255 255 255 255 255 255 255 17 17 255 255 255 17 17 17 17 17 17 17 255 255 255 255 255 255 255 50 50 50 255 255 4 255 255 255 17 17 17 17 17 255 255 255 255 255 255 255 255 255 255 255 17 17 255 255 255 255 255 255 255 255 255 17 17 255 255 255 17 17 17 17 17 17 17 17 17 17 17 17 17 17 17 17 17 17 17 17 17 17 17 17 255 255 255 255 3 3 255 255 255 3 3 255 255 255 255 255 255 255 255 255 255 255 255 255 255 255 255 255 3 3 3 3 3 3 3 3 3 3 3 3 3 3 255 255 255 255 255 3 3 3 3 3 255 255 255 255 3 255 255 255 255 255 255 255 255 255 255 3 3 3 3 255 255 255 3 3 255 255 255 255 255 255 255 255 255 255 255 255 255 255 255 255 255 255 255 255 255 255 255 255 255 255 255 255 255 255 255 255 49 255 255 255 255 255 255 3 3 3 255 255 255 255 255 255 255 255 49 255 255 255 255 255 255 255 255 49 49 49 49 49 255 255 255 255 255 49 49 49 49 255 255 255 255 49 255 255 255 255 255 255 255 255 255 255 49 49 255 255 255 255 255 49 255 255 255 255 255 255 255 255 255 255 255 255 255 255 255 255 49 255 255 255 255 255 255 49 49 49 49 255 255 255 255 255 255 255 255 255 255 49 49 49 49 49 49 49 49 49 49 49 49 49 49 49 49 49 49 49 49 49 49 49 49 49 49 49 49 49 49 49 49 49 49 49 49 49 49 49 49 49 49 49 49 49 49 49 49 49 49 49 49 49 49 49 49 49 49 49 49 49 255 255 255 255 64 64 64 64 64 64 64 64 64 64 64 64 64 64 64 64 64 64 64 64 64 64 64 64 64 64 64 64 64 64 64 64 64 64 64 64 64 64 64 64 64 64 64 255 255 255 255 255 255 255 255 255 255 255 255 255 255 255 255 5 5 5 5 5 5 5 5 5 5 5 5 5 5 5 5 5 255 
255 1 1 1 1 1 1 1 1 1 1 1 1 1 1 1 1 1 1 1 1 255 255 17 17 17 17 17 255 255 63 63 255 255 255 63 63 63 63 63 63 63 63 63 255 255 255 255 255 255 255 255 255 255 255 255 255 255 255 255 255 255 255 255 255 255 255 255 255 255 255 255 255 255 255 255 255 17 17 255 255 255 17 17 17 17 17 17 17 255 255 255 255 255 255 255 50 50 50 255 255 4 255 255 255 17 17 17 17 17 255 255 255 255 255 255 255 255 255 255 17 17 17 17 17 17 255 255 255 17 17 17 17 17 17 17 17 17 17 17 17 17 17 17 17 17 17 17 17 17 17 17 17 17 17 17 17 17 17 17 255 255 255 255 255 255 3 255 255 255 3 255 255 255 255 17 255 255 255 255 255 255 255 255 255 255 255 255 255 255 255 3 3 3 3 3 3 3 3 3 3 3 3 255 255 255 3 255 255 255 3 3 3 255 255 255 255 255 255 255 255 255 255 255 255 255 255 255 3 3 3 3 255 255 255 255 255 3 3 255 255 255 255 255 255 255 255 255 255 255 255 255 255 255 3 255 255 255 255 255 255 255 255 255 255 255 255 255 255 255 255 255 255 255 255 255 3 3 3 255 255 255 255 255 255 255 255 49 49 255 255 255 255 255 255 255 49 49 49 49 49 49 49 255 255 255 255 49 49 255 255 255 255 255 255 255 255 255 255 255 255 255 255 255 255 255 255 255 255 255 255 255 255 255 255 255 255 255 255 255 255 255 255 255 255 255 255 255 255 255 255 255 255 255 49 49 49 49 255 255 255 255 255 255 255 255 255 255 255 255 49 49 49 49 49 49 49 49 49 49 49 49 49 49 49 49 49 49 49 49 49 49 49 49 49 49 49 49 49 49 49 49 49 49 49 49 49 49 49 49 49 49 49 49 49 49 49 49 49 49 49 49 49 49 49 49 49 49 49 49 49 255 255 255 255 64 64 64 64 64 64 64 64 64 64 64 64 64 64 64 64 64 64 64 64 64 64 64 64 64 64 64 64 64 64 64 64 64 64 64 64 64 64 64 64 64 64 255 255 255 255 255 255 5 5 5 255 255 255 255 255 255 255 255 5 5 5 5 5 5 5 5 5 5 5 5 5 5 5 5 5 255 
255 1 1 1 1 1 1 1 1 1 1 1 1 1 1 1 1 1 1 1 1 255 255 17 17 17 17 17 255 255 63 63 63 63 63 63 63 63 63 63 63 63 63 63 255 255 255 255 255 255 255 255 255 255 255 255 255 255 255 255 255 255 255 255 255 255 255 255 255 255 255 255 255 255 255 255 17 17 17 255 255 255 17 17 17 255 255 255 17 255 255 255 255 255 255 255 50 50 255 255 255 4 4 255 255 17 17 17 17 17 17 255 255 255 255 255 255 255 255 255 255 17 17 255 255 255 255 255 17 17 17 17 17 17 17 17 17 17 17 17 17 17 17 17 17 17 17 17 17 17 17 17 17 17 17 17 17 17 17 255 255 255 255 255 255 255 3 3 3 3 255 255 255 255 255 255 255 255 255 255 255 255 255 255 255 255 255 3 255 255 255 255 3 3 3 3 3 3 3 3 3 3 3 3 3 3 3 255 255 255 255 255 255 255 255 255 255 255 255 3 255 255 255 255 255 255 255 255 3 3 3 3 255 255 255 255 255 3 3 3 255 255 255 255 255 255 255 3 3 255 255 255 255 255 3 3 255 255 255 255 255 255 255 255 255 255 49 255 255 255 255 255 255 255 255 255 255 255 255 255 255 255 255 255 255 255 255 49 49 49 49 255 255 255 255 255 49 49 49 49 49 49 49 255 255 255 255 255 49 255 255 255 255 255 255 255 255 255 255 255 255 255 255 255 255 255 255 255 255 255 255 255 255 255 255 255 255 255 255 255 255 255 255 255 255 255 255 255 255 255 49 49 49 49 255 255 255 255 255 255 255 49 49 49 49 49 49 49 49 49 49 49 49 49 49 49 49 49 49 49 49 49 49 49 49 49 49 49 49 49 49 49 49 49 49 49 49 49 49 49 49 49 49 49 49 49 49 49 49 255 255 255 49 49 49 49 49 49 49 49 49 49 49 49 49 49 49 49 49 49 49 255 255 255 255 64 64 64 64 64 64 64 64 64 64 64 64 64 64 64 64 64 64 64 64 64 64 64 64 64 64 64 64 64 64 64 64 64 64 64 64 64 64 64 64 64 255 255 255 255 255 255 255 5 5 255 255 255 255 255 255 255 255 5 5 5 5 5 5 5 5 5 5 5 5 5 5 5 5 5 5 255 
255 1 1 1 1 1 1 1 1 1 1 1 1 1 1 1 1 1 1 1 1 255 255 17 17 17 17 17 255 255 63 63 63 63 63 63 63 63 63 63 63 63 63 63 63 63 63 255 255 255 255 255 63 63 63 63 255 255 255 255 255 255 255 255 255 255 255 255 255 255 255 255 255 255 255 255 17 17 17 17 17 17 17 17 17 255 255 255 17 17 255 255 255 255 255 255 50 50 255 255 255 255 4 255 255 255 17 17 17 17 255 255 255 255 255 255 255 255 255 255 255 17 17 255 255 255 255 255 17 17 17 17 17 17 17 17 17 17 17 17 17 17 17 17 17 17 17 17 17 17 17 17 17 17 255 255 255 17 17 255 255 255 255 255 255 255 3 255 255 255 255 255 255 255 255 255 255 255 255 255 255 255 255 255 255 255 255 255 255 255 255 255 255 255 3 3 3 255 255 255 3 3 3 3 3 3 3 255 255 255 255 255 255 255 255 255 255 255 255 255 3 3 3 3 3 255 255 255 255 255 255 3 3 3 255 255 255 3 3 3 3 255 255 255 255 255 255 255 3 255 255 255 255 255 3 3 3 3 255 255 255 255 255 255 255 255 255 255 255 255 255 255 255 255 255 255 255 255 255 255 255 255 255 255 255 255 255 255 255 49 49 49 49 49 49 49 255 255 255 255 49 49 49 49 255 255 255 255 255 255 255 255 255 255 255 255 255 255 255 255 255 255 255 255 255 255 255 255 255 255 255 255 255 255 255 255 255 255 3 255 255 255 255 255 255 255 255 255 255 255 49 49 255 255 255 255 255 255 255 255 255 49 49 49 49 49 49 49 49 49 49 49 49 49 49 49 49 49 49 49 49 49 49 49 49 49 49 49 49 49 49 49 49 49 49 49 49 49 49 49 49 49 49 49 49 49 49 49 255 255 255 255 255 49 49 49 49 49 49 49 49 49 49 49 49 49 49 49 49 49 49 255 255 255 64 64 64 64 64 64 64 64 64 64 64 64 64 64 64 64 64 64 64 64 64 64 64 64 64 64 64 64 64 64 64 64 64 64 64 64 64 64 64 64 64 255 255 255 255 255 255 255 5 5 5 255 255 255 255 255 255 255 5 5 5 5 5 5 5 5 5 5 5 5 5 5 5 5 5 5 5 255 
255 1 1 1 1 1 1 1 1 1 1 1 1 1 1 1 1 1 1 1 1 255 255 17 17 17 17 17 255 255 63 63 63 63 63 63 63 63 63 63 63 255 255 255 63 63 255 255 255 255 255 255 255 255 255 255 255 255 255 255 255 17 255 255 255 255 255 255 255 255 255 255 255 255 255 255 17 17 17 17 17 17 17 17 17 255 255 255 255 255 255 255 255 255 255 255 50 50 255 255 255 255 255 255 255 255 255 17 17 17 255 255 255 255 255 255 255 255 255 255 255 17 17 255 255 255 255 255 17 17 17 17 17 17 17 17 17 17 17 17 17 17 17 17 17 17 17 17 17 17 17 17 17 17 255 255 255 255 255 255 255 3 255 255 255 255 3 255 255 255 255 255 255 255 255 255 255 255 17 17 17 255 255 255 255 255 255 255 255 255 255 255 255 255 255 3 255 255 255 255 3 3 3 3 3 3 3 3 255 255 255 255 255 255 255 255 255 255 255 255 3 3 3 3 3 3 3 255 255 255 255 3 3 3 3 3 3 3 255 255 255 255 255 255 255 255 255 255 255 255 255 255 255 255 255 3 3 3 255 255 255 255 255 255 255 255 255 255 255 255 255 255 255 255 255 255 255 255 255 255 255 52 255 255 255 255 255 255 255 255 49 49 49 49 49 49 255 255 255 255 255 49 49 255 255 255 255 255 255 255 255 255 255 255 255 255 255 255 255 255 255 255 255 255 255 255 255 255 255 255 255 255 255 255 255 255 255 255 3 3 3 255 255 255 255 255 255 255 255 49 255 255 255 255 255 255 255 255 49 49 49 49 49 49 49 49 49 49 49 49 49 49 49 49 49 49 49 49 49 49 49 49 49 49 49 49 49 49 49 49 49 49 49 49 49 49 49 49 49 49 49 49 49 49 49 49 49 255 255 255 255 255 255 255 49 49 49 49 49 49 49 49 49 49 49 49 49 49 49 49 255 255 255 255 64 64 64 64 64 64 64 64 64 64 64 64 64 64 64 64 64 64 64 64 64 64 64 64 64 64 64 64 64 64 64 64 64 64 64 64 64 64 64 64 64 255 255 255 255 255 255 255 5 5 5 255 255 255 255 255 255 255 5 5 5 5 5 5 5 5 5 5 5 5 5 5 5 5 5 5 5 255 
255 1 1 1 1 1 1 1 1 1 1 1 1 1 1 1 1 1 1 1 1 255 255 255 17 17 17 17 255 255 63 63 63 63 63 63 63 63 63 63 63 255 255 255 63 63 255 255 255 255 255 255 255 255 255 255 255 255 255 255 255 255 255 255 255 255 255 255 255 255 255 255 255 255 255 255 17 17 17 17 17 17 17 17 17 17 17 17 255 255 255 255 255 255 255 50 50 50 255 255 255 255 255 255 255 255 255 255 255 17 255 255 255 255 255 255 255 17 255 255 255 255 255 255 255 255 255 17 17 17 17 17 17 17 17 17 17 17 17 17 17 17 17 17 17 17 17 17 17 17 17 17 17 17 255 255 255 255 255 255 255 255 255 255 255 255 255 255 255 255 255 255 255 255 255 255 255 255 17 255 255 255 255 255 255 255 255 255 255 255 255 255 255 255 255 255 255 255 255 255 3 3 3 3 3 3 3 3 3 3 3 3 3 3 255 255 255 255 255 255 255 255 255 3 3 3 3 255 255 255 255 3 3 3 3 3 3 3 255 255 255 255 255 3 255 255 255 255 255 255 255 255 255 255 255 3 3 3 3 3 3 255 255 255 255 255 255 255 255 255 255 255 255 255 255 255 255 255 255 255 255 52 255 255 3 255 255 255 255 255 49 49 49 49 49 49 255 255 255 255 255 255 49 255 255 255 255 255 3 255 255 255 255 255 255 255 3 3 3 255 255 255 255 255 255 255 255 255 255 255 255 3 255 255 255 255 3 3 3 3 3 3 255 255 255 255 49 49 255 255 255 255 255 255 255 255 255 255 49 49 49 49 49 49 49 49 49 49 49 49 49 49 49 49 49 49 49 49 49 49 49 49 49 49 49 49 49 49 49 49 49 49 49 49 49 49 49 49 49 49 49 49 49 49 49 49 255 255 255 255 7 255 255 255 255 255 255 255 49 49 49 49 49 49 49 49 49 49 49 49 255 255 255 255 64 64 64 64 64 64 64 64 64 64 64 64 64 64 64 64 64 64 64 64 64 64 64 64 64 64 64 64 64 64 64 64 64 64 64 64 64 64 64 64 64 255 255 19 255 255 255 5 5 255 255 255 255 255 255 255 255 255 5 5 5 5 5 5 5 5 5 5 5 5 5 5 5 5 5 5 5 255 
255 1 1 1 1 1 1 1 1 1 1 1 1 1 1 1 1 1 1 1 1 255 255 255 17 17 17 17 255 255 63 63 63 63 63 63 63 63 63 63 63 255 255 255 63 63 255 255 255 255 255 255 255 255 255 255 255 255 255 255 255 255 255 255 255 255 255 255 255 255 255 255 255 255 255 255 255 255 17 17 17 17 17 17 17 17 17 17 255 255 255 255 255 255 255 50 50 50 255 255 255 255 255 255 255 255 255 255 255 17 17 17 17 17 255 255 255 17 255 255 255 255 255 255 255 255 17 17 17 17 17 17 17 17 17 17 17 17 17 17 17 17 17 17 17 17 17 17 17 17 17 17 17 17 255 255 255 255 255 255 255 255 255 255 255 255 255 255 255 255 255 255 255 255 255 255 255 17 17 255 255 255 255 255 255 255 255 255 255 255 3 3 255 255 255 255 255 255 255 255 255 255 255 3 3 3 3 3 3 3 255 255 255 255 3 255 255 255 3 3 255 255 255 255 255 255 255 3 255 255 255 3 3 3 3 3 3 3 255 255 255 255 255 255 3 3 255 255 255 255 255 255 255 255 255 3 3 3 3 3 3 255 255 255 255 255 3 3 3 255 255 255 255 255 255 255 255 255 255 255 255 255 255 255 255 255 255 255 255 255 49 49 49 49 49 49 255 255 255 255 255 255 255 255 255 255 255 255 255 255 255 255 3 255 255 255 255 255 3 255 255 255 255 255 255 255 255 255 255 255 255 255 255 255 255 3 255 255 255 255 255 255 255 255 255 49 255 255 255 255 255 255 255 255 255 255 255 255 49 49 49 49 49 49 49 49 49 49 49 49 49 49 49 49 49 49 49 49 49 49 49 49 49 49 49 49 49 49 49 49 49 49 49 49 49 49 49 49 49 49 49 49 49 49 49 255 255 255 255 7 7 7 255 255 255 255 255 255 49 49 49 49 49 49 49 49 49 49 49 49 255 255 255 64 64 64 64 64 64 64 64 64 64 64 64 64 64 64 64 64 64 64 64 64 64 64 64 64 64 64 64 64 64 64 64 64 64 64 64 64 64 64 64 64 255 255 255 255 255 255 5 5 5 255 255 255 255 255 255 255 5 5 5 5 5 5 5 5 5 5 5 5 5 5 5 5 5 5 5 5 5 255 
255 1 1 1 1 1 1 1 1 1 1 1 1 1 1 1 1 1 1 1 1 1 255 255 17 17 17 17 255 255 63 63 63 63 63 63 63 63 63 63 63 63 63 63 63 63 63 63 63 255 255 255 255 255 255 255 255 255 255 255 255 255 255 255 255 255 255 255 255 255 255 255 255 255 255 255 255 255 255 255 17 17 17 17 17 17 17 17 255 255 255 255 255 255 255 50 50 255 255 255 255 255 255 255 255 255 255 255 255 17 17 17 17 17 17 17 17 17 17 255 255 255 255 255 255 255 17 17 17 17 17 17 17 17 255 255 255 255 17 17 17 17 17 17 17 17 17 17 17 17 17 17 17 17 17 255 255 255 255 255 255 255 255 255 255 255 255 17 255 255 255 255 255 255 255 255 255 255 255 255 255 3 255 255 255 255 255 255 255 255 3 3 255 255 255 255 255 255 255 255 255 255 255 3 3 3 255 255 255 3 255 255 255 255 255 255 255 255 255 255 255 255 255 255 255 255 255 3 3 3 3 3 3 3 3 3 3 3 3 3 255 255 255 255 255 255 3 255 255 255 255 255 3 3 3 3 3 3 3 3 3 3 3 255 255 255 255 255 255 3 255 255 255 255 255 255 255 255 255 255 255 255 255 255 255 255 255 255 255 255 255 255 49 49 49 49 49 49 255 255 255 255 255 255 255 255 255 255 255 255 255 255 3 255 255 255 255 255 255 255 255 255 255 255 255 255 255 255 255 255 3 255 255 255 3 3 255 255 255 255 255 255 255 255 49 255 255 255 255 255 255 255 255 255 255 49 49 49 49 49 49 49 49 49 49 49 49 49 49 49 49 49 49 49 49 49 49 49 49 49 49 49 49 49 49 49 49 49 49 49 49 49 49 49 49 49 49 49 49 49 49 49 49 49 49 255 255 255 7 7 7 7 7 255 255 255 255 255 49 49 49 49 49 49 49 49 49 49 49 255 255 255 255 64 64 64 64 64 64 64 64 64 64 64 64 64 64 64 64 64 64 64 64 64 64 64 64 64 64 64 64 64 64 64 64 64 64 64 64 64 64 64 64 64 255 255 255 255 255 255 255 255 255 255 255 255 255 255 255 255 5 5 5 5 5 5 5 5 5 5 5 5 5 5 5 5 5 5 5 5 5 255 
255 1 1 1 1 1 1 1 1 1 1 1 1 1 1 1 1 1 1 1 1 1 255 255 17 17 17 255 255 255 63 63 63 63 63 63 63 63 63 63 63 63 63 63 63 63 63 63 63 255 255 255 255 255 255 255 255 255 255 255 255 255 255 255 255 255 255 255 255 255 255 255 255 255 255 255 255 255 255 255 255 255 255 255 255 255 17 17 255 255 255 255 255 255 255 50 50 255 255 255 255 255 255 255 255 255 255 255 255 255 255 17 17 17 17 17 17 17 17 17 255 255 255 17 17 17 17 17 17 17 17 17 17 17 255 255 255 255 17 17 17 17 17 17 17 17 17 17 17 17 17 17 17 255 255 255 255 255 255 255 255 255 255 255 255 255 255 255 255 255 255 255 255 255 255 17 17 255 255 255 255 3 3 255 255 255 255 255 255 3 3 255 255 255 255 255 255 255 255 255 255 255 255 255 255 3 255 255 255 3 255 255 255 255 255 255 255 255 255 255 3 255 255 255 255 255 255 3 3 3 3 3 3 3 3 3 3 3 3 3 255 255 255 255 255 255 255 3 255 255 255 255 255 255 255 255 3 3 3 3 3 3 3 3 3 3 255 255 255 255 255 255 255 255 255 255 255 255 255 255 255 255 255 255 255 255 255 255 255 255 255 255 49 49 49 49 49 49 49 255 255 255 255 255 255 255 255 255 255 255 255 255 255 3 255 255 255 255 255 255 255 255 255 255 255 255 255 255 255 255 3 255 255 255 255 3 255 255 255 255 255 49 255 255 255 255 255 255 255 255 255 255 49 49 49 49 49 49 49 49 49 49 49 49 49 49 49 49 49 49 49 49 49 49 49 49 49 49 49 49 49 49 49 49 49 49 49 49 49 49 49 49 49 49 49 49 49 49 49 49 49 49 49 49 255 255 255 7 7 7 7 7 7 7 255 255 255 255 49 255 255 255 255 49 49 49 49 49 49 255 255 255 255 64 64 64 64 64 64 64 64 64 64 64 64 64 64 64 64 64 64 64 64 64 64 64 64 64 64 64 64 64 64 64 64 64 64 64 64 64 64 64 64 255 255 255 255 255 255 255 255 255 255 255 255 255 255 255 5 5 5 5 5 5 5 5 5 5 5 5 5 5 5 5 5 5 5 5 5 5 5 255 
255 1 1 1 1 1 1 1 1 1 1 1 1 1 1 1 1 1 1 1 255 255 255 255 17 17 17 255 255 255 63 63 63 63 63 63 63 63 63 63 255 255 255 255 255 63 63 63 63 255 255 255 255 255 255 255 255 255 255 255 255 255 255 255 255 255 255 255 255 255 255 255 255 255 255 255 255 255 255 255 255 255 255 255 255 255 17 17 255 255 255 255 255 255 255 50 50 255 255 255 255 255 255 255 255 255 255 255 255 255 255 17 17 17 17 17 17 255 255 255 17 255 255 255 17 17 255 255 255 17 17 17 17 17 255 255 255 255 17 17 17 17 17 17 17 17 17 17 17 17 17 17 17 255 255 255 255 255 255 255 255 255 255 255 255 255 255 255 255 255 255 255 255 255 255 17 17 255 255 3 3 3 3 3 255 255 255 255 255 3 255 255 255 255 255 255 255 255 255 255 255 3 255 255 255 255 255 255 255 3 3 3 255 255 255 255 255 255 255 255 3 255 255 255 3 3 3 3 3 3 3 3 3 3 255 255 255 255 3 3 3 3 255 255 255 255 255 3 3 255 255 255 255 255 255 255 3 3 3 3 3 3 3 3 3 3 255 255 255 255 255 255 255 255 255 255 255 3 255 255 255 255 255 255 52 255 255 255 255 255 255 255 49 49 49 49 49 49 49 255 255 3 3 3 3 3 255 255 255 255 255 255 255 255 255 255 255 255 255 255 255 255 255 255 255 3 3 3 3 3 3 255 255 255 255 255 255 255 255 255 49 255 255 255 255 255 255 255 255 255 255 49 49 49 49 49 49 49 49 49 49 49 49 49 49 49 49 49 49 49 49 49 49 49 49 49 49 49 49 49 49 49 49 49 49 49 49 49 49 49 49 49 49 49 49 49 49 49 49 49 49 49 49 255 255 255 255 7 7 7 7 7 7 7 255 255 255 255 255 255 255 255 255 255 49 49 49 49 255 255 255 255 64 64 64 64 64 64 64 64 64 64 64 64 64 64 64 64 64 64 64 64 64 64 64 64 64 64 64 64 64 64 64 64 64 64 64 64 64 64 64 64 64 255 255 255 255 255 5 255 255 255 255 255 255 255 255 255 5 5 5 5 5 5 5 5 5 5 5 5 5 5 5 5 5 5 5 5 5 5 5 255 
255 1 1 1 1 1 1 1 1 1 1 1 1 1 1 1 1 1 1 1 255 255 255 255 17 17 17 255 255 255 63 63 63 63 63 63 63 63 63 63 255 255 255 255 255 63 63 63 63 255 255 255 255 255 255 255 255 255 255 255 255 255 255 255 255 255 255 255 255 255 255 255 255 255 255 255 255 255 17 255 255 255 255 255 255 255 17 17 255 255 255 255 255 255 255 50 50 255 255 255 255 4 255 255 255 255 255 255 255 255 255 17 17 17 255 255 255 255 255 255 17 255 255 255 255 17 255 255 255 17 17 17 17 17 255 255 255 255 17 17 17 17 17 17 17 17 17 17 17 17 17 17 17 255 255 255 255 255 255 255 255 255 255 255 255 255 255 255 255 255 255 255 255 255 255 255 255 255 255 3 3 3 3 3 255 255 255 255 255 255 255 255 255 255 255 255 255 255 255 255 255 3 255 255 255 255 255 255 255 3 3 3 3 3 255 255 255 255 255 3 3 255 255 255 255 3 3 3 3 3 3 3 3 3 255 255 255 255 255 255 3 3 255 255 255 255 255 3 3 3 255 255 255 255 255 255 3 255 255 255 3 3 3 3 3 3 255 255 255 255 255 255 255 3 255 255 255 255 255 255 255 255 255 255 52 255 255 255 255 255 255 255 255 49 49 49 49 255 255 255 255 3 3 3 3 3 3 255 255 255 255 255 255 255 255 255 255 255 255 255 255 255 255 255 255 3 3 3 3 3 3 3 255 255 255 255 255 255 49 255 255 255 255 255 255 255 255 255 255 255 255 49 49 49 49 49 49 49 49 49 49 49 49 49 49 49 49 49 49 49 49 49 49 49 49 49 49 49 49 49 49 49 49 49 49 49 49 49 49 49 49 49 49 49 49 49 49 49 49 49 49 49 49 255 255 255 7 7 7 7 7 7 7 7 255 255 255 255 255 255 255 255 255 255 49 49 49 49 255 255 255 255 64 64 64 64 64 64 64 64 64 64 64 64 64 64 64 64 64 64 64 64 64 64 64 64 64 64 64 64 64 64 64 64 64 64 64 64 64 64 64 64 255 255 255 255 255 255 5 255 255 255 255 255 255 255 255 255 5 5 5 5 5 5 5 5 5 5 5 5 5 5 5 5 5 5 5 5 5 5 5 255 
255 1 1 1 1 1 1 1 1 1 1 1 1 1 1 1 1 1 1 1 255 255 255 255 17 17 17 255 255 255 63 63 63 63 63 63 63 63 63 63 255 255 255 255 255 63 63 63 63 63 255 255 255 255 255 255 255 255 255 255 255 255 255 255 255 255 255 255 255 255 255 255 255 255 255 255 255 255 17 255 255 255 255 17 17 17 17 17 255 255 255 255 255 255 255 50 50 255 255 255 255 255 4 255 255 255 255 255 255 255 255 255 255 17 255 255 255 255 255 255 255 255 255 255 255 17 255 255 255 17 17 17 17 17 17 17 17 17 17 17 17 17 17 255 255 255 255 17 17 17 255 255 255 255 255 255 255 255 255 255 255 255 255 255 255 255 255 255 3 255 255 255 255 255 255 255 255 255 255 255 255 255 255 255 255 255 255 3 255 255 255 255 255 255 255 255 255 255 255 255 255 255 255 255 255 255 255 255 255 3 3 255 255 255 255 255 255 255 3 3 3 255 255 255 255 3 3 3 3 3 3 3 3 3 255 255 255 255 255 255 255 3 3 3 3 3 3 255 255 255 3 3 3 3 3 3 3 255 255 255 3 3 3 3 3 3 255 255 255 255 255 255 255 3 3 3 3 255 255 255 255 255 255 255 255 255 255 255 255 255 255 255 255 255 49 49 255 255 255 255 255 3 3 3 3 3 3 255 255 255 3 255 255 255 255 255 255 255 255 255 255 255 255 3 3 3 3 3 3 3 3 255 255 255 255 255 255 255 255 255 255 255 255 255 255 255 255 49 49 49 49 49 49 49 49 49 49 49 49 49 49 49 49 49 49 49 49 49 49 49 49 49 49 49 49 49 49 49 49 49 49 49 49 49 49 49 49 49 49 49 49 49 49 49 49 49 49 49 49 49 49 49 255 255 255 7 7 7 7 7 7 7 7 7 255 255 255 255 255 255 7 255 255 255 255 255 49 49 255 255 255 255 64 64 64 64 64 64 64 64 64 64 64 64 64 64 64 64 64 64 64 64 64 64 64 64 64 64 64 64 64 64 64 64 64 64 64 64 64 64 64 64 255 255 255 255 255 5 5 255 255 255 255 255 255 255 255 255 5 5 5 5 5 5 5 5 5 5 5 5 5 5 5 5 5 5 5 5 5 5 5 255 
255 1 1 1 1 1 1 1 1 1 1 1 1 1 1 1 1 1 1 1 255 255 255 255 17 17 17 255 255 255 63 63 63 63 63 63 63 63 63 63 63 63 63 63 63 63 63 255 255 255 63 255 255 255 255 255 255 255 255 255 255 255 255 255 255 255 255 255 255 255 17 255 255 63 255 255 255 255 255 255 255 255 255 17 17 255 255 255 255 255 255 255 255 255 255 50 50 255 255 255 255 255 4 255 255 255 255 255 255 255 255 255 255 17 255 255 255 17 255 255 255 255 255 255 255 255 255 255 255 255 255 17 17 17 17 17 17 17 17 17 17 17 255 255 255 255 255 17 17 255 255 255 255 255 255 255 255 255 255 255 255 255 255 255 255 255 255 255 255 255 255 17 255 255 255 255 255 3 3 255 255 255 255 255 255 255 3 255 255 255 255 255 255 255 255 255 255 3 3 255 255 255 255 255 255 255 255 255 255 255 3 255 255 255 3 3 3 3 3 3 3 3 255 255 255 3 3 3 3 3 3 3 3 3 3 3 255 255 255 255 255 3 3 3 3 3 3 255 255 255 3 3 3 3 3 3 3 255 255 255 3 3 3 3 3 3 255 255 255 3 3 3 3 3 3 3 3 255 255 255 255 255 255 255 255 255 255 255 255 255 255 255 255 255 255 255 255 255 255 3 3 3 3 3 3 3 3 255 255 255 3 255 255 255 255 255 255 255 255 255 255 255 255 255 3 3 3 3 3 255 255 255 255 255 49 255 255 255 255 255 255 255 255 255 255 255 49 49 49 49 49 49 49 49 49 49 49 49 49 49 49 255 255 255 49 49 49 49 49 49 49 49 49 49 49 49 49 49 49 49 49 49 49 49 49 49 49 49 49 49 49 49 49 49 49 49 49 49 49 49 49 49 255 255 255 7 255 255 255 7 7 7 255 255 255 255 255 255 255 255 255 255 255 255 255 255 49 255 255 255 255 64 64 64 64 64 64 64 64 64 64 64 64 64 64 64 64 64 64 64 64 64 64 64 64 64 64 64 64 64 64 64 64 64 64 64 64 64 64 64 64 255 255 255 255 255 255 5 5 255 255 255 255 255 255 5 5 5 5 5 5 5 5 5 5 5 5 5 5 5 5 5 5 5 5 5 5 5 5 5 5 255 
255 1 1 1 1 1 1 1 1 1 1 1 1 1 1 1 1 1 1 1 255 255 255 255 17 17 17 255 255 255 63 63 63 63 63 63 63 63 63 63 63 63 255 255 255 255 255 255 255 255 255 255 255 255 255 255 255 255 255 255 255 255 255 255 255 255 255 255 255 255 255 255 255 255 255 255 255 255 255 255 255 255 255 255 255 255 255 255 255 255 255 255 255 255 255 50 255 255 255 255 255 255 4 255 255 255 255 255 255 255 255 255 255 255 17 17 17 17 255 255 255 255 17 17 17 255 255 255 255 255 255 17 17 17 17 17 17 17 17 17 17 17 255 255 255 255 255 17 17 255 255 255 255 255 255 255 255 255 255 255 255 255 255 255 255 255 255 255 255 255 255 17 255 255 255 255 255 3 3 255 255 255 255 255 255 255 255 255 255 255 255 255 255 255 255 3 3 3 255 255 255 255 255 255 255 255 255 255 255 255 255 255 255 255 3 3 3 3 3 3 3 3 3 3 3 3 3 3 3 3 3 3 3 3 3 3 3 3 255 255 255 3 3 3 3 3 3 255 255 255 3 3 3 3 3 3 3 3 3 3 3 3 255 255 255 3 255 255 255 3 3 3 3 3 3 3 3 255 255 255 255 255 255 255 255 255 255 255 255 255 255 255 255 255 255 255 255 255 3 3 3 3 3 3 3 3 3 255 255 255 255 255 255 255 255 255 255 255 255 255 255 255 255 255 255 255 255 255 255 255 255 255 255 255 255 255 255 255 255 255 255 255 255 49 49 49 49 49 49 49 49 49 49 49 49 49 49 49 49 49 49 255 255 255 49 49 49 49 49 49 49 49 49 49 49 49 49 49 49 49 49 49 49 49 49 49 49 49 49 49 49 49 49 49 49 49 49 49 49 49 49 255 255 255 7 7 255 255 255 7 7 7 255 255 255 255 255 255 255 255 255 7 7 7 255 255 49 255 255 255 255 64 64 64 64 64 64 64 64 64 64 64 64 64 64 64 64 64 64 64 64 64 64 64 64 64 64 64 64 64 64 64 64 64 64 64 64 64 64 64 255 255 255 255 255 255 255 5 5 255 255 255 255 255 255 5 5 5 5 5 5 5 5 5 5 5 5 5 5 5 5 5 5 5 5 5 5 5 5 5 5 255 
255 1 1 1 1 1 1 1 1 1 1 1 1 1 1 1 1 1 1 1 255 255 255 255 17 17 17 255 255 255 63 63 63 63 63 63 63 63 63 63 63 63 255 255 255 255 255 255 255 255 255 255 255 255 255 255 255 255 255 63 255 255 255 255 255 255 255 255 255 255 255 255 255 255 255 255 255 255 255 255 255 255 255 255 255 255 255 255 17 17 255 255 255 255 255 50 255 255 255 255 255 255 4 255 255 255 255 255 255 255 255 255 255 255 255 255 17 17 255 255 255 17 17 17 17 255 255 255 255 255 255 17 17 255 255 255 17 17 17 17 17 17 255 255 255 255 17 255 255 255 255 255 255 255 255 255 255 255 255 255 255 255 255 255 3 255 255 255 255 17 17 17 255 255 255 255 255 255 3 3 255 255 255 255 255 255 255 255 255 255 255 255 255 255 255 3 255 255 255 255 255 255 255 255 255 3 3 255 255 255 255 255 3 3 3 3 3 3 3 3 3 3 3 3 3 3 3 3 3 3 3 3 3 3 3 3 3 3 3 3 3 3 3 3 3 3 3 3 3 3 3 3 3 3 3 3 3 3 3 3 3 3 255 255 255 3 3 3 3 3 3 3 3 3 3 3 3 3 3 3 255 255 255 3 255 255 255 255 255 255 255 255 255 3 3 3 3 3 3 3 3 3 3 3 3 3 3 3 3 3 255 255 255 255 3 3 3 255 255 255 255 255 255 255 255 255 255 255 255 255 255 255 255 255 255 255 255 255 255 255 255 49 49 49 49 49 49 49 49 49 49 49 49 49 49 49 49 49 49 49 49 255 255 255 49 49 49 49 49 49 49 49 49 49 49 49 49 49 49 49 49 49 49 49 49 49 49 49 49 49 49 49 49 49 49 49 49 49 49 49 255 255 255 255 255 255 255 255 255 7 7 7 255 255 255 255 255 255 255 255 255 7 7 7 255 255 255 255 255 255 64 64 64 64 64 64 64 64 64 64 64 64 64 64 64 64 64 64 64 64 64 64 64 64 64 64 64 64 64 64 64 64 64 64 64 64 64 64 64 255 255 255 255 255 255 5 5 5 255 255 255 255 255 255 255 255 255 5 5 5 5 5 5 5 5 5 5 5 5 5 5 5 5 5 5 5 5 5 5 5 5 255 
255 1 1 1 1 1 1 1 1 1 1 1 1 1 1 1 1 1 1 1 255 255 255 255 17 17 17 255 255 255 63 63 63 63 63 63 63 63 63 63 63 63 255 255 255 255 255 255 255 255 255 255 255 255 255 255 255 255 255 63 255 255 255 255 255 255 255 255 255 255 255 255 17 255 255 255 255 255 255 17 17 255 255 255 255 255 255 255 17 17 255 255 255 255 255 50 255 255 255 255 255 255 4 4 255 255 255 255 255 255 255 255 255 255 255 255 17 17 255 255 255 17 17 17 255 255 255 255 255 255 255 17 17 255 255 255 17 17 17 17 17 17 255 255 255 17 17 255 255 255 255 255 255 255 255 255 255 255 255 255 255 255 255 255 255 255 255 255 255 17 255 255 255 255 255 255 255 255 3 3 3 255 255 255 255 255 255 255 255 255 255 255 255 255 255 255 255 255 255 255 255 255 255 255 255 3 3 255 255 255 255 255 3 3 3 3 3 3 3 3 3 3 3 3 3 3 3 3 3 3 3 3 3 3 3 3 3 3 3 3 255 255 255 3 3 3 3 3 3 3 3 3 3 3 3 3 3 3 3 255 255 255 255 255 255 3 3 3 3 3 3 3 3 255 255 255 3 3 3 3 3 3 3 3 255 255 255 255 255 255 255 255 255 3 3 3 3 3 3 3 3 3 3 3 3 3 3 3 3 3 255 255 255 255 3 3 3 3 255 255 255 255 255 255 255 255 255 255 255 255 255 255 255 255 255 255 255 255 255 255 49 49 49 49 49 49 49 49 49 49 49 49 49 49 49 49 49 49 49 49 49 49 49 49 49 49 49 49 49 49 49 49 49 49 49 49 49 49 49 49 49 49 49 49 49 49 49 49 49 49 49 49 49 49 49 49 49 49 49 49 255 255 255 255 255 255 255 255 7 7 7 7 255 255 255 255 21 255 255 255 255 7 7 255 255 255 255 255 255 255 64 64 64 64 64 64 64 64 64 64 64 64 64 64 64 64 64 64 64 64 64 64 64 64 64 64 64 64 64 64 64 64 64 64 64 64 64 64 255 255 255 255 255 255 255 5 5 5 255 255 255 255 255 255 255 255 255 5 5 5 5 5 5 5 5 5 5 5 5 5 5 5 5 5 5 5 5 5 5 5 5 255 
255 1 1 1 1 1 1 1 1 1 1 1 1 1 1 1 1 1 1 1 255 255 255 17 17 17 17 255 255 255 63 63 63 63 63 63 63 63 63 63 63 63 63 63 63 63 63 255 255 255 255 255 255 255 255 255 255 255 255 255 255 255 255 255 255 255 255 255 255 255 255 255 255 255 255 255 255 255 255 17 17 17 17 17 17 255 255 255 17 17 255 255 255 255 255 50 255 255 255 255 255 255 255 255 255 255 255 255 255 255 255 255 255 255 255 255 17 17 17 17 17 17 17 17 255 255 255 255 255 255 255 255 255 255 255 255 17 17 17 17 17 17 255 255 255 255 255 255 255 255 255 255 255 255 255 255 255 17 255 255 255 255 255 255 255 255 255 255 255 17 255 255 255 255 255 255 255 255 3 3 3 255 255 255 255 255 255 255 255 255 255 255 3 255 255 255 255 255 255 255 255 255 255 255 255 255 255 255 255 255 255 255 3 3 3 3 3 3 3 3 3 3 3 3 3 3 3 3 3 3 3 3 3 3 3 3 3 3 3 3 255 255 255 3 255 255 255 255 255 3 3 3 3 3 3 3 3 3 3 255 255 255 255 255 255 3 3 3 3 3 3 3 3 255 255 255 3 3 3 3 3 3 3 3 3 255 255 255 255 255 255 255 255 3 3 3 3 3 3 3 3 3 3 3 3 3 3 3 3 3 3 255 255 255 3 3 3 3 255 255 255 255 255 255 255 255 255 255 255 255 255 255 255 255 255 255 255 255 255 255 49 49 49 49 49 49 49 49 49 49 49 49 49 49 49 255 255 255 49 49 49 49 49 49 49 49 49 49 49 49 49 49 49 49 49 49 49 49 49 49 49 49 49 49 49 49 49 49 49 49 49 49 49 49 49 49 49 49 49 255 255 255 255 255 255 255 255 255 7 7 7 255 255 255 255 21 255 255 255 7 7 7 7 255 255 255 255 255 255 255 64 64 64 64 64 64 64 64 64 64 64 64 64 64 64 64 64 64 64 64 64 64 64 64 64 64 64 64 64 64 64 64 64 64 64 64 64 64 255 255 255 255 255 255 255 5 5 255 255 255 255 255 255 255 255 255 255 5 5 5 5 5 5 5 5 5 5 5 5 5 5 5 5 5 5 5 5 5 5 5 5 255 
255 1 1 1 1 1 1 1 1 1 1 1 1 1 1 1 1 1 1 1 255 255 255 255 17 17 17 255 255 255 63 63 63 63 63 63 63 63 63 63 63 63 63 63 63 63 63 255 255 255 255 255 255 255 255 255 255 255 255 255 255 255 255 255 255 255 255 255 255 255 255 255 255 255 255 255 17 17 17 17 17 17 17 17 17 17 17 17 255 255 255 255 255 255 255 50 255 255 255 255 255 255 255 255 255 4 4 255 255 255 255 255 255 255 255 17 255 255 255 255 17 17 17 255 255 255 255 255 255 255 255 255 255 255 17 17 17 17 17 17 17 17 255 255 255 255 255 255 255 255 255 255 255 255 255 255 255 17 255 255 255 255 255 255 255 17 17 17 17 17 255 255 255 255 255 255 255 3 255 255 255 255 255 255 255 255 255 255 255 255 255 255 255 255 255 255 255 255 255 255 255 3 255 255 255 255 255 255 255 255 255 255 3 3 3 3 3 3 3 3 3 3 3 3 3 3 3 3 3 3 3 3 3 3 3 3 3 3 3 3 255 255 255 255 255 255 255 255 255 3 3 3 3 3 3 3 3 3 3 255 255 255 255 255 255 3 3 3 3 3 3 3 3 255 255 255 255 255 255 255 255 3 3 3 3 3 3 255 255 255 255 255 255 3 3 3 3 3 3 3 3 3 3 3 3 3 3 3 3 3 3 255 255 255 3 3 3 3 255 255 255 255 255 255 255 255 255 255 255 255 255 255 255 255 255 255 255 255 255 255 49 49 49 49 49 49 49 49 49 49 49 49 49 49 49 255 255 255 49 49 49 49 49 49 49 49 49 49 49 49 49 49 49 49 49 49 49 49 49 49 49 49 49 49 49 49 49 49 49 49 49 49 49 49 49 49 49 49 255 255 255 255 255 255 7 7 7 7 7 7 255 255 255 255 21 255 255 255 255 7 7 7 7 255 255 49 255 255 255 64 64 64 64 64 64 64 64 64 64 64 64 64 64 64 64 64 64 64 64 64 64 64 64 64 64 64 64 64 64 64 64 64 64 64 64 64 64 255 255 255 19 255 255 5 5 5 255 255 255 255 255 255 255 255 255 5 5 5 5 5 5 5 5 5 5 5 5 5 5 5 5 5 5 5 5 5 5 5 5 5 5 255 
255 1 1 1 1 1 1 1 1 1 1 1 1 1 1 1 1 1 1 1 255 255 255 255 17 17 17 255 255 255 63 63 63 63 63 63 63 63 63 63 63 63 63 63 63 63 63 255 255 255 255 255 255 255 255 255 255 255 255 255 255 255 255 255 255 255 255 255 255 255 255 255 255 255 255 255 255 255 255 255 17 17 17 17 17 17 255 255 255 255 255 255 255 255 255 50 255 255 255 255 255 255 255 255 255 255 255 255 255 255 255 255 255 255 255 17 255 255 255 255 17 17 17 255 255 255 255 255 255 255 255 255 255 255 17 17 17 17 17 255 255 255 255 255 255 255 255 255 255 255 255 255 255 255 255 255 255 255 255 255 255 255 255 255 255 17 17 255 255 255 255 255 255 255 255 255 255 3 255 255 255 255 255 255 255 255 255 255 255 255 255 255 255 255 255 255 255 255 3 3 3 3 255 255 255 255 255 255 255 3 3 3 3 3 3 3 3 3 3 3 3 3 3 3 3 255 255 255 3 3 3 3 3 3 3 3 3 3 3 3 3 3 255 255 255 255 255 255 255 3 3 3 3 3 3 255 255 255 3 255 255 255 255 3 3 3 3 3 3 3 3 3 3 3 3 255 255 255 255 255 255 3 3 3 3 3 3 255 255 255 255 255 255 3 3 3 3 3 3 3 3 3 3 3 3 3 3 3 3 3 3 255 255 255 3 3 3 3 3 255 255 255 255 255 255 255 255 255 255 7 255 255 255 255 49 255 255 255 255 49 49 49 49 49 49 49 49 49 49 49 49 49 49 49 49 255 255 255 49 49 49 49 49 49 49 49 49 49 49 49 49 49 49 49 49 49 49 49 49 49 49 49 49 49 49 49 49 49 49 49 49 49 49 49 49 49 49 49 255 255 255 255 255 255 7 7 255 255 255 255 255 255 255 255 255 255 255 255 7 7 7 7 255 255 255 255 255 255 255 64 64 64 64 64 64 64 64 64 64 64 64 64 64 64 64 64 64 64 64 64 64 64 64 64 64 64 64 64 64 64 64 64 64 64 64 64 64 255 255 255 255 255 255 5 5 255 255 255 255 255 255 255 255 255 255 5 5 5 5 5 5 5 5 5 5 5 5 5 5 5 5 5 5 5 5 5 5 5 5 5 5 255 
255 1 1 1 1 1 1 1 1 1 1 1 1 1 1 1 1 1 1 1 1 1 255 255 17 17 17 255 255 255 63 63 63 63 63 63 63 63 63 63 63 63 63 63 63 63 63 255 255 255 255 255 255 255 255 255 255 255 255 255 255 255 255 255 255 255 255 255 255 255 255 255 255 255 255 17 255 255 255 255 17 17 17 17 17 17 255 255 255 255 68 68 255 255 50 50 255 255 255 255 255 255 4 4 255 255 255 4 255 255 255 255 255 255 255 255 255 255 255 255 17 17 17 255 255 255 255 255 255 255 255 255 255 17 17 17 17 255 255 255 255 255 255 255 255 255 255 255 255 17 255 255 255 255 255 17 255 255 255 255 255 255 255 255 255 17 17 255 255 255 255 255 255 255 255 255 255 255 255 255 255 255 255 255 255 255 255 255 255 255 255 255 255 255 255 255 255 3 3 3 3 3 255 255 255 255 255 255 3 3 3 3 3 3 3 255 255 255 3 3 3 3 3 3 3 255 255 255 3 3 3 3 3 3 3 3 3 3 3 3 3 3 255 255 255 3 3 3 3 255 255 255 255 255 255 255 255 255 3 255 255 255 255 3 3 3 3 3 3 3 3 3 3 3 3 255 255 255 255 255 255 3 3 3 3 3 3 3 3 255 255 255 3 3 3 3 3 3 3 3 3 3 3 3 3 3 3 3 3 3 3 3 255 255 255 3 3 255 255 255 255 255 255 255 255 255 255 7 7 255 255 255 255 255 49 49 49 49 49 49 49 49 49 49 49 49 49 49 49 49 49 49 49 49 49 49 49 49 49 49 49 49 49 49 49 49 49 49 49 49 49 49 49 49 49 49 49 49 49 49 49 49 49 49 49 49 49 49 49 49 49 49 49 49 49 49 49 255 255 255 255 255 7 7 7 7 255 255 255 255 255 255 255 255 255 255 255 7 7 7 7 7 255 255 255 255 255 255 255 64 64 64 64 64 64 64 64 64 64 64 64 64 64 64 64 64 64 64 64 64 64 64 64 64 64 64 64 64 64 64 64 64 64 64 64 64 64 255 255 19 255 255 255 5 5 255 255 255 255 255 255 255 255 255 255 5 5 5 5 5 5 5 5 5 5 5 5 5 5 5 5 5 5 5 5 5 5 5 5 5 5 255 
255 1 1 1 1 1 1 1 1 1 1 1 1 1 1 1 1 1 1 1 1 255 255 255 17 17 17 255 255 255 63 63 63 63 63 63 63 63 63 63 63 63 63 63 63 63 63 255 255 255 255 255 255 255 255 255 255 255 255 255 255 255 255 255 255 255 255 255 255 255 255 255 255 255 255 17 255 255 255 255 255 255 255 255 255 255 255 255 255 255 255 255 255 255 50 50 255 255 255 255 255 255 4 4 255 255 255 255 255 255 255 255 255 255 255 255 255 255 255 255 255 17 17 255 255 255 255 255 255 255 255 255 255 17 17 17 17 255 255 255 255 255 255 255 255 255 255 255 255 255 255 17 255 255 255 17 255 255 255 255 255 255 255 255 255 17 17 255 255 255 255 255 255 255 255 255 255 255 255 255 255 255 255 255 255 255 255 255 255 255 255 255 255 255 255 255 3 3 3 3 3 3 255 255 255 255 255 255 3 3 3 3 3 3 3 255 255 255 255 255 3 3 3 3 3 255 255 255 3 3 3 3 3 3 3 3 3 3 3 3 3 3 3 3 3 3 3 3 3 255 255 255 255 255 255 255 255 255 3 3 3 3 3 3 3 3 3 3 3 3 3 3 3 3 3 3 255 255 255 255 3 3 3 3 3 3 3 3 3 3 3 3 3 3 3 3 3 3 3 3 3 3 3 3 3 3 3 255 255 255 3 3 255 255 255 3 255 255 255 255 255 255 255 255 255 7 7 7 255 255 255 255 255 255 49 49 49 49 49 49 49 49 49 49 49 49 49 49 49 49 49 49 49 49 49 49 49 49 49 49 49 49 49 49 49 49 49 49 49 49 49 49 49 49 49 49 49 49 49 49 49 49 49 49 49 49 49 49 49 49 49 49 49 49 49 49 49 255 255 255 255 255 255 7 7 7 255 255 255 255 255 255 255 255 255 7 7 255 255 255 255 255 255 255 255 255 255 255 64 64 64 64 64 64 64 64 64 64 64 64 64 64 64 64 64 64 64 64 64 64 64 64 64 64 64 64 64 64 64 64 64 64 64 64 64 64 255 255 255 255 255 255 5 5 255 255 255 255 255 255 255 255 255 5 5 5 5 5 5 5 5 5 5 5 5 5 5 5 5 5 5 5 5 5 5 5 5 5 5 5 5 255 
255 1 1 1 1 1 1 1 1 1 1 1 1 1 1 1 1 1 1 1 1 255 255 255 255 17 17 255 255 255 255 63 63 63 63 63 63 63 63 63 63 63 63 63 63 63 63 255 255 255 255 255 255 255 255 255 255 255 255 255 255 255 255 255 255 255 255 255 255 255 255 255 255 255 255 17 255 255 255 255 255 255 255 255 255 255 255 255 255 255 255 255 255 255 50 50 255 255 255 255 255 255 4 4 4 4 4 255 255 255 255 255 255 255 255 255 255 255 255 255 255 17 17 255 255 255 255 255 255 255 255 17 17 17 17 17 17 255 255 255 255 255 255 255 255 255 255 255 255 255 255 17 17 17 255 255 255 255 255 255 255 255 255 255 255 17 255 255 255 255 255 255 255 255 255 255 255 255 255 255 255 255 255 255 255 255 255 255 255 255 255 255 255 255 255 255 3 3 255 255 255 255 255 255 255 255 255 255 3 3 3 3 3 3 3 255 255 255 255 255 255 3 3 255 255 255 255 255 3 3 3 3 3 3 3 3 3 3 3 3 3 3 3 3 3 3 3 3 3 255 255 255 255 255 255 255 255 255 255 3 3 3 3 3 3 3 3 3 3 3 3 3 3 3 255 255 255 255 255 255 3 3 3 3 255 255 255 3 3 3 3 3 3 3 3 3 3 3 3 3 3 3 3 3 3 3 3 255 255 255 3 3 255 255 255 255 255 255 255 255 255 255 255 255 7 7 7 255 255 255 255 255 49 49 49 49 49 49 49 49 49 49 49 255 255 255 255 49 49 49 49 49 49 49 49 49 49 49 49 49 49 49 49 49 49 49 49 49 49 49 49 49 49 49 49 49 49 49 49 49 49 49 49 49 49 49 49 49 49 49 49 49 49 49 49 49 255 255 255 255 255 255 255 7 7 7 255 255 255 255 255 255 255 7 7 7 7 255 255 255 255 255 255 255 255 255 255 255 64 64 64 64 64 64 64 64 64 64 64 64 64 64 64 64 64 64 64 64 64 64 64 64 64 64 64 64 64 64 64 64 64 64 64 64 64 255 255 255 255 255 255 255 5 5 255 255 255 255 255 255 255 255 255 5 5 5 5 5 5 5 5 5 5 5 255 255 255 5 5 5 5 5 5 5 5 5 5 5 5 5 5 255 
255 1 1 1 1 1 1 1 1 1 1 1 1 1 1 1 1 1 1 1 1 255 255 255 255 17 17 255 255 255 255 63 63 63 63 63 63 63 63 63 63 63 63 63 63 63 255 255 255 255 255 255 63 255 255 255 255 255 255 255 255 255 255 255 255 255 255 255 255 255 255 255 255 255 255 255 255 255 255 255 255 255 255 255 255 255 255 255 255 255 255 255 255 255 50 255 255 255 255 255 255 255 4 4 4 255 255 255 255 255 255 255 255 255 255 255 17 255 255 255 255 17 17 17 255 255 255 255 255 17 17 17 17 17 255 255 255 255 255 255 255 255 255 255 255 255 255 255 255 255 255 17 17 17 255 255 255 255 255 255 255 255 17 17 255 255 255 255 255 255 255 255 255 255 255 255 255 255 255 255 255 255 255 255 255 255 255 255 17 255 255 255 255 255 255 255 255 255 255 255 255 255 255 255 255 3 3 3 3 3 3 3 3 3 3 3 255 255 255 255 255 255 255 255 255 255 255 255 3 3 3 3 3 3 3 3 3 3 3 3 3 3 3 3 3 3 255 255 255 255 255 255 255 255 255 255 255 255 255 3 255 255 255 3 3 3 3 3 3 3 3 3 3 3 255 255 255 255 255 255 3 3 3 3 255 255 255 3 3 3 3 3 3 3 3 3 3 3 3 3 3 3 3 3 3 3 3 255 255 255 255 3 255 255 255 255 255 255 255 255 255 255 255 7 255 255 255 255 255 255 255 255 49 49 49 49 49 49 49 49 255 255 255 255 255 255 255 49 49 49 49 49 49 49 49 49 49 49 49 49 49 49 49 49 49 49 49 49 49 49 49 49 49 49 49 49 49 49 49 49 49 49 49 49 49 49 49 49 49 49 49 49 49 49 49 255 255 255 255 255 255 255 255 7 7 255 255 255 255 255 255 255 7 255 255 255 255 255 255 255 255 255 255 49 255 255 255 64 64 64 64 64 64 64 64 64 64 64 64 64 64 64 64 64 64 64 64 64 64 64 64 64 64 64 64 64 64 64 64 64 64 64 64 64 64 255 255 255 255 255 5 5 255 255 255 255 255 255 255 255 255 5 5 5 5 5 5 5 5 5 5 5 5 5 255 255 255 5 5 5 5 5 5 5 5 5 5 5 5 5 5 255 
255 1 1 1 1 1 1 1 1 1 1 1 1 1 1 1 1 1 1 1 1 255 255 255 255 17 17 255 255 255 255 63 63 63 63 63 63 63 63 63 63 63 63 63 63 63 255 255 255 63 255 255 255 255 255 255 255 63 255 255 255 255 63 63 63 255 255 255 255 255 255 255 255 255 255 255 255 255 255 255 255 255 255 255 255 255 255 255 255 255 255 255 255 255 50 255 255 255 255 255 255 255 255 255 4 255 255 255 255 255 255 255 255 255 255 255 255 255 255 255 17 17 17 17 255 255 255 17 17 255 255 255 17 17 255 255 255 17 17 255 255 255 255 255 255 255 255 255 255 17 17 17 17 17 255 255 255 255 255 255 255 255 17 255 255 255 255 255 255 255 255 8 8 255 255 255 17 255 255 255 255 255 255 255 255 255 255 255 255 255 255 3 3 255 255 255 255 255 255 255 255 255 255 3 3 3 3 3 3 3 3 3 3 3 3 3 3 3 255 255 255 255 255 255 255 255 255 3 3 3 255 255 255 3 3 3 3 3 3 3 3 3 3 3 3 3 255 255 255 255 255 255 255 255 255 3 255 255 255 3 255 255 255 3 3 3 3 3 3 3 3 3 3 3 255 255 255 3 3 3 3 3 3 3 255 255 255 255 255 3 3 3 3 3 3 3 3 3 3 3 3 3 3 3 3 3 3 255 255 255 255 255 255 255 255 255 255 255 255 255 255 7 7 255 255 255 255 255 255 255 255 255 49 49 49 49 49 49 255 255 255 255 255 255 255 255 255 49 49 49 49 49 49 49 49 49 49 49 49 49 49 49 49 49 49 49 49 49 49 49 49 49 49 49 49 49 49 49 49 49 49 49 49 49 49 49 49 49 49 49 49 49 49 49 49 255 255 255 255 255 255 7 7 7 255 255 255 255 255 255 255 7 255 255 255 255 255 255 255 255 255 255 49 255 255 255 255 64 64 64 64 64 64 64 64 64 64 64 64 64 64 64 64 64 64 64 64 64 64 64 64 64 64 64 64 64 64 64 64 64 64 64 64 64 255 255 255 255 255 255 5 5 255 255 255 255 255 255 255 255 255 5 5 5 5 5 5 5 5 5 5 5 5 5 255 255 255 5 5 5 5 5 5 5 5 5 5 5 5 5 5 255 
255 1 1 1 1 1 1 1 1 1 1 1 1 1 1 1 1 1 1 1 1 255 255 255 17 17 17 255 255 255 63 63 63 63 63 63 63 63 63 63 63 63 63 63 63 255 255 255 255 63 255 255 255 255 255 255 255 255 255 255 255 255 255 255 255 255 255 255 255 255 255 255 255 255 255 255 255 255 255 255 255 255 255 17 255 255 255 255 255 255 255 255 255 255 50 255 255 255 255 255 255 255 255 255 4 255 255 255 255 255 255 255 255 255 255 255 255 255 255 17 17 17 17 17 17 17 17 17 255 255 255 255 255 255 255 255 255 17 17 255 255 255 255 255 255 255 255 255 17 17 17 255 255 255 255 255 255 255 255 255 255 17 255 255 255 255 255 255 255 255 255 8 8 8 255 255 255 255 255 255 255 255 255 255 255 17 255 255 255 255 255 255 255 255 255 255 255 255 255 255 255 255 255 3 3 3 3 3 3 3 3 3 3 3 3 3 3 3 3 3 255 255 255 255 255 255 255 3 3 3 255 255 255 255 3 3 3 3 3 3 3 3 3 3 3 3 255 255 255 255 255 255 3 3 3 3 3 3 3 3 255 255 255 3 3 3 3 3 3 3 3 3 3 3 3 3 3 3 3 3 3 3 3 3 3 3 255 255 255 3 3 3 3 3 3 3 3 3 3 3 3 3 3 3 3 3 3 3 255 255 255 255 255 255 255 255 255 255 255 255 255 255 255 255 255 255 49 49 49 49 49 49 49 49 49 255 255 255 255 255 255 255 255 255 255 255 255 49 49 49 49 49 49 49 49 49 49 49 49 49 49 49 49 49 49 49 49 49 49 49 49 49 49 49 49 49 49 49 49 49 49 49 49 49 49 49 49 49 49 49 49 49 49 49 255 255 255 255 255 255 255 7 255 255 255 255 255 255 255 255 255 255 255 255 255 255 255 255 255 255 255 255 49 255 255 255 255 64 64 64 64 64 64 64 64 64 64 64 64 64 64 64 64 64 64 64 64 64 64 64 64 64 64 64 64 64 64 64 64 64 64 64 64 64 255 255 255 255 255 255 5 5 255 255 255 255 255 255 255 255 5 5 5 5 5 5 5 5 5 5 5 5 5 5 5 5 5 5 5 5 5 5 5 5 5 5 5 5 5 5 5 255 
255 1 1 1 1 1 1 1 1 1 1 1 1 1 1 1 1 1 1 1 1 255 255 255 17 17 17 255 255 255 63 63 63 63 63 63 63 63 63 63 63 63 63 63 63 255 255 255 255 255 255 255 255 255 255 255 255 255 255 255 255 255 255 255 255 255 255 255 255 255 255 255 255 255 255 255 255 255 255 255 255 255 255 17 17 255 255 255 255 255 255 255 255 255 50 255 255 255 255 255 255 255 255 255 4 4 255 255 255 255 255 255 255 255 255 255 255 255 255 255 255 17 17 17 17 17 17 255 255 255 255 255 255 255 255 255 255 255 255 255 255 255 255 255 17 255 255 255 17 255 255 255 255 255 17 17 17 17 17 17 17 17 255 255 255 255 255 255 255 255 255 255 255 255 255 255 255 255 255 255 255 255 255 255 255 255 255 255 255 3 255 255 255 3 255 255 255 255 255 255 255 255 3 3 3 3 3 3 3 3 3 3 3 3 3 3 3 3 3 3 3 255 255 255 255 3 3 3 255 255 255 255 255 255 255 255 255 255 3 3 3 3 3 3 3 3 3 255 255 255 3 3 3 3 3 3 3 3 3 3 3 3 3 3 3 3 3 3 3 3 3 3 3 3 3 3 3 3 3 255 255 255 3 3 3 3 255 255 255 3 3 3 3 3 3 3 255 255 255 3 3 3 3 3 3 3 3 3 255 255 255 255 255 255 255 255 255 255 255 255 255 255 255 255 255 49 49 49 49 49 49 255 255 255 49 255 255 255 255 255 255 255 255 255 255 255 255 49 49 49 49 49 49 49 49 49 49 49 49 49 49 49 49 49 49 49 49 49 49 49 49 49 49 49 49 49 49 49 49 49 49 49 49 49 49 49 49 49 49 49 49 49 49 49 255 255 255 255 255 255 7 255 255 255 255 255 255 255 255 255 255 255 255 255 255 255 255 255 255 255 255 49 255 255 255 255 255 64 64 64 64 64 64 64 64 64 64 64 64 64 64 64 64 64 64 64 64 64 64 64 64 64 64 64 64 64 64 64 64 64 64 64 64 255 255 255 255 255 255 5 255 255 255 255 255 255 255 255 255 255 5 5 5 5 5 5 5 5 5 5 5 5 5 5 5 5 5 5 5 5 5 5 5 5 5 5 5 5 5 5 5 255 
255 1 1 1 1 1 1 1 1 1 1 1 1 1 1 1 1 1 1 1 1 255 255 255 17 17 17 17 255 255 63 63 63 63 63 63 63 63 63 63 63 63 63 63 63 255 255 255 255 255 255 255 255 255 255 255 255 255 63 63 63 63 255 255 255 255 255 255 255 255 255 255 255 255 255 255 17 255 255 255 255 255 255 17 17 255 255 255 255 255 255 255 255 255 50 50 50 255 255 255 255 255 255 255 255 255 4 255 255 255 255 255 255 255 255 255 255 255 255 255 255 17 17 17 17 17 17 255 255 255 255 255 255 255 255 255 255 255 255 17 255 255 255 255 17 17 17 17 17 255 255 255 255 255 17 17 17 17 17 17 255 255 255 255 255 255 255 255 255 255 255 255 255 255 255 255 255 255 255 255 255 255 255 255 255 255 255 255 255 3 255 255 255 255 255 255 255 255 255 255 3 3 3 3 3 3 3 3 3 3 3 3 3 3 3 3 3 3 3 3 3 3 255 255 255 255 255 255 255 255 255 255 255 255 255 255 255 255 255 255 255 255 255 255 3 3 3 3 3 3 3 3 3 3 3 3 3 3 3 3 3 3 3 3 3 3 3 3 3 3 3 3 3 3 3 3 3 3 3 255 255 255 3 3 3 3 3 3 3 3 3 3 3 3 3 3 255 255 255 255 3 3 255 255 255 255 255 255 255 255 255 255 255 255 255 7 7 255 255 255 255 255 255 255 49 49 49 49 49 49 49 255 255 255 255 255 255 255 255 255 255 255 255 255 255 255 49 49 49 49 49 49 49 49 49 49 49 49 49 49 49 49 49 49 49 49 49 49 49 49 49 49 49 49 49 49 49 49 49 49 49 49 49 49 49 49 49 49 49 49 49 49 49 255 255 255 255 255 255 7 255 255 255 255 255 255 255 255 255 255 255 255 255 255 255 255 255 255 255 255 255 49 255 255 255 255 64 64 64 64 64 64 64 64 64 64 64 64 64 64 64 64 64 64 64 64 64 64 64 64 64 64 64 64 64 64 64 64 64 64 64 64 64 255 255 255 255 255 255 5 255 255 255 255 255 255 255 255 5 5 5 5 5 5 5 5 5 5 5 5 5 5 5 5 5 5 5 5 5 5 5 5 5 5 5 5 5 5 5 5 5 255 
255 1 1 1 1 1 1 1 1 1 1 1 1 1 1 1 1 1 1 1 1 255 255 255 17 17 17 255 255 255 63 63 63 63 63 63 63 63 63 63 63 63 63 63 63 63 63 255 255 255 255 255 255 255 255 255 255 255 63 63 63 63 255 255 255 63 255 255 255 255 255 255 255 255 255 255 17 255 255 255 255 17 17 17 17 255 255 255 255 255 255 255 255 255 50 50 50 255 255 255 255 255 255 255 255 255 4 4 255 255 255 255 255 255 255 255 255 255 255 255 255 255 255 17 17 17 17 255 255 255 255 255 255 255 255 255 255 255 255 17 17 255 255 255 255 255 17 17 255 255 255 255 255 17 17 17 17 17 17 255 255 255 255 255 255 255 255 255 255 255 255 255 255 17 255 255 255 255 255 255 17 17 17 17 255 255 255 3 3 3 255 255 255 255 255 255 255 255 255 255 255 3 3 3 3 3 3 3 3 3 3 3 3 3 3 255 255 255 255 255 255 255 255 255 255 255 255 255 255 255 17 17 17 255 255 255 255 255 255 255 255 255 255 255 3 3 3 3 3 3 3 3 3 3 3 3 3 3 3 3 3 3 3 3 3 3 3 3 3 3 3 3 3 3 3 255 255 255 3 255 255 255 3 3 3 3 3 3 3 3 3 3 3 3 3 3 255 255 255 255 3 255 255 255 255 255 255 255 255 255 255 255 255 255 7 255 255 255 255 255 49 255 255 255 49 49 49 49 49 49 49 255 255 255 255 255 255 255 255 255 255 255 49 49 49 49 49 49 49 49 49 49 49 49 49 49 49 49 49 49 49 49 49 49 49 49 49 49 49 49 49 49 49 49 49 49 49 49 49 49 49 49 49 49 49 49 49 49 49 49 49 49 255 255 255 255 255 255 255 255 255 255 255 255 255 255 255 255 255 255 255 255 255 255 21 21 255 255 255 255 49 49 255 255 255 255 64 64 64 64 64 64 64 64 64 64 64 64 64 64 64 64 64 64 64 64 64 64 64 64 64 64 64 64 64 64 64 64 64 64 64 64 255 255 255 255 255 255 5 5 255 255 255 255 255 255 255 255 5 5 5 5 5 5 5 5 5 5 5 5 5 5 5 5 5 5 5 5 5 5 5 5 5 5 5 5 5 5 5 5 5 255 
255 1 1 1 1 1 1 1 1 1 1 1 1 1 1 1 1 1 1 1 1 255 255 255 17 17 17 255 255 255 63 63 63 63 63 63 63 63 63 63 63 63 63 63 63 63 63 255 255 255 255 63 255 255 255 255 255 255 255 255 255 255 255 255 255 255 255 255 255 255 255 255 255 255 255 255 255 255 255 255 255 17 17 17 255 255 255 255 255 255 255 255 255 255 50 50 50 50 255 255 255 255 255 255 255 255 4 4 4 4 4 255 255 255 255 255 255 255 255 255 255 255 255 255 17 17 17 17 255 255 255 255 255 255 255 255 255 255 255 17 17 17 17 255 255 255 17 255 255 255 255 255 255 17 17 17 17 17 17 255 255 255 255 255 17 17 255 255 255 255 255 255 255 17 255 255 255 255 17 17 17 17 17 17 255 255 255 3 255 255 255 255 255 255 255 255 255 255 255 255 255 255 3 3 3 3 3 3 3 3 255 255 255 255 255 255 255 255 255 255 255 255 255 255 255 255 255 255 255 255 17 17 255 255 255 255 255 255 255 255 255 255 255 255 255 3 3 3 3 3 3 3 3 3 3 3 3 3 3 3 3 3 3 3 3 3 3 3 3 3 3 3 3 3 3 255 255 255 255 3 3 3 3 255 255 255 255 255 255 3 3 3 255 255 255 3 255 255 255 255 255 255 255 255 255 255 255 255 255 255 255 255 255 255 7 255 255 255 255 255 49 49 49 49 49 49 49 49 49 49 49 255 255 255 255 49 255 255 255 49 49 49 49 49 49 49 49 49 49 49 49 49 49 49 49 49 49 49 49 49 49 49 49 49 49 49 49 49 49 49 49 49 49 49 49 49 49 49 49 49 49 49 49 49 49 49 49 49 49 49 49 49 255 255 255 255 255 7 7 255 255 255 255 255 255 255 255 255 255 255 69 255 255 255 255 255 255 255 255 49 49 255 255 255 255 64 64 64 64 64 64 64 64 64 64 64 64 64 64 64 64 64 64 64 64 64 64 64 64 64 64 64 64 64 64 64 64 64 64 64 64 64 255 255 255 255 255 255 5 255 255 255 255 255 255 255 255 5 5 5 5 5 5 5 5 5 5 5 5 5 5 5 5 5 5 5 5 5 5 5 5 5 5 5 5 5 5 5 5 5 5 255 
255 1 1 1 1 1 1 1 1 1 1 1 1 1 1 1 1 1 1 1 1 1 255 255 17 17 17 255 255 255 255 255 63 63 63 63 63 63 63 63 63 63 63 63 63 63 63 63 63 63 63 63 255 255 255 255 255 255 255 255 255 255 255 255 255 255 255 255 255 255 255 255 255 255 255 255 255 255 255 255 255 17 17 17 255 255 255 255 255 255 68 255 255 255 50 50 50 255 255 255 255 255 255 255 255 4 4 4 4 255 255 255 255 255 255 255 255 255 255 255 255 255 255 255 17 17 17 255 255 255 255 255 255 255 255 255 255 255 17 17 17 17 17 255 255 255 17 255 255 255 255 255 255 17 17 17 17 255 255 255 255 255 255 255 17 17 17 255 255 255 255 255 255 255 255 255 255 17 17 17 255 255 255 17 17 255 255 255 255 255 255 255 255 17 17 255 255 255 255 255 255 255 3 3 3 255 255 255 255 255 255 255 255 255 255 255 255 17 17 17 17 17 255 255 255 255 255 255 255 255 17 255 255 255 255 255 255 255 255 255 255 255 255 255 255 3 3 3 3 3 3 3 3 3 3 3 3 3 255 255 255 255 255 255 255 3 3 3 3 3 3 3 3 3 3 255 255 255 255 3 3 3 3 255 255 255 255 255 255 3 3 3 255 255 255 255 3 255 255 255 255 255 255 255 255 255 255 255 255 255 255 7 255 255 255 255 255 255 255 255 49 49 49 49 49 49 49 49 49 49 255 255 255 49 49 49 49 49 49 49 49 49 49 49 49 49 49 49 49 49 49 49 49 49 49 49 49 49 49 49 49 49 49 49 49 49 49 49 49 49 49 49 49 49 49 49 49 49 49 49 49 49 49 49 49 49 49 49 49 49 49 255 255 255 255 255 255 7 255 255 255 255 255 255 255 255 255 255 255 255 255 255 255 255 255 255 255 255 255 49 49 255 255 255 255 64 64 64 64 64 64 64 64 64 64 64 64 64 64 64 64 64 64 64 64 64 64 64 64 64 64 64 64 64 64 64 64 64 64 64 64 255 255 255 255 255 255 5 5 255 255 255 255 255 255 255 5 5 5 5 5 5 5 5 5 5 5 5 5 5 5 5 5 5 5 5 5 5 5 5 5 5 5 5 5 5 5 5 5 5 5 255 
255 1 1 1 1 1 1 1 1 1 1 1 1 1 1 1 1 1 1 1 1 1 255 255 255 17 17 255 255 255 255 255 63 63 63 63 63 63 63 63 63 63 63 63 63 63 255 255 255 63 63 63 255 255 255 255 255 255 255 255 255 255 255 255 255 255 255 255 255 255 255 255 255 255 255 255 255 255 255 255 255 255 255 255 255 255 255 255 255 255 68 255 255 255 50 50 255 255 255 255 255 255 255 255 255 255 255 4 4 255 255 255 255 255 255 255 255 255 255 255 4 255 255 255 255 255 17 255 255 255 255 255 255 17 17 255 255 255 17 17 17 17 17 17 17 255 255 255 255 255 255 255 255 17 17 17 17 255 255 255 255 255 255 17 255 255 255 255 255 255 255 255 255 255 255 255 255 255 17 17 255 255 255 255 17 255 255 255 255 255 255 255 255 255 255 255 255 255 255 255 255 255 3 255 255 255 255 255 255 255 255 255 255 255 255 255 255 255 255 255 255 255 255 255 255 255 255 3 255 255 17 255 255 255 255 255 255 255 255 255 255 255 255 255 255 255 3 3 3 3 3 3 3 3 3 3 3 3 255 255 255 255 255 255 255 255 255 255 255 255 255 3 3 3 3 3 255 255 255 255 255 255 255 255 255 255 255 255 255 3 3 3 255 255 255 255 255 255 255 255 255 255 255 255 255 255 255 255 255 255 255 255 255 255 255 255 255 255 255 255 49 49 49 49 49 49 49 49 49 49 255 255 255 255 49 49 49 49 49 49 49 49 49 49 49 49 49 49 49 49 49 49 49 49 49 49 49 49 49 49 49 49 49 49 49 49 49 49 49 49 49 49 49 49 49 49 49 49 49 49 49 49 49 49 49 49 49 49 49 49 255 255 255 255 7 255 255 255 255 255 255 255 255 255 255 255 255 69 255 255 255 255 255 255 255 255 255 255 49 49 255 255 255 255 255 64 64 64 64 64 64 64 64 64 64 64 64 64 64 64 64 64 64 64 64 64 64 64 64 64 64 64 64 64 64 64 64 64 64 64 64 255 255 255 255 255 255 255 255 255 255 255 255 255 255 255 5 5 5 5 5 5 5 5 5 5 5 5 5 5 5 5 5 5 5 5 5 5 5 5 5 5 5 5 5 5 5 5 5 5 5 255 
255 1 1 1 1 1 1 1 1 1 1 1 1 1 1 1 1 1 1 1 1 1 255 255 255 17 17 255 255 255 255 255 63 63 63 63 63 63 63 63 63 63 63 63 63 63 255 255 255 255 255 63 255 255 255 255 255 255 255 255 255 255 255 255 255 255 255 255 255 255 255 255 255 255 255 255 255 255 255 255 255 255 255 255 255 255 255 255 255 255 255 255 255 50 50 50 255 255 255 255 255 255 255 255 255 255 255 255 255 255 255 255 255 255 255 255 255 255 255 255 4 255 255 255 255 255 255 255 255 255 255 255 17 17 17 17 17 17 17 17 17 17 17 17 255 255 255 255 255 255 255 255 255 17 17 17 255 255 255 255 255 255 255 17 255 255 255 255 255 255 255 255 255 255 255 255 255 255 17 17 255 255 255 255 255 17 255 255 255 255 255 17 255 255 255 255 255 255 255 255 255 3 255 255 255 255 255 255 255 255 255 255 255 255 255 255 255 255 255 255 255 255 255 255 255 255 255 255 255 255 255 255 255 255 255 255 255 255 255 255 255 255 255 255 255 255 255 255 255 255 255 255 3 3 3 3 3 3 255 255 255 255 255 255 255 255 255 255 255 255 255 255 3 255 255 255 3 3 255 255 255 255 255 255 255 255 255 255 255 255 3 3 255 255 255 255 255 255 255 255 255 255 255 255 255 255 255 7 7 7 255 255 255 255 49 49 49 49 49 49 49 49 49 49 49 49 49 49 49 49 255 255 255 255 49 49 49 49 49 49 49 49 49 49 49 49 49 49 49 49 49 49 49 49 49 49 49 49 49 49 49 49 49 49 49 49 49 49 49 49 49 49 49 49 49 49 49 49 49 49 49 49 49 49 49 49 49 49 49 255 255 255 255 7 7 255 255 255 255 255 255 255 255 255 255 255 255 255 255 255 255 255 255 255 255 255 255 49 49 49 255 255 255 255 64 64 64 64 64 64 64 64 64 64 64 64 64 64 64 64 64 64 64 64 64 64 64 64 64 64 64 64 64 64 64 64 64 64 64 64 255 255 255 255 255 255 255 255 255 255 255 255 255 255 255 255 5 5 5 5 5 5 5 5 5 5 5 5 5 5 5 5 5 5 5 5 5 5 5 5 5 5 5 5 5 5 5 5 5 5 5 255 
255 1 1 1 1 1 1 1 1 1 1 1 1 1 1 1 1 1 1 1 1 255 255 255 255 17 17 255 255 255 63 63 63 63 63 63 63 63 63 63 63 63 63 63 63 63 255 255 255 255 255 63 63 255 255 255 255 255 255 255 255 255 255 255 255 255 255 255 255 255 255 255 255 255 255 255 255 255 17 255 255 255 255 255 255 255 255 255 255 68 255 255 255 255 50 50 255 255 255 255 255 255 255 255 255 255 255 255 255 255 255 255 255 4 4 4 255 255 255 255 255 255 255 255 255 255 255 255 255 255 255 255 17 17 17 17 17 17 17 17 17 17 17 17 255 255 255 255 255 255 255 255 17 17 17 255 255 255 255 255 255 255 255 255 255 255 255 255 255 255 255 255 255 17 255 255 255 255 17 17 255 255 255 255 255 255 17 255 255 255 255 255 255 255 255 3 255 255 255 255 255 255 255 255 255 255 255 255 255 255 255 255 255 255 255 255 255 255 255 255 255 255 255 255 255 255 255 255 255 255 255 255 255 255 255 255 255 9 9 255 255 255 255 255 255 255 255 255 255 255 255 255 255 255 255 255 255 3 3 255 255 255 255 255 255 255 255 255 255 255 255 255 255 255 255 255 255 3 255 255 255 255 255 255 255 255 255 255 255 255 255 3 3 255 255 255 255 255 255 255 255 255 255 255 255 255 7 7 7 7 255 255 255 255 255 49 49 49 49 49 49 49 49 49 49 49 49 49 49 49 49 255 255 255 49 49 49 255 255 255 49 49 49 49 49 49 49 49 49 49 49 49 49 49 49 49 49 49 49 49 49 49 49 49 49 49 49 49 49 49 49 49 49 49 49 49 49 49 49 49 49 49 49 49 49 49 49 49 255 255 255 255 255 255 255 255 255 255 255 255 255 255 69 255 255 255 255 255 255 255 255 255 255 255 255 255 49 49 49 255 255 255 255 255 64 64 64 64 64 64 64 64 64 64 64 64 64 64 64 64 64 64 64 64 64 64 64 64 64 64 64 64 64 64 64 64 64 64 64 64 255 255 255 255 255 255 255 255 255 255 255 255 255 255 255 255 5 5 5 5 5 5 5 5 5 5 5 5 5 5 5 5 5 5 5 5 5 5 5 5 5 5 5 5 5 5 5 5 5 5 5 255 
255 1 1 1 1 1 1 1 1 1 1 1 1 1 1 1 1 1 1 1 1 255 255 255 255 17 17 255 255 255 63 63 63 63 63 63 63 63 63 63 63 63 63 63 63 63 63 255 255 255 255 255 255 255 255 255 255 255 255 63 63 63 63 255 255 255 255 255 255 255 255 255 255 17 17 255 255 255 255 17 17 17 255 255 255 255 255 255 255 68 255 255 255 255 50 50 50 50 255 255 255 255 255 255 255 255 255 255 255 255 255 255 255 255 255 255 255 255 255 255 255 255 255 255 255 255 255 255 255 255 255 17 17 17 17 17 17 17 17 17 17 17 17 17 255 255 255 255 255 255 255 255 17 17 255 255 255 255 255 255 255 255 255 255 255 255 255 255 255 255 255 255 255 17 17 17 17 17 17 17 17 255 255 255 255 255 17 17 17 17 17 255 255 255 255 255 3 3 3 255 255 255 255 255 255 255 255 255 255 255 255 255 255 255 255 255 17 17 255 255 255 255 255 255 255 255 255 255 255 255 255 255 255 255 9 9 9 9 9 9 255 255 255 255 255 255 255 255 255 255 255 255 255 255 255 255 255 255 255 3 3 255 255 255 255 255 255 255 255 255 255 255 255 255 255 255 255 255 255 255 255 255 255 255 255 255 255 255 255 255 255 255 255 255 255 255 255 255 255 255 255 255 255 255 255 7 7 255 255 255 255 255 255 255 255 49 49 49 49 49 49 49 49 49 49 49 49 49 49 49 49 49 49 49 49 49 49 255 255 255 49 49 49 49 49 49 49 49 49 49 49 49 49 49 49 49 49 49 49 49 49 49 49 49 49 49 49 49 49 49 49 49 49 49 49 49 49 49 49 49 49 49 49 49 49 49 255 255 255 255 255 255 255 255 255 255 255 255 255 255 69 69 69 255 255 255 255 255 255 21 255 255 255 255 255 49 49 49 255 255 255 255 255 64 64 64 64 64 64 64 64 64 64 64 64 64 64 64 64 64 64 64 64 64 64 64 64 64 64 64 64 64 64 64 64 64 64 64 64 255 255 255 255 255 255 5 255 255 255 255 255 255 255 255 255 255 5 5 5 5 5 5 5 5 5 5 5 5 5 5 5 5 5 5 5 5 5 5 5 5 5 5 5 5 5 5 5 5 5 5 5 255 
255 1 1 1 1 1 1 1 1 1 1 1 1 1 1 1 1 1 1 1 1 255 255 255 255 17 17 17 255 255 63 63 63 63 63 63 63 63 63 63 63 63 63 63 63 63 255 255 255 255 255 255 255 255 255 255 255 255 255 255 255 255 255 255 255 255 255 255 255 255 255 255 255 255 255 255 255 255 255 17 17 17 255 255 255 255 255 255 255 255 255 255 255 255 50 50 50 255 255 255 255 255 255 255 255 4 4 4 255 255 255 255 255 255 255 255 255 255 255 255 255 255 255 255 255 17 17 255 255 255 17 17 17 17 17 17 17 17 17 17 17 17 255 255 255 255 255 255 255 255 17 17 17 17 255 255 255 255 255 255 255 255 255 255 255 255 17 255 255 255 255 255 255 17 17 17 17 17 17 17 17 255 255 255 255 255 17 17 17 255 255 255 255 255 255 255 3 3 3 255 255 255 255 255 255 255 255 255 255 255 255 255 255 255 255 255 17 17 17 255 255 255 255 255 255 255 255 255 255 255 255 255 255 255 9 9 9 9 9 9 9 255 255 255 255 255 255 255 255 255 255 255 255 255 255 255 255 255 255 255 255 255 255 3 255 255 255 255 255 255 255 255 255 255 255 255 255 255 255 255 255 255 255 255 255 255 255 70 70 255 255 255 255 255 255 255 255 255 255 255 255 255 7 7 7 7 7 255 255 255 255 255 255 255 255 49 49 49 49 49 49 49 49 49 49 49 49 49 49 49 49 49 49 49 49 49 49 255 255 255 49 49 49 49 49 49 49 49 49 49 49 49 49 49 49 49 49 49 49 49 49 49 49 49 49 49 49 49 49 49 49 49 49 49 49 49 49 49 49 49 49 49 49 49 255 255 255 255 255 255 255 255 255 255 255 255 255 255 255 69 69 69 69 69 255 255 255 255 255 255 255 255 255 255 255 49 49 49 255 255 255 255 64 64 64 64 64 64 64 64 64 64 64 64 64 64 64 64 64 64 64 64 64 64 64 64 64 64 64 64 64 64 64 64 64 64 64 64 64 255 255 255 255 255 255 5 255 255 255 255 255 255 255 255 5 5 5 5 5 5 5 5 5 5 5 5 5 5 5 5 5 5 5 5 5 5 5 5 5 5 5 5 5 5 5 5 5 5 5 5 5 255 
255 1 1 1 1 1 1 1 1 1 1 1 1 1 1 1 1 1 1 1 1 1 255 255 255 17 17 17 255 255 63 63 63 63 63 63 63 63 63 63 63 63 63 63 63 63 255 255 255 255 255 255 255 255 255 255 255 255 255 255 255 255 255 255 255 255 255 255 255 255 255 255 255 255 255 255 255 255 255 255 255 255 255 255 255 255 255 255 255 255 255 255 255 255 50 50 50 255 255 255 255 255 255 255 255 255 255 4 255 255 255 255 255 255 255 255 255 255 255 255 255 255 255 255 255 255 255 255 255 255 17 17 17 17 17 17 17 17 17 17 17 17 255 255 255 255 255 255 255 255 17 17 255 255 255 255 255 255 255 255 255 255 255 255 255 255 17 255 255 255 255 255 255 17 255 255 255 17 17 17 17 17 255 255 255 255 17 17 255 255 255 255 255 255 255 255 255 255 255 255 255 255 255 255 255 255 255 255 255 255 255 255 255 255 255 255 17 17 17 255 255 255 255 255 255 255 255 255 70 255 255 255 255 255 9 9 9 9 9 9 9 255 255 17 17 17 17 17 255 255 255 255 255 255 255 255 255 255 255 255 255 255 255 255 255 255 255 255 255 255 255 255 255 255 255 255 255 255 255 255 255 255 255 255 255 255 255 70 70 255 255 255 255 255 255 255 255 255 255 255 255 255 7 7 7 255 255 255 255 49 255 255 255 255 255 49 49 49 255 255 255 49 49 49 49 49 49 49 49 49 49 49 49 49 49 49 49 49 49 49 49 49 49 49 49 49 49 49 49 49 49 49 49 49 49 49 49 49 49 49 49 49 49 49 49 49 49 49 49 49 49 49 49 49 49 49 49 49 49 49 49 49 49 255 255 255 255 255 255 255 255 255 255 255 255 255 255 69 69 69 69 69 69 255 255 255 255 255 255 255 255 255 255 255 255 49 49 255 255 255 255 255 64 64 64 64 64 64 64 64 64 64 64 64 64 64 64 64 64 64 64 64 64 64 64 64 64 64 64 64 64 64 64 64 64 64 64 64 255 255 255 255 255 255 255 255 255 255 255 255 255 255 255 5 5 5 5 5 5 5 5 5 5 5 5 5 5 5 5 5 5 5 5 5 5 5 5 5 5 5 5 5 5 5 5 5 5 5 5 5 5 255 
255 1 1 1 1 1 1 1 1 1 1 1 1 1 1 1 1 1 1 1 1 1 255 255 17 17 17 17 255 255 63 63 63 63 63 63 63 63 63 63 63 63 63 63 63 63 255 255 255 255 255 255 255 255 255 255 255 255 255 255 255 255 255 255 255 255 255 255 255 255 255 255 255 255 255 255 255 255 255 255 255 255 255 255 255 255 255 255 255 255 255 255 255 255 50 50 50 255 255 255 255 255 255 255 255 255 255 4 255 255 255 255 255 255 255 255 255 255 255 255 255 4 255 255 17 255 255 255 255 255 255 255 255 17 17 17 17 17 17 17 17 17 255 255 255 255 255 255 255 17 17 17 255 255 255 255 255 255 255 255 255 255 17 255 255 255 17 255 255 255 255 255 255 17 255 255 255 17 17 17 17 255 255 255 255 255 17 255 255 255 255 255 255 255 255 255 255 255 255 255 255 255 255 255 255 255 255 255 255 255 255 17 17 255 255 255 255 255 255 255 255 255 255 255 255 255 255 255 70 255 255 255 255 255 255 255 9 9 9 255 255 255 255 17 17 17 255 255 255 255 255 17 17 17 255 255 255 70 255 255 255 255 255 255 255 255 255 255 255 255 255 255 255 255 70 70 70 70 70 70 70 70 255 255 255 255 255 70 70 70 255 255 255 255 255 255 255 255 255 255 255 255 7 7 7 255 255 255 255 49 49 49 49 49 49 49 49 49 255 255 255 49 49 49 49 49 49 49 49 49 49 49 49 49 49 49 49 49 49 49 49 49 49 49 49 49 49 49 49 49 49 49 49 49 49 49 49 49 49 49 49 49 49 49 49 49 49 49 49 49 49 49 49 49 49 49 49 49 49 49 255 255 255 255 255 255 255 255 255 255 255 255 255 255 255 69 69 69 69 69 69 69 69 255 255 255 255 255 255 255 255 255 255 255 49 49 255 255 255 255 255 64 64 64 64 64 64 64 64 64 64 64 64 64 64 64 64 64 64 64 64 64 64 64 64 64 64 64 64 64 64 64 64 64 64 64 64 64 255 255 255 255 255 255 255 255 255 255 255 255 255 255 255 5 5 5 5 5 5 5 5 5 5 5 5 5 5 5 5 5 5 5 5 5 5 5 5 5 5 5 5 5 5 5 5 5 5 5 5 5 5 255 
255 1 1 1 1 1 1 1 1 1 1 1 1 1 1 1 1 1 1 1 1 1 255 255 255 17 17 255 255 255 63 63 63 63 63 63 63 63 63 63 63 63 63 63 63 63 63 255 255 255 255 63 63 255 255 255 255 255 255 255 255 255 255 255 255 255 255 255 255 255 255 255 255 255 255 255 255 255 255 255 255 255 255 255 255 255 255 255 255 68 68 255 255 255 50 50 50 50 50 255 255 255 255 255 255 255 255 4 255 255 255 255 255 255 255 255 255 255 255 255 255 255 255 255 255 255 255 255 255 255 255 255 255 17 17 17 17 17 17 17 17 17 255 255 255 255 255 17 17 17 255 255 255 255 255 255 17 17 17 255 255 255 17 255 255 255 17 17 17 17 17 17 17 17 255 255 255 17 17 17 17 255 255 255 17 17 255 255 255 255 255 255 255 255 255 255 255 255 255 255 255 255 255 255 255 255 255 17 255 255 255 255 255 255 255 255 255 255 255 255 255 255 255 255 70 255 255 255 70 70 255 255 255 255 255 255 9 9 9 255 255 255 255 17 17 255 255 255 255 255 255 255 255 255 255 255 255 70 70 255 255 255 70 255 255 255 255 255 255 255 255 255 255 255 70 70 70 70 70 70 70 70 70 255 255 255 70 70 70 70 255 255 255 255 255 255 255 255 255 255 255 255 255 255 255 255 255 49 49 49 49 49 49 49 49 49 49 49 255 255 255 255 49 49 49 49 49 49 49 49 49 49 49 49 255 255 255 49 49 49 49 49 49 49 49 49 49 49 49 49 49 49 49 49 49 49 49 49 49 49 49 49 49 49 49 49 49 49 49 49 49 49 49 49 49 49 49 49 255 255 255 255 255 255 255 255 255 255 255 255 255 255 69 69 69 69 69 69 69 69 255 255 255 255 255 255 255 255 255 255 255 255 255 255 49 49 255 255 255 255 64 64 64 64 64 64 64 64 64 64 64 64 64 64 64 64 64 64 64 64 64 64 64 64 64 64 64 64 64 64 64 64 64 64 64 64 64 255 255 255 255 255 255 255 255 255 255 255 255 19 255 255 255 5 5 5 5 5 5 5 5 5 5 5 5 5 5 5 5 5 5 5 5 5 5 5 5 5 5 5 5 5 5 5 5 5 5 5 5 5 5 255 
255 1 1 1 1 1 1 1 1 1 1 1 1 1 1 1 1 1 1 1 1 1 255 255 255 17 17 255 255 255 63 63 63 63 63 63 63 63 63 63 63 63 63 63 63 63 63 63 63 63 63 255 255 255 255 255 255 255 255 255 255 255 255 255 255 255 255 255 255 255 255 255 255 255 255 255 255 255 255 255 255 17 17 17 255 255 255 255 255 68 68 255 255 255 50 50 50 50 255 255 255 255 255 255 255 255 255 255 255 255 255 255 255 255 255 255 255 255 255 255 255 255 255 255 255 255 17 17 255 255 255 255 255 255 255 17 17 17 17 17 17 255 255 255 255 255 255 17 17 17 255 255 255 255 255 17 17 17 17 17 17 255 255 255 255 255 255 255 17 17 17 17 17 255 255 255 255 255 255 255 17 255 255 255 17 17 255 255 255 255 255 255 255 255 255 255 255 255 255 255 255 255 255 255 255 255 255 17 255 255 255 255 255 255 255 255 255 70 70 70 70 70 70 70 70 255 255 255 70 70 255 255 17 255 255 255 255 255 255 255 255 17 17 17 17 255 255 255 255 255 255 255 255 255 255 255 255 70 255 255 255 255 70 70 70 70 70 70 70 70 70 70 70 70 70 70 70 70 70 70 70 70 70 70 70 70 70 70 70 70 255 255 255 255 255 255 255 255 255 255 255 255 255 255 255 255 255 49 49 49 49 49 49 49 49 49 49 49 49 255 255 255 49 49 49 49 49 49 49 49 49 49 49 49 255 255 255 49 49 49 49 49 49 49 49 49 49 49 49 49 49 49 49 49 49 49 49 49 49 49 49 49 49 49 49 49 49 49 49 49 49 49 49 49 49 255 255 255 255 255 255 255 255 255 255 255 255 255 255 255 255 69 69 69 69 69 255 255 255 255 255 255 255 255 255 255 255 255 255 255 255 255 255 49 49 255 255 255 255 255 64 64 64 64 64 64 64 64 64 64 64 64 64 64 64 64 64 64 64 64 64 64 64 64 64 64 64 64 64 64 64 64 64 64 64 64 255 255 255 255 255 255 255 255 255 255 255 255 255 255 255 255 5 5 5 5 5 5 5 5 5 5 5 5 5 5 5 5 5 5 5 5 5 5 5 5 5 5 5 5 5 5 5 5 5 5 5 5 5 5 5 255 
255 1 1 1 1 1 1 1 1 1 1 1 1 1 1 1 1 1 1 1 1 1 255 255 255 17 17 255 255 255 63 63 63 63 63 63 63 63 63 63 63 63 63 63 63 63 63 63 63 63 63 255 255 255 255 255 255 255 255 255 255 255 255 255 255 255 255 255 255 255 255 255 255 255 255 255 255 255 255 255 255 17 17 255 255 255 255 255 255 255 68 255 255 255 50 50 50 50 255 255 255 255 255 255 255 255 255 255 255 255 255 255 255 255 255 255 255 255 255 255 255 255 255 255 255 255 17 17 17 17 255 255 255 255 255 17 17 17 17 17 17 255 255 255 255 255 17 17 17 17 255 255 255 17 17 17 17 255 255 255 255 255 255 255 255 255 255 255 17 17 17 17 17 255 255 255 255 255 255 255 17 17 17 17 17 17 255 255 255 255 255 255 255 255 255 255 255 255 255 255 255 255 255 255 255 255 255 17 255 255 255 255 70 255 255 255 255 255 70 70 255 255 255 255 255 255 255 70 70 255 255 255 255 255 255 255 255 255 255 255 255 17 17 17 255 255 255 255 255 255 70 70 70 70 70 70 70 255 255 255 255 255 70 70 70 70 70 70 70 70 70 70 70 70 70 70 70 70 70 70 70 70 70 70 70 70 70 70 255 255 255 255 255 255 255 255 255 255 255 255 255 255 255 49 49 49 49 49 49 49 49 49 49 49 49 49 49 49 49 255 255 255 49 49 49 49 49 49 49 49 49 49 255 255 255 255 255 49 49 49 49 49 49 49 49 49 49 49 49 49 49 49 49 49 49 49 49 49 49 49 49 49 49 49 49 49 49 49 49 49 49 49 49 49 255 255 255 255 255 255 255 255 255 255 255 255 255 69 255 255 255 69 69 69 69 69 255 255 255 255 255 255 255 255 255 255 255 255 7 255 255 255 255 49 255 255 255 255 255 64 64 64 64 64 64 64 64 64 64 64 64 64 64 64 64 64 64 64 64 64 64 64 64 64 64 64 64 64 64 64 64 64 64 64 64 64 255 255 255 255 255 255 255 255 255 255 255 255 255 255 255 255 5 5 5 5 5 5 5 5 5 5 5 5 5 5 5 5 5 5 5 5 5 5 5 5 5 5 5 5 5 5 5 5 5 5 5 5 5 5 5 255 
255 1 1 1 1 1 1 1 1 1 1 1 1 1 1 1 1 1 1 1 1 1 255 255 17 17 17 17 255 255 63 63 63 63 63 63 63 63 63 63 63 63 63 63 63 63 63 63 63 255 255 255 255 255 255 255 255 255 255 255 255 255 255 255 255 255 255 255 255 255 255 255 255 255 255 255 255 255 255 17 17 255 255 255 255 255 255 255 255 255 68 255 255 255 50 50 50 50 255 255 255 255 255 255 255 255 255 255 255 4 4 255 255 255 255 17 17 255 255 255 255 255 255 255 255 255 17 17 17 17 255 255 255 255 255 17 17 17 17 17 255 255 255 255 17 17 17 17 255 255 255 255 255 17 17 17 17 255 255 255 255 255 255 255 17 255 255 255 17 17 17 17 17 255 255 255 255 255 255 255 17 17 17 255 255 255 255 255 255 255 255 255 255 255 255 255 255 255 255 255 255 255 255 255 255 255 255 255 255 255 255 255 255 255 255 255 255 255 255 255 255 255 255 255 255 255 255 70 70 255 255 255 255 255 255 255 255 255 17 17 17 255 255 255 255 255 255 255 255 255 70 70 70 70 255 255 255 255 255 255 255 255 70 70 70 70 70 70 70 70 70 70 70 70 70 70 70 70 70 70 70 70 70 70 70 70 70 255 255 255 255 255 255 255 255 255 255 255 255 255 255 49 49 49 49 49 49 49 49 49 49 49 49 49 49 49 49 49 49 49 49 49 49 49 49 49 49 49 49 49 49 49 255 255 255 49 49 49 49 49 49 49 49 49 49 49 49 49 49 49 49 49 49 49 49 49 49 49 49 49 49 49 49 49 49 49 49 49 49 49 49 255 255 255 255 255 255 255 255 255 255 255 255 255 255 255 69 69 255 255 255 69 69 69 69 69 255 255 255 255 255 255 255 255 255 255 255 255 255 255 255 255 255 255 255 255 255 255 255 64 64 64 64 64 64 64 64 64 64 64 64 64 64 64 64 64 64 64 64 64 64 64 64 64 64 64 64 64 64 64 64 64 64 64 64 64 255 255 255 255 255 255 255 255 255 255 255 255 255 255 255 5 5 5 5 5 5 5 5 5 5 5 5 5 5 5 5 5 5 5 5 5 5 5 5 5 5 5 5 5 5 5 5 5 5 255 255 255 5 5 5 255 
255 1 1 1 1 1 1 1 1 1 1 1 1 1 1 1 1 1 1 1 1 1 255 255 17 17 17 17 255 255 63 63 63 63 63 63 63 63 63 63 63 63 63 63 63 63 63 63 63 255 255 255 255 255 255 255 255 255 255 255 255 255 255 255 255 255 255 255 255 255 255 255 255 255 255 255 255 255 255 255 17 255 255 255 255 255 255 255 255 255 68 255 255 255 255 50 50 50 50 50 50 255 255 255 255 255 255 255 255 255 255 255 255 255 255 255 255 17 255 255 255 255 255 255 17 17 255 255 255 17 17 17 17 17 17 17 17 17 17 255 255 255 255 255 17 17 17 255 255 255 255 255 255 17 17 17 17 255 255 255 255 255 255 255 17 17 17 17 17 17 17 17 17 17 255 255 255 17 17 17 17 17 17 255 255 255 255 255 255 255 255 255 255 255 255 255 255 255 255 255 255 255 255 255 17 17 255 255 255 255 255 255 255 255 255 17 255 255 255 255 255 255 255 17 255 255 255 70 70 255 255 255 255 255 255 255 255 255 17 17 255 255 255 255 255 255 70 70 70 70 70 70 70 70 255 255 255 255 255 255 255 70 70 70 70 70 70 70 70 70 70 70 70 70 70 70 70 70 70 70 70 70 70 70 255 255 255 255 255 255 255 255 255 255 255 255 255 255 255 255 49 49 49 49 49 49 49 49 49 49 49 49 49 49 49 49 49 49 49 49 49 49 49 49 49 49 49 49 49 49 49 49 255 255 255 49 49 49 49 49 49 49 49 49 49 49 49 49 49 49 49 49 49 49 49 49 49 49 49 49 49 49 49 49 49 49 49 49 49 255 255 255 255 255 255 255 255 255 255 255 255 69 69 69 69 69 69 255 255 255 255 69 69 69 69 255 255 255 255 255 21 255 255 255 255 255 255 255 255 255 255 255 255 255 255 255 255 255 64 64 64 64 64 64 64 64 64 64 64 64 64 64 64 64 64 64 64 64 64 64 64 64 64 64 64 64 64 64 64 64 64 64 64 64 64 64 255 255 255 255 255 255 255 255 255 255 255 255 255 255 255 5 5 5 5 5 5 5 5 5 5 5 5 5 5 5 5 5 5 5 5 5 5 5 5 5 5 5 5 5 5 5 5 5 5 255 255 255 5 5 5 255 
255 1 1 1 1 1 1 1 1 1 1 1 1 1 1 1 1 1 1 1 1 1 255 255 255 17 17 17 255 255 63 63 63 63 63 63 63 63 63 63 63 63 63 63 63 63 63 63 63 255 255 255 255 255 255 255 255 255 255 255 255 255 255 255 255 255 255 255 255 255 255 255 255 255 255 255 255 255 255 255 255 255 255 255 255 255 255 255 255 255 255 68 255 255 255 50 50 50 50 50 50 255 255 255 255 255 255 255 255 255 255 255 255 255 255 255 255 255 255 255 255 255 255 255 17 17 255 255 255 17 17 17 17 17 17 255 255 255 255 255 255 255 255 255 17 17 17 255 255 255 255 255 255 17 17 17 17 255 255 255 255 255 255 255 17 17 17 17 17 17 17 17 17 17 17 17 17 17 17 17 17 17 17 255 255 255 255 255 255 255 255 255 255 255 255 255 255 255 255 255 255 255 255 255 17 255 255 255 255 255 255 255 17 255 255 255 255 255 255 255 255 255 255 17 255 255 255 70 70 255 255 255 255 255 70 255 255 255 255 255 255 255 255 70 70 70 70 70 70 70 70 70 255 255 255 255 255 255 255 255 70 70 70 70 70 70 70 70 70 70 70 70 70 70 70 70 70 70 70 70 70 70 70 255 255 255 255 255 255 255 255 255 255 255 255 255 255 255 255 255 49 49 49 49 49 49 49 49 49 49 49 49 49 49 49 49 49 49 49 49 49 49 49 49 49 49 49 255 255 255 49 49 49 49 49 49 49 49 49 49 49 49 49 49 49 49 49 49 49 49 49 49 49 49 49 49 49 49 49 49 49 49 49 49 49 49 49 255 255 255 255 255 255 255 255 255 255 255 69 69 69 69 255 255 255 69 69 255 255 255 255 69 255 255 255 255 255 255 255 255 255 255 255 255 255 255 255 255 255 255 255 255 255 255 255 255 255 64 64 64 64 64 64 64 64 64 64 64 64 64 64 64 64 64 64 64 64 64 64 64 64 64 64 64 64 64 64 64 64 64 64 64 64 64 64 255 255 255 255 255 255 255 255 255 255 255 255 255 255 255 5 5 5 5 5 5 5 5 5 5 5 5 5 5 5 5 5 5 5 5 5 5 5 5 5 5 5 5 5 5 5 5 5 5 5 255 255 255 5 5 5 255 
255 1 1 1 1 1 1 1 1 1 1 1 1 1 1 1 1 1 1 1 1 1 255 255 255 17 17 17 255 255 63 63 63 63 63 63 63 63 63 63 63 63 63 63 63 63 63 63 63 63 63 63 255 255 255 255 255 255 255 255 255 255 255 255 255 255 255 255 255 255 255 255 255 255 255 255 255 255 255 255 255 255 17 17 17 255 255 255 255 255 255 68 255 255 255 50 50 50 50 50 50 50 50 255 255 255 255 255 255 255 255 255 255 255 255 255 255 255 255 255 255 255 255 255 255 255 255 255 255 17 17 17 17 17 17 255 255 255 255 255 255 255 17 17 17 17 17 255 255 255 255 17 17 17 17 17 17 17 17 255 255 255 255 255 17 17 17 255 255 255 17 17 17 17 17 17 17 17 17 17 17 255 255 255 255 255 255 255 255 255 255 255 255 17 255 255 255 255 255 255 255 255 255 255 17 255 255 255 255 255 255 17 255 255 255 255 255 255 255 255 255 255 255 255 255 255 70 70 70 70 70 70 70 70 70 255 255 255 255 255 255 255 70 70 70 70 70 70 255 255 255 255 255 255 255 255 255 255 70 70 70 70 70 70 70 70 70 70 70 70 70 70 70 70 70 70 70 70 70 70 70 70 70 255 255 255 255 255 255 255 255 255 255 255 255 255 255 255 255 255 255 255 49 49 49 49 49 49 49 49 49 49 49 49 49 49 49 49 49 49 49 49 49 49 49 49 49 255 255 255 49 49 49 49 49 49 49 49 49 49 49 49 49 49 49 49 49 49 49 49 49 49 49 49 49 49 49 49 49 49 49 49 49 49 49 49 255 255 255 255 255 255 255 255 255 69 69 69 69 69 69 69 255 255 255 69 69 255 255 255 255 255 255 255 255 255 255 255 255 255 255 255 255 255 255 255 255 255 255 255 255 255 255 255 255 64 64 64 64 64 64 64 64 64 64 64 64 64 64 64 64 64 64 64 64 64 64 64 64 64 64 64 64 64 64 64 64 64 64 64 64 64 64 64 64 255 255 255 255 255 255 255 255 255 255 255 255 255 255 5 5 5 5 5 5 5 5 5 5 5 5 5 5 5 5 5 5 5 5 5 5 5 5 5 5 5 5 5 5 5 5 5 5 5 5 5 5 5 5 5 5 255 
255 1 1 1 1 1 1 1 1 1 1 1 1 1 1 1 1 1 1 1 1 1 1 255 255 17 17 17 255 255 63 63 63 63 63 63 63 63 63 63 63 63 63 63 63 63 63 63 63 63 63 63 255 255 255 255 255 255 255 255 255 255 255 255 255 255 255 255 255 255 255 255 255 255 255 255 255 255 255 255 255 255 17 17 17 255 255 255 255 255 255 255 255 255 255 50 50 50 50 50 50 50 255 255 255 255 255 255 255 255 4 255 255 255 17 255 255 255 255 255 255 255 255 255 255 255 17 17 17 17 17 17 17 17 17 255 255 255 255 255 255 17 17 17 255 255 255 255 255 255 255 255 255 17 17 17 17 17 17 255 255 255 255 17 17 17 17 255 255 255 255 255 255 255 17 17 17 17 17 17 17 255 255 255 255 255 255 255 255 255 255 255 255 255 255 255 255 255 17 17 17 17 17 17 17 255 255 255 255 255 17 17 255 255 255 255 255 17 255 255 255 255 255 255 255 255 70 70 70 70 70 70 70 70 70 255 255 255 255 255 255 255 255 255 255 255 70 255 255 255 255 255 255 255 255 255 70 70 70 70 70 70 70 70 70 255 255 255 70 70 70 70 70 70 70 70 70 70 70 70 70 70 255 255 255 255 255 255 255 255 255 255 255 255 255 255 255 255 255 255 255 255 49 49 49 49 49 49 49 49 49 49 49 49 49 49 49 49 49 49 49 49 49 255 255 255 255 255 255 255 49 49 49 49 49 49 49 49 49 49 49 49 49 49 49 49 49 49 49 49 49 49 49 49 49 49 49 49 49 49 49 49 49 49 49 255 255 255 255 255 255 255 255 255 255 255 69 69 69 69 69 69 255 255 255 255 69 69 255 255 255 255 255 255 255 255 255 255 255 255 255 255 255 255 255 255 255 255 255 255 255 255 255 64 64 64 64 64 64 64 64 64 64 64 64 64 64 64 64 64 64 64 64 64 64 64 64 64 64 64 64 64 64 64 64 64 64 64 64 64 64 64 64 64 255 255 255 255 255 255 255 255 255 255 255 255 255 255 255 5 5 5 5 5 5 5 5 5 5 5 5 5 5 5 5 5 5 5 5 5 5 5 5 5 5 5 5 5 5 5 5 5 5 5 5 5 5 5 5 5 5 255 
255 1 1 1 1 1 1 1 1 1 1 1 1 1 1 1 1 1 1 1 1 1 1 255 255 17 17 17 255 255 63 63 63 63 63 63 63 63 63 63 63 63 63 63 63 63 63 63 63 255 255 255 255 255 255 255 255 255 255 255 255 255 255 255 255 255 255 255 255 255 255 255 255 255 255 255 255 255 255 255 255 255 17 17 17 255 255 255 255 255 255 255 255 255 255 50 50 50 50 50 50 50 255 255 255 255 255 255 255 255 255 255 255 255 17 255 255 255 17 255 255 255 255 255 255 255 17 17 17 17 17 17 17 17 17 255 255 255 255 255 255 17 17 17 255 255 255 255 255 17 255 255 255 17 17 17 17 255 255 255 255 255 255 17 17 17 17 255 255 255 255 255 255 255 17 17 17 17 17 17 17 255 255 255 255 255 255 17 17 17 255 255 255 255 255 255 255 17 17 17 17 17 17 17 255 255 255 255 255 255 17 17 255 255 255 255 255 255 255 255 255 255 255 255 255 70 70 70 70 70 70 70 70 70 70 255 255 255 255 255 255 255 255 255 255 255 255 255 255 255 255 255 255 255 255 255 255 255 70 70 70 70 70 70 70 255 255 255 70 70 70 70 70 70 70 70 70 70 70 70 255 255 255 255 255 255 255 255 255 255 255 255 255 255 255 255 255 255 255 255 255 255 255 255 255 49 49 49 49 49 49 49 49 255 255 255 49 49 49 255 255 255 49 255 255 255 255 255 255 255 49 49 255 255 255 49 49 49 49 49 49 49 49 49 49 49 49 49 49 49 49 255 255 255 49 49 49 49 49 49 49 49 49 255 255 255 255 255 255 255 255 69 69 255 255 255 69 69 69 69 69 69 69 255 255 255 255 255 255 255 255 255 255 255 255 255 255 255 255 255 255 255 255 255 255 255 255 255 255 255 255 255 64 64 64 64 64 64 64 64 64 64 64 64 64 64 64 64 64 64 64 64 64 64 64 64 64 64 64 64 64 64 64 64 64 64 64 64 64 64 64 64 64 64 255 255 255 255 255 255 255 255 255 255 255 255 255 255 255 5 5 5 5 5 5 5 5 5 5 5 5 5 5 5 5 5 5 5 5 5 5 5 5 5 5 5 5 5 5 5 5 5 5 5 5 5 5 5 5 5 5 255 
255 1 1 1 1 1 1 1 1 1 1 1 1 1 1 1 1 1 1 1 1 1 1 255 255 17 17 17 255 255 255 63 63 63 63 63 63 63 63 63 63 63 63 63 63 63 63 255 255 255 255 255 255 255 255 255 255 255 255 255 63 63 255 255 255 255 255 255 255 255 255 255 255 255 255 255 255 255 255 255 255 255 17 17 17 255 255 255 255 255 255 255 68 255 255 50 50 50 50 50 50 50 255 255 255 255 255 255 255 255 255 255 255 255 255 17 17 17 255 255 255 255 255 255 255 255 255 17 17 17 17 17 17 17 17 255 255 255 255 17 17 17 17 17 255 255 255 255 255 255 255 255 255 255 255 255 17 255 255 255 17 17 17 17 17 17 17 17 255 255 255 255 255 255 17 17 17 17 17 17 255 255 255 255 255 255 17 17 17 17 17 255 255 255 255 255 255 17 17 17 17 17 17 17 255 255 255 255 255 255 255 255 255 255 255 255 255 255 255 255 255 255 70 70 70 70 70 70 70 70 70 70 70 70 255 255 255 255 255 255 255 255 255 255 255 255 255 255 255 255 255 255 255 255 255 255 255 255 70 70 70 70 70 70 70 255 255 255 70 70 70 70 70 70 70 70 70 70 70 255 255 255 255 255 255 255 255 255 255 255 255 255 255 255 49 49 255 255 255 255 255 255 255 255 255 49 49 49 49 49 49 49 49 255 255 255 49 49 255 255 255 255 255 255 255 255 255 255 255 255 49 49 255 255 255 49 49 49 49 49 49 49 49 49 49 49 49 49 49 49 49 255 255 255 49 49 49 49 49 49 255 255 255 255 255 255 255 255 255 255 69 69 69 255 255 255 69 69 69 69 69 69 69 255 255 255 255 255 255 255 21 255 255 255 255 255 255 7 7 255 255 255 255 255 255 255 255 255 255 255 255 64 64 64 64 64 64 64 64 64 64 64 64 64 64 64 64 64 64 64 64 64 64 64 64 64 64 64 64 64 64 64 64 64 64 64 64 64 64 64 64 64 64 255 255 255 255 255 255 255 255 255 255 255 255 255 255 255 5 5 5 5 5 5 5 5 5 5 5 5 5 5 5 5 5 5 5 5 5 5 5 5 5 5 5 5 5 5 5 5 5 5 5 5 5 5 5 5 5 5 5 255 
255 1 1 1 1 1 1 1 1 1 1 1 1 1 1 1 1 1 1 1 1 1 1 255 255 17 17 17 255 255 255 63 63 63 63 63 63 63 63 63 63 63 63 63 63 63 63 255 255 255 255 255 255 255 255 255 255 255 255 255 255 255 255 255 255 255 255 255 255 255 255 255 255 255 255 255 255 255 255 255 255 255 17 17 17 255 255 255 255 255 255 255 255 255 255 255 50 50 50 50 50 50 50 255 255 255 255 255 255 255 255 255 255 255 255 255 17 17 255 255 255 255 255 255 255 255 255 255 17 17 17 17 17 17 17 255 255 255 255 17 17 17 255 255 255 17 255 255 255 255 255 255 17 255 255 255 17 255 255 255 17 17 17 17 17 17 17 17 17 17 17 17 17 17 17 17 17 17 17 17 255 255 255 255 255 255 255 255 17 17 17 255 255 255 255 17 17 17 17 17 17 17 17 255 255 255 255 255 255 255 255 255 255 255 255 255 255 70 70 70 70 70 70 70 70 70 70 70 70 70 70 70 255 255 255 255 255 255 255 255 255 70 255 255 255 255 255 255 255 255 255 255 255 255 255 255 255 255 70 70 70 70 70 70 70 255 255 255 70 70 70 70 70 70 70 70 70 70 255 255 255 255 255 255 255 255 255 255 255 255 255 255 255 49 49 255 255 255 255 255 255 255 255 255 255 49 49 49 49 49 49 49 49 255 255 255 49 49 255 255 255 255 255 255 255 255 49 255 255 255 49 255 255 255 255 49 49 49 49 49 49 49 49 49 49 49 49 49 49 49 49 255 255 255 49 49 49 49 49 255 255 255 255 255 255 255 255 255 255 255 255 69 69 69 69 69 69 69 69 69 69 69 69 69 255 255 255 255 255 255 255 255 255 255 255 7 7 7 7 255 255 255 255 255 255 255 255 255 255 255 64 64 64 64 64 64 64 64 64 64 64 64 64 64 64 64 64 64 64 64 64 64 64 64 64 64 64 64 64 64 64 64 64 64 64 64 64 64 64 64 64 64 64 255 255 255 255 255 255 255 255 255 255 255 255 255 255 255 5 5 5 5 5 5 5 5 5 5 5 5 5 5 5 5 5 5 5 5 5 5 5 5 5 5 5 5 5 5 5 5 5 5 5 5 5 5 5 5 5 5 5 255 
255 1 1 1 1 1 1 1 1 1 1 1 1 1 1 1 1 1 1 1 1 1 1 255 255 17 17 17 255 255 255 63 63 63 63 63 63 63 63 63 63 63 63 63 63 63 255 255 255 255 255 63 255 255 255 255 255 255 255 255 255 255 255 255 255 255 255 255 255 255 255 255 255 255 255 255 255 255 255 255 17 17 17 17 17 255 255 255 255 255 255 255 255 255 255 255 50 255 255 255 50 50 50 255 255 255 255 255 255 4 255 255 255 255 255 255 255 255 255 255 255 255 255 255 255 255 255 255 17 17 17 255 255 255 17 255 255 255 17 17 17 17 255 255 255 255 255 255 255 255 255 255 17 255 255 255 255 17 17 17 17 17 17 17 17 17 17 17 17 17 17 17 17 17 17 17 17 17 17 17 255 255 255 255 255 255 255 255 255 255 255 255 255 255 255 17 17 17 17 17 17 17 17 255 255 255 255 255 255 255 255 255 255 255 70 70 70 70 70 70 70 70 70 70 70 70 70 70 70 70 70 255 255 255 255 255 255 255 255 255 255 70 255 255 255 255 255 255 255 255 255 255 255 255 255 255 255 70 70 70 70 70 70 70 70 255 255 255 70 70 70 70 70 70 70 70 70 255 255 255 255 255 255 255 255 255 22 255 255 255 255 255 255 49 49 255 255 255 255 7 255 255 255 255 255 49 49 49 49 49 49 255 255 255 255 255 49 49 255 255 255 255 255 255 255 255 255 255 255 255 255 255 255 255 49 49 49 49 49 49 49 49 49 49 49 49 49 49 49 49 49 49 49 49 49 49 255 255 255 255 255 255 255 255 255 255 21 21 255 255 255 255 69 69 69 255 255 255 69 69 255 255 255 255 255 255 255 255 255 255 255 255 255 7 7 7 7 7 7 7 255 255 255 255 255 255 255 255 255 64 64 64 64 64 64 64 64 64 64 64 64 64 64 64 64 64 64 64 64 64 64 64 64 64 64 64 64 64 64 64 64 64 64 64 64 64 64 64 64 64 64 64 255 255 255 255 255 255 255 255 255 255 255 255 255 255 255 5 5 5 5 5 5 5 5 5 5 5 5 5 5 5 5 5 5 5 5 5 5 5 5 5 5 5 5 5 5 5 5 5 5 5 5 5 5 5 5 5 5 5 5 255 
255 1 1 1 1 1 1 1 1 1 1 1 1 1 1 1 1 1 1 1 1 1 1 255 255 17 17 17 255 255 63 63 63 63 63 63 63 63 63 63 63 63 63 63 63 63 255 255 255 255 255 255 255 255 255 255 255 255 255 255 255 255 255 255 255 255 255 255 255 255 255 255 255 255 255 255 255 255 255 255 255 255 17 255 255 255 255 255 255 255 255 255 255 255 255 255 50 255 255 255 50 50 50 255 255 255 255 255 255 255 255 4 255 255 255 255 255 255 255 255 255 255 255 255 255 255 255 255 255 17 17 255 255 255 255 255 255 255 255 17 17 17 255 255 255 255 255 255 17 17 255 255 255 17 255 255 255 17 17 17 17 17 17 17 17 17 17 17 17 17 17 17 17 17 17 17 17 255 255 255 255 17 255 255 255 255 255 255 255 255 255 255 255 255 17 17 17 17 255 255 255 17 255 255 255 255 255 255 255 70 70 70 70 70 70 70 70 70 70 70 70 70 70 70 70 70 70 70 70 70 70 255 255 255 255 255 255 255 255 255 255 70 70 70 70 70 255 255 255 255 70 255 255 255 255 255 255 255 255 70 70 70 70 70 70 255 255 255 70 70 70 70 70 70 70 255 255 255 255 255 255 255 255 255 255 255 255 255 255 255 255 255 49 49 255 255 255 7 7 7 7 255 255 255 255 49 49 49 49 49 49 255 255 255 49 255 255 255 255 255 255 255 49 49 255 255 255 255 255 255 255 255 255 255 49 49 49 49 49 49 49 49 49 49 49 49 49 49 49 49 49 49 49 49 49 255 255 255 255 255 255 255 255 255 255 21 21 21 21 255 255 255 69 255 255 255 255 255 255 255 255 255 255 255 255 255 255 255 255 7 7 7 7 7 7 7 7 7 7 255 255 255 255 255 255 255 255 255 255 64 64 64 64 64 64 64 64 64 64 64 64 64 64 64 64 64 64 64 64 64 64 64 64 64 64 64 64 64 64 64 64 64 64 64 64 64 64 64 64 64 64 64 255 255 255 255 255 255 255 255 255 255 255 255 255 255 255 5 5 5 5 5 5 5 5 5 5 5 5 5 5 5 5 5 5 5 5 5 5 5 5 5 5 5 5 5 5 5 5 5 5 5 5 5 5 5 5 5 5 5 5 255 
255 1 1 1 1 1 1 1 1 1 1 1 1 1 1 1 1 1 1 1 1 1 1 255 255 17 17 17 255 255 255 63 63 63 63 63 63 63 63 63 63 63 63 63 63 63 255 255 255 255 255 255 255 255 255 255 255 255 255 255 255 255 255 255 255 255 255 255 255 255 255 255 255 255 255 255 255 255 255 255 255 255 17 255 255 255 255 255 255 255 255 255 255 255 255 255 255 255 255 255 255 255 255 255 255 255 255 255 255 255 255 255 255 255 255 255 255 255 255 255 255 255 255 255 255 255 255 255 255 17 17 255 255 255 255 255 255 255 255 255 255 255 17 17 255 255 255 255 17 17 255 255 255 17 255 255 255 17 17 17 17 17 17 17 17 17 255 255 255 17 17 17 17 17 17 255 255 255 255 255 255 17 17 255 255 255 17 17 255 255 255 255 255 255 255 255 255 255 255 255 255 255 255 255 255 255 255 255 255 70 70 70 70 70 70 70 70 70 70 70 70 70 70 70 70 70 70 70 70 70 255 255 255 255 255 255 255 255 255 255 70 70 70 70 70 70 255 255 255 255 70 255 255 255 70 70 255 255 255 70 70 70 70 70 70 255 255 255 70 70 70 70 70 70 70 255 255 255 255 255 255 255 255 255 255 255 255 255 255 255 255 49 49 49 255 255 255 7 7 255 255 255 255 255 255 255 49 49 49 49 49 255 255 255 255 255 255 255 255 255 255 255 255 255 255 255 255 255 255 255 255 255 255 255 49 49 49 49 49 49 49 49 49 49 49 49 49 49 49 49 49 49 49 255 255 255 255 255 255 255 255 255 255 255 255 21 21 21 21 21 255 255 255 255 255 255 255 255 255 255 255 255 255 255 255 255 255 7 7 7 7 7 7 7 7 7 7 7 255 255 255 255 255 255 255 255 255 64 64 64 64 64 64 64 64 64 64 64 64 64 64 64 64 64 64 64 64 64 64 64 64 64 64 64 64 64 64 64 64 64 64 64 64 64 64 64 64 64 64 64 64 255 255 255 19 255 255 255 255 255 255 255 255 255 255 255 255 5 5 5 5 5 5 5 5 5 5 5 5 5 5 5 5 5 5 5 5 5 5 5 5 5 5 5 5 5 5 5 5 5 5 5 5 5 5 5 5 5 5 5 5 255 
255 1 1 1 1 1 1 1 1 1 1 1 1 1 1 1 1 1 1 1 1 1 1 255 255 17 17 17 255 255 255 63 63 63 63 63 63 63 63 63 63 63 63 63 63 63 63 255 255 255 255 255 255 255 255 255 255 255 255 255 255 255 255 255 255 255 255 255 255 255 255 255 255 255 255 255 255 255 255 255 255 255 17 255 255 255 255 255 255 255 255 255 255 255 255 255 255 50 50 50 255 255 255 50 255 255 255 255 255 255 255 255 255 255 255 255 255 255 255 255 255 255 255 255 255 255 255 255 255 255 17 255 255 255 255 17 255 255 255 255 255 255 17 255 255 255 255 255 255 17 255 255 255 255 255 17 17 17 17 17 17 17 17 17 17 17 255 255 255 17 17 17 17 17 255 255 255 255 255 255 255 17 17 17 17 17 17 17 255 255 255 255 255 255 255 255 255 255 255 255 255 255 255 255 70 70 70 70 70 255 255 255 255 70 70 70 70 70 70 70 70 70 70 70 70 70 70 70 70 255 255 255 255 255 255 255 255 255 255 70 70 70 70 70 70 70 70 255 255 255 255 70 70 70 255 255 255 255 255 70 70 70 70 70 255 255 255 255 70 70 70 70 70 255 255 255 255 255 255 255 255 255 255 255 255 255 255 255 255 255 255 49 49 255 255 255 7 7 7 255 255 255 255 255 255 255 49 49 49 49 49 255 255 255 255 255 255 255 255 255 255 255 255 255 255 255 255 49 255 255 255 255 255 49 49 49 49 49 49 49 49 49 49 49 49 49 49 49 49 49 49 255 255 255 255 255 255 255 255 255 255 255 255 255 255 21 21 21 21 21 255 255 255 255 255 255 255 255 255 255 255 255 255 255 255 7 7 7 7 7 7 7 7 7 7 7 7 255 255 255 255 255 255 255 255 255 64 64 64 64 64 64 64 64 64 64 64 64 64 64 64 64 64 64 64 64 64 64 64 64 64 64 64 64 64 64 64 64 64 64 64 64 64 64 64 64 64 64 64 64 64 255 255 255 255 255 255 255 255 255 255 255 255 255 255 255 5 5 5 5 5 5 5 5 5 5 5 5 5 5 5 5 5 5 5 5 5 5 5 5 5 5 5 5 5 5 5 5 5 5 5 5 5 5 5 5 5 5 5 5 5 255 
255 1 1 1 1 1 1 1 1 1 1 1 1 1 1 1 1 1 1 1 1 1 1 255 255 17 17 17 255 255 255 63 63 63 63 63 63 63 63 63 63 63 63 63 63 63 63 255 255 255 255 255 255 255 255 255 255 255 255 255 255 255 255 255 255 255 255 255 255 255 255 255 255 255 255 255 255 255 255 255 255 17 17 17 17 17 17 17 255 255 255 255 255 255 255 255 255 50 50 50 255 255 255 255 255 255 255 255 255 255 255 255 255 255 255 255 255 255 17 255 255 255 255 255 255 255 255 255 255 255 17 255 255 255 255 17 17 17 17 255 255 255 17 255 255 255 255 255 255 17 17 17 255 255 255 17 17 17 17 17 17 17 17 17 17 17 255 255 255 17 17 17 17 17 255 255 255 255 255 255 255 255 17 17 17 17 17 17 255 255 255 255 255 255 255 255 255 255 255 255 255 255 255 70 70 70 70 255 255 255 255 255 255 70 70 70 70 70 70 70 70 70 70 70 70 70 70 70 255 255 255 255 255 255 255 255 255 255 255 70 70 70 70 70 70 70 255 255 255 255 255 70 70 255 255 255 255 70 70 70 70 70 70 70 255 255 255 255 70 70 70 70 255 255 255 255 255 255 255 255 255 255 255 255 255 255 255 49 49 49 49 49 49 255 255 255 255 7 7 255 255 255 255 255 255 255 255 255 255 255 255 255 255 255 255 255 255 255 255 255 255 255 255 255 255 255 255 255 255 255 255 255 255 255 49 49 49 49 49 49 49 49 49 49 49 49 49 49 49 255 255 255 255 255 255 255 255 255 255 255 255 255 255 255 255 21 21 21 21 255 255 255 255 255 255 255 255 255 255 255 7 7 7 7 7 7 7 7 7 7 7 7 7 7 7 7 255 255 255 255 255 255 255 255 255 64 64 64 64 64 64 64 64 64 64 64 64 64 64 64 64 64 64 64 64 64 64 64 64 64 64 64 64 64 64 64 64 64 64 64 64 64 64 64 64 64 64 64 64 64 255 255 255 255 255 255 255 255 255 255 255 255 19 255 255 255 5 5 5 5 5 5 5 5 5 5 5 5 5 5 5 5 5 5 5 5 5 5 5 5 5 5 5 5 5 5 5 5 5 5 5 5 5 5 5 5 5 5 5 5 5 255 
255 1 1 1 1 1 1 1 1 1 1 1 1 1 1 1 1 1 1 1 1 1 1 255 255 17 17 17 255 255 255 63 63 63 63 63 63 63 63 63 63 63 63 63 63 63 63 255 255 255 255 255 255 255 255 255 255 255 255 255 255 255 255 255 255 255 255 255 255 255 255 255 255 255 255 255 255 255 255 255 255 17 17 17 17 17 17 17 255 255 255 255 255 255 255 255 255 255 50 50 50 50 255 255 255 255 255 255 255 255 255 255 4 4 255 255 17 17 255 255 255 255 255 255 255 255 255 255 255 255 255 255 255 17 17 17 17 255 255 255 17 255 255 255 255 255 255 255 255 17 255 255 255 255 255 17 17 255 255 255 17 17 17 17 17 17 17 17 17 17 17 17 255 255 255 255 255 255 255 255 255 255 17 255 255 255 255 17 255 255 255 255 17 17 17 17 255 255 255 255 70 70 70 70 70 70 70 255 255 255 255 255 255 70 70 70 70 70 70 70 70 70 70 70 70 70 70 70 255 255 255 255 255 255 255 255 255 255 70 70 70 70 70 70 70 255 255 255 255 255 255 70 255 255 255 255 255 70 70 70 70 70 70 70 255 255 255 255 255 70 70 255 255 255 255 255 255 255 255 255 255 255 255 255 255 255 49 49 49 49 49 49 255 255 255 255 255 7 255 255 255 255 255 255 255 255 255 255 255 255 255 255 255 255 255 255 255 255 255 255 255 255 255 255 255 255 255 255 255 255 255 255 255 255 255 49 49 49 49 49 49 49 49 49 49 49 49 255 255 255 255 255 255 255 255 255 255 71 71 255 255 255 255 255 255 21 21 21 21 255 255 255 255 255 255 255 255 7 7 7 7 7 7 7 7 7 7 7 7 7 7 7 7 7 255 255 255 255 255 255 255 255 255 255 64 64 64 64 64 64 64 64 64 64 64 64 64 64 64 64 64 64 64 64 64 64 64 64 64 64 64 64 64 64 64 64 64 64 64 64 64 64 64 64 64 64 64 64 64 64 255 255 255 255 255 255 255 255 255 255 255 255 255 255 255 255 5 5 5 5 5 5 5 5 5 5 5 5 5 5 5 5 5 5 5 5 5 5 5 5 5 5 5 5 5 5 5 5 5 5 5 5 5 5 5 5 5 5 5 5 5 255 
255 1 1 1 1 1 1 1 1 1 1 1 1 1 1 1 1 1 1 1 1 1 255 255 255 17 17 17 255 255 255 63 63 63 63 63 63 63 63 63 63 63 63 63 63 63 63 255 255 255 255 63 255 255 255 255 255 255 255 255 255 255 255 255 255 255 255 255 255 255 255 255 255 255 255 255 255 255 255 255 255 17 17 17 17 17 255 255 255 255 255 255 255 255 68 255 255 255 50 50 50 50 255 255 255 255 255 255 255 255 255 255 4 4 255 255 255 255 255 255 255 255 255 255 255 255 255 255 255 255 255 255 255 17 17 17 17 255 255 255 17 255 255 255 255 255 255 17 17 17 255 255 255 17 17 17 17 255 255 255 17 17 17 17 17 17 17 17 17 17 17 255 255 255 255 255 255 255 255 255 255 255 17 255 255 255 255 255 255 255 255 255 17 17 255 255 255 255 255 70 70 70 70 70 70 255 255 255 255 255 255 255 70 70 70 70 70 70 70 70 70 70 70 70 70 70 70 255 255 255 255 255 255 255 255 255 255 70 70 70 70 70 70 70 255 255 255 255 255 255 70 255 255 255 255 255 255 70 70 70 70 70 70 255 255 255 255 255 255 70 255 255 255 255 255 255 255 255 255 255 255 255 255 255 255 49 49 49 49 255 255 255 255 255 255 255 255 7 255 255 255 255 255 255 255 7 255 255 255 7 7 255 255 255 255 255 255 255 255 255 255 255 255 255 255 255 255 255 255 255 255 255 255 255 255 49 49 49 49 49 49 49 49 49 49 255 255 255 255 255 255 255 255 255 255 255 255 255 71 255 255 255 255 255 255 255 21 21 21 255 255 7 7 7 7 7 7 7 7 7 7 7 7 7 7 7 7 7 7 7 7 7 7 255 255 255 255 255 255 255 255 255 255 64 64 64 64 64 64 64 64 64 64 64 64 64 64 64 64 64 64 64 64 64 64 64 64 64 64 64 64 64 64 64 64 64 64 64 64 64 64 64 64 64 64 64 64 64 64 64 255 255 255 255 255 255 255 255 255 255 255 255 255 255 255 5 5 5 5 5 5 5 5 5 5 5 5 5 5 5 5 5 5 5 5 5 5 5 5 5 5 5 5 5 5 5 5 5 5 5 5 5 5 5 5 5 5 5 5 5 5 255 
255 1 1 1 1 1 1 1 1 1 1 1 1 1 1 1 1 1 1 1 1 1 255 255 255 17 17 17 255 255 255 63 63 63 63 63 63 63 63 63 63 63 63 63 63 63 255 255 255 63 63 255 255 255 255 255 255 255 255 255 255 255 255 255 255 255 255 255 255 255 255 255 255 255 255 255 255 255 255 255 255 17 17 17 17 17 255 255 255 255 255 255 255 255 68 255 255 255 255 50 50 50 255 255 255 255 255 255 255 255 255 255 4 4 255 255 255 255 255 255 255 255 255 255 255 255 255 255 255 255 255 255 255 17 17 17 17 255 255 255 17 255 255 255 255 255 255 17 17 255 255 255 255 17 17 17 255 255 255 255 17 17 17 17 17 17 17 17 17 17 17 255 255 255 255 255 255 255 255 17 17 17 255 255 255 255 255 255 255 255 255 255 17 17 255 255 255 255 70 70 70 70 70 70 70 255 255 255 255 255 70 70 70 70 70 70 70 70 70 70 70 70 70 70 70 70 70 255 255 255 255 255 255 255 255 255 70 70 70 70 70 70 70 255 255 255 255 255 255 70 70 255 255 255 255 70 70 70 70 70 70 70 70 255 255 255 255 255 255 255 255 255 255 255 255 255 255 255 255 255 255 255 255 255 49 49 49 255 255 255 255 255 255 255 7 7 7 7 255 255 255 255 255 255 255 255 255 255 255 7 7 255 255 255 255 7 255 255 255 255 255 255 255 255 255 255 255 255 255 255 255 255 255 255 255 49 49 49 49 49 49 49 49 49 255 255 255 255 255 255 255 255 255 71 255 255 255 255 255 255 255 255 255 255 255 255 255 255 255 255 255 7 7 7 7 7 7 7 7 7 7 7 7 7 7 7 7 7 7 7 255 255 255 255 255 255 255 255 255 255 255 255 64 64 64 64 64 64 64 64 64 64 64 64 64 64 64 64 64 64 64 64 64 64 64 64 64 64 64 64 64 64 64 64 64 64 64 64 64 64 64 64 64 64 64 64 64 64 64 255 255 255 255 255 255 255 255 255 255 255 255 255 255 255 5 5 5 5 5 5 5 5 5 5 5 5 5 5 5 5 5 5 5 5 5 5 5 5 5 5 5 5 5 5 5 5 5 5 5 5 5 5 5 5 5 5 5 5 5 5 5 255 
255 1 1 1 1 1 1 1 1 1 1 1 1 1 1 1 1 1 1 1 1 1 255 255 255 17 17 17 255 255 255 63 63 63 63 63 63 63 63 63 63 63 63 63 63 63 255 255 255 63 63 255 255 255 255 255 255 255 255 255 255 255 255 255 255 255 255 255 255 255 255 255 255 255 255 255 255 255 255 255 255 255 17 17 17 17 255 255 255 255 255 255 255 255 255 255 255 255 255 50 50 50 50 255 255 255 255 255 255 255 255 255 255 255 255 255 255 255 255 255 255 255 255 255 255 255 255 255 255 255 255 255 255 17 17 255 255 255 255 255 255 255 255 255 17 17 17 17 17 255 255 255 17 17 17 17 255 255 255 17 17 17 17 17 17 17 17 17 17 17 255 255 255 255 255 255 255 255 255 255 255 17 255 255 255 255 255 255 17 255 255 255 255 255 255 255 70 70 70 70 70 70 70 70 70 255 255 255 255 70 70 70 70 70 70 70 70 70 70 70 70 70 70 70 70 70 255 255 255 255 255 255 255 255 255 70 70 70 70 70 70 70 255 255 255 255 255 255 70 70 70 255 255 255 70 70 70 70 70 70 70 70 70 255 255 255 70 255 255 255 255 255 255 255 255 255 255 255 255 255 255 255 255 49 49 49 255 255 255 255 255 255 255 255 7 7 7 7 7 7 255 255 255 255 255 255 7 7 7 7 255 255 255 7 7 7 255 255 255 255 255 7 255 255 255 255 255 255 255 255 255 255 255 255 255 255 49 49 49 49 49 49 49 255 255 255 255 255 255 255 255 71 71 71 255 255 255 255 255 255 255 255 255 255 255 255 255 255 255 255 255 7 7 7 7 7 7 7 7 7 7 7 7 7 7 7 7 7 7 7 255 255 255 255 255 255 255 255 255 255 255 64 64 64 64 64 64 64 64 64 64 64 64 64 64 64 64 64 64 64 64 64 64 64 64 64 64 64 64 64 64 64 64 64 64 64 64 64 64 64 64 64 64 64 64 64 64 64 64 255 255 255 255 255 255 255 255 255 255 255 255 255 255 255 5 5 5 5 5 5 5 5 5 5 5 5 5 5 5 5 5 5 5 5 5 5 5 5 5 5 5 5 5 5 5 5 5 5 5 5 5 5 5 5 5 5 5 5 5 5 5 255 
255 1 1 1 1 1 1 1 1 1 1 1 1 1 1 1 1 1 1 1 1 1 255 255 255 17 17 17 255 255 255 63 63 63 63 63 63 63 63 63 63 63 63 63 63 63 255 255 255 63 63 255 255 255 255 255 255 255 255 255 255 255 255 255 255 255 255 255 255 255 255 255 255 255 255 255 255 255 255 255 255 255 255 17 17 17 17 255 255 255 255 255 255 255 255 255 255 255 255 50 50 50 50 255 255 255 255 255 255 255 255 255 255 255 255 255 255 255 255 255 255 255 255 255 255 17 255 255 255 255 255 17 17 17 17 255 255 255 255 255 255 255 255 255 17 17 255 255 255 255 255 255 17 17 17 17 255 255 255 17 17 17 17 17 17 17 17 17 17 17 255 255 255 255 255 255 255 255 255 255 255 17 255 255 255 255 255 17 17 255 255 255 255 255 255 255 70 70 70 70 70 70 70 70 70 70 70 70 70 70 70 70 70 70 70 70 70 70 70 70 70 70 70 70 70 70 255 255 255 255 255 70 255 255 255 70 70 70 70 70 70 255 255 255 255 255 255 255 255 255 255 255 70 70 70 70 70 70 70 70 70 70 70 255 255 255 255 255 255 255 255 255 255 255 255 255 255 255 255 255 255 255 255 49 49 49 255 255 255 255 255 7 7 7 7 255 255 255 7 7 7 7 7 255 255 255 7 7 7 7 255 255 255 7 7 7 255 255 255 7 255 255 255 255 255 255 255 255 255 255 255 255 255 255 255 255 49 49 49 49 255 255 255 255 255 255 255 255 255 255 255 255 71 71 255 255 255 255 255 255 255 255 255 255 255 255 255 255 255 255 255 7 7 7 7 7 7 7 7 7 7 7 7 7 7 7 7 255 255 255 255 255 255 255 255 255 255 255 255 255 64 64 64 64 64 64 64 64 64 64 64 64 64 64 64 64 64 64 64 64 64 64 64 64 64 64 64 64 64 64 64 64 64 64 64 64 64 64 64 64 64 64 64 64 64 64 64 64 255 255 255 19 255 255 255 255 255 255 19 19 19 255 255 5 5 5 5 5 5 5 5 5 5 5 5 5 5 5 5 5 5 5 5 5 5 5 5 5 5 5 5 5 5 5 5 5 5 5 5 5 5 5 5 5 5 5 5 5 5 5 5 255 
255 1 1 1 1 1 1 1 1 1 1 1 1 1 1 1 1 1 1 1 1 1 255 255 255 17 17 17 255 255 63 63 63 63 63 63 63 63 63 63 63 63 63 63 63 63 63 255 255 255 255 255 255 255 255 255 255 255 255 255 255 255 255 255 255 255 255 255 255 255 255 255 255 255 255 255 255 255 255 255 255 255 255 17 17 17 17 255 255 255 255 255 255 255 255 255 255 255 255 50 50 50 50 255 255 255 255 255 255 255 255 255 255 255 255 255 255 255 255 255 255 255 255 255 255 255 255 255 255 255 255 17 17 17 255 255 255 255 255 255 255 255 255 255 17 255 255 255 255 255 17 17 17 17 17 255 255 255 17 17 17 17 17 17 17 17 17 17 17 17 255 255 255 255 255 255 255 255 255 255 255 255 255 255 255 255 255 17 255 255 255 255 255 255 255 70 70 70 70 70 70 70 70 70 70 70 70 70 70 70 70 70 70 70 70 70 70 70 70 70 70 70 70 70 70 255 255 255 255 255 255 70 70 70 70 70 70 70 70 70 70 255 255 255 255 255 255 255 255 255 255 255 70 70 70 70 255 255 255 70 70 70 70 255 255 255 255 255 255 255 255 255 255 255 255 255 255 255 255 255 255 255 255 49 49 49 255 255 255 255 255 7 7 7 7 255 255 255 255 255 7 7 7 255 255 255 7 7 7 7 255 255 255 7 7 7 7 7 7 7 255 255 255 255 255 255 255 255 255 255 255 255 255 255 255 255 49 255 255 255 255 255 255 255 255 255 255 71 71 255 255 255 255 71 255 255 255 255 255 255 255 255 255 255 255 255 255 255 255 255 255 255 255 255 7 7 7 7 7 7 7 7 7 7 7 7 7 255 255 255 255 255 255 255 255 255 255 255 255 64 64 64 64 64 64 64 64 64 64 64 64 64 64 64 64 64 64 64 64 64 64 64 64 64 64 64 64 64 64 64 64 64 64 64 64 64 64 64 64 64 64 64 64 64 64 64 64 64 255 255 255 19 255 255 255 19 19 19 19 19 255 255 255 5 5 5 5 5 5 5 5 5 5 5 5 5 5 5 5 5 5 5 5 5 5 5 5 5 5 5 5 5 5 5 5 5 5 5 5 5 5 5 5 5 5 5 5 5 5 5 5 255 
255 1 1 1 1 1 1 1 1 1 1 1 1 1 1 1 1 1 1 1 1 1 255 255 255 17 17 17 255 255 63 63 63 63 63 63 63 63 63 63 63 63 63 63 63 63 63 255 255 255 255 255 255 255 255 255 255 255 255 255 255 255 255 255 255 255 255 255 255 255 255 255 255 255 255 255 255 255 255 255 255 255 255 17 17 17 17 17 17 17 255 255 255 255 255 255 255 255 255 255 50 50 50 255 255 255 255 255 255 255 255 255 255 255 255 255 255 255 255 255 255 255 255 255 255 255 255 255 255 255 17 17 17 17 255 255 255 255 255 255 17 255 255 255 17 255 255 255 255 255 17 17 17 17 17 255 255 255 17 17 17 17 17 17 17 17 17 17 255 255 255 255 255 255 255 255 255 255 255 255 255 255 255 255 255 255 17 17 255 255 255 70 70 70 70 70 70 70 70 70 70 70 70 70 70 70 70 70 70 70 70 70 70 70 70 70 70 70 70 70 70 70 70 70 70 255 255 255 255 255 70 70 70 70 70 70 70 70 70 255 255 255 255 255 255 255 255 255 255 255 255 255 70 70 70 255 255 255 255 70 70 70 255 255 255 255 255 255 255 255 255 255 22 255 255 255 255 255 255 255 255 255 255 49 49 49 255 255 255 255 255 7 255 255 255 255 255 255 255 255 7 7 7 7 7 7 7 7 7 7 7 7 7 7 7 7 7 7 7 7 255 255 255 255 255 255 255 255 255 255 7 255 255 255 255 255 255 255 255 255 255 255 255 255 255 255 71 71 71 255 255 255 255 255 71 255 255 255 255 255 255 255 255 255 255 255 255 255 255 255 255 255 255 255 7 7 7 7 7 7 7 7 7 7 7 7 7 255 255 255 255 255 255 255 255 255 255 255 64 64 64 64 64 64 64 64 64 64 64 64 64 64 64 64 64 64 64 64 64 64 64 64 64 64 64 64 64 64 64 64 64 64 64 64 64 64 64 64 64 64 64 64 64 64 64 64 64 64 255 255 19 19 19 19 19 19 19 19 19 19 255 255 255 5 5 5 5 5 5 5 5 5 5 5 5 5 5 5 5 5 5 5 5 5 5 5 5 5 5 5 5 5 5 5 5 5 5 5 5 5 5 5 5 5 5 5 5 5 5 5 5 255 
255 1 1 1 1 1 1 1 1 1 1 1 1 1 1 1 1 1 1 1 1 1 255 255 255 17 17 17 255 255 255 63 63 63 63 63 63 63 63 63 63 63 63 63 63 63 63 255 255 255 255 255 255 255 255 255 255 255 255 255 255 255 255 255 255 255 255 255 255 255 255 255 255 255 255 255 255 255 255 255 17 17 17 17 17 17 17 17 17 17 255 255 255 255 255 255 255 255 255 255 50 50 50 50 50 255 255 255 255 255 255 255 255 4 255 255 255 255 255 255 255 255 255 255 255 255 255 255 255 255 17 17 17 17 255 255 255 255 255 255 17 255 255 255 255 255 255 255 255 17 17 17 17 17 17 255 255 255 17 17 17 17 17 17 17 17 17 17 255 255 255 17 17 255 255 255 255 255 255 255 255 255 255 255 255 255 255 255 255 255 255 70 70 255 255 255 70 70 70 70 70 70 70 70 70 70 70 70 70 70 70 70 70 70 70 70 70 70 70 70 70 70 70 70 70 255 255 255 255 255 70 70 70 70 70 70 70 70 255 255 255 255 255 255 255 255 255 255 255 255 255 70 70 70 70 255 255 255 255 70 70 70 255 255 255 255 255 255 255 255 255 22 255 255 255 255 255 255 49 49 49 49 49 49 49 49 255 255 255 7 7 7 255 255 255 7 7 255 255 255 7 7 7 7 7 7 7 7 7 7 7 7 7 7 7 7 7 7 7 7 255 255 49 49 255 255 255 255 255 255 7 255 255 255 255 255 255 255 255 255 255 255 255 255 255 71 71 71 71 255 255 255 255 255 255 255 255 255 255 255 255 255 255 255 21 255 255 255 255 255 255 255 255 255 7 7 7 7 7 7 7 7 7 7 7 7 255 255 255 255 255 255 255 255 255 255 255 64 64 64 64 64 64 64 64 64 64 64 64 64 64 64 64 64 64 64 64 64 64 64 64 64 64 64 64 64 64 64 64 64 64 64 64 64 64 64 64 64 64 64 64 64 64 64 64 64 64 255 255 255 19 19 19 19 19 19 19 19 19 255 255 255 5 5 5 5 5 5 5 5 5 5 5 5 5 5 5 5 5 5 5 5 5 5 5 5 5 5 5 5 5 5 5 5 5 5 5 5 5 5 5 5 5 5 5 5 5 5 5 5 5 255 
255 255 255 1 1 1 1 1 1 1 1 1 1 1 1 1 1 1 1 1 1 1 255 255 255 255 17 17 255 255 255 63 63 63 63 63 63 63 63 63 63 63 63 63 63 255 255 255 63 63 63 255 255 255 255 255 255 255 255 255 63 255 255 255 255 255 255 255 255 255 255 255 255 255 255 255 255 255 17 17 17 17 17 17 17 17 17 17 17 17 255 255 255 255 255 255 255 255 255 255 255 50 50 50 50 255 255 255 255 255 255 255 4 4 255 255 255 255 255 255 255 255 255 255 255 255 255 255 255 255 17 17 17 17 255 255 255 255 255 255 17 17 17 17 255 255 255 17 17 17 17 17 17 17 17 17 17 17 17 17 17 17 17 17 17 17 17 17 255 255 255 255 255 255 255 255 255 255 255 255 255 255 255 255 255 255 255 255 255 255 255 70 70 255 255 255 70 70 70 70 70 70 70 70 70 70 70 70 70 70 70 70 70 70 70 70 70 70 70 70 70 70 70 70 70 255 255 255 255 70 70 70 70 70 70 70 70 70 255 255 255 255 70 70 255 255 255 255 255 255 255 70 70 255 255 255 255 255 255 70 70 255 255 255 255 255 255 255 255 22 255 255 255 255 255 255 255 49 49 49 49 49 49 49 49 49 49 255 255 255 255 255 255 255 255 7 7 7 7 7 7 7 7 7 7 7 7 7 7 7 7 7 7 7 7 7 7 7 7 7 255 255 49 255 255 255 255 255 255 255 255 255 255 255 255 255 255 7 255 255 255 255 255 71 71 71 71 71 71 255 255 255 255 255 255 255 255 255 255 255 255 255 255 255 21 255 255 255 255 255 255 255 255 255 255 255 7 7 7 7 7 7 7 7 255 255 255 255 255 255 255 255 255 255 255 255 64 64 64 64 64 64 64 64 64 64 64 64 64 64 64 64 64 64 64 64 64 64 64 64 64 64 64 64 64 64 64 64 64 64 64 64 64 64 64 64 64 64 64 64 64 64 64 64 64 64 64 255 255 255 19 19 19 19 19 19 19 19 19 255 255 255 5 5 5 5 5 5 5 5 5 5 5 5 5 5 5 5 5 5 5 5 5 5 5 5 5 5 5 5 5 5 5 5 5 5 5 5 5 5 5 5 5 5 5 5 5 5 5 5 5 255 
255 255 255 1 1 1 1 1 1 1 1 1 1 1 1 1 1 1 1 1 1 1 255 255 255 255 17 17 255 255 255 63 63 63 63 63 63 63 63 63 63 63 63 63 63 255 255 255 63 63 63 255 255 255 255 255 255 255 255 255 255 255 255 255 255 255 255 255 255 255 255 255 255 255 255 255 255 255 17 17 17 17 17 17 17 17 17 17 17 17 255 255 255 255 255 255 255 255 255 255 255 255 50 50 50 50 50 50 255 255 255 255 4 4 4 255 255 255 255 255 255 255 255 255 255 255 255 255 17 17 17 17 17 17 17 17 255 255 255 255 17 17 255 255 255 255 255 17 17 17 17 17 17 17 17 17 17 17 17 17 17 17 17 17 17 17 17 17 17 17 255 255 255 255 255 255 255 255 255 255 255 255 255 255 255 255 255 255 255 255 70 70 70 255 255 255 70 70 70 70 70 70 70 70 70 70 70 70 70 70 70 70 70 70 70 70 70 70 70 70 70 70 70 70 70 70 255 255 255 70 70 70 70 70 70 70 70 70 255 255 255 255 70 70 255 255 255 255 255 70 70 70 255 255 255 255 255 255 70 70 70 255 255 255 255 255 255 255 22 255 255 255 255 255 255 255 49 49 49 49 49 49 49 49 49 49 49 255 255 255 255 255 255 255 255 7 7 7 7 7 7 7 7 7 7 7 7 7 7 7 7 7 7 7 7 7 7 7 7 7 255 255 49 255 255 255 255 255 255 255 255 255 255 255 255 255 7 7 255 255 255 255 255 71 71 255 255 255 71 71 255 255 255 255 255 255 255 255 255 255 255 255 255 255 255 21 255 255 255 255 255 255 255 255 255 255 7 7 7 7 7 7 7 7 255 255 255 255 255 255 255 255 255 255 64 64 64 64 64 64 64 64 64 64 64 64 64 64 64 64 64 64 64 64 64 64 64 64 64 64 64 64 64 64 64 64 64 64 64 64 64 64 64 64 64 64 64 64 64 64 64 64 64 64 64 64 64 255 255 19 19 19 19 19 19 19 19 19 255 255 255 5 5 5 5 5 5 5 5 5 5 5 5 5 5 5 5 5 5 5 5 5 5 5 5 5 5 5 5 5 5 5 5 5 5 5 5 5 5 5 5 5 5 5 5 5 5 5 5 5 5 255 
255 255 255 1 1 1 1 1 1 1 1 1 1 1 1 1 1 1 1 1 1 1 255 255 255 255 17 17 255 255 255 63 63 63 63 63 63 63 63 63 63 63 63 63 63 255 255 255 63 63 255 255 255 255 255 255 255 255 255 255 255 255 255 255 255 255 255 255 255 255 255 255 255 255 255 255 255 255 255 255 255 17 17 17 17 17 17 17 17 17 17 17 17 255 255 255 255 255 255 255 255 255 50 50 50 50 50 50 255 255 255 255 4 4 4 255 255 255 255 255 255 255 255 255 255 255 255 255 255 255 17 17 17 17 17 17 17 255 255 255 17 17 255 255 255 17 17 17 17 17 17 17 17 17 17 17 17 17 17 17 17 17 17 17 17 17 17 17 17 17 255 255 255 255 255 255 255 255 255 255 255 255 255 255 255 255 70 70 70 70 70 70 70 70 70 70 70 70 70 70 70 70 70 70 70 70 70 70 70 255 255 255 255 70 70 70 70 70 70 70 70 70 70 70 70 70 255 255 255 70 70 70 70 70 70 70 70 70 255 255 255 70 70 70 255 255 255 255 70 70 70 70 255 255 255 255 255 255 70 70 255 255 255 255 255 255 255 255 22 255 255 255 255 255 255 49 49 49 49 49 49 49 49 49 49 49 49 49 255 255 255 255 255 255 255 7 7 7 7 7 7 7 7 7 7 7 7 7 7 7 7 7 7 7 7 7 7 7 7 7 255 255 255 255 255 255 255 255 255 255 255 255 255 255 255 255 255 255 255 255 255 255 255 255 71 255 255 255 255 255 255 255 255 255 255 255 255 255 255 255 255 255 255 255 255 255 255 255 255 255 255 255 255 255 255 255 7 7 7 7 7 7 255 255 255 255 255 255 255 255 255 255 255 64 64 64 64 64 64 64 64 64 64 64 64 64 64 64 64 64 64 64 64 64 64 64 64 64 64 64 64 64 64 64 64 64 64 64 64 64 64 64 64 64 64 64 64 64 64 64 64 64 64 64 64 64 64 255 255 19 19 19 19 19 19 19 19 19 255 255 255 5 5 5 5 5 5 5 5 5 5 5 5 5 5 5 5 5 5 5 5 5 5 5 5 5 5 5 5 5 5 5 5 5 5 5 5 5 5 5 5 5 5 5 5 5 5 5 5 5 5 255 
255 1 1 1 1 1 1 1 1 1 1 1 1 1 1 1 1 1 1 1 1 1 1 255 255 17 17 17 255 255 255 255 63 63 63 63 63 63 63 63 63 63 63 63 63 63 63 63 63 63 255 255 255 255 255 255 255 255 255 255 255 255 255 255 255 255 63 255 255 255 255 255 255 255 255 255 255 255 255 255 255 17 17 17 17 17 17 17 17 17 17 17 17 255 255 255 255 255 255 255 255 255 255 50 50 50 50 50 50 50 255 255 255 4 4 4 4 255 255 255 255 255 255 255 255 255 255 255 255 255 17 17 17 17 17 17 17 255 255 255 17 17 255 255 255 17 17 17 17 17 17 17 17 17 17 17 17 17 17 17 17 17 17 17 17 17 17 17 17 17 17 17 255 255 255 255 255 255 255 70 70 70 255 255 255 255 70 70 70 70 70 70 70 70 70 70 70 70 70 70 70 70 70 70 70 70 70 70 70 255 255 255 255 70 70 70 70 70 70 70 70 70 70 70 70 70 70 70 70 70 70 70 70 70 70 70 70 70 70 70 70 70 70 70 70 255 255 255 70 70 70 70 255 255 255 255 255 70 70 70 255 255 255 255 255 255 255 255 255 255 255 255 255 49 49 49 49 49 49 49 49 49 49 49 49 255 255 255 255 255 255 255 255 255 255 7 7 7 7 7 7 7 7 7 7 7 7 7 7 7 7 7 7 7 7 7 7 7 7 7 255 255 255 255 255 255 255 255 255 255 7 7 255 255 255 255 255 255 255 255 255 255 255 255 255 255 255 255 255 255 255 255 255 255 255 255 255 255 255 255 255 255 255 255 255 255 21 255 255 255 255 255 255 255 255 255 7 7 7 255 255 255 255 255 255 255 255 255 255 255 255 64 64 64 64 64 64 64 64 64 64 64 64 64 64 64 64 64 64 64 64 64 64 64 64 64 64 64 64 64 64 64 64 64 64 64 64 64 64 64 64 64 64 64 64 64 64 64 64 64 64 64 64 64 64 64 255 255 255 19 19 19 19 19 19 19 19 19 255 255 255 5 5 5 5 5 5 5 5 5 5 5 5 5 5 5 5 5 5 5 5 5 5 5 5 5 5 5 5 5 5 5 5 5 5 5 5 5 5 5 5 5 5 5 5 5 5 5 5 5 5 255 
255 1 1 1 1 1 1 1 1 1 1 1 1 1 1 1 1 1 1 1 1 1 1 255 255 17 17 17 17 255 255 255 63 63 63 63 63 63 63 63 63 63 63 63 63 63 63 63 63 63 255 255 255 255 255 255 255 255 255 255 255 255 255 255 255 63 63 255 255 255 255 255 255 255 255 255 255 255 255 255 255 17 17 17 17 17 17 17 17 17 17 17 17 17 17 255 255 255 255 255 255 255 255 255 50 50 50 50 50 50 255 255 255 255 4 4 4 255 255 255 255 255 255 255 255 255 255 255 255 255 17 17 17 17 17 17 17 17 17 17 17 17 17 17 17 17 17 17 17 17 17 17 17 17 17 17 17 17 17 17 17 17 17 17 17 17 17 17 255 255 255 255 255 255 255 255 255 255 255 255 255 70 70 70 70 70 70 70 70 70 70 70 70 70 70 70 70 70 70 70 70 70 70 70 70 70 70 70 70 255 255 255 255 70 70 70 70 70 70 70 70 70 70 70 70 70 70 70 70 70 70 70 70 70 70 70 70 70 70 70 70 70 70 70 255 255 255 255 70 70 70 70 255 255 255 255 255 255 255 255 255 255 255 255 255 255 255 255 255 255 255 255 49 49 49 49 49 49 49 49 49 255 255 255 255 255 255 255 255 255 255 255 255 7 7 7 7 7 7 7 7 7 7 7 7 7 7 7 7 7 7 7 7 7 7 7 7 7 7 7 255 255 255 255 255 255 255 255 7 255 255 255 255 255 255 53 255 255 255 255 255 255 255 255 255 255 255 255 255 255 255 255 255 71 255 255 255 255 255 255 255 255 255 255 255 255 21 255 255 255 255 255 255 255 255 255 7 7 255 255 255 255 255 255 255 255 255 255 255 255 64 64 64 64 64 64 64 64 64 64 64 64 64 64 64 64 64 64 64 64 64 64 64 64 64 64 64 64 64 64 64 64 64 64 64 64 64 64 64 64 64 64 64 64 64 64 64 64 64 64 64 64 64 64 64 64 255 255 255 19 19 19 19 19 19 19 19 255 255 255 255 5 5 5 5 5 5 5 5 5 5 5 5 5 5 5 5 5 5 5 5 5 5 5 5 5 5 5 5 5 5 5 5 5 5 5 5 5 5 5 5 5 5 5 5 5 5 5 5 5 5 255 
255 1 1 1 1 1 1 1 1 1 1 1 1 1 1 1 1 1 1 1 1 1 1 255 255 17 17 17 17 255 255 255 63 63 63 63 63 63 63 63 63 63 63 63 63 63 63 63 63 63 255 255 255 255 255 255 255 255 255 255 255 255 255 255 255 255 255 255 255 255 255 255 255 255 255 255 255 255 17 17 17 17 17 17 17 17 17 17 17 17 17 17 17 17 17 17 255 255 255 255 255 255 255 255 50 50 50 50 50 255 255 255 255 255 255 4 4 4 255 255 255 255 255 255 255 255 255 255 255 255 17 17 17 17 17 17 17 17 17 17 17 17 17 17 17 17 17 17 17 17 17 17 17 17 17 17 17 17 17 17 17 255 255 255 255 17 17 17 255 255 255 255 255 255 255 255 255 255 255 255 255 255 70 70 70 70 70 70 70 70 70 70 70 70 70 70 70 70 70 70 70 70 70 70 70 70 70 70 70 255 255 255 255 70 70 70 70 70 70 70 70 70 70 70 70 70 70 70 70 70 70 70 70 70 70 70 70 70 70 70 70 70 70 70 255 255 255 255 70 70 70 255 255 255 255 255 255 255 255 255 255 255 255 255 255 255 255 255 255 255 255 49 49 49 49 49 49 49 49 49 49 255 255 255 255 255 255 255 255 255 255 7 7 7 7 7 7 7 7 7 7 7 7 7 7 7 7 7 7 7 7 7 255 255 255 7 7 7 7 255 255 255 255 255 255 255 255 255 255 255 255 255 255 255 53 53 255 255 255 255 7 255 255 255 255 255 255 255 255 255 255 255 255 255 255 255 255 255 255 255 255 255 255 255 255 21 21 255 255 255 21 21 255 255 255 255 255 255 255 255 255 255 255 255 255 255 255 255 255 64 64 64 64 64 64 64 64 64 64 64 64 64 64 64 64 64 64 64 64 64 64 64 64 64 64 64 64 64 64 64 64 64 64 64 64 64 64 64 64 64 64 64 64 64 64 64 64 64 64 64 64 64 64 64 64 255 255 255 19 19 19 19 19 19 19 19 19 255 255 255 255 5 5 5 5 5 5 5 5 5 5 5 5 5 5 5 5 5 5 5 5 5 5 5 5 5 5 5 5 5 5 5 5 5 5 5 5 5 5 5 5 5 5 5 5 5 5 5 5 5 5 255 
255 1 1 1 1 1 1 1 1 1 1 1 1 1 1 1 1 1 1 1 1 1 1 255 255 17 17 17 17 255 255 63 63 63 63 63 63 63 63 63 63 63 63 63 63 255 255 255 255 63 255 255 255 255 255 255 255 255 255 255 255 255 255 255 255 255 255 255 255 255 255 255 255 255 255 255 255 255 255 255 255 255 17 17 17 17 17 17 17 17 17 17 17 17 17 17 255 255 255 255 255 255 255 255 255 50 50 50 50 255 255 255 255 255 255 255 4 255 255 255 255 255 255 255 255 255 255 255 17 17 17 17 17 17 17 17 17 17 17 17 17 17 17 17 17 17 17 17 17 17 17 17 17 17 17 17 17 17 17 255 255 255 255 255 255 255 17 17 255 255 255 255 255 255 255 255 255 255 255 255 255 255 255 255 70 70 70 70 70 70 70 70 70 70 70 70 70 70 70 70 70 70 70 70 70 70 70 70 255 255 255 255 255 70 70 70 70 70 70 70 70 70 70 70 70 70 70 70 70 70 70 70 70 70 70 70 70 70 70 70 70 70 70 70 255 255 255 255 70 70 70 255 255 255 255 255 255 255 255 255 255 255 255 255 255 255 255 255 255 255 255 49 49 49 49 49 49 49 49 49 49 255 255 255 255 255 255 255 255 255 255 7 7 7 7 7 255 255 255 7 7 7 7 7 7 7 7 7 7 255 255 255 255 255 255 7 7 7 255 255 255 255 255 255 7 255 255 255 255 255 255 255 255 255 53 53 255 255 255 255 7 255 255 255 255 255 255 255 255 255 255 255 255 255 255 255 255 255 255 255 255 255 255 255 255 21 21 255 255 255 21 21 255 255 255 7 255 255 255 255 255 255 255 255 255 255 255 255 64 64 64 64 64 64 64 64 64 64 64 64 64 64 64 64 64 64 64 64 64 64 64 64 64 64 64 64 64 64 64 64 64 64 64 64 64 64 64 64 64 64 64 64 64 64 64 64 64 64 64 64 64 64 64 64 255 255 255 255 19 19 19 19 19 19 19 19 19 255 255 5 5 5 5 5 5 5 5 5 5 5 5 5 5 5 5 5 5 5 5 5 5 5 5 5 5 5 5 5 5 5 5 5 5 5 5 5 5 5 5 5 5 5 5 5 5 5 5 5 5 5 5 255 
255 1 1 1 1 1 1 1 1 1 1 1 1 1 1 1 1 1 1 1 1 1 1 255 255 255 17 17 17 255 255 63 63 63 63 63 63 63 63 63 63 63 63 63 63 255 255 255 255 63 255 255 255 255 255 255 255 255 255 255 255 255 255 255 255 255 255 255 255 255 255 255 255 255 255 255 255 255 255 255 255 255 17 17 17 17 17 17 17 17 17 17 17 17 17 17 255 255 255 255 255 255 255 255 255 255 50 50 50 255 255 255 255 255 255 255 255 255 255 255 255 255 255 255 255 255 255 255 17 17 17 17 17 17 17 17 17 17 17 17 17 17 17 17 17 17 17 17 17 17 17 17 17 17 17 255 255 255 17 255 255 255 255 255 255 255 255 255 255 17 17 17 17 17 17 17 255 255 255 255 255 255 255 255 70 70 70 70 70 70 70 70 70 70 70 70 70 70 70 70 70 70 70 70 70 70 70 70 255 255 255 255 70 70 70 70 70 70 70 70 70 70 70 70 70 70 70 70 70 70 70 70 70 70 70 70 70 70 70 70 70 70 70 70 255 255 255 255 70 70 255 255 255 255 255 255 255 255 255 255 255 255 255 255 255 255 255 255 255 255 255 49 49 255 255 255 255 49 49 49 49 255 255 255 255 255 255 255 255 7 7 7 7 7 7 7 255 255 255 7 7 7 7 7 7 7 7 7 7 255 255 255 255 255 255 7 7 7 255 255 255 255 255 255 255 255 255 255 53 255 255 255 53 53 53 53 255 255 255 255 7 255 255 255 255 255 255 255 255 255 255 255 255 255 255 255 255 255 255 255 255 255 255 255 255 21 21 21 21 21 21 21 255 255 255 7 255 255 255 255 255 255 255 255 255 255 255 64 64 64 64 64 64 64 64 64 64 64 64 64 64 64 64 64 64 64 64 64 64 64 64 64 64 64 64 64 64 64 64 64 64 64 64 64 64 64 64 64 64 64 64 64 64 64 64 64 64 64 64 64 64 64 64 64 255 255 255 19 19 19 19 19 19 19 19 19 255 255 255 5 5 5 5 5 5 5 5 5 5 5 5 5 5 5 5 5 5 5 5 5 5 5 5 5 5 5 5 5 5 5 5 5 5 5 5 5 5 5 5 5 5 5 5 5 5 5 5 5 5 5 5 255 
255 1 1 1 1 1 1 1 1 1 1 1 1 1 1 1 1 1 1 1 1 1 1 255 255 255 17 17 17 255 255 63 63 63 63 63 63 63 63 63 63 63 63 63 63 255 255 255 255 63 63 255 255 255 255 255 255 255 255 255 255 255 255 255 255 255 255 255 255 255 255 255 255 255 255 255 255 255 255 255 255 255 17 17 17 17 17 17 17 17 17 17 17 17 17 255 255 255 255 255 255 255 255 255 255 255 50 50 50 255 255 255 255 255 255 255 255 255 255 255 255 255 255 255 255 255 255 255 255 17 17 17 17 17 17 17 17 17 17 17 17 17 17 17 17 17 17 17 17 17 17 255 255 255 17 255 255 255 17 255 255 255 255 255 255 255 255 255 255 255 255 17 17 255 255 255 255 255 255 255 255 255 255 255 70 70 70 70 70 70 70 70 70 70 70 70 70 70 70 70 70 70 70 70 70 70 70 255 255 255 255 255 70 70 70 70 70 70 70 70 70 70 70 70 70 70 70 70 70 70 70 70 70 70 70 70 70 70 255 255 255 70 70 255 255 255 255 255 70 70 255 255 255 255 255 255 255 255 255 255 255 255 255 255 255 255 255 255 255 255 255 255 255 255 255 255 255 49 255 255 255 255 255 255 255 255 255 255 255 255 255 255 7 7 7 7 255 255 255 7 7 7 7 7 7 7 7 7 7 255 255 255 255 255 255 7 255 255 255 255 255 255 255 255 255 255 255 53 53 255 255 255 53 53 53 53 255 255 255 255 255 7 255 255 255 255 255 255 255 255 255 255 255 255 255 255 255 255 255 71 71 255 255 255 255 21 21 21 21 21 21 21 21 255 255 7 7 255 255 255 255 255 255 255 64 64 64 64 64 64 64 64 64 64 64 64 64 64 64 64 64 64 64 64 64 64 64 64 64 64 64 64 64 64 64 64 64 64 64 64 64 64 64 64 64 64 64 64 64 64 64 64 64 64 64 64 64 64 64 64 64 64 64 64 255 255 19 19 19 19 19 19 19 19 19 19 255 255 255 5 5 5 5 5 5 5 5 5 5 5 5 5 5 5 5 5 5 5 5 5 5 5 5 5 5 5 5 5 5 5 5 5 5 5 5 5 5 5 5 5 5 5 5 5 5 5 5 5 5 5 5 255 
255 1 1 1 1 1 1 1 1 1 1 1 1 1 1 1 1 1 1 1 1 1 1 255 255 255 17 17 17 255 255 63 63 63 63 63 63 63 63 63 63 63 63 63 63 63 63 255 255 255 63 255 255 255 255 255 255 255 255 255 255 255 255 255 255 255 255 255 255 255 255 255 255 255 255 255 255 255 17 17 17 17 17 17 17 17 17 17 17 17 17 17 17 17 17 255 255 255 17 17 17 255 255 255 255 255 255 50 50 255 255 255 255 255 255 255 255 255 255 255 255 255 255 255 255 255 255 255 255 17 17 17 17 17 17 17 17 17 17 17 17 17 17 17 17 17 17 17 17 17 17 255 255 255 17 255 255 255 17 17 17 255 255 255 255 255 255 255 255 255 255 17 17 255 255 255 255 255 255 255 255 255 255 70 70 70 70 70 70 70 70 70 70 70 70 70 70 70 70 70 70 70 70 70 70 70 70 255 255 255 255 255 70 70 70 70 70 70 255 255 255 70 70 70 70 70 70 70 70 70 70 70 70 255 255 255 255 70 255 255 255 255 70 255 255 255 255 70 70 70 255 255 255 255 255 255 255 255 255 22 255 255 255 255 255 255 255 255 255 255 255 255 255 255 255 255 255 255 255 255 255 255 255 255 255 255 7 7 7 255 255 255 7 7 7 7 7 7 7 7 7 7 7 7 7 7 7 7 7 255 255 255 255 255 255 7 255 255 255 255 255 255 255 255 53 53 53 53 53 53 53 53 53 53 53 53 53 53 255 255 255 255 255 255 255 255 255 255 255 255 255 255 255 255 255 255 255 255 255 71 71 71 255 255 255 21 21 21 21 21 21 21 21 255 255 255 255 255 255 255 255 255 255 64 64 64 64 64 64 64 64 64 64 64 64 64 64 64 64 64 64 64 64 64 64 64 64 64 64 64 64 64 64 64 64 64 64 64 64 64 64 64 64 64 64 64 64 64 64 64 64 64 64 64 64 64 64 64 64 64 64 64 64 64 255 255 19 19 19 19 19 19 19 19 19 19 255 255 255 5 5 5 5 5 5 5 5 5 5 5 5 5 5 5 5 5 5 5 5 5 5 5 5 5 5 5 5 5 5 5 5 5 5 5 5 5 5 5 5 5 5 5 5 5 5 5 5 5 5 5 5 255 
255 1 1 1 1 1 1 1 1 1 1 1 1 1 1 1 1 1 1 1 1 1 255 255 255 255 17 17 17 255 255 63 63 63 63 63 63 63 63 63 63 63 63 63 63 63 63 255 255 255 63 63 63 63 63 255 255 255 255 255 255 255 255 255 255 255 255 255 255 255 255 255 255 255 255 255 255 255 17 17 17 17 17 17 17 17 17 17 17 17 17 17 17 17 17 255 255 255 17 17 17 255 255 255 255 255 255 50 50 50 255 255 255 255 255 255 255 255 255 255 255 255 255 255 255 255 255 255 255 17 17 17 17 255 255 255 255 255 255 17 17 17 17 17 17 17 17 17 17 17 17 255 255 255 17 17 17 17 255 255 255 255 255 255 255 255 255 255 255 255 255 255 255 255 255 255 70 70 70 70 70 70 70 70 70 70 70 70 70 70 70 70 70 70 70 70 70 70 70 70 70 70 70 70 70 70 70 255 255 255 255 255 70 70 70 70 70 70 255 255 255 70 70 70 70 70 70 70 70 70 70 70 70 255 255 255 255 70 255 255 255 255 70 255 255 255 255 70 70 70 255 255 255 255 255 255 255 255 255 255 255 255 255 255 255 255 255 7 255 255 255 255 255 255 255 255 255 255 255 255 255 255 255 7 7 7 7 7 7 255 255 255 7 7 7 7 7 7 7 7 7 7 7 7 7 7 7 7 7 7 7 7 255 255 255 7 255 255 255 255 255 255 255 53 53 53 53 53 53 53 53 53 53 53 53 53 53 53 53 255 255 255 255 255 255 255 255 255 255 255 255 255 255 255 255 255 255 255 255 71 71 71 255 255 255 255 21 21 21 21 21 21 255 255 255 255 255 255 255 255 255 255 64 64 64 64 64 64 64 64 64 64 64 64 64 64 64 64 64 64 64 64 64 64 64 64 64 64 64 64 64 64 64 64 64 64 64 64 64 64 64 64 64 64 64 64 64 64 64 64 64 64 64 64 64 64 64 64 64 64 64 64 64 255 255 255 19 19 19 19 19 19 19 19 255 255 255 255 255 5 5 5 5 5 5 5 5 5 5 5 5 5 5 5 5 5 5 5 5 5 5 5 5 5 5 5 5 5 5 5 5 5 5 5 5 5 5 5 5 5 5 5 5 5 5 5 5 5 5 5 5 255 
255 1 1 1 1 1 1 1 1 1 1 1 1 1 1 1 1 1 1 1 1 1 255 255 255 255 17 17 255 255 255 63 63 63 63 63 63 63 63 63 63 63 63 63 63 63 63 255 255 255 63 63 255 255 255 255 255 255 255 255 255 255 255 255 255 255 255 255 255 255 255 255 255 255 255 63 255 255 255 17 17 17 17 17 17 17 17 17 17 17 17 17 17 17 17 17 17 17 17 17 17 255 255 255 255 255 255 255 50 50 255 255 255 255 255 255 255 50 255 255 255 255 255 255 255 255 255 17 17 17 17 17 17 255 255 255 255 255 255 17 17 17 17 17 17 17 17 17 17 17 17 255 255 255 17 17 17 17 255 255 255 255 255 255 255 255 255 255 255 255 255 255 255 255 255 255 70 70 70 70 70 70 70 70 70 70 70 70 70 70 70 70 70 70 70 70 70 70 70 70 70 70 70 70 70 70 70 70 70 70 70 70 70 70 70 70 70 70 255 255 255 70 70 70 70 70 70 70 70 70 70 70 70 255 255 255 255 70 70 255 255 255 70 255 255 255 255 70 70 70 70 255 255 255 255 255 255 255 255 255 255 255 255 255 255 255 255 7 7 7 255 255 255 7 7 7 7 255 255 255 255 255 255 7 7 7 7 7 7 7 7 7 7 7 7 7 7 7 7 7 7 7 7 7 7 7 7 7 7 7 7 7 7 7 7 255 255 255 255 255 255 53 53 53 53 53 53 53 53 53 53 53 53 53 53 53 53 53 53 53 53 255 255 7 255 255 255 255 255 255 255 255 255 71 255 255 255 255 255 255 71 71 71 255 255 255 21 21 21 21 21 21 255 255 255 255 255 21 21 21 255 255 255 64 64 64 64 64 64 64 64 64 64 64 64 64 64 64 64 64 64 64 64 64 64 64 64 64 64 64 64 64 64 64 64 64 64 64 64 64 64 64 64 64 64 64 64 64 64 64 64 64 64 64 64 64 64 64 64 64 64 64 255 255 255 255 19 19 19 19 19 19 19 19 255 255 255 255 255 5 5 5 5 5 5 5 5 5 5 5 5 5 5 5 5 5 5 5 5 5 5 5 5 5 5 5 5 5 5 5 5 5 5 5 5 5 5 5 5 5 5 5 5 5 5 5 5 5 5 5 5 255 
255 1 1 1 1 1 1 1 1 1 1 1 1 1 1 1 1 1 1 1 1 1 255 255 255 255 17 17 255 255 255 63 63 63 63 63 63 63 63 63 63 63 63 63 63 63 63 63 63 63 63 63 255 255 255 255 255 255 255 255 255 255 255 255 255 255 255 255 255 255 255 255 255 255 255 255 255 255 255 17 17 17 17 17 17 17 17 17 17 17 17 17 17 17 17 17 17 17 17 17 17 17 255 255 255 255 255 255 50 50 50 255 255 255 255 255 255 50 255 255 255 255 255 255 255 17 17 17 17 17 17 17 17 255 255 255 255 255 255 17 17 17 17 17 17 17 17 255 255 255 17 255 255 255 17 255 255 255 255 255 255 255 255 255 255 255 255 255 255 255 255 255 70 70 70 70 70 70 70 70 70 70 70 70 70 70 70 70 70 70 70 70 70 70 70 70 70 70 70 70 70 70 70 70 70 70 70 70 70 70 70 70 70 70 70 70 70 70 70 70 70 70 70 70 70 70 70 70 70 70 70 70 70 70 70 70 70 70 70 70 70 70 70 255 255 255 70 70 70 70 70 255 255 255 255 255 255 255 255 255 22 255 255 255 255 255 255 7 7 7 7 7 7 7 7 7 7 255 255 255 255 7 7 7 7 7 7 7 7 7 7 7 7 7 7 7 7 7 7 7 7 7 7 7 7 7 7 7 7 7 7 7 7 7 255 255 255 255 255 53 53 53 53 53 53 53 53 53 53 53 53 53 53 53 53 53 53 53 53 53 53 255 255 7 255 255 21 255 255 255 255 255 255 71 71 255 255 255 255 255 71 71 71 71 255 255 255 21 21 21 21 21 255 255 255 255 255 21 21 255 255 255 255 64 64 64 64 64 64 64 64 64 64 64 64 64 64 64 64 64 64 64 64 64 64 64 64 64 64 64 64 64 64 64 64 64 64 64 64 64 64 64 64 64 64 64 64 64 64 64 64 64 64 64 64 64 64 64 64 64 64 64 255 255 255 19 19 255 255 255 19 19 19 19 255 255 255 255 5 5 5 5 5 5 5 5 5 5 5 5 5 5 5 5 5 5 5 5 5 5 5 5 5 5 5 5 5 5 5 5 5 5 5 5 5 5 5 5 5 5 5 5 5 5 5 5 5 5 5 5 5 255 
255 1 1 1 1 1 1 1 1 1 1 1 1 1 1 1 1 1 1 1 1 1 1 255 255 255 17 17 255 255 255 63 63 63 63 63 63 63 63 63 63 63 63 63 63 63 63 63 63 63 63 63 255 255 255 255 255 255 255 255 255 255 255 255 255 255 255 255 255 255 255 255 255 255 255 255 255 255 255 17 17 17 17 17 17 17 17 17 17 17 17 17 17 17 17 17 17 17 17 17 17 17 255 255 255 255 255 255 50 50 50 50 50 50 50 50 50 50 255 255 255 255 255 255 255 17 17 17 17 17 17 17 17 17 255 255 255 17 17 17 17 17 17 17 17 17 17 255 255 255 17 255 255 255 17 255 255 255 17 17 255 255 255 255 255 255 255 255 255 255 255 255 70 70 70 70 70 70 70 70 70 70 70 70 70 70 70 70 70 70 70 70 70 70 70 70 70 70 70 70 70 70 70 70 70 70 70 70 70 70 70 70 70 70 70 70 70 70 70 70 70 70 70 70 70 70 70 70 70 70 70 70 70 70 70 70 70 70 70 70 70 70 70 70 70 70 70 70 255 255 255 255 255 255 70 255 255 255 255 255 22 255 255 255 255 255 255 7 7 7 7 7 7 7 7 7 7 7 255 255 255 7 7 7 7 7 7 7 7 7 7 7 7 7 7 7 7 7 7 7 7 7 7 7 7 7 7 7 7 7 7 7 255 255 255 255 255 53 53 53 53 53 53 53 53 53 53 53 53 53 53 53 53 53 53 53 53 53 53 53 53 255 255 7 255 255 255 21 255 255 255 255 255 71 71 255 255 255 255 255 255 71 71 71 255 255 255 21 21 21 21 21 255 255 255 255 255 255 21 255 255 255 255 64 64 64 64 64 64 64 64 64 64 64 64 64 64 64 64 64 64 64 64 64 64 64 64 64 64 64 64 64 64 64 64 64 64 64 64 64 64 64 64 64 64 64 64 64 64 64 64 64 64 64 64 64 64 64 64 64 64 64 255 255 19 19 19 255 255 255 19 19 19 19 255 255 255 255 5 5 5 5 5 5 5 5 5 5 5 5 5 5 5 5 5 5 5 5 5 5 5 5 5 5 5 5 5 5 5 5 5 5 5 5 5 5 5 5 5 5 5 5 5 5 5 5 5 5 5 5 5 255 
255 1 1 1 1 1 1 1 1 1 1 1 1 1 1 1 1 1 1 1 1 1 1 255 255 17 17 17 255 255 255 63 63 63 63 63 63 63 63 63 63 63 63 63 63 63 63 63 63 255 255 255 255 255 255 255 255 255 255 255 255 255 255 255 255 255 255 255 255 255 255 255 255 255 255 255 255 255 17 17 17 17 17 17 17 17 17 17 17 17 17 17 17 17 17 17 17 17 17 17 17 17 255 255 255 255 255 255 50 50 50 50 50 50 50 50 50 50 255 255 4 255 255 255 255 17 17 17 17 17 17 17 17 17 255 255 255 17 17 17 17 17 17 17 17 17 17 255 255 255 17 17 17 17 17 255 255 255 255 255 255 255 255 255 255 255 255 255 255 255 255 255 70 70 70 70 70 70 70 70 70 70 70 70 70 70 70 70 70 70 70 70 70 70 70 70 70 70 70 70 70 70 70 70 70 70 70 70 70 70 70 70 70 70 70 70 70 70 70 70 70 70 70 70 70 70 70 70 70 70 70 70 70 70 70 70 70 70 70 70 70 70 70 70 70 70 70 255 255 255 255 255 255 255 70 255 255 255 255 255 255 255 255 255 255 255 255 7 7 7 7 7 7 255 255 255 255 255 255 7 7 7 7 7 7 7 7 7 7 7 7 7 7 7 7 7 7 7 7 7 7 7 7 7 7 7 7 7 7 7 7 255 255 255 255 255 53 53 53 53 53 53 53 53 53 53 53 53 53 53 53 53 53 53 53 53 53 53 53 53 255 255 255 7 255 255 255 21 255 255 255 255 255 71 71 71 71 255 255 255 255 255 71 71 71 255 255 255 21 21 21 255 255 255 255 255 255 255 21 255 255 64 64 64 64 64 64 64 64 64 64 64 64 64 64 64 64 64 64 64 64 64 64 64 64 64 64 64 64 64 64 64 64 64 64 64 64 64 64 64 64 64 64 64 64 64 64 64 64 64 64 64 64 64 64 64 64 64 64 64 64 255 255 255 19 19 19 255 255 255 19 19 19 19 255 255 255 255 5 5 5 5 5 5 5 5 5 5 5 5 5 5 5 5 5 5 5 5 5 5 5 5 5 5 5 5 5 5 5 5 5 5 5 5 5 5 5 5 5 5 5 5 5 5 5 5 5 5 5 5 5 255 
255 1 1 1 1 1 1 1 1 1 1 1 1 1 1 1 1 1 1 1 1 1 1 255 255 17 17 17 17 255 255 255 63 63 63 63 63 63 63 63 63 63 63 63 63 63 63 63 63 255 255 255 255 255 255 255 255 255 255 255 255 255 255 255 255 255 255 255 255 255 255 255 255 255 255 255 255 255 255 17 17 17 17 17 17 17 17 17 17 17 17 17 17 17 17 17 17 17 17 255 255 255 255 255 255 255 255 255 50 50 50 50 50 50 50 50 50 50 255 255 4 255 255 17 17 17 17 17 17 17 17 17 255 255 255 255 255 17 17 17 17 17 17 17 17 17 17 17 17 17 17 255 255 255 17 17 17 17 255 255 255 255 255 255 255 255 255 255 255 255 255 255 70 70 70 70 70 70 70 70 70 70 70 70 70 70 70 70 70 70 70 70 70 70 70 70 70 70 70 70 70 70 70 70 70 70 70 70 70 70 70 70 255 255 255 255 70 70 70 70 70 70 70 70 70 70 70 70 70 70 70 70 70 70 70 70 70 70 70 70 70 70 70 70 70 255 255 255 255 255 255 255 255 255 70 255 255 255 255 255 255 255 255 255 255 7 7 7 7 7 7 7 7 255 255 255 255 255 255 7 7 7 7 7 7 7 7 7 7 7 7 7 7 7 7 7 7 7 7 7 7 7 7 7 7 7 7 7 7 255 255 255 255 255 53 53 53 53 53 53 53 53 53 53 53 53 53 53 53 53 53 53 53 53 53 53 53 53 53 53 255 255 255 7 7 255 255 21 255 255 255 255 255 71 71 71 71 71 255 255 255 255 71 71 71 255 255 255 21 21 21 255 255 255 255 255 255 255 21 255 255 64 64 64 64 64 64 64 64 64 64 64 64 64 64 64 64 64 64 64 64 64 64 64 64 64 64 64 64 64 64 64 64 64 64 64 64 64 64 64 64 64 64 64 64 64 64 64 64 64 64 64 64 64 64 64 64 64 64 64 255 255 255 255 19 19 19 19 19 19 19 19 19 19 255 255 255 255 5 5 5 5 5 5 5 5 5 5 5 5 5 5 5 5 5 5 5 5 5 5 5 5 5 5 5 5 5 5 5 5 5 5 5 5 5 5 5 5 5 5 5 5 5 5 5 5 5 5 5 5 5 255 
255 1 1 1 1 1 1 1 1 1 1 1 1 1 1 1 1 1 1 1 1 1 1 255 255 255 17 17 17 255 255 255 63 63 63 63 63 63 63 63 63 63 63 63 63 63 63 63 63 255 255 255 255 255 255 255 255 255 255 255 255 255 255 255 255 255 255 255 255 255 255 255 255 255 255 255 255 255 255 255 255 17 17 17 17 17 17 17 17 17 17 17 17 17 17 17 17 17 17 255 255 255 255 255 255 255 255 255 50 50 50 50 50 50 50 50 255 255 255 255 255 255 255 17 17 17 17 17 17 17 17 17 255 255 255 255 17 17 17 17 17 17 17 17 255 255 255 17 17 17 17 255 255 255 17 17 17 17 255 255 255 255 255 255 255 255 255 255 255 255 255 255 70 70 70 70 70 70 70 70 70 70 70 70 70 70 70 70 70 70 70 70 70 70 70 70 70 70 70 70 70 70 70 70 70 70 70 70 70 70 70 70 255 255 255 255 70 70 70 70 70 70 70 70 70 70 70 70 70 70 70 70 70 70 70 70 70 70 70 70 70 70 70 70 70 255 255 255 255 255 255 255 255 255 255 255 255 255 255 255 255 255 255 7 7 7 7 7 7 7 255 255 255 255 255 255 255 255 255 7 7 7 7 7 7 7 7 7 7 7 7 7 7 7 7 7 7 7 7 7 7 7 7 7 7 7 7 7 255 255 255 255 255 53 53 53 53 53 53 53 53 53 53 53 53 53 53 53 53 53 53 53 53 53 53 53 53 53 53 53 255 255 255 7 7 255 255 255 21 255 255 255 255 71 71 71 71 71 71 255 255 255 255 71 71 71 255 255 255 21 21 255 255 255 255 255 255 255 21 255 255 64 64 64 64 64 64 64 64 64 64 64 64 64 64 64 64 64 64 64 64 64 64 64 64 64 64 64 64 64 64 64 64 64 64 64 64 64 64 64 64 64 64 64 64 64 64 64 64 64 64 64 64 64 64 64 64 64 64 64 255 255 255 19 19 19 19 19 19 19 19 19 19 255 255 255 5 5 5 5 5 5 5 5 5 5 5 5 5 5 5 5 5 5 5 5 5 5 5 5 5 5 5 5 5 5 5 5 5 5 5 5 5 5 5 5 5 5 5 5 5 5 5 5 5 5 5 5 5 5 5 255 
255 1 1 1 1 1 1 1 1 1 1 1 1 1 1 1 1 1 1 1 1 1 1 255 255 255 17 17 17 255 255 255 63 63 63 63 63 63 63 63 63 63 63 63 63 255 255 255 63 63 255 255 255 255 255 255 255 255 255 255 255 255 255 255 255 255 255 255 255 255 255 255 255 255 255 255 255 255 255 255 255 17 17 17 17 17 17 17 17 17 17 17 17 17 17 17 17 17 17 255 255 255 255 255 255 255 255 255 50 50 50 50 50 50 50 50 255 255 255 255 255 255 255 17 17 17 17 17 17 17 17 17 255 255 255 255 17 17 17 17 255 255 255 17 255 255 255 17 17 17 17 255 255 255 17 17 17 17 17 17 17 255 255 255 255 255 255 255 255 255 255 255 70 70 70 70 70 70 70 70 70 70 70 70 70 70 70 70 70 70 70 70 70 70 70 70 70 70 70 70 70 70 70 70 70 70 70 70 70 70 70 70 255 255 255 255 255 70 70 70 70 70 70 70 70 70 70 70 70 70 70 70 70 70 70 70 70 70 70 70 70 70 70 70 70 255 255 255 255 255 255 255 255 255 255 255 255 255 255 255 255 255 255 7 7 7 7 7 7 255 255 255 255 255 255 255 255 7 7 7 7 7 7 7 7 7 7 7 7 7 7 7 7 7 7 7 7 7 7 7 7 7 7 7 7 7 7 255 255 255 255 53 53 53 53 53 53 53 53 53 53 53 53 53 53 53 53 53 53 53 53 53 53 53 53 53 53 53 53 53 255 255 255 255 7 255 255 255 21 255 255 71 71 71 71 71 71 71 71 255 255 255 255 71 71 71 255 255 255 255 255 21 255 255 255 255 255 255 255 255 255 64 64 64 64 64 64 64 64 64 64 64 64 64 64 64 64 64 64 64 64 64 64 64 64 64 64 64 64 64 64 64 64 64 64 64 64 64 64 64 64 64 64 64 64 64 64 64 64 64 64 64 64 64 64 64 64 64 64 64 255 255 19 19 19 19 19 19 19 19 19 19 19 255 255 255 255 255 255 255 5 5 5 5 5 5 5 5 5 5 5 5 5 5 5 5 5 5 5 5 5 5 5 5 5 5 5 5 5 5 5 5 5 5 5 5 5 5 5 5 5 5 5 5 5 5 5 5 5 5 5 255 
255 1 1 1 1 1 1 1 1 1 1 1 1 1 1 1 1 1 1 1 1 1 1 255 255 255 17 17 17 255 255 255 63 63 63 63 63 63 63 63 63 63 63 63 63 255 255 255 63 63 63 255 255 255 255 255 255 255 255 255 255 255 255 255 255 255 255 255 255 255 255 255 255 255 255 255 255 17 255 255 255 17 17 17 17 17 17 17 17 17 17 17 17 17 17 17 17 17 17 17 17 255 255 255 255 255 255 255 50 50 50 50 50 50 50 50 255 255 255 255 255 255 17 17 17 17 17 17 17 17 17 17 17 17 17 17 17 17 17 17 255 255 255 17 255 255 255 255 255 255 17 255 255 255 17 17 17 17 17 17 255 255 255 255 255 255 255 255 70 70 70 70 70 70 70 70 70 70 70 70 70 70 70 70 70 70 70 70 70 70 70 70 70 70 70 70 70 70 70 70 70 70 70 70 70 70 70 70 70 70 70 70 255 255 255 255 255 70 70 70 70 70 70 70 70 70 70 70 70 70 70 70 70 70 70 70 70 70 70 70 70 70 255 255 255 255 255 255 255 255 255 255 255 255 255 255 255 255 255 255 255 255 255 7 7 7 7 7 7 255 255 255 255 255 255 255 255 7 7 7 7 7 7 7 7 7 7 7 7 7 7 255 255 255 7 7 7 7 7 7 7 7 7 7 255 255 255 255 255 255 53 53 53 53 53 53 53 53 53 53 53 53 53 53 53 53 53 53 53 53 53 53 53 53 53 53 53 53 53 53 53 255 255 255 7 7 255 255 21 255 255 255 255 71 71 71 71 71 71 71 255 255 255 71 71 71 71 255 255 255 255 21 255 255 255 255 255 255 255 255 255 64 64 64 64 64 64 64 64 64 64 64 64 64 64 64 64 64 64 64 64 64 64 64 64 64 64 64 64 64 64 64 64 64 64 64 64 64 64 64 64 64 64 64 64 64 64 64 64 64 64 64 64 64 64 64 64 64 64 255 255 255 19 19 19 19 19 19 19 19 19 19 255 255 255 5 255 255 255 255 5 5 5 5 5 5 5 5 5 5 5 5 5 5 5 5 5 5 5 5 5 5 5 5 5 5 5 5 5 5 5 5 5 5 5 5 5 5 5 5 5 5 5 5 5 5 5 5 5 5 5 255 
255 1 1 1 1 1 1 1 1 1 1 1 1 1 1 1 1 1 1 1 1 1 1 255 255 17 17 17 17 255 255 63 63 63 63 63 63 63 63 63 63 63 63 63 63 255 255 255 63 63 63 255 255 255 255 255 255 255 255 255 255 255 255 255 255 255 255 255 255 255 255 255 255 255 255 255 255 17 17 17 17 17 17 17 17 17 17 17 17 17 17 17 17 17 17 17 17 17 17 17 17 255 255 255 255 255 255 255 50 50 50 50 50 50 50 50 255 255 255 255 255 17 17 17 17 17 17 17 17 17 17 17 17 17 17 17 17 17 17 17 255 255 255 255 17 17 255 255 255 255 17 255 255 255 17 17 17 17 17 17 255 255 255 70 255 255 255 255 70 70 70 70 70 70 70 70 70 70 70 70 70 70 70 70 70 70 70 70 70 70 70 70 70 70 70 70 70 70 70 70 70 70 70 70 70 70 70 70 70 70 70 70 255 255 24 255 255 255 255 70 70 70 70 70 70 70 70 70 70 70 70 70 70 70 70 70 70 70 70 70 70 255 255 255 255 255 255 255 255 70 255 255 255 255 255 255 255 255 255 255 255 7 7 7 7 7 7 7 7 255 255 255 255 255 255 7 7 7 7 7 7 7 7 7 7 7 7 7 7 7 7 255 255 255 255 7 7 7 7 7 7 7 7 7 255 255 255 255 255 255 53 53 53 53 53 53 53 53 53 53 53 53 53 53 53 53 53 53 53 53 53 53 53 53 53 53 53 53 53 53 53 53 255 255 7 7 255 255 21 255 255 255 255 71 71 71 71 71 71 71 71 71 71 71 71 71 71 255 255 255 255 255 255 255 255 255 255 255 255 255 64 64 64 64 64 64 64 64 64 64 64 64 64 64 64 64 64 64 64 64 64 64 64 64 64 64 64 64 64 64 64 64 64 64 64 64 64 64 64 64 64 64 64 64 64 64 64 64 64 64 64 64 64 64 64 64 64 64 64 255 255 255 19 19 19 19 19 19 19 19 19 19 255 255 255 255 255 255 255 255 255 255 5 5 5 5 5 5 5 5 5 5 5 5 5 5 5 5 5 5 5 5 5 5 5 5 5 5 5 5 5 5 5 5 5 5 5 5 5 5 5 5 5 5 5 5 5 5 5 5 5 255 
255 1 1 1 1 1 1 1 1 1 1 1 1 1 1 1 1 1 1 1 1 1 1 255 255 255 17 17 17 255 255 63 63 63 63 63 63 63 63 63 63 63 63 63 63 63 63 63 63 63 255 255 255 255 255 255 255 255 255 63 255 255 255 255 255 255 255 255 255 255 255 255 255 255 255 255 255 17 17 17 17 17 17 17 17 17 17 17 17 17 17 17 17 17 17 17 17 17 17 17 17 17 17 255 255 255 255 255 50 50 50 50 50 50 50 50 255 255 255 255 255 17 17 17 17 17 17 17 17 17 17 17 17 17 17 17 17 17 255 255 255 255 255 255 255 255 255 255 255 255 255 255 255 255 17 17 17 17 17 17 255 255 70 70 70 70 70 70 70 70 70 70 70 70 70 70 70 70 70 70 70 70 70 70 70 70 70 70 70 70 70 70 70 70 70 70 70 70 70 70 70 70 70 70 70 70 70 70 70 70 70 70 255 255 255 255 255 255 255 255 70 70 70 70 70 70 70 70 70 70 70 70 70 70 70 70 70 70 70 70 255 255 255 255 255 255 255 255 255 255 255 255 255 255 255 255 255 255 255 255 7 7 7 7 255 255 255 255 255 255 255 255 255 255 255 7 7 7 7 7 7 7 7 7 7 7 7 7 7 7 7 255 255 255 255 7 7 7 7 7 7 7 7 7 255 255 53 255 255 255 53 53 53 53 53 53 53 53 53 53 53 53 53 53 53 53 53 53 53 53 53 53 53 53 53 53 53 53 53 53 53 53 255 255 7 7 255 255 21 255 255 255 255 71 71 71 71 71 71 71 71 71 71 71 71 71 71 255 255 255 255 255 255 255 255 255 255 255 255 255 64 64 64 64 64 64 64 64 64 64 64 64 64 64 64 64 64 64 64 64 64 64 64 64 64 64 64 64 64 64 64 64 64 64 64 64 64 64 64 64 64 64 64 64 64 64 64 64 64 64 64 64 64 64 64 64 64 64 255 255 255 19 19 19 19 19 19 19 19 19 19 19 255 255 5 255 255 255 255 255 255 255 255 5 5 5 5 5 5 5 5 5 5 5 5 5 5 5 5 5 5 5 5 5 5 5 5 5 5 5 5 5 5 5 5 5 5 5 5 5 5 5 5 5 5 5 5 5 5 5 5 255 
255 1 1 1 1 1 1 1 1 1 1 1 1 1 1 1 1 1 1 1 1 1 1 255 255 255 17 17 17 255 255 63 63 63 63 63 63 63 63 63 63 63 63 63 63 63 63 63 63 63 255 255 255 255 255 255 255 255 255 255 255 255 255 255 255 255 255 255 255 255 255 255 255 255 255 255 17 17 17 17 17 17 17 17 17 17 17 17 17 17 17 17 17 17 17 17 17 17 17 17 17 17 17 255 255 255 255 255 50 50 50 50 50 50 50 50 255 255 255 255 17 17 17 17 17 17 17 17 17 17 17 17 17 17 17 17 17 17 255 255 255 255 255 255 255 255 255 17 255 255 255 17 17 17 17 17 17 17 17 17 255 255 70 70 70 70 70 70 70 70 70 70 70 70 70 70 70 70 70 70 70 70 70 70 70 70 70 70 70 70 70 70 70 70 70 70 70 70 70 70 70 70 70 70 70 70 70 70 70 70 70 70 255 255 255 255 24 255 255 255 255 70 70 70 70 70 70 70 70 70 70 70 70 70 70 70 70 70 70 255 255 255 255 255 255 255 255 255 255 255 255 255 255 255 255 255 255 255 255 255 255 255 7 7 255 255 255 255 255 255 255 255 255 255 255 7 7 7 7 7 7 7 7 7 7 7 7 7 7 7 255 255 255 255 255 7 7 7 7 7 7 7 7 7 255 255 53 255 255 255 53 53 53 53 53 53 53 53 53 53 53 53 53 53 53 53 53 53 53 53 53 53 53 53 53 53 53 53 53 53 53 53 255 255 255 7 255 255 255 255 255 255 71 71 71 71 71 71 71 71 71 71 71 71 71 71 71 71 255 255 255 255 255 255 255 255 255 255 255 255 64 64 64 64 64 64 64 64 64 64 64 64 64 64 64 64 64 64 64 64 64 64 64 64 64 64 64 64 64 64 64 64 64 64 64 64 64 64 64 64 64 64 64 64 64 64 64 64 64 64 64 64 64 64 64 64 64 64 255 255 255 19 19 19 19 19 19 19 19 19 255 255 255 255 5 255 255 255 255 255 255 255 255 255 255 255 255 5 5 5 5 5 5 5 5 5 5 5 5 5 5 5 5 5 5 5 5 5 5 5 5 5 5 5 5 5 5 5 5 5 5 5 5 5 5 5 5 5 5 5 5 255 
255 1 1 1 1 1 1 1 1 1 1 1 1 1 1 1 1 1 1 1 1 1 1 255 255 255 17 17 255 255 255 63 63 63 63 63 63 63 63 63 63 63 63 63 63 63 63 63 63 63 255 255 255 255 255 255 255 255 255 255 255 63 255 255 255 255 255 255 255 255 255 255 255 255 255 255 17 17 17 17 17 17 17 17 17 17 17 17 17 17 17 17 17 17 17 17 17 17 17 17 17 17 17 255 255 255 255 255 50 50 50 50 50 50 50 50 255 255 255 255 17 17 17 17 17 17 17 17 17 17 17 17 17 17 17 17 17 17 255 255 255 255 17 17 255 255 255 17 255 255 255 17 17 17 17 17 17 17 17 17 255 255 70 70 70 70 70 70 70 70 70 70 70 70 70 70 70 70 70 70 70 70 70 70 70 70 70 70 70 70 70 70 70 70 70 70 70 70 70 70 70 70 70 70 70 70 70 70 70 70 70 70 70 255 255 255 255 24 255 255 255 255 255 255 255 255 70 70 70 70 70 70 70 70 70 70 70 70 255 255 255 255 255 255 255 255 255 255 255 255 255 255 255 255 255 255 255 255 255 255 255 255 7 7 255 255 255 255 255 54 54 255 255 255 255 7 7 7 7 7 7 7 7 7 7 7 7 7 7 255 255 255 255 7 7 7 7 7 7 7 7 7 7 7 255 255 53 53 53 53 53 53 53 53 53 53 53 53 53 53 53 53 53 53 53 53 53 53 53 53 53 53 53 53 53 53 53 53 53 53 53 53 255 255 255 255 255 255 255 255 255 255 71 71 71 71 71 71 71 71 71 71 71 71 71 71 71 71 255 255 255 255 255 255 255 255 255 255 255 255 64 64 64 64 64 64 64 64 64 64 64 64 64 64 64 64 64 64 64 64 64 64 64 64 64 64 64 64 64 64 64 64 64 64 64 64 64 64 64 64 64 64 64 64 64 64 64 64 64 64 64 64 64 64 64 64 64 255 255 255 19 19 19 19 19 19 19 19 19 19 255 255 255 255 5 255 255 255 255 255 255 255 255 255 255 255 255 255 255 255 255 255 5 5 5 5 5 5 5 5 5 5 5 5 5 5 5 5 5 5 5 5 5 5 5 5 5 5 5 5 5 5 5 5 5 5 5 5 5 5 5 255 
255 1 1 1 1 1 1 1 1 1 1 1 1 1 1 1 1 1 1 1 1 1 1 255 255 255 17 17 255 255 255 255 63 63 63 63 63 63 63 63 63 63 63 63 63 63 63 63 63 63 255 255 255 255 255 255 255 255 255 255 255 63 255 255 255 255 255 255 255 255 255 255 255 255 255 255 17 17 17 17 17 17 17 17 17 17 17 17 17 17 17 17 17 17 17 17 17 17 17 17 17 17 17 17 255 255 255 255 255 50 50 50 50 50 50 255 255 255 255 255 255 255 17 17 17 17 17 17 17 17 17 17 17 17 17 17 17 17 17 17 17 17 17 17 17 17 17 255 255 255 17 17 17 17 17 17 17 17 17 17 255 255 70 70 70 70 70 70 70 70 70 70 70 70 70 70 70 70 70 70 70 70 70 70 70 70 70 70 70 70 70 70 70 70 70 70 70 70 70 70 70 70 70 70 70 70 70 70 70 70 70 70 70 70 255 255 255 255 255 255 255 255 255 255 255 255 70 70 70 70 70 70 70 70 70 70 70 255 255 255 255 255 255 255 255 255 255 255 255 255 255 7 7 255 255 255 25 255 255 255 255 255 255 7 7 7 255 255 255 255 255 255 255 255 255 7 7 7 7 7 7 7 7 7 7 7 7 7 255 255 255 255 255 7 7 7 7 7 7 7 7 255 255 255 255 255 53 53 53 53 53 53 53 53 53 53 53 53 53 53 53 53 53 53 53 53 53 53 53 53 53 53 53 53 53 53 53 53 53 53 53 53 53 255 255 255 7 255 255 255 255 255 71 71 71 71 71 71 71 71 71 71 71 71 71 71 71 71 255 255 255 255 255 255 255 255 255 255 255 255 64 64 64 64 64 64 64 64 64 64 64 64 64 64 64 64 64 64 64 64 64 64 64 64 64 64 64 64 64 64 64 64 64 64 64 64 64 64 64 64 64 64 64 64 64 64 64 64 64 64 64 64 64 64 64 64 64 255 255 255 19 19 19 19 19 19 19 19 19 255 255 255 5 5 5 5 5 5 255 255 255 255 255 255 255 255 255 255 255 255 255 255 255 5 5 5 5 5 5 5 5 5 5 5 5 5 5 5 5 5 5 5 5 5 5 5 5 5 5 5 5 5 5 5 5 5 5 5 5 5 5 255 
255 1 1 1 1 1 1 1 1 1 1 1 1 1 1 1 1 1 1 1 1 1 1 255 255 255 17 17 255 255 255 255 63 63 63 63 63 63 63 63 63 63 63 63 63 63 63 63 63 63 255 255 255 255 255 255 17 255 255 255 255 255 255 255 255 255 255 255 255 255 255 63 63 255 255 255 17 17 17 17 255 255 255 17 17 17 17 17 17 17 17 17 17 17 17 17 17 17 17 17 17 17 255 255 255 255 255 255 255 50 50 50 50 50 50 255 255 255 255 255 255 255 17 17 255 255 255 255 17 17 17 17 17 17 17 255 255 255 17 17 17 17 17 17 17 17 17 255 255 255 255 17 17 17 17 17 17 255 255 255 255 255 70 70 70 70 70 70 70 70 70 70 70 70 70 70 70 70 70 70 70 70 70 70 70 70 70 70 70 70 70 70 70 70 70 70 70 70 70 70 70 70 70 70 70 70 70 70 70 70 70 70 70 70 70 255 255 255 255 255 70 255 255 255 255 255 70 70 70 70 70 70 70 70 70 70 255 255 255 255 255 255 255 255 255 255 255 255 255 255 255 7 7 7 255 255 25 25 255 255 255 255 255 255 7 255 255 255 255 255 255 255 255 255 7 7 7 7 7 7 7 7 7 7 7 7 7 255 255 255 255 255 255 7 7 7 7 7 7 7 7 255 255 255 255 255 53 53 53 53 53 53 53 53 53 53 53 53 53 53 53 53 53 53 53 53 53 53 53 53 53 53 53 53 53 53 53 53 53 53 53 53 53 53 255 255 7 255 255 255 255 255 255 71 71 71 71 71 71 71 71 71 71 71 71 71 71 71 71 255 255 255 255 255 255 255 255 255 255 255 64 64 64 64 64 64 64 64 64 64 64 64 64 64 64 64 64 64 64 64 64 64 64 64 64 64 64 64 64 64 64 64 64 64 64 64 64 64 64 64 64 64 64 64 64 64 64 64 64 64 64 64 64 64 64 64 64 255 255 255 255 255 19 19 19 19 19 19 19 255 255 255 5 5 5 5 255 255 255 255 255 255 255 255 255 255 255 255 255 255 255 255 255 5 5 5 5 5 5 5 5 5 5 5 5 5 5 5 5 5 5 5 5 5 5 5 5 5 5 5 5 5 5 5 5 5 5 5 5 5 5 255 
255 1 1 1 1 1 1 1 1 1 1 1 1 1 1 1 1 1 1 1 1 1 1 255 255 255 17 17 17 255 255 255 63 255 255 255 63 63 63 63 63 63 63 63 63 63 63 63 255 255 255 255 255 255 255 255 17 255 255 255 255 255 255 255 255 255 255 255 255 255 255 255 255 255 255 17 17 17 17 17 255 255 255 17 17 17 17 17 17 17 17 17 17 17 17 17 17 17 17 17 17 17 255 255 255 255 255 255 255 255 50 50 50 50 50 255 255 255 255 255 255 255 17 17 255 255 255 255 17 17 17 17 17 17 17 255 255 255 17 17 17 17 17 17 17 17 17 255 255 255 255 17 255 255 255 17 17 255 255 255 255 255 70 70 70 70 70 70 70 70 70 70 70 70 70 70 70 70 70 70 70 70 70 70 70 70 70 70 70 70 70 70 70 70 70 70 70 70 70 70 70 70 70 70 70 70 70 70 70 70 70 70 70 70 70 255 255 255 255 255 70 70 70 70 70 70 70 70 70 70 70 70 70 70 70 255 255 255 255 255 255 255 23 255 255 255 255 255 255 255 7 7 7 7 255 255 255 25 255 255 255 255 255 255 7 255 255 255 255 255 255 255 255 255 7 7 7 7 7 7 7 7 7 7 7 7 255 255 255 255 255 7 7 7 7 7 7 7 7 7 7 255 255 255 255 255 53 53 53 53 53 53 53 53 53 53 53 53 53 53 53 53 53 53 53 53 53 53 53 53 53 53 53 53 53 53 53 53 53 53 53 53 53 53 255 255 255 255 255 255 255 255 255 71 71 71 71 71 71 71 71 71 71 71 71 71 71 71 71 255 255 255 255 255 255 255 255 255 255 255 64 64 64 64 64 64 64 64 64 64 64 64 64 64 64 64 64 64 64 64 64 64 64 64 64 64 64 64 64 64 64 64 64 64 64 64 64 64 64 64 64 64 64 64 64 64 64 64 64 64 64 64 64 64 64 64 255 255 255 255 255 255 19 19 19 19 19 19 19 255 255 5 5 5 5 5 255 255 255 255 255 255 255 255 255 255 255 255 255 255 255 255 255 5 5 5 255 255 255 255 5 5 5 5 5 5 5 5 5 5 5 5 5 5 5 5 5 5 5 5 5 5 5 5 5 5 5 5 5 5 5 255 
255 1 1 1 1 1 1 1 1 1 1 1 1 1 1 1 1 1 1 1 1 1 1 255 255 255 17 17 17 255 255 255 63 255 255 255 63 63 63 63 63 63 63 63 63 63 63 63 255 255 255 255 255 255 255 255 255 255 255 255 255 255 255 255 255 255 255 255 255 255 255 255 255 255 255 255 17 17 17 17 255 255 255 17 17 17 17 17 17 17 17 17 17 17 17 17 17 17 17 17 17 17 255 255 255 255 255 255 255 255 50 50 50 50 255 255 255 255 255 255 17 17 17 17 255 255 255 255 255 17 17 255 255 255 255 255 255 255 17 17 17 17 17 17 17 17 17 255 255 255 255 255 255 255 255 255 255 255 255 255 255 255 70 70 70 70 70 70 70 70 70 70 70 70 70 70 70 70 70 70 70 70 70 70 70 70 70 70 70 70 70 70 70 70 70 70 70 70 70 70 70 70 70 70 70 70 70 70 70 70 70 70 70 70 70 255 255 255 255 255 70 70 70 70 70 70 70 70 70 70 70 70 70 70 255 255 255 255 255 255 255 255 255 255 255 255 255 255 255 255 7 7 7 7 255 255 255 25 255 255 255 255 255 255 7 255 255 255 255 255 255 255 255 255 7 7 7 7 7 7 7 7 7 7 7 7 255 255 255 255 255 7 7 7 7 7 7 7 7 255 255 255 255 255 53 53 53 53 53 53 53 53 53 53 53 53 53 53 53 53 53 53 53 53 53 53 53 53 53 53 53 53 53 53 53 53 53 53 53 53 53 53 53 53 255 255 255 7 255 255 21 255 255 255 71 71 71 71 71 71 71 71 71 71 71 71 71 71 71 255 255 255 255 255 255 255 255 255 255 255 64 64 64 64 64 64 64 64 64 64 64 64 64 64 64 64 64 64 64 64 64 64 64 64 64 64 64 64 64 64 64 64 64 64 64 64 64 64 64 64 64 64 64 64 64 64 64 64 64 64 64 64 64 64 64 64 255 255 255 255 255 255 19 19 19 19 19 19 255 255 255 5 5 5 5 5 255 255 255 5 255 255 255 255 255 255 255 255 255 255 255 255 255 255 255 255 255 255 255 255 5 5 5 5 5 5 5 5 5 5 5 5 5 5 5 5 5 5 5 5 5 5 5 5 5 5 5 5 5 5 5 255 
255 1 1 1 1 1 1 1 1 1 1 1 1 1 1 1 1 1 1 1 1 1 1 255 255 255 17 17 17 255 255 255 63 255 255 255 63 63 63 63 63 63 255 255 255 63 63 255 255 255 255 255 255 255 255 255 255 255 255 255 255 255 255 255 255 255 255 255 255 255 255 17 255 255 255 255 255 255 17 17 255 255 255 17 17 17 17 17 17 17 17 17 17 17 17 17 17 17 17 17 17 17 17 17 17 255 255 255 255 255 50 50 50 50 255 255 255 255 255 255 17 17 17 17 255 255 255 255 255 17 17 255 255 255 255 255 255 17 17 17 17 17 17 17 17 17 17 255 255 255 255 255 255 255 255 255 255 255 255 70 70 70 70 70 70 70 70 70 70 70 70 70 70 70 70 70 70 70 70 70 70 70 70 70 70 70 70 70 70 70 70 70 70 70 70 70 70 70 70 70 70 70 70 70 70 70 70 70 70 70 70 70 70 70 70 255 255 255 255 255 70 70 70 70 70 70 70 70 70 70 70 70 70 70 255 255 255 255 255 255 255 255 255 255 255 255 255 255 7 7 7 7 7 7 7 255 255 25 255 255 7 255 255 255 255 255 255 255 255 255 255 255 255 7 7 7 7 7 7 7 7 7 7 7 7 7 255 255 255 255 7 7 7 7 7 7 7 7 7 255 255 255 255 255 53 53 53 53 53 53 53 53 53 53 53 53 53 53 53 53 53 53 53 53 53 53 53 53 53 53 53 53 53 53 53 53 53 53 53 53 53 53 53 53 53 255 255 255 255 255 255 255 255 255 71 71 71 71 71 71 71 71 71 71 71 71 71 71 71 71 255 255 21 255 255 255 255 255 255 255 255 64 64 64 64 64 64 64 64 64 64 64 64 64 64 64 64 64 64 64 64 64 64 64 64 64 64 64 64 64 64 64 64 64 64 64 64 64 64 64 64 64 64 64 64 64 64 64 64 64 64 64 64 64 64 255 255 255 19 19 19 19 19 19 19 19 19 255 255 255 255 5 5 5 5 5 5 5 5 5 5 5 255 255 255 255 255 255 255 255 255 255 255 255 255 255 255 255 255 255 5 5 5 5 5 5 5 5 5 5 5 5 5 5 5 5 5 5 5 5 5 5 5 5 5 5 5 5 5 5 5 255 
255 1 1 1 1 1 1 1 1 1 1 1 1 1 1 1 1 1 1 1 1 1 1 255 255 255 17 17 17 255 255 255 63 255 255 255 63 63 63 63 63 63 255 255 255 63 63 255 255 255 255 255 255 255 255 255 255 255 255 255 255 255 255 255 255 255 255 17 17 17 17 17 255 255 255 255 255 255 17 255 255 255 255 255 255 255 255 255 17 17 17 17 17 17 17 17 17 17 17 17 17 17 17 17 17 255 255 255 255 255 255 50 50 50 255 255 255 255 255 255 17 17 17 17 17 17 255 255 255 255 255 255 255 255 255 255 255 17 17 17 17 17 17 255 255 255 255 255 255 255 255 255 255 255 255 255 255 70 70 255 255 255 255 255 70 70 70 70 255 255 255 70 70 70 70 70 70 70 70 70 70 70 70 70 70 70 70 70 70 70 70 70 70 70 70 70 70 70 70 70 70 70 70 70 70 70 70 70 70 70 70 70 70 70 70 255 255 255 255 255 255 70 70 70 70 70 70 70 70 70 70 70 70 255 255 255 255 255 255 255 255 255 255 255 255 255 7 7 7 7 7 7 7 7 7 255 255 25 255 255 7 255 255 255 255 255 255 54 255 255 255 255 255 7 7 7 7 7 7 7 7 7 7 7 7 7 7 7 7 7 7 7 7 7 7 7 7 7 7 255 255 255 255 255 53 53 53 53 53 53 53 53 53 53 53 53 53 53 53 53 53 53 53 53 53 53 53 53 53 53 53 53 53 53 53 53 53 53 53 53 53 53 53 53 53 255 255 255 255 255 255 21 255 255 71 71 71 71 71 71 71 71 71 71 71 71 71 71 71 71 255 255 255 255 255 255 255 255 255 255 255 64 64 64 64 64 64 64 64 64 64 64 64 64 64 64 64 64 64 64 64 64 64 64 64 64 64 64 64 64 64 64 64 64 64 64 64 64 64 64 64 64 64 64 64 64 64 64 64 64 64 64 64 64 64 255 255 255 19 19 19 19 19 19 19 19 19 255 255 255 5 5 5 5 5 5 5 5 5 5 5 5 255 255 255 255 255 255 255 255 255 255 255 255 255 255 255 5 5 255 255 255 5 5 5 5 5 5 5 5 5 5 5 5 5 5 5 5 5 5 5 5 5 5 5 5 5 5 5 5 5 255 
255 1 1 1 1 1 1 1 1 1 1 1 1 1 1 1 1 1 1 1 1 1 1 255 255 255 17 17 17 255 255 255 63 63 63 63 63 63 63 63 63 63 255 255 255 63 63 255 255 255 255 255 255 255 255 255 255 255 255 255 255 255 255 255 255 255 255 17 17 17 17 255 255 255 255 255 255 255 255 255 255 255 255 255 255 255 255 255 17 17 17 17 17 17 17 17 17 17 17 17 17 17 17 17 17 17 17 17 255 255 255 50 50 50 255 255 255 17 17 17 17 17 17 17 17 17 17 17 17 255 255 255 255 255 255 255 255 17 17 17 255 255 255 255 255 255 255 255 255 70 70 70 70 70 70 70 70 70 70 255 255 255 255 255 70 70 70 70 255 255 255 70 70 70 70 70 70 70 70 70 70 70 70 70 70 70 70 70 70 70 70 70 70 70 70 70 70 70 70 70 70 70 70 70 70 255 255 255 255 255 255 255 255 70 70 70 255 255 255 255 255 70 70 70 70 70 70 70 70 70 70 70 255 255 255 255 255 255 255 23 255 255 255 255 255 255 255 255 7 7 7 7 7 7 7 255 255 25 255 255 7 7 255 255 255 255 255 255 255 255 255 255 7 7 7 7 7 7 7 7 7 7 7 7 7 7 7 7 7 7 7 7 7 7 7 7 7 7 7 255 255 255 255 53 53 53 53 53 53 53 53 53 53 53 53 53 53 53 53 53 53 53 53 53 53 53 53 53 53 53 53 53 53 53 53 53 53 53 53 53 53 53 53 53 53 53 255 255 7 255 255 21 255 255 71 71 71 71 71 71 71 71 71 71 71 71 71 71 71 71 255 255 255 255 255 255 5 255 255 255 255 64 64 64 64 64 64 64 64 64 64 64 64 64 64 64 64 64 64 64 64 64 64 64 64 64 64 64 64 64 64 64 64 64 64 64 64 64 64 64 64 64 64 64 64 64 64 64 64 64 64 64 64 64 64 255 255 19 19 19 19 19 19 19 19 19 255 255 255 5 5 5 5 5 5 5 5 5 5 5 5 5 255 255 255 255 255 255 5 5 255 255 255 255 255 255 255 255 255 255 255 255 5 5 5 255 255 255 255 255 255 255 255 255 255 5 5 5 5 5 5 5 5 5 5 5 5 5 5 5 5 255 
255 1 1 1 1 1 1 1 1 1 1 1 1 1 1 1 1 1 1 1 1 1 1 255 255 255 255 17 17 255 255 255 63 63 63 63 63 63 63 63 63 63 63 63 63 63 63 63 63 63 63 63 63 63 63 255 255 255 255 255 255 255 255 255 255 17 17 17 17 17 17 255 255 255 255 255 255 255 255 255 255 255 255 255 255 255 255 255 17 17 17 17 17 17 17 17 17 17 17 17 17 17 17 17 17 17 17 17 255 255 255 50 50 50 255 255 255 17 17 17 17 17 17 17 17 17 17 17 255 255 255 255 255 255 255 255 255 17 17 17 255 255 255 255 255 255 255 255 255 255 255 70 70 70 70 70 70 70 70 255 255 255 255 255 70 70 70 70 255 255 255 70 70 70 70 70 70 70 70 70 70 70 70 70 70 70 70 70 70 70 70 70 70 70 70 70 70 70 70 70 70 70 70 70 70 255 255 255 255 255 255 255 255 70 70 70 70 255 255 255 255 70 70 70 70 70 70 70 70 70 70 255 255 255 255 255 255 255 23 255 255 255 255 7 7 255 255 255 7 7 7 7 7 7 7 255 255 25 255 255 7 7 7 7 7 255 255 255 255 255 255 255 7 7 7 7 7 7 7 7 7 7 7 7 7 7 7 7 7 7 7 7 7 7 7 7 7 7 7 255 255 53 53 53 53 53 53 53 53 53 53 53 53 53 53 53 53 53 53 53 53 53 53 53 53 53 53 53 53 53 53 53 53 53 53 53 53 53 53 53 53 53 53 53 53 53 255 255 7 255 255 21 255 255 255 71 71 71 71 71 71 71 71 71 71 71 71 71 71 71 255 255 255 255 255 255 255 255 255 255 255 64 64 64 64 64 64 64 64 64 64 64 64 64 64 64 64 64 64 64 64 64 64 64 64 64 64 64 64 64 64 64 64 64 64 64 64 64 64 64 64 64 64 64 64 64 64 64 64 64 64 64 64 64 255 255 255 19 19 19 19 19 19 19 19 255 255 255 255 5 5 5 5 5 5 5 5 5 5 5 5 5 5 5 5 5 255 255 255 255 255 255 255 255 255 255 255 255 255 255 255 255 255 255 255 255 255 255 255 255 255 255 255 255 255 255 5 5 5 5 5 5 5 5 5 5 5 5 5 5 5 255 
255 1 1 1 1 1 1 1 1 1 1 1 1 1 1 1 1 1 1 1 1 1 1 255 255 255 255 17 17 255 255 255 63 63 63 63 63 63 63 63 63 63 63 63 63 63 63 63 63 63 63 255 255 255 255 255 255 255 255 255 255 255 255 255 255 255 255 17 17 17 255 255 255 255 255 255 255 255 255 255 255 255 255 255 255 255 255 255 17 17 17 17 17 17 17 17 17 17 17 17 17 17 17 17 17 17 17 17 17 255 255 255 50 50 255 255 255 17 17 17 17 17 17 17 17 17 17 17 255 255 255 17 17 17 255 255 255 17 17 17 255 255 255 255 255 255 255 255 255 255 255 70 70 70 70 70 70 70 70 70 70 70 70 70 70 70 70 70 255 255 255 70 70 70 70 70 70 70 70 70 70 70 70 70 70 70 70 70 70 70 70 70 70 70 70 70 70 70 70 70 70 70 70 70 70 255 255 255 255 255 255 255 255 70 70 70 70 255 255 255 255 70 70 70 70 70 70 70 70 70 255 255 255 255 255 255 255 23 255 255 255 255 255 7 7 255 255 255 255 7 7 7 7 7 7 255 255 25 255 255 7 7 7 7 255 255 255 255 255 255 255 255 7 7 7 7 7 7 7 7 7 7 7 7 7 7 7 7 7 7 7 7 7 7 7 7 7 7 7 255 255 255 255 53 53 53 53 53 53 53 53 53 53 53 53 53 53 53 53 53 53 53 53 53 53 53 53 53 53 53 53 53 53 53 53 53 53 53 53 53 53 53 53 53 53 53 255 255 7 255 255 255 255 255 255 71 71 71 71 71 71 71 71 71 71 71 71 71 71 71 71 255 255 255 255 255 255 255 255 255 255 64 64 64 64 64 64 64 64 64 64 64 64 64 64 64 64 64 64 64 64 64 64 64 64 64 64 64 64 64 64 64 64 64 64 64 64 64 64 64 64 64 64 64 64 64 64 64 64 64 64 64 64 64 255 255 255 19 19 19 19 19 19 19 19 255 255 255 5 5 5 5 5 5 5 5 5 5 5 5 5 5 5 5 5 5 255 255 255 255 255 255 255 255 255 255 255 255 255 255 255 255 255 255 255 255 255 255 255 255 255 255 255 255 255 255 255 255 255 255 5 5 5 5 5 5 5 5 5 5 5 255 
255 1 1 1 1 1 1 1 1 1 1 1 1 1 1 1 1 1 1 1 1 1 1 1 255 255 255 17 17 255 255 255 255 255 63 63 63 63 63 63 63 63 63 63 63 63 63 63 63 63 63 255 255 255 255 255 255 255 255 255 255 255 255 255 255 255 255 255 17 255 255 255 255 255 255 255 255 255 255 255 17 17 255 255 255 255 255 255 17 17 17 17 17 17 17 17 17 17 17 17 17 17 17 17 17 17 17 17 17 255 255 255 255 50 255 255 255 17 17 17 17 17 17 17 17 17 17 17 255 255 255 17 17 17 17 17 17 17 17 17 17 255 255 255 17 17 255 255 255 255 255 255 255 255 70 70 70 70 70 70 70 70 70 70 70 70 70 70 255 255 255 70 70 70 70 70 70 70 70 70 70 70 70 70 70 70 70 70 70 70 70 70 70 70 70 70 70 70 70 70 70 70 70 70 70 70 255 255 255 255 255 255 255 70 70 70 70 255 255 255 255 255 70 70 70 70 70 70 70 255 255 255 255 255 255 255 23 255 255 255 255 255 255 7 7 255 255 255 255 7 7 7 7 7 7 255 255 255 255 255 7 7 7 7 255 255 255 255 255 255 255 7 7 7 7 7 7 7 7 7 7 7 7 7 7 7 7 7 7 7 7 7 7 7 7 7 7 7 255 255 255 255 255 53 53 53 53 53 53 53 53 53 53 53 53 53 53 53 53 53 53 53 53 53 53 53 53 53 53 53 53 53 53 53 53 53 53 53 53 53 53 53 53 53 53 53 255 255 255 255 255 255 255 255 255 71 71 71 71 71 71 71 71 71 71 71 71 71 255 255 255 255 255 255 255 255 255 255 255 255 64 64 64 64 64 64 64 64 64 64 64 64 64 64 64 64 64 64 64 64 64 64 64 64 64 64 64 64 64 64 64 64 64 64 64 64 64 64 64 64 64 64 64 64 64 64 64 64 64 64 64 64 64 255 255 255 19 19 19 19 19 19 19 19 255 255 255 255 5 5 5 5 5 5 5 5 5 5 5 5 5 5 5 5 5 5 255 255 255 255 255 255 255 255 255 255 255 255 255 255 255 255 255 255 255 255 255 255 255 255 255 255 255 255 255 255 255 255 255 255 255 255 255 255 5 5 5 5 5 5 5 255 
255 1 1 1 1 1 1 1 1 1 1 1 1 1 1 1 1 1 1 1 1 1 1 1 255 255 255 255 17 255 255 255 255 255 63 63 63 63 63 63 63 63 63 63 63 255 255 255 63 255 255 255 255 255 255 255 255 255 255 255 255 255 255 255 255 255 255 255 255 255 255 255 255 255 255 255 255 255 255 255 255 255 255 255 255 255 255 255 17 17 17 17 17 17 17 17 17 17 17 17 17 17 17 17 17 17 17 17 17 255 255 255 255 50 255 255 255 255 17 17 17 17 17 17 255 255 255 17 255 255 255 17 17 17 17 17 17 17 255 255 255 255 255 255 17 17 255 255 255 255 255 255 255 255 70 70 70 70 70 70 70 70 70 70 70 70 70 70 255 255 255 70 70 70 70 70 70 70 70 70 70 70 70 70 70 70 70 70 70 70 70 70 70 70 70 70 70 70 70 70 70 70 70 70 255 255 255 255 255 255 255 255 255 70 255 255 255 255 255 255 255 255 70 70 70 70 70 70 255 255 255 255 255 255 255 23 255 255 255 255 255 255 255 7 255 255 255 255 255 255 7 7 7 7 7 255 255 255 255 255 7 7 7 7 255 255 255 54 255 255 255 7 7 7 7 7 7 7 7 7 7 7 7 7 7 7 7 7 7 7 7 7 7 7 7 7 255 255 255 255 255 255 255 53 53 53 53 53 53 53 53 53 53 53 53 53 53 53 53 53 53 53 53 53 53 53 53 53 53 53 53 53 53 53 53 53 53 53 53 53 53 53 53 53 53 53 255 255 255 7 255 255 255 255 255 71 71 71 71 71 71 71 71 71 71 71 71 71 255 255 255 255 255 255 255 255 255 255 255 255 255 255 64 64 64 64 64 64 64 64 64 64 64 64 64 64 64 64 64 64 64 64 64 64 64 64 64 64 64 64 64 64 64 64 64 64 64 64 64 64 64 64 64 64 64 64 64 64 64 64 64 64 64 255 255 255 255 255 19 19 19 19 19 19 255 255 255 255 5 5 5 5 5 5 5 5 5 5 5 5 5 5 5 5 5 5 255 255 255 255 255 255 255 255 5 5 5 255 255 255 255 255 255 255 255 255 255 255 255 255 255 255 255 255 255 255 255 255 255 255 255 255 255 255 255 255 255 255 255 255 5 255 
255 1 1 1 1 1 1 1 1 1 1 1 1 1 1 1 1 1 1 1 1 1 1 1 255 255 255 255 17 255 255 255 255 255 63 63 63 63 63 63 63 63 63 63 63 255 255 255 63 255 255 255 255 255 255 255 255 255 255 255 255 255 255 255 255 255 255 255 255 255 255 255 255 255 255 255 17 17 17 255 255 255 17 17 17 17 17 17 17 17 17 17 17 17 17 17 17 17 17 17 17 17 17 17 17 17 17 17 17 255 255 255 255 255 50 255 255 255 17 17 17 17 17 17 255 255 255 17 17 17 17 17 17 17 17 17 17 17 255 255 255 17 17 17 255 255 255 255 255 255 255 255 255 255 70 70 70 70 70 70 70 70 70 70 70 70 70 70 255 255 255 70 70 70 70 70 70 70 70 70 70 70 70 70 70 70 70 70 70 70 70 70 70 70 70 70 70 70 70 70 70 70 70 70 255 255 255 255 255 255 255 255 255 70 255 255 255 255 255 255 255 255 70 70 70 70 70 255 255 255 255 255 255 255 23 255 255 255 255 255 255 255 7 7 255 255 255 255 255 255 7 7 255 255 255 255 255 255 255 255 7 7 7 255 255 255 255 54 255 255 255 7 7 7 7 7 7 7 7 7 7 7 7 7 7 7 7 7 7 7 7 7 7 7 7 7 255 255 255 255 255 255 255 255 255 53 53 53 53 53 53 53 53 53 53 53 53 53 53 53 53 53 53 53 53 53 53 53 53 53 53 53 53 53 53 53 53 53 53 53 53 53 53 53 53 53 53 255 255 7 255 255 255 255 255 255 255 71 71 71 71 71 71 71 71 71 71 71 255 255 255 71 255 255 255 255 255 255 255 255 255 255 64 64 64 64 64 64 64 64 64 64 64 64 64 64 64 64 64 64 64 64 64 64 64 64 64 64 64 64 64 64 64 64 64 64 64 64 64 64 64 64 64 64 64 64 64 64 64 64 64 64 255 255 255 255 255 255 19 19 19 19 19 19 255 255 255 5 5 5 5 5 5 5 5 5 5 5 5 5 5 5 5 5 5 5 5 5 5 255 255 255 255 255 5 5 5 255 255 255 255 5 255 255 255 255 255 255 255 255 255 255 255 255 255 255 255 255 255 255 255 255 255 255 255 255 255 255 255 255 255 255 
255 1 1 1 1 1 1 1 1 1 1 1 1 1 1 1 1 1 1 1 1 1 1 1 255 255 255 255 17 255 255 255 63 63 63 63 63 63 63 63 63 63 63 63 63 255 255 255 63 255 255 255 255 255 255 255 255 255 255 255 255 255 17 255 255 255 255 255 255 255 255 255 255 255 255 255 17 17 17 255 255 255 17 17 17 17 17 17 17 17 17 17 17 17 17 17 17 17 17 17 17 17 17 17 17 17 17 17 17 17 17 255 255 255 50 255 255 255 17 17 17 17 17 17 255 255 255 17 17 17 17 17 17 17 17 17 17 17 255 255 255 17 255 255 255 255 255 255 255 70 70 70 70 70 70 70 70 70 70 70 70 70 70 70 70 70 70 70 255 255 255 255 70 70 70 70 70 70 70 70 70 70 70 70 70 70 70 70 70 70 70 70 70 70 70 70 70 70 70 70 70 70 70 70 255 255 255 255 255 255 70 70 70 70 255 255 255 255 255 255 255 255 70 70 70 70 255 255 255 255 255 255 255 23 255 255 255 255 7 7 7 7 7 7 255 255 255 255 255 255 7 7 255 255 255 255 255 255 255 255 7 7 7 255 255 255 54 54 255 255 7 7 7 7 7 7 7 7 7 7 7 7 7 7 7 7 7 7 7 7 7 7 7 7 7 255 255 255 255 255 255 255 255 255 255 53 53 53 53 53 53 53 53 53 53 53 53 53 53 53 53 53 53 53 53 53 53 53 53 53 53 53 53 53 53 53 53 53 53 53 53 53 53 53 53 53 53 255 255 7 255 255 21 255 255 255 255 71 71 71 71 71 71 71 71 71 71 71 71 71 71 71 255 255 255 5 5 255 255 255 255 255 64 64 64 64 64 64 64 64 64 64 64 64 64 64 64 64 64 64 64 64 64 64 64 64 64 64 64 64 64 64 64 64 64 64 64 64 64 64 64 64 64 64 64 64 64 64 64 64 64 64 255 255 255 255 255 255 19 19 19 19 19 19 255 255 255 5 5 5 5 5 5 5 5 5 5 5 5 5 5 5 5 5 5 5 5 5 5 5 5 5 5 5 5 5 5 5 5 5 5 5 255 255 255 255 255 255 255 255 255 255 255 255 255 255 255 255 255 255 255 255 255 26 26 26 26 26 255 255 255 255 
255 1 1 1 1 1 1 1 1 1 1 1 1 1 1 1 1 1 1 1 1 1 1 1 255 255 17 17 17 255 255 255 63 63 63 63 63 63 63 63 63 63 63 63 63 63 255 255 255 255 255 255 255 255 255 255 255 255 255 255 255 255 17 255 255 255 255 255 255 255 255 255 255 255 255 255 17 17 17 255 255 255 255 255 255 17 17 17 17 17 17 17 17 17 17 17 17 17 17 17 17 17 17 17 17 17 17 17 17 17 17 255 255 255 255 255 255 255 17 17 17 17 17 17 255 255 255 255 255 255 17 17 17 17 17 17 17 17 17 17 17 17 255 255 255 255 70 70 70 70 70 70 70 70 70 70 70 70 70 70 70 70 70 70 70 70 70 70 255 255 255 255 255 70 70 70 70 70 70 70 70 70 70 70 70 70 70 70 70 70 70 70 70 70 70 70 70 70 70 70 70 70 70 70 255 255 255 255 255 255 70 70 70 70 70 70 70 255 255 255 255 255 255 70 70 70 255 255 255 255 255 255 23 255 255 255 255 7 7 7 7 7 7 7 7 255 255 55 255 255 255 255 255 255 255 255 255 255 255 255 7 7 255 255 255 54 255 255 255 255 7 7 7 7 7 7 7 7 7 7 7 7 7 7 7 7 7 7 7 7 7 7 7 7 7 255 255 255 255 255 255 255 255 255 255 53 53 53 53 53 53 53 53 53 53 53 53 53 53 53 53 53 53 53 53 53 53 53 53 53 53 53 53 53 53 53 53 53 53 53 53 53 53 53 53 53 53 255 255 255 255 255 255 255 255 255 255 71 71 71 71 71 71 71 71 71 71 71 71 71 71 71 255 255 255 5 5 255 255 255 255 255 64 64 64 64 64 64 64 64 64 64 64 64 64 64 64 64 64 64 64 64 64 64 64 64 64 64 64 64 64 64 64 64 64 64 64 64 64 64 64 64 64 64 64 64 64 64 64 64 64 64 255 255 19 255 255 255 255 255 255 19 19 19 255 255 5 5 5 5 5 5 5 5 5 5 5 5 5 5 5 5 5 5 5 5 5 5 5 5 5 5 5 5 5 5 5 5 5 5 5 5 5 5 5 5 5 255 255 255 255 255 255 255 255 255 255 255 255 255 255 255 255 26 26 26 26 26 26 255 255 255 
255 1 1 1 1 1 1 1 1 1 1 1 1 1 1 1 1 1 1 1 1 1 1 1 255 255 17 17 17 255 255 63 63 63 63 63 63 63 63 63 63 63 63 63 63 63 255 255 255 63 63 255 255 255 255 255 255 255 255 255 255 255 255 255 255 255 255 255 255 255 255 255 255 255 255 255 255 255 17 17 255 255 255 255 255 17 17 17 17 17 17 17 17 17 17 17 17 17 17 17 17 17 17 17 17 17 17 17 17 17 17 17 255 255 255 255 255 255 17 17 17 17 17 17 17 17 17 255 255 255 17 17 17 17 17 17 17 17 17 17 17 17 255 255 70 70 70 70 70 70 70 70 70 70 70 70 70 70 70 70 70 70 70 70 70 70 70 70 70 255 255 255 255 70 70 70 70 70 70 70 70 70 70 70 70 70 70 70 70 70 70 70 70 70 70 70 70 70 70 70 70 70 70 70 70 255 255 255 70 70 70 70 70 70 70 70 70 70 255 255 255 255 255 70 70 255 255 255 255 255 255 23 23 255 255 255 7 7 7 7 7 7 7 7 255 255 255 255 255 255 255 255 255 255 255 255 255 255 255 255 255 255 255 255 255 54 255 255 255 255 7 7 7 7 7 7 7 7 7 7 7 7 7 7 7 7 7 7 7 7 7 7 7 7 7 255 255 255 255 255 255 255 255 255 255 53 53 53 53 53 53 53 53 53 53 53 53 53 53 53 53 53 53 53 53 53 53 53 53 53 53 53 53 53 53 53 53 53 53 53 53 53 53 53 53 53 53 255 255 255 255 255 255 255 255 255 71 71 71 71 71 71 71 71 71 71 71 71 71 71 255 255 255 255 255 255 5 255 255 255 255 255 64 64 64 64 64 64 64 64 64 64 64 64 64 64 64 64 64 64 64 64 64 64 64 64 64 64 64 64 64 64 64 64 64 64 64 64 64 64 64 64 64 64 64 64 64 64 64 64 64 255 255 255 19 19 19 19 255 255 255 19 19 255 255 255 5 5 5 5 5 5 5 5 5 5 5 5 5 5 5 5 5 5 5 5 5 5 5 5 5 5 5 5 5 5 5 5 5 5 5 5 5 5 5 5 5 255 255 255 255 255 255 255 255 255 255 255 255 255 255 255 255 26 26 26 26 26 26 26 26 255 
255 1 1 1 1 1 1 1 1 1 1 1 1 1 1 1 1 1 1 1 1 1 1 255 255 255 17 17 17 255 255 255 63 63 63 63 63 63 63 63 63 63 63 63 63 63 255 255 255 63 63 255 255 255 255 255 255 255 255 255 255 255 255 255 255 255 255 255 255 255 255 255 255 255 255 255 255 255 17 17 255 255 255 255 255 255 255 255 17 17 17 17 17 17 17 17 17 17 17 17 17 17 17 17 17 17 17 17 17 17 17 17 255 255 255 255 255 255 17 17 17 17 17 17 17 17 17 255 255 255 17 17 17 17 255 255 255 17 17 17 17 17 255 255 70 70 70 70 70 70 70 70 70 70 255 255 255 70 70 70 70 70 70 70 70 70 70 70 70 255 255 255 255 70 70 70 70 70 70 70 70 70 70 70 70 70 70 70 70 70 70 70 70 70 70 70 70 70 70 70 70 70 70 70 70 255 255 255 70 70 70 70 70 70 70 70 70 70 255 255 255 255 255 70 255 255 255 255 255 255 255 255 255 255 255 7 7 7 7 7 7 7 7 7 255 255 255 255 255 255 255 255 255 255 255 255 255 255 255 255 255 255 255 255 255 255 255 255 7 7 7 7 7 7 7 7 7 7 7 7 7 7 7 7 7 7 7 7 7 7 7 7 7 7 255 255 255 255 255 255 255 255 255 255 255 53 53 53 53 53 53 53 53 53 53 53 53 53 53 53 53 53 53 53 53 53 53 53 53 53 53 53 53 53 53 53 53 53 53 53 53 53 53 53 53 53 53 53 255 255 255 255 255 255 255 255 255 71 71 71 71 71 71 71 71 71 71 71 71 71 255 255 255 255 255 255 5 255 255 255 255 255 64 64 64 64 64 64 64 64 64 64 64 64 64 64 64 64 64 64 64 64 64 64 64 64 64 64 64 64 64 64 64 64 64 64 64 64 64 64 64 64 64 64 64 64 64 64 64 64 255 255 255 255 19 19 19 19 255 255 255 19 19 255 255 255 5 5 5 5 5 5 5 5 5 5 5 5 5 5 5 5 5 5 5 5 5 5 5 5 5 5 5 5 5 5 5 5 5 5 5 5 5 5 5 5 5 5 255 255 255 255 255 255 255 255 255 255 26 255 255 255 255 26 26 26 26 26 26 26 26 255 
255 1 1 1 1 1 1 1 1 1 1 1 1 1 1 1 1 1 1 1 1 1 1 255 255 255 17 17 17 255 255 255 63 63 63 63 63 63 63 63 63 63 63 63 63 63 63 63 63 63 63 255 255 255 255 255 255 255 255 255 255 255 255 255 17 255 255 255 255 255 255 255 255 255 255 255 255 255 17 17 255 255 255 255 255 255 255 255 255 17 17 17 17 17 17 17 17 17 17 17 17 17 17 17 17 17 17 17 17 17 17 17 17 255 255 255 255 255 17 17 17 255 255 255 17 17 17 17 17 17 17 17 17 17 255 255 255 17 17 17 255 255 255 255 70 70 70 70 70 70 70 70 70 70 255 255 255 70 70 70 70 70 70 70 70 70 70 70 70 255 255 255 255 70 70 70 70 70 70 70 70 70 70 70 70 70 70 70 70 70 70 70 70 70 70 70 70 70 70 70 70 70 70 70 70 70 70 70 70 70 70 70 70 70 70 70 70 70 70 255 255 255 255 255 255 255 255 255 255 255 255 255 255 255 255 7 7 7 7 7 7 7 7 7 255 255 255 255 255 255 255 255 255 255 255 255 255 255 255 255 255 255 255 54 255 255 255 255 7 7 7 7 7 7 7 7 7 7 7 7 7 7 7 7 7 7 7 7 7 7 7 7 7 7 255 255 255 255 255 255 255 255 255 255 53 53 53 53 53 53 53 53 53 53 53 53 53 53 53 53 53 53 53 53 53 53 53 53 53 53 53 53 53 53 53 53 53 53 53 53 53 53 53 53 53 53 53 53 255 255 255 255 255 21 255 255 255 71 71 71 71 71 71 71 71 71 71 71 71 71 255 255 255 255 255 255 5 5 255 255 255 64 64 64 64 64 64 64 64 64 64 64 64 64 64 64 64 64 64 64 64 64 64 64 64 64 64 64 64 64 64 64 64 64 64 64 64 64 64 64 64 64 64 64 64 64 64 64 64 64 255 255 255 19 19 19 19 19 19 19 19 19 255 255 255 5 5 5 5 5 5 5 5 5 5 5 5 5 5 5 5 5 5 5 5 5 5 5 5 5 5 5 5 5 5 5 5 5 5 5 5 5 5 5 5 5 5 5 255 255 255 255 255 255 26 26 26 255 255 255 255 255 255 26 26 26 26 26 26 26 26 255 
255 1 1 1 1 1 1 1 1 1 1 1 1 1 1 1 1 1 1 1 1 1 1 255 255 17 17 17 17 255 255 255 63 63 63 63 63 63 63 63 63 63 63 63 63 63 63 63 63 63 63 255 255 255 255 255 255 255 255 255 17 17 17 17 17 255 255 255 255 255 255 255 255 255 17 17 17 17 17 17 17 255 255 255 255 255 255 255 255 17 17 17 17 17 17 17 17 17 17 17 17 17 17 17 17 17 17 17 17 17 17 17 17 255 255 255 255 255 17 17 17 255 255 255 17 17 17 17 17 17 17 17 17 17 255 255 255 17 255 255 255 255 255 255 70 70 70 70 70 70 70 70 70 70 255 255 255 70 70 70 70 70 70 70 70 70 70 70 70 70 70 70 70 70 70 70 70 70 70 70 70 70 70 70 70 70 70 70 70 70 70 70 70 70 70 70 70 70 70 70 70 70 70 70 70 70 70 70 70 255 255 255 255 70 70 70 70 70 70 70 255 255 255 255 255 255 255 255 255 255 255 255 255 255 255 7 7 7 7 7 7 7 7 7 255 255 255 255 255 255 255 255 255 255 255 255 255 255 255 255 255 255 255 255 255 255 7 7 7 7 7 7 7 7 7 7 7 7 7 7 7 7 7 7 7 7 7 7 7 7 7 7 7 7 255 255 255 255 255 255 255 255 255 255 53 53 53 53 53 53 53 53 53 53 53 53 53 53 53 53 53 53 53 53 53 53 53 53 53 53 53 53 53 53 53 53 53 53 53 53 53 53 53 53 53 53 53 53 53 255 255 255 255 255 21 255 255 71 71 71 71 71 71 71 71 71 71 71 71 71 71 71 71 255 255 255 255 5 255 255 255 64 64 64 64 64 64 64 64 64 64 64 64 64 64 64 64 64 64 64 64 64 64 64 64 64 64 64 64 64 64 64 64 64 64 64 64 64 64 64 64 64 64 64 64 64 64 64 64 64 255 255 19 19 19 19 19 19 19 19 19 19 255 255 255 5 5 5 5 5 5 5 5 5 5 5 5 5 5 5 5 5 5 5 5 5 5 5 5 5 5 5 5 5 5 5 5 5 5 5 5 5 5 5 5 5 5 5 255 255 255 255 255 255 255 255 255 255 255 255 255 26 26 26 26 26 26 26 26 26 26 255 
255 1 1 1 1 1 1 1 1 1 1 1 1 1 1 1 1 1 1 1 1 1 1 255 255 17 17 17 255 255 255 63 63 63 63 63 63 63 63 63 63 63 63 63 63 255 255 255 63 63 63 255 255 255 255 255 255 255 255 255 255 255 255 255 255 255 255 255 255 255 255 255 255 17 17 17 17 17 17 17 17 17 17 17 17 255 255 255 255 17 255 255 255 17 17 17 17 17 17 17 17 17 17 17 255 255 255 255 17 17 255 255 255 255 255 255 255 255 255 255 255 255 255 255 17 17 17 255 255 255 255 17 17 17 17 17 17 255 255 255 255 255 70 70 70 70 70 70 70 70 70 70 70 70 70 70 70 70 70 70 70 70 70 70 70 70 70 70 70 70 70 70 70 70 70 70 70 70 70 70 70 70 70 70 70 70 70 70 70 70 70 70 70 70 70 70 70 70 70 70 70 70 70 70 70 70 70 70 70 255 255 255 255 70 70 70 70 70 70 70 255 255 255 255 255 255 255 255 23 255 255 255 255 255 255 7 7 7 7 7 7 7 7 7 7 255 255 255 255 255 255 255 255 255 255 255 7 255 255 255 255 255 255 255 255 255 7 7 7 7 7 7 7 7 7 7 7 7 7 7 7 7 7 7 7 7 7 7 255 255 255 7 7 7 255 255 255 255 255 255 255 255 255 255 255 53 53 53 53 53 53 53 53 53 53 53 53 53 53 53 53 53 53 53 53 53 53 53 53 53 53 53 53 53 53 53 53 53 53 53 53 53 53 53 53 53 53 53 53 255 255 255 255 255 255 255 255 255 255 71 71 71 71 71 71 71 71 71 71 71 71 71 71 255 255 255 255 5 255 255 255 64 64 64 64 64 64 64 64 64 64 64 64 64 64 64 64 64 64 64 64 64 64 64 64 64 64 64 64 64 64 64 64 64 64 64 64 64 64 64 64 64 64 64 64 64 64 64 64 64 255 255 19 19 19 19 19 19 19 255 255 255 255 255 5 5 5 5 5 5 5 5 5 5 5 5 5 5 5 5 5 5 5 5 5 5 5 5 5 5 5 5 5 5 5 5 5 5 5 5 5 5 5 5 5 5 5 5 5 5 5 255 255 255 255 255 255 255 255 255 255 26 255 255 255 255 255 26 26 26 255 255 
255 1 1 1 1 1 1 1 1 1 1 1 1 1 1 1 1 1 1 1 1 1 255 255 255 17 17 17 255 255 255 63 63 63 63 63 63 63 63 63 63 63 63 63 63 255 255 255 63 63 255 255 255 255 255 255 255 255 255 255 255 255 255 255 255 255 255 255 17 17 255 255 255 255 255 255 255 17 17 17 17 17 17 17 17 17 17 17 17 17 255 255 255 17 17 255 255 255 255 255 255 255 255 255 255 255 255 255 255 255 255 255 255 255 255 255 255 255 255 255 255 17 17 17 17 17 17 255 255 255 255 17 17 17 255 255 255 255 255 255 70 70 70 70 70 70 70 70 70 70 70 70 70 70 255 255 255 255 70 70 70 70 70 70 70 70 70 70 70 70 70 70 70 70 70 255 255 255 70 70 70 70 70 70 70 70 70 70 70 70 70 70 70 70 70 70 70 70 70 70 70 70 70 70 70 70 70 70 70 255 255 255 255 70 70 70 70 70 70 70 70 255 255 255 255 255 255 255 255 255 255 255 255 255 255 7 7 7 7 7 7 7 7 7 7 255 255 255 255 255 255 255 7 255 255 255 7 255 255 255 255 255 255 255 7 7 7 7 7 7 7 7 7 7 7 7 7 7 7 7 7 7 7 7 7 7 7 7 255 255 255 255 255 255 255 255 255 255 255 255 255 255 255 255 255 53 53 53 53 53 53 53 53 53 53 53 53 53 53 53 53 53 53 53 53 53 53 53 53 53 53 53 53 53 53 53 53 53 53 53 53 53 53 53 53 53 53 53 53 255 255 255 255 255 255 255 255 255 255 71 71 71 71 71 71 71 71 71 71 71 71 71 71 255 255 255 255 5 255 255 255 255 64 64 64 64 64 64 64 64 64 64 64 64 64 64 64 64 64 64 64 64 64 64 64 64 64 64 64 64 64 64 64 64 64 64 64 64 64 64 64 64 64 64 64 64 64 64 64 64 255 255 19 19 255 255 255 19 19 255 255 255 255 255 5 5 5 5 5 5 5 5 5 5 5 5 5 5 5 5 5 5 5 5 5 5 5 5 5 5 5 5 5 5 5 5 5 5 5 5 5 5 5 5 5 5 5 5 5 5 5 255 255 255 255 255 255 255 255 255 255 255 255 255 255 255 255 26 26 26 255 255 
255 1 1 1 1 1 1 1 1 1 1 1 1 1 1 1 1 1 1 1 1 1 255 255 255 255 17 17 255 255 255 255 255 63 63 63 63 63 63 63 63 63 63 63 63 255 255 255 63 63 255 255 255 255 255 255 255 255 255 255 255 255 255 255 255 17 17 17 17 255 255 255 255 255 255 255 255 17 17 17 17 17 17 17 17 17 17 17 17 17 255 255 255 17 17 255 255 255 255 255 255 255 255 255 255 255 255 255 255 255 255 255 255 255 255 255 255 255 255 255 255 255 17 17 17 17 17 255 255 255 255 17 17 17 255 255 255 255 255 255 255 70 70 70 70 70 70 70 70 70 70 70 70 70 255 255 255 255 70 70 70 70 70 70 70 70 70 70 70 70 70 70 70 70 70 255 255 255 70 70 70 70 70 70 70 70 70 70 70 70 70 70 70 70 70 70 70 70 70 70 70 70 70 70 70 70 70 70 70 255 255 255 255 70 70 70 70 70 70 70 255 255 255 255 255 255 255 255 255 255 255 255 7 7 7 7 7 7 7 7 7 7 7 7 7 255 255 255 255 55 255 255 255 255 255 255 255 7 7 255 255 255 7 7 7 7 7 7 7 7 7 7 7 7 7 7 7 7 7 7 7 7 7 7 7 7 7 7 255 255 255 255 255 255 255 255 255 255 255 255 255 255 255 255 255 53 53 53 53 53 53 53 53 53 53 53 53 53 53 53 53 53 53 53 53 53 53 53 53 53 53 53 53 53 53 53 53 53 53 53 53 53 53 53 53 53 53 53 53 255 255 255 255 255 255 255 255 255 255 71 71 71 71 71 71 71 71 71 71 71 71 71 71 71 255 255 255 5 255 255 255 255 64 64 64 64 64 64 64 64 64 64 64 64 64 64 64 64 64 64 64 64 64 64 64 64 64 64 64 64 64 64 64 64 64 64 64 64 64 64 64 64 64 64 64 64 64 64 64 255 255 255 19 19 255 255 255 19 19 255 255 255 255 5 5 5 5 5 5 5 5 5 5 5 5 5 5 5 5 5 5 5 5 5 5 5 5 5 5 5 5 5 5 5 5 5 5 5 5 5 5 5 5 5 5 5 5 5 5 5 5 5 5 5 255 255 255 255 255 255 255 255 255 255 255 255 255 26 26 26 255 255 
255 1 1 1 1 1 1 1 1 1 1 1 1 1 1 1 1 1 1 1 1 1 255 255 255 255 17 17 17 255 255 255 255 63 63 63 63 63 63 63 63 63 63 63 63 63 63 63 63 63 255 255 255 255 255 255 255 255 255 255 255 255 255 255 255 17 17 17 17 255 255 255 255 255 255 255 255 17 17 17 17 17 17 17 17 17 17 17 17 17 17 17 17 17 17 255 255 255 255 255 255 255 255 255 255 255 255 255 255 255 255 255 255 255 255 255 255 255 255 255 255 255 17 17 17 17 17 255 255 255 17 17 17 17 255 255 255 255 255 255 255 255 70 70 70 255 255 255 70 70 70 70 70 70 255 255 255 255 70 70 70 70 70 70 70 70 70 70 70 70 70 70 70 255 255 255 255 255 70 70 70 70 70 70 70 70 70 70 70 70 70 70 70 70 70 70 70 70 70 70 70 70 70 70 70 70 70 70 70 255 255 255 70 70 70 70 70 70 70 255 255 255 255 255 255 255 255 255 255 255 255 255 7 7 7 7 7 7 7 7 7 7 7 7 7 255 255 255 255 255 255 255 255 255 255 255 255 7 7 255 255 255 7 7 7 255 255 255 7 7 7 7 7 7 7 7 7 7 7 7 7 7 7 7 7 7 7 255 255 255 255 255 255 255 255 255 255 255 255 255 255 255 255 255 255 53 53 53 53 53 53 53 53 53 53 53 53 53 53 53 53 53 53 53 53 53 53 53 53 53 53 53 53 53 53 53 53 53 53 53 53 53 53 53 53 53 53 53 53 255 255 255 255 255 21 255 255 71 71 71 71 71 71 71 71 71 71 71 71 71 71 71 71 71 255 255 255 5 255 255 255 255 64 64 64 64 64 64 64 64 64 64 64 64 64 64 64 64 64 64 64 64 64 64 64 64 64 64 64 64 64 64 64 64 64 64 64 64 64 64 64 64 64 64 64 64 64 64 64 255 255 255 19 19 255 255 255 19 19 19 19 255 255 5 5 5 5 5 5 5 5 5 5 5 5 5 5 5 5 5 5 5 5 5 5 5 5 5 5 5 5 5 5 5 5 5 5 5 5 5 5 5 5 5 5 5 5 5 5 5 5 5 5 5 255 255 255 255 255 255 255 255 255 255 255 255 255 26 255 255 255 255 
255 1 1 1 1 1 1 1 1 1 1 1 1 1 1 1 1 1 1 1 1 1 1 255 255 255 17 17 17 255 255 255 255 63 63 63 63 63 63 63 63 63 63 63 63 63 255 255 255 255 255 255 255 255 255 255 255 255 255 255 255 255 255 17 17 255 255 255 17 255 255 255 255 255 17 17 17 17 17 17 17 17 17 17 17 17 17 17 17 17 17 17 17 17 17 17 17 17 17 17 17 17 17 17 17 17 17 255 255 255 255 255 255 255 255 255 255 255 255 255 255 255 17 17 17 17 17 255 255 255 17 17 17 17 17 17 17 17 255 255 255 255 70 70 70 255 255 255 70 70 70 70 70 70 255 255 255 255 70 70 70 70 70 70 70 70 70 70 70 70 70 70 70 255 255 255 255 70 70 70 70 70 70 70 70 70 70 70 70 70 70 70 70 70 70 70 70 70 70 70 255 255 255 70 70 70 70 70 70 70 70 70 70 70 70 70 70 70 255 255 255 255 255 255 255 255 255 255 255 255 255 255 7 7 7 7 7 7 7 7 7 7 7 7 7 255 255 255 255 255 255 255 255 255 255 255 255 7 7 7 7 7 255 255 255 255 255 255 255 255 7 7 7 7 7 7 7 7 7 7 7 7 7 7 7 7 7 255 255 255 255 255 255 255 255 255 255 255 255 255 255 255 255 255 255 53 53 53 53 53 53 53 53 53 53 53 53 53 53 53 53 53 53 53 53 53 53 53 53 53 53 53 53 53 53 53 53 53 53 53 53 53 53 53 53 53 53 53 53 255 255 255 255 255 21 255 255 71 71 71 71 71 71 71 71 71 71 71 71 71 71 71 71 71 255 255 255 5 255 255 255 255 64 64 64 64 64 64 64 64 64 64 64 64 64 64 64 64 64 64 64 64 64 64 64 64 64 64 64 64 64 64 64 64 64 64 64 64 64 64 64 64 64 64 64 64 64 64 255 255 255 19 19 19 19 19 19 19 19 19 19 255 255 5 5 5 5 5 5 5 5 5 5 5 5 5 5 5 5 5 5 5 5 5 5 5 5 5 5 5 5 5 5 5 5 5 5 5 5 5 5 5 5 5 5 5 5 5 5 5 5 5 5 5 5 5 255 255 255 255 255 255 255 255 255 255 255 26 255 255 255 255 
255 1 1 1 1 1 1 1 1 1 1 1 1 1 1 1 1 1 1 1 1 1 1 255 255 255 17 17 17 255 255 255 255 63 63 63 63 63 63 63 63 63 63 63 63 63 255 255 255 255 255 255 255 255 255 255 255 255 255 255 255 255 255 255 255 255 255 255 17 255 255 255 255 255 17 17 17 17 17 17 17 17 17 17 17 17 17 17 17 17 17 17 17 17 17 17 17 17 17 17 17 17 17 17 17 17 17 255 255 255 255 255 255 255 255 255 255 255 255 255 255 255 17 17 17 17 17 255 255 255 17 17 17 17 17 17 17 17 255 255 255 255 70 70 70 255 255 255 70 70 70 70 70 70 255 255 255 255 70 70 70 70 70 70 70 70 70 70 70 70 70 70 70 255 255 255 255 70 70 70 70 70 70 70 70 70 70 70 70 70 70 70 70 70 70 70 70 70 70 70 255 255 255 70 70 70 70 70 70 70 70 70 70 70 70 70 70 70 255 255 255 255 255 255 255 255 255 255 255 255 7 7 7 7 7 7 7 7 7 7 7 7 7 7 7 255 255 255 255 255 255 255 255 255 255 255 255 255 7 7 7 255 255 255 255 255 255 255 255 255 255 255 255 7 7 7 7 7 7 7 7 7 7 7 7 7 7 255 255 255 255 255 255 255 255 255 255 255 255 255 255 255 255 255 53 53 53 53 53 53 53 53 53 53 53 53 53 53 53 53 53 53 53 53 53 53 53 53 53 53 53 53 53 53 53 53 53 53 53 53 53 53 53 53 53 53 53 53 53 255 255 255 255 255 21 255 255 71 71 71 71 71 71 255 255 255 71 71 71 71 71 71 71 71 255 255 255 5 5 255 255 255 255 64 64 64 64 64 64 64 64 64 64 64 64 64 64 64 64 64 64 64 64 64 64 64 64 64 64 64 64 64 64 64 64 64 64 64 64 64 64 64 64 64 64 64 64 64 255 255 255 19 19 19 19 19 19 19 19 19 19 255 255 5 5 5 5 5 5 5 5 5 5 5 5 5 5 5 5 5 5 5 5 5 5 5 5 5 5 5 5 5 5 5 5 5 5 5 5 5 5 5 5 5 5 5 5 5 5 5 5 5 5 5 5 5 5 5 5 5 255 255 255 255 255 255 255 255 255 255 255 255 
255 1 1 1 1 1 1 1 1 1 1 1 1 1 1 1 1 1 1 1 1 1 1 255 255 255 17 17 17 255 255 255 255 63 63 63 63 63 63 63 63 63 63 63 63 63 255 255 255 255 255 255 255 255 255 255 255 255 255 255 255 255 255 255 255 255 255 255 17 255 255 255 255 255 255 17 17 17 17 17 17 17 17 17 17 17 17 17 17 17 17 17 17 17 17 17 17 17 17 17 17 17 17 17 17 17 17 255 255 255 255 255 255 255 255 255 255 255 255 255 255 255 17 17 17 17 17 17 17 17 17 17 17 17 255 255 255 255 255 255 70 70 70 70 70 255 255 255 70 70 70 70 70 70 255 255 255 255 70 70 70 70 70 70 70 70 70 70 70 70 70 70 70 255 255 255 70 70 70 70 70 70 70 70 70 70 70 70 70 70 70 70 70 70 70 70 70 70 70 70 255 255 255 70 70 70 70 70 70 70 70 70 70 70 70 70 70 255 255 255 255 255 255 255 255 255 255 255 255 255 7 7 7 7 7 7 7 7 7 7 7 7 7 7 7 255 255 255 255 255 255 255 255 255 255 255 255 255 7 255 255 255 255 255 255 255 255 28 255 255 255 255 255 255 255 7 7 7 7 7 7 7 7 7 7 7 7 255 255 255 255 255 255 255 255 255 255 255 255 255 7 255 255 255 255 255 255 53 53 53 53 53 53 53 53 53 53 53 53 53 53 53 53 53 53 53 53 53 53 53 53 53 53 53 53 53 53 53 53 53 53 53 53 53 53 53 255 255 255 255 255 255 255 255 255 255 255 71 71 71 71 71 71 255 255 255 71 71 71 71 71 71 71 71 255 255 255 5 5 255 255 255 255 64 64 64 64 64 64 64 64 64 64 64 64 64 64 64 64 64 64 64 64 64 64 64 64 64 64 64 64 64 64 64 64 64 64 64 64 64 64 64 64 64 64 64 64 64 255 255 19 19 19 19 19 19 19 19 19 19 255 255 255 5 5 5 5 5 5 5 5 5 5 5 5 5 5 5 5 5 5 5 5 5 5 5 5 5 5 5 5 5 5 5 5 5 5 5 5 5 5 5 5 5 5 5 5 5 5 5 5 5 5 5 5 5 5 5 5 5 255 255 255 255 255 255 255 255 255 255 255 255 
255 1 1 1 1 1 1 1 1 1 1 1 1 1 1 1 1 1 1 1 1 1 1 255 255 255 17 17 17 255 255 255 255 63 63 63 63 63 63 63 63 63 63 63 63 63 63 255 255 255 255 255 255 255 255 255 255 255 255 255 255 255 255 255 255 255 255 255 255 255 255 255 255 255 255 17 17 17 17 17 17 17 17 17 17 17 17 17 17 17 17 17 17 17 17 17 17 17 17 17 17 17 255 255 255 255 255 255 255 255 255 255 255 255 255 255 255 255 255 255 255 255 17 255 255 255 17 17 17 17 17 17 17 17 255 255 255 255 255 255 70 70 70 70 70 255 255 255 70 70 70 70 70 70 70 255 255 255 70 70 70 70 70 70 70 70 70 70 70 70 70 70 70 70 70 70 70 70 70 70 70 70 70 70 70 70 70 70 70 70 70 70 70 70 70 70 70 70 70 70 255 255 255 70 70 70 255 255 255 70 70 70 70 70 70 70 255 255 255 255 255 255 255 255 255 255 255 255 255 7 7 7 7 255 255 255 255 7 7 7 7 255 255 255 7 7 255 255 55 55 55 55 255 255 255 255 255 255 255 255 255 255 255 255 255 255 255 28 28 28 28 255 255 255 255 255 255 255 255 255 255 7 7 7 7 7 7 255 255 255 255 255 255 255 255 255 255 255 255 255 255 255 255 255 255 255 255 53 53 53 53 53 53 53 53 53 53 53 53 53 53 53 53 53 53 53 53 53 53 53 53 53 53 53 53 53 53 53 53 53 53 53 53 53 53 53 255 255 255 255 255 255 255 255 255 255 255 71 71 71 71 71 71 255 255 255 71 71 71 71 71 71 71 71 255 255 255 5 5 255 255 255 255 64 64 64 64 64 64 64 64 64 64 64 64 64 64 64 64 64 64 64 64 64 64 64 64 64 64 64 64 64 64 64 64 64 64 64 64 64 64 64 64 64 64 64 64 255 255 255 19 19 19 19 19 19 19 19 19 19 255 255 255 5 5 5 5 5 5 5 5 5 5 5 5 5 5 5 5 5 5 5 5 5 5 5 5 5 5 5 5 5 5 5 5 5 5 5 5 5 5 5 5 5 5 5 5 5 5 255 255 255 5 5 5 5 5 5 255 255 255 5 255 255 255 255 255 255 255 255 255 255 
255 1 1 1 1 1 1 1 1 1 1 1 1 1 1 1 1 1 1 1 1 1 1 255 255 255 17 17 255 255 255 63 63 63 63 63 63 63 63 63 63 63 63 63 63 63 255 255 255 255 255 255 255 255 255 255 255 255 255 255 255 255 255 255 255 255 255 255 255 255 255 255 255 255 255 255 255 17 17 17 17 17 17 17 17 17 17 17 17 17 17 17 17 17 17 17 17 17 17 17 17 255 255 255 255 255 255 255 255 255 255 255 255 255 255 255 255 255 255 255 255 255 17 255 255 255 17 17 17 17 255 255 255 255 255 255 255 255 255 70 70 70 70 70 70 70 70 70 70 70 70 70 70 70 255 255 255 255 70 70 70 70 70 70 70 70 70 70 70 70 70 70 70 70 70 70 70 70 70 70 70 70 70 70 70 70 70 70 70 70 70 70 70 70 70 70 70 70 70 70 255 255 255 255 70 70 255 255 255 70 70 70 70 70 70 255 255 255 255 255 255 255 255 255 255 255 255 255 7 7 255 255 255 255 255 255 255 7 7 7 7 255 255 255 255 255 255 255 55 55 55 55 255 255 255 255 255 255 255 255 255 255 255 255 255 255 255 255 28 28 28 28 28 255 255 255 255 255 255 255 255 255 255 255 7 7 7 255 255 255 255 255 255 255 255 255 255 255 255 255 255 255 255 255 255 255 255 255 255 255 255 53 53 53 53 53 53 53 53 53 53 53 53 53 53 53 53 53 53 53 53 53 53 53 53 53 53 53 53 53 53 53 53 53 255 255 255 255 7 255 255 255 255 255 255 255 71 71 71 71 71 71 71 71 71 71 71 71 71 71 71 71 71 71 71 255 255 255 5 255 255 255 255 255 64 64 64 64 64 64 64 64 64 64 64 64 64 64 64 64 64 64 64 64 64 64 64 64 64 64 64 64 64 64 64 64 64 64 64 64 64 64 64 64 64 64 64 255 255 255 19 19 19 19 19 19 19 19 19 255 255 255 5 5 5 5 5 5 5 5 5 5 5 5 5 5 5 5 5 5 5 5 5 5 5 5 5 5 5 5 5 5 5 5 5 5 5 5 5 5 5 5 5 5 5 5 5 5 5 255 255 255 5 5 255 255 255 5 255 255 255 5 255 255 255 5 255 255 255 255 255 255 
255 1 1 1 1 1 1 1 1 1 1 1 1 1 1 1 1 1 1 1 1 1 1 255 255 255 17 17 255 255 255 255 63 63 63 63 63 63 63 63 63 63 63 63 63 63 255 255 255 255 255 255 255 255 255 255 255 255 255 255 255 255 255 255 255 255 255 255 255 255 255 255 255 255 255 255 255 17 17 17 17 17 17 17 17 17 17 17 17 17 17 17 17 17 17 17 17 17 17 17 17 255 255 255 255 255 255 255 255 255 255 255 73 255 255 255 255 255 255 255 255 255 255 255 255 255 255 17 17 17 255 255 255 255 255 255 255 255 70 70 70 70 70 70 70 70 70 70 70 70 70 70 70 255 255 255 255 255 70 70 70 70 70 70 70 70 70 70 70 70 70 70 70 70 70 70 70 70 70 70 70 70 70 70 70 70 70 70 70 70 70 70 70 70 70 70 70 70 70 70 255 255 255 255 70 70 255 255 255 70 70 70 70 70 70 255 255 255 255 255 255 255 255 255 255 255 255 255 7 7 255 255 255 255 255 255 255 7 7 7 7 255 255 255 255 255 255 255 255 255 55 55 255 255 255 255 255 255 255 255 255 255 255 255 255 255 255 255 255 255 255 28 255 255 255 255 255 255 255 255 255 255 255 255 255 7 7 255 255 255 255 255 255 255 255 255 255 255 255 255 255 255 255 255 255 255 255 255 255 255 255 53 53 53 53 53 53 53 53 53 53 53 53 53 53 53 53 53 53 53 53 53 53 53 53 53 53 53 53 53 53 53 255 255 255 255 255 255 255 255 255 255 255 255 255 71 71 71 71 71 71 71 71 71 71 71 71 71 71 71 71 71 71 71 71 255 255 255 5 255 255 255 255 255 64 64 64 64 64 64 64 64 64 64 64 64 64 64 64 64 64 64 64 64 64 64 64 64 64 64 64 64 64 64 64 64 64 64 64 64 64 64 64 64 64 64 64 255 255 19 19 19 19 19 19 19 19 19 19 255 255 255 5 5 5 5 5 5 5 5 5 5 5 5 5 5 5 5 5 5 5 5 5 5 5 5 5 5 5 5 5 5 5 5 5 5 5 5 5 5 5 5 5 5 5 5 5 5 5 255 255 255 5 5 255 255 255 5 255 255 255 5 255 255 255 5 255 255 255 255 255 255 
255 1 1 1 1 1 1 1 1 1 1 1 1 1 1 1 1 1 1 1 1 1 1 255 255 17 17 17 255 255 255 255 63 63 63 63 63 63 63 63 63 63 63 63 63 63 255 255 255 255 255 255 255 255 255 255 255 255 255 255 255 255 255 255 255 255 255 255 255 255 255 255 255 255 255 255 255 17 17 17 17 17 17 17 17 17 17 17 17 17 17 17 17 17 17 17 17 17 17 17 17 255 255 255 255 255 255 255 255 255 255 73 73 73 73 73 73 73 73 255 255 255 255 255 255 255 255 255 17 17 255 255 255 255 255 255 70 70 70 70 70 70 70 255 255 255 70 70 70 70 70 70 70 255 255 255 255 255 70 70 70 70 70 70 70 70 70 70 70 70 70 70 70 70 70 70 70 70 70 70 70 70 70 70 70 70 70 70 70 70 70 70 70 70 70 70 70 70 70 70 70 255 255 255 70 70 70 70 70 70 70 70 70 70 255 255 255 255 255 255 255 255 255 255 255 255 255 7 7 7 255 255 255 255 255 255 255 7 7 7 7 7 7 7 255 255 255 255 255 255 55 55 255 255 255 255 255 255 255 255 255 255 255 255 255 255 255 255 255 255 255 255 255 255 255 255 255 255 255 255 255 255 255 255 255 255 255 255 255 7 255 255 255 255 255 255 255 255 255 255 255 255 255 7 7 255 255 255 255 255 255 53 53 53 53 53 53 53 53 53 53 53 53 53 53 53 53 53 53 53 53 53 53 53 53 53 53 53 53 53 255 255 255 255 255 255 255 255 255 255 255 255 255 255 255 71 71 71 71 71 71 71 71 71 71 71 71 71 71 71 71 71 71 71 71 255 255 255 5 255 255 27 255 255 64 64 64 64 64 64 64 64 64 64 64 64 64 64 64 64 64 64 64 64 64 64 64 64 64 64 64 64 64 64 64 64 64 64 64 64 64 64 64 64 64 64 255 255 255 19 19 19 19 19 19 19 19 19 19 255 255 5 5 5 5 5 5 5 5 5 5 5 5 5 5 5 5 5 5 5 5 5 5 5 5 5 5 5 5 5 5 5 5 5 5 5 5 5 5 5 5 5 5 5 5 5 5 5 5 5 5 5 5 5 255 255 255 5 5 5 5 5 5 5 5 5 255 255 255 5 5 255 
255 1 1 1 1 1 1 1 1 1 1 1 1 1 1 1 1 1 1 1 1 1 1 255 255 255 17 17 17 255 255 255 63 63 63 63 63 63 63 63 63 63 63 63 63 63 63 255 255 255 255 255 255 255 255 17 255 255 255 255 255 255 255 255 255 255 255 255 255 255 255 255 255 255 255 255 255 255 17 17 17 17 17 17 17 17 17 17 17 17 17 17 17 17 17 17 17 17 17 17 255 255 255 255 255 255 255 255 255 255 255 73 73 73 73 73 73 73 73 255 255 255 255 255 255 255 255 255 17 255 255 255 255 255 255 255 70 70 70 70 70 70 70 255 255 255 70 70 70 70 70 70 70 255 255 255 255 255 70 70 70 70 70 70 70 70 70 70 70 70 70 70 70 70 70 70 70 70 70 70 70 70 70 70 70 70 70 70 70 70 70 70 255 255 255 70 70 70 70 70 70 255 255 255 70 70 70 70 70 70 70 70 70 255 255 255 255 255 255 255 255 255 255 255 7 7 7 7 7 7 7 255 255 255 255 255 255 7 7 7 7 7 7 7 255 255 255 255 255 255 255 255 255 255 255 255 255 255 255 255 255 255 255 255 255 255 255 255 255 255 255 255 255 255 255 255 74 255 255 255 255 255 255 255 255 255 255 255 255 255 255 7 255 255 255 255 255 255 255 255 255 255 255 7 7 255 255 255 255 255 53 53 53 53 53 53 53 53 53 53 53 53 53 53 53 53 53 53 255 255 255 53 53 53 53 255 255 255 255 255 255 255 255 255 255 255 255 255 255 255 255 255 255 71 71 71 71 71 71 71 71 71 71 71 71 71 71 71 71 71 71 71 71 71 71 255 255 255 255 255 255 27 255 255 64 64 64 64 64 64 64 64 64 64 64 64 64 64 64 64 64 64 64 64 64 64 64 64 64 64 64 64 64 64 64 64 64 64 64 64 64 64 64 64 64 64 255 255 255 19 19 19 19 19 19 19 19 19 255 255 255 5 5 5 5 5 5 5 5 5 5 5 5 5 5 5 5 5 5 5 5 5 5 5 5 5 5 5 5 5 5 5 5 5 5 5 5 5 5 5 5 5 5 5 5 5 5 5 5 5 5 5 5 5 5 5 5 5 5 5 5 255 255 255 5 5 5 5 5 5 5 255 
255 1 1 1 1 1 1 1 1 1 1 1 1 1 1 1 1 1 1 1 1 1 1 255 255 255 255 255 17 255 255 63 63 63 63 63 63 63 63 63 63 63 63 63 63 63 255 255 255 255 255 255 255 255 255 255 255 255 255 255 255 255 255 255 255 255 255 255 255 255 255 255 255 255 255 255 255 255 17 17 17 17 17 17 17 17 17 17 17 17 17 17 17 17 17 17 17 17 17 17 255 255 255 255 255 255 255 255 73 73 73 73 73 73 73 73 73 255 255 255 255 255 255 255 255 255 255 255 255 255 255 255 255 255 255 255 70 70 70 70 70 70 70 255 255 255 70 70 70 70 70 70 70 255 255 255 255 255 70 70 70 70 70 70 70 70 70 70 70 70 70 70 70 70 70 70 70 70 70 70 70 70 70 70 70 70 70 70 70 70 70 70 255 255 255 255 70 70 70 70 70 255 255 255 70 70 70 70 70 70 70 70 255 255 255 255 255 255 255 255 255 255 255 255 7 7 7 7 7 255 255 255 255 255 255 255 255 7 7 7 7 7 7 255 255 255 255 55 55 255 255 255 255 255 255 255 255 255 255 255 255 10 10 10 255 255 255 255 255 255 255 255 255 255 255 255 255 74 74 74 74 255 255 255 255 255 255 255 255 255 255 255 255 255 255 255 255 255 255 255 255 255 255 7 7 7 7 7 255 255 255 53 53 53 53 53 53 53 53 53 53 53 53 53 53 53 53 53 255 255 255 53 53 255 255 255 255 255 255 255 255 255 255 255 255 255 255 255 255 255 255 255 255 71 71 71 71 71 71 71 71 71 71 71 71 71 71 71 71 71 71 71 71 71 71 255 255 255 255 255 255 27 255 255 255 64 64 64 64 64 64 64 64 64 64 64 64 64 64 64 64 64 64 64 64 64 64 64 64 64 64 64 64 64 64 64 64 64 64 64 64 64 64 64 64 64 255 255 19 19 19 19 19 19 19 19 19 19 255 255 255 5 5 5 5 5 5 5 5 5 5 5 5 5 5 5 5 5 5 5 5 5 5 5 5 5 5 5 5 5 5 5 5 5 5 5 255 255 255 5 5 5 5 5 5 5 5 5 5 5 5 5 5 5 5 5 5 5 5 5 5 255 255 255 5 5 5 5 5 5 5 255 
255 1 1 1 1 1 1 1 1 1 1 1 1 1 1 1 1 1 1 1 1 1 1 1 255 255 255 255 17 255 255 255 63 63 63 63 63 63 63 63 63 63 63 63 63 63 255 255 255 255 255 255 255 255 255 255 255 255 255 255 255 17 255 255 255 255 255 17 17 255 255 255 255 255 255 255 255 255 17 17 17 17 17 17 17 17 17 17 17 17 17 17 17 17 17 17 17 17 17 17 255 255 255 255 255 255 255 255 73 73 73 73 73 73 73 73 73 255 255 255 255 255 255 255 255 255 255 255 255 255 255 70 70 70 70 70 70 70 70 70 70 70 255 255 255 255 70 70 70 70 70 70 70 255 255 255 255 255 70 70 70 70 70 70 70 70 70 70 70 70 70 70 70 70 70 70 70 70 70 70 70 70 70 70 70 70 70 70 70 70 70 70 255 255 255 255 255 70 70 70 70 255 255 255 70 70 70 70 70 70 70 70 255 255 255 255 255 255 255 255 255 255 255 255 7 7 7 7 7 255 255 255 255 255 255 255 7 7 7 7 7 7 7 255 255 255 55 55 255 255 255 255 255 255 28 255 255 255 255 10 10 10 10 255 255 255 255 10 255 255 255 255 255 255 255 255 255 255 255 255 74 74 74 74 74 255 255 255 255 255 255 255 255 255 255 7 7 7 255 255 255 7 7 7 7 7 7 7 255 255 255 255 255 53 53 53 53 53 53 53 255 255 255 53 53 53 53 53 255 255 255 255 255 255 255 255 255 255 255 255 255 255 255 255 255 255 255 255 71 71 255 255 255 255 255 255 255 255 255 255 71 71 71 71 71 71 71 71 71 71 71 71 71 71 71 255 255 255 255 255 255 27 255 255 255 64 64 64 64 64 64 64 64 64 64 64 64 64 64 64 64 64 64 64 64 64 64 64 64 64 64 64 64 64 64 64 64 64 64 64 64 64 64 64 64 255 255 255 19 19 19 19 19 19 19 19 255 255 255 255 5 5 5 5 5 5 5 5 5 5 5 5 5 5 5 5 5 5 5 5 5 5 5 5 5 5 5 5 5 5 5 5 5 5 5 5 255 255 255 5 5 5 5 5 5 5 5 5 5 5 5 5 5 5 5 5 255 255 255 5 5 255 255 255 5 5 5 5 5 255 255 255 
255 1 1 1 1 1 1 1 1 1 1 1 1 1 1 1 1 1 1 1 1 1 1 1 255 255 255 255 17 255 255 255 63 63 63 63 63 63 63 63 63 63 63 63 63 63 255 255 255 255 255 255 255 255 255 255 255 255 255 255 255 255 255 255 255 255 255 17 17 255 255 255 255 255 255 255 255 255 17 17 17 17 17 17 17 17 17 17 17 17 17 17 17 17 17 17 17 17 255 255 255 255 255 255 255 255 255 255 255 73 73 73 73 73 73 73 73 255 255 255 255 255 255 255 255 255 255 255 255 255 70 70 70 70 70 70 70 70 70 70 70 70 255 255 255 70 70 70 70 70 255 255 255 70 255 255 255 255 255 70 70 70 70 70 70 70 70 70 70 70 70 70 70 70 70 70 70 70 70 70 70 70 70 70 70 70 70 70 70 70 70 70 255 255 255 255 255 255 255 255 255 70 70 70 70 70 70 70 70 70 70 255 255 255 255 255 255 255 255 255 255 255 255 255 7 7 7 7 255 255 255 56 56 255 255 7 7 7 7 7 7 7 255 255 255 55 55 255 255 255 255 255 255 28 28 255 255 255 255 255 10 10 10 255 255 255 255 255 10 10 255 255 255 255 28 255 255 255 255 255 255 255 255 74 74 74 74 74 255 255 255 255 255 255 255 255 7 7 7 7 7 7 7 7 7 7 255 255 255 255 255 255 255 255 53 53 53 53 53 53 255 255 255 53 53 53 255 255 255 255 255 255 255 255 255 255 255 255 255 255 255 255 255 255 255 255 255 255 255 255 255 255 255 255 255 255 255 255 255 255 71 71 71 71 71 71 71 71 71 71 71 71 71 71 71 255 255 255 255 255 255 27 27 255 255 64 64 64 64 64 64 64 64 64 64 64 64 64 64 64 64 64 64 64 64 64 64 64 64 64 64 64 64 64 64 64 64 64 64 64 64 64 64 64 64 255 255 255 19 19 19 19 19 19 19 19 255 255 255 255 5 5 5 5 5 5 5 5 5 5 5 5 5 5 5 5 5 5 5 5 5 5 5 5 5 5 5 5 5 5 5 255 255 255 255 255 255 255 255 5 5 5 5 5 5 5 5 5 5 5 5 5 5 5 5 5 255 255 255 5 5 5 5 5 5 5 5 5 5 255 255 255 
255 1 1 1 1 1 1 1 1 1 1 1 1 1 1 1 1 1 1 1 1 1 1 1 255 255 255 17 17 255 255 255 63 63 63 63 63 63 63 63 63 63 63 63 63 63 255 255 255 255 255 255 255 255 255 255 255 255 255 255 255 255 255 255 255 255 255 255 255 255 255 255 255 255 255 255 255 255 255 255 255 17 17 17 17 17 17 17 17 17 17 17 17 17 17 17 255 255 255 255 255 255 255 255 255 255 255 255 255 73 73 73 73 73 73 73 73 255 255 255 255 255 255 255 255 70 255 255 255 70 70 70 70 70 70 70 70 70 70 70 70 70 255 255 255 70 70 70 70 70 255 255 255 70 70 255 255 255 255 70 70 70 70 70 70 70 70 70 70 70 70 70 70 70 70 70 70 70 70 70 70 70 70 70 70 70 70 70 70 70 70 70 70 70 255 255 255 255 255 255 255 70 70 255 255 255 70 70 70 70 70 255 255 255 255 255 255 255 255 255 255 255 255 7 7 7 7 7 255 255 255 56 255 255 255 7 255 255 255 255 7 255 255 255 255 55 255 255 255 255 255 255 28 28 28 255 255 255 255 255 255 255 255 255 255 255 255 255 255 10 10 10 255 255 28 28 28 28 255 255 255 255 255 255 255 255 74 74 74 74 255 255 255 255 255 255 255 7 7 7 7 7 7 7 7 7 255 255 255 255 255 255 255 255 53 53 53 53 53 53 255 255 255 53 53 53 255 255 255 255 7 7 7 255 255 255 255 255 255 255 255 255 255 255 255 255 255 255 255 255 255 255 21 21 21 21 21 21 255 255 71 71 71 71 71 71 71 71 71 71 71 71 71 71 71 255 255 255 255 255 255 27 27 255 255 64 64 64 64 64 64 64 64 64 64 64 64 64 64 64 64 64 64 64 64 64 64 64 64 64 64 64 64 64 64 64 64 64 64 64 64 64 64 64 64 255 255 19 19 19 19 19 19 19 19 19 255 255 255 5 5 5 5 5 5 5 5 5 5 5 5 5 5 5 5 5 5 5 5 5 5 5 255 255 255 5 5 5 5 5 5 255 255 255 255 255 5 5 5 5 5 5 5 5 5 5 5 5 5 5 5 5 5 5 5 5 255 255 255 5 5 5 5 5 255 255 255 5 5 255 255 255 
255 1 1 1 1 1 1 1 1 1 1 1 1 1 1 1 1 1 1 1 1 1 1 1 1 255 255 17 17 255 255 255 63 63 63 63 63 63 63 63 63 63 63 63 63 63 255 255 255 255 63 255 255 255 255 255 255 255 255 255 255 255 255 255 255 255 255 255 255 255 255 255 255 255 255 255 255 255 255 255 255 255 17 17 17 17 17 17 17 17 17 17 17 17 255 255 255 255 255 255 255 17 17 17 255 255 255 255 255 73 73 73 73 73 73 73 73 73 255 255 17 255 255 255 255 70 255 255 255 255 255 70 70 70 70 70 70 70 70 70 70 70 70 70 70 70 70 70 70 255 255 255 255 70 70 255 255 255 255 255 70 70 70 70 70 70 70 70 70 70 70 70 70 70 70 70 70 70 70 70 70 70 70 70 70 70 70 70 70 70 70 70 70 70 70 255 255 255 255 255 255 70 70 255 255 255 70 70 70 70 255 255 255 255 255 255 255 255 255 255 255 255 7 7 7 7 255 255 255 255 255 56 255 255 255 7 255 255 255 255 7 255 255 255 55 255 255 255 255 255 255 28 28 255 255 255 28 255 255 255 255 255 255 255 255 255 255 255 255 10 10 10 255 255 28 28 28 28 28 28 28 255 255 255 255 255 255 255 255 255 74 255 255 255 255 255 255 255 7 7 7 7 7 7 7 7 255 255 255 255 255 255 255 255 53 53 53 53 53 53 53 53 53 53 53 53 255 255 255 255 7 7 255 255 255 255 255 255 255 255 255 255 255 255 255 255 255 21 21 21 21 21 21 21 255 255 255 255 255 255 71 71 71 71 71 71 71 71 71 71 71 71 71 71 71 255 255 255 5 255 255 27 27 255 255 64 64 64 64 64 64 64 64 64 64 64 64 64 64 64 64 64 64 64 64 64 64 64 64 64 64 64 64 64 64 64 64 64 64 64 64 64 64 64 255 255 255 19 19 19 19 19 19 19 19 19 255 255 255 5 5 5 5 5 5 5 5 5 5 5 5 5 5 5 5 5 5 5 5 5 5 5 255 255 255 5 5 5 5 5 5 255 255 255 255 255 5 5 5 5 5 5 5 5 5 5 5 5 5 5 5 5 5 5 255 255 255 5 5 5 5 5 5 5 255 255 255 5 5 255 255 255 
255 1 1 1 1 1 1 1 1 1 1 1 1 1 1 1 1 1 1 1 1 1 1 1 1 255 255 17 17 255 255 255 63 63 63 63 63 63 63 63 63 63 63 63 63 63 63 255 255 255 63 255 255 255 255 255 255 255 255 255 255 255 255 255 255 255 255 72 255 255 255 255 255 255 255 255 255 255 255 255 255 255 17 17 17 17 17 17 17 17 17 17 17 255 255 255 255 255 255 255 255 255 17 17 255 255 255 255 255 73 73 255 255 255 255 73 73 73 255 255 17 255 255 255 255 255 255 255 255 255 255 70 70 70 70 70 70 70 255 255 255 70 70 70 70 70 70 70 255 255 255 255 255 70 70 255 255 255 255 255 70 255 255 255 70 70 70 70 70 70 70 70 70 70 70 70 70 70 70 70 70 70 70 70 70 70 70 70 70 70 70 70 70 70 70 70 255 255 255 255 255 255 70 255 255 255 70 70 70 255 255 255 255 255 255 255 255 255 255 255 255 255 7 7 7 7 255 255 255 255 255 56 255 255 7 7 255 255 255 255 255 255 255 55 255 255 255 255 255 255 28 28 28 255 255 255 28 255 255 255 255 28 255 255 255 255 255 255 255 255 10 255 255 255 28 28 28 255 255 255 28 28 28 28 255 255 255 255 255 255 255 255 255 255 28 255 255 255 7 7 7 7 7 7 7 7 7 7 7 255 255 255 255 53 53 53 53 53 53 53 53 53 53 53 53 53 255 255 255 7 7 255 255 255 255 255 255 255 255 255 255 255 21 255 255 255 255 255 255 255 255 255 255 255 255 255 255 255 255 255 71 71 71 71 71 71 71 71 71 71 71 71 71 71 71 255 255 255 5 255 255 27 255 255 255 64 64 64 64 64 64 64 64 64 64 64 64 64 64 64 64 64 64 64 64 64 64 64 64 64 64 64 64 64 64 64 64 64 64 64 64 64 64 64 255 255 255 19 19 19 19 19 19 19 19 19 255 255 255 5 5 5 5 5 5 5 5 5 5 5 5 5 5 5 5 5 5 5 5 5 5 5 255 255 255 5 5 5 5 5 5 5 5 5 5 5 5 5 5 5 5 5 5 5 5 5 5 5 5 5 5 5 5 5 255 255 255 5 5 5 5 5 5 5 255 255 255 5 5 5 255 255 
255 1 1 1 1 1 1 1 1 1 1 1 1 1 1 1 1 1 1 1 1 1 1 255 255 255 255 17 17 255 255 255 63 63 63 63 63 63 63 63 63 63 63 63 63 63 63 255 255 255 63 255 255 255 255 255 255 255 255 255 255 255 255 255 255 255 255 255 255 255 255 255 255 255 255 255 255 255 255 255 255 255 17 17 17 17 17 17 17 17 17 17 255 255 255 255 11 11 11 255 255 255 255 255 255 255 255 255 255 255 255 255 255 255 255 255 73 73 255 255 17 255 255 255 255 255 255 255 255 255 255 70 70 70 70 70 70 70 255 255 255 255 70 70 70 70 70 70 255 255 255 255 70 70 70 255 255 255 255 255 70 255 255 255 70 70 70 70 70 70 70 70 70 70 70 70 70 70 70 70 70 70 70 70 70 70 70 70 70 70 70 70 70 70 70 70 70 70 255 255 255 255 255 70 70 70 70 70 255 255 255 255 255 255 255 255 255 255 255 255 255 7 7 7 255 255 255 255 56 56 56 255 255 255 7 7 7 7 7 255 255 255 255 255 255 255 255 255 255 28 28 28 28 255 255 255 255 255 28 28 28 28 28 28 255 255 255 255 255 255 255 255 255 255 255 255 255 255 255 255 255 255 255 28 28 28 28 28 255 255 255 255 255 28 28 28 255 255 255 7 7 7 7 7 7 7 7 7 7 255 255 255 255 53 53 53 53 53 53 53 53 53 53 53 53 53 255 255 255 7 7 255 255 255 21 255 255 255 255 255 255 255 255 255 255 255 255 255 255 255 255 255 255 255 255 255 71 71 71 71 71 71 71 71 71 71 71 71 71 71 71 71 71 71 71 71 255 255 5 255 255 255 255 255 255 64 64 64 64 64 64 64 64 64 64 64 64 64 64 64 64 64 64 64 64 64 64 64 64 64 64 64 64 64 64 64 64 64 64 64 64 64 64 255 255 255 19 19 19 19 19 19 19 19 19 19 255 255 5 5 5 5 5 5 5 5 5 5 5 5 5 5 5 5 5 5 5 5 5 5 5 5 5 5 5 5 5 5 5 5 5 5 5 5 5 5 5 5 5 5 5 5 5 5 5 5 5 5 5 5 5 5 5 5 255 255 255 5 5 5 5 5 5 5 255 255 255 255 255 255 255 255 
255 1 1 1 1 1 1 1 1 1 1 1 1 1 1 1 1 1 1 1 1 1 1 255 255 255 255 17 17 17 255 255 63 63 63 63 63 63 63 63 63 63 63 63 63 63 63 63 63 63 255 255 255 255 255 255 255 255 255 255 255 255 255 255 255 255 255 255 255 255 255 255 255 255 255 255 255 255 255 17 17 17 17 17 17 17 17 17 17 17 17 255 255 255 255 11 11 11 11 11 255 255 255 255 255 255 255 255 255 255 255 255 255 255 255 255 255 255 255 255 17 255 255 255 255 255 255 70 255 255 255 70 70 70 70 70 70 70 255 255 255 255 70 70 70 70 70 70 255 255 255 255 70 70 70 70 255 255 255 255 70 255 255 255 70 70 70 70 70 70 70 70 70 70 70 70 70 255 255 255 255 70 70 70 70 70 70 70 70 70 70 70 70 70 70 70 70 70 70 255 255 255 255 255 70 70 70 70 255 255 255 255 255 255 255 255 255 255 255 255 7 7 7 7 255 255 255 255 56 56 56 255 255 255 7 7 7 7 255 255 255 255 255 255 255 255 255 255 255 255 255 28 28 28 255 255 255 255 255 255 255 255 255 255 255 255 70 255 255 255 255 255 255 255 255 255 255 255 255 255 255 255 255 28 28 255 255 255 28 28 28 28 28 28 28 28 255 255 255 7 7 7 7 7 7 7 7 7 7 7 7 255 255 53 53 53 53 53 53 53 53 53 53 53 53 53 255 255 255 7 255 255 255 21 21 255 255 255 255 255 255 255 255 255 255 71 71 71 71 71 255 255 255 71 71 71 71 71 71 71 71 71 71 71 71 71 71 71 71 71 71 71 71 71 71 71 255 255 5 255 255 255 255 255 255 64 64 64 64 64 64 64 64 64 64 64 64 64 64 64 64 64 64 64 64 64 64 64 64 64 64 64 64 64 64 64 64 64 64 64 64 64 64 255 255 255 19 19 19 19 19 19 19 19 19 19 255 255 5 5 5 5 5 5 5 5 5 5 5 5 5 5 5 5 5 5 5 5 5 5 5 5 5 5 5 5 5 5 5 5 5 5 5 5 5 5 5 5 5 5 5 5 5 5 5 5 5 5 5 5 5 5 5 5 5 5 5 5 5 5 5 5 5 5 255 255 255 255 255 255 255 255 
255 1 1 1 1 1 1 1 1 1 1 1 1 1 1 1 1 1 1 1 1 1 1 255 255 255 255 17 17 255 255 255 63 63 63 63 63 63 63 63 63 63 63 63 63 63 63 63 63 63 255 255 255 255 255 255 255 255 255 255 255 255 255 255 255 255 255 255 255 255 255 255 255 255 255 255 255 255 255 255 255 17 17 17 17 17 17 17 17 17 17 255 255 255 11 11 11 11 11 11 11 11 11 255 255 255 255 255 255 255 255 255 255 255 255 255 255 255 255 255 255 255 255 255 255 255 255 70 70 70 70 70 70 70 70 70 70 255 255 255 255 255 70 70 70 70 70 255 255 255 255 70 70 70 70 70 255 255 255 255 255 70 70 70 70 70 255 255 255 70 70 70 70 70 70 70 70 255 255 255 255 255 70 70 70 70 70 70 70 70 70 70 70 70 70 70 70 70 70 70 255 255 255 255 70 70 70 255 255 255 255 255 255 255 255 255 255 255 255 7 7 7 7 255 255 255 56 56 56 56 56 255 255 255 255 7 7 255 255 255 255 255 255 255 255 255 255 255 255 255 255 255 255 255 255 255 255 255 255 255 255 255 255 255 255 255 70 255 255 255 255 255 255 255 255 255 255 255 255 255 255 255 255 28 255 255 255 255 28 28 28 28 28 28 28 28 28 255 255 7 7 7 7 7 7 7 7 7 7 7 7 255 255 53 53 53 53 53 53 53 53 53 53 53 53 255 255 255 255 255 255 255 255 255 255 255 255 255 255 255 255 255 255 255 71 71 71 71 71 71 71 71 71 71 71 71 71 71 71 71 71 71 71 71 71 71 71 71 71 71 71 71 71 71 71 71 255 255 5 5 255 255 255 255 255 64 64 64 64 64 64 64 64 64 64 64 64 64 64 64 64 64 64 64 64 64 64 64 64 64 64 64 64 64 64 64 64 64 64 64 64 64 64 255 255 19 19 19 19 19 19 19 19 19 255 255 255 255 5 5 5 5 5 5 5 5 5 5 5 5 5 5 5 5 5 5 5 5 5 5 5 5 5 5 5 5 5 5 5 5 5 5 5 5 5 5 5 5 5 5 5 5 5 5 5 5 5 5 5 5 5 5 5 5 5 5 5 5 5 5 5 5 5 5 5 5 5 255 255 255 255 255 
255 1 1 1 1 1 1 1 1 1 1 1 1 1 1 1 1 1 1 1 1 1 1 255 255 255 255 17 17 255 255 255 255 63 63 63 63 63 63 63 63 63 63 63 63 63 63 63 63 63 255 255 255 255 255 255 255 255 255 255 255 255 255 255 255 255 255 17 17 17 255 255 255 17 17 17 255 255 255 255 255 17 17 17 17 17 17 17 255 255 255 255 255 255 11 11 11 11 11 11 11 11 11 255 255 255 255 255 255 255 255 255 255 11 255 255 255 255 255 255 255 255 255 255 255 255 255 70 70 70 70 70 70 70 70 255 255 255 255 255 255 70 70 70 70 70 70 255 255 255 255 70 70 70 70 70 70 255 255 255 255 70 70 70 70 70 255 255 255 70 70 70 70 70 70 70 70 255 255 255 255 255 70 70 70 70 70 70 70 70 70 70 70 70 70 70 70 70 70 70 70 255 255 255 70 70 70 255 255 255 255 255 255 255 255 255 255 255 255 7 7 7 255 255 255 255 56 56 56 255 255 255 255 255 255 7 7 255 255 255 255 255 255 255 255 255 255 255 255 255 255 255 255 255 255 255 70 70 70 70 70 70 70 70 70 70 70 70 255 255 255 255 255 255 70 70 70 70 255 255 255 255 255 255 255 255 255 255 28 28 28 28 28 28 28 28 28 255 255 7 7 7 7 7 7 7 7 7 7 7 7 255 255 53 53 53 53 53 53 53 53 53 53 53 255 255 255 255 255 255 255 255 255 255 255 255 255 255 255 71 71 71 71 71 71 71 71 71 71 71 71 71 71 71 71 71 71 71 71 71 71 71 71 71 71 71 71 71 71 71 71 71 71 71 71 71 255 255 5 5 255 255 255 255 255 64 64 64 64 64 64 64 64 64 64 64 64 64 64 64 64 64 64 64 64 64 64 64 64 64 64 64 64 64 64 64 64 64 64 64 64 64 64 255 255 255 255 255 19 19 19 19 19 255 255 255 255 255 5 5 5 5 5 5 5 5 5 5 5 5 5 5 5 5 5 5 5 5 5 5 5 5 5 5 5 5 5 5 5 5 5 5 5 5 5 5 5 5 5 5 5 5 5 5 5 5 5 5 5 5 5 5 5 5 5 5 5 5 5 5 5 5 5 5 5 5 5 5 255 255 255 255 
255 1 1 1 1 1 1 1 1 1 1 1 1 1 1 1 1 1 1 1 1 1 1 255 255 255 17 17 17 255 255 255 255 63 63 63 63 63 63 63 63 63 63 63 63 63 255 255 255 63 63 63 255 255 255 255 255 255 255 255 255 255 255 255 255 255 255 255 255 255 255 255 255 255 255 17 255 255 255 255 255 17 17 17 17 17 17 255 255 255 255 255 255 255 255 255 255 11 11 11 11 11 11 255 255 255 255 255 255 255 255 255 255 11 255 255 255 255 255 255 255 255 255 255 255 255 70 70 70 70 70 70 70 70 70 255 255 255 255 255 255 70 70 70 70 70 70 255 255 255 255 70 70 70 70 70 70 70 255 255 255 70 70 70 70 70 255 255 255 70 70 70 70 70 70 70 70 70 70 255 255 255 255 70 70 70 70 70 70 70 70 70 70 70 70 70 70 70 70 70 70 70 70 70 70 70 255 255 255 255 255 255 255 255 255 255 255 7 7 7 7 7 255 255 255 56 56 56 56 255 255 255 255 255 255 255 255 255 255 255 255 255 255 255 255 255 255 255 255 255 70 70 255 255 255 255 70 70 70 70 70 70 70 70 70 70 70 70 70 70 70 70 70 70 70 70 70 70 70 255 255 255 255 255 255 255 255 255 255 28 28 28 28 28 28 28 28 255 255 7 7 7 7 7 7 7 7 7 7 7 255 255 255 53 53 53 53 53 53 53 53 53 53 255 255 255 255 255 255 255 255 255 255 255 255 255 255 71 71 71 71 71 71 71 71 71 71 71 71 71 71 71 71 71 71 71 71 71 71 71 71 71 71 71 71 71 71 71 71 71 71 71 71 71 71 71 255 255 5 5 255 255 255 255 255 64 64 64 64 64 64 64 64 64 64 64 64 64 64 64 64 64 64 64 64 64 64 64 64 64 64 64 64 64 64 64 64 64 64 64 64 64 255 255 255 255 255 255 19 19 19 19 255 255 255 255 5 5 5 5 5 5 5 5 5 5 5 5 5 5 5 5 5 5 5 5 5 5 5 5 5 5 5 5 5 5 5 5 5 5 5 5 5 5 5 5 5 5 5 5 5 5 5 5 5 5 5 5 5 5 5 5 5 5 5 5 5 5 5 5 5 5 5 5 5 5 255 255 255 5 5 255 
255 1 1 1 1 1 1 1 1 1 1 1 1 1 1 1 1 1 1 1 1 1 1 255 255 255 17 17 17 17 255 255 255 63 63 63 63 63 63 63 63 63 63 63 63 63 255 255 255 255 255 255 255 255 255 255 255 255 255 255 255 255 255 255 255 255 255 255 255 255 255 255 255 255 255 255 255 255 255 255 255 255 255 255 255 255 255 255 255 255 255 255 255 255 255 255 255 11 11 11 11 11 11 11 255 255 255 255 255 255 255 255 255 255 255 255 255 255 255 70 70 70 70 70 70 70 70 70 70 70 70 70 70 70 255 255 255 255 255 70 70 70 70 70 70 70 70 255 255 255 255 70 70 70 70 70 70 70 255 255 255 70 70 70 70 70 255 255 255 70 70 70 70 70 70 70 70 70 70 255 255 255 255 255 255 255 70 70 70 70 70 70 70 70 70 70 70 70 70 70 70 70 70 70 70 255 255 255 255 255 255 255 255 255 255 255 255 7 7 7 7 7 255 255 255 56 56 56 255 255 255 255 7 7 7 255 255 255 255 255 255 255 255 70 255 255 255 70 70 70 70 70 70 70 70 70 70 70 70 70 70 70 70 70 70 70 70 70 70 70 70 70 70 70 70 70 70 70 70 70 70 70 255 255 255 255 255 255 255 255 255 28 28 28 28 28 255 255 255 7 7 7 7 7 7 7 7 7 7 7 255 255 255 53 53 53 53 53 53 53 53 53 53 255 255 255 255 255 255 255 255 255 255 71 71 71 71 71 71 71 71 71 71 71 71 71 71 71 71 71 71 71 71 71 71 71 71 71 71 71 71 71 71 71 71 71 71 71 71 71 71 71 71 71 71 71 255 255 255 255 255 255 255 255 255 64 64 64 64 64 64 64 64 64 64 64 64 64 64 64 64 64 64 64 64 64 64 64 64 64 64 64 64 64 64 64 64 64 64 64 64 64 255 255 255 255 255 255 19 19 19 19 255 255 255 5 5 5 5 5 5 5 5 5 5 5 5 5 5 5 5 5 5 5 5 5 5 5 5 5 5 5 5 5 5 5 5 5 5 5 5 5 5 5 5 5 5 5 5 5 5 5 5 5 5 5 5 5 5 5 5 5 5 5 5 5 5 5 255 255 255 5 255 255 255 255 255 255 255 5 5 255 
255 1 1 1 1 1 1 1 1 1 1 1 1 1 1 1 1 1 1 1 1 1 1 255 255 255 255 255 17 17 255 255 63 63 63 63 63 63 63 63 63 63 63 63 63 63 255 255 255 255 255 255 255 255 255 255 255 255 17 255 255 255 255 255 255 255 255 255 255 255 255 255 255 255 255 255 255 255 255 255 255 255 255 255 255 255 255 255 255 255 255 255 255 255 255 255 255 11 11 255 255 255 11 11 255 255 255 255 255 255 255 255 255 255 255 255 255 255 70 70 70 70 70 70 70 70 70 70 70 70 70 70 70 255 255 255 255 255 255 70 70 70 70 70 70 70 70 255 255 255 255 70 70 70 70 70 70 70 70 70 70 70 70 70 70 70 255 255 255 70 70 70 70 70 70 70 70 70 70 255 255 255 255 255 255 255 255 70 70 70 70 70 70 70 70 70 70 70 70 70 70 70 70 70 70 255 255 255 255 255 255 255 255 255 255 255 7 7 7 7 7 7 255 255 255 56 56 255 255 255 255 255 255 255 255 255 255 255 255 255 255 255 70 70 255 255 255 70 70 70 70 70 70 70 70 70 70 70 70 70 70 70 70 70 70 70 70 70 70 70 70 70 70 70 70 70 70 70 70 70 70 70 255 255 255 255 255 255 255 255 255 28 28 28 28 28 255 255 255 255 7 7 7 7 7 7 7 7 7 7 255 255 53 53 53 53 53 53 53 53 53 53 53 255 255 255 255 255 255 255 255 255 71 71 71 71 71 71 71 71 71 255 255 255 71 71 71 71 71 71 71 71 71 71 71 71 71 71 71 71 71 71 71 71 71 71 71 71 71 71 71 71 71 71 71 71 255 255 255 255 255 255 255 255 255 64 64 64 64 64 64 64 64 64 64 64 64 64 64 64 64 64 64 64 64 64 64 64 64 64 64 64 64 64 64 64 64 64 64 64 64 64 255 255 19 19 255 255 255 19 19 19 255 255 255 5 5 5 5 5 5 5 5 5 5 5 5 5 5 5 5 5 5 5 5 5 5 5 5 5 5 5 5 5 5 5 5 5 5 5 5 5 5 5 5 5 5 5 5 5 5 5 5 5 5 5 5 5 5 5 5 5 5 5 5 5 5 5 255 255 255 5 255 255 255 255 255 255 255 5 5 255 
255 1 1 1 1 1 1 1 1 1 1 1 1 1 1 1 1 1 1 1 1 1 1 1 255 255 255 255 17 255 255 255 63 63 63 63 63 63 63 63 63 63 63 63 63 63 63 63 63 255 255 255 255 255 255 255 255 255 255 255 255 255 255 255 255 255 255 255 255 255 255 255 255 255 255 255 255 255 255 255 255 255 255 255 255 255 255 255 255 255 255 255 255 255 255 255 255 255 11 255 255 255 11 11 255 255 255 255 255 255 255 255 255 255 255 255 255 255 70 70 70 70 70 70 70 70 255 255 255 255 255 70 70 255 255 255 255 255 255 70 70 70 255 255 255 70 255 255 255 255 255 70 70 70 70 70 70 70 70 70 70 70 70 70 70 70 255 255 255 70 70 70 70 70 70 70 70 70 70 255 255 255 255 255 255 255 255 255 255 70 70 70 70 70 70 70 70 70 70 70 70 70 70 70 255 255 255 255 255 255 255 255 255 255 255 255 7 7 7 7 7 7 255 255 255 56 56 255 255 255 255 255 255 255 255 255 255 255 255 255 255 70 70 70 70 70 70 70 70 70 70 70 70 70 70 70 70 70 70 70 70 70 70 70 70 70 70 70 70 255 255 255 255 255 255 70 70 70 70 70 70 70 70 255 255 255 255 255 255 255 255 28 28 28 28 28 255 255 255 255 7 7 7 7 7 7 7 7 7 7 255 255 53 53 53 53 53 53 53 53 53 53 255 255 255 255 255 255 255 255 71 71 71 71 71 71 71 71 71 71 255 255 255 255 255 71 71 71 71 71 71 71 71 71 71 71 71 71 71 71 71 71 71 71 71 71 71 71 71 71 71 71 71 71 71 71 255 255 255 255 255 255 255 255 64 64 64 64 64 64 64 64 64 64 64 64 64 64 64 64 64 64 64 64 64 64 64 64 64 64 64 64 64 64 64 64 64 64 64 64 64 64 255 255 19 19 255 255 255 19 19 19 255 255 255 5 5 5 5 5 5 5 5 5 5 5 5 5 5 5 5 5 5 5 5 5 5 5 5 5 5 5 5 5 5 5 5 5 5 5 5 5 5 5 5 5 5 5 5 5 5 5 5 5 5 5 5 5 5 255 255 255 255 5 5 5 5 5 255 255 255 5 255 255 255 255 255 255 255 255 5 255 
255 1 1 1 1 1 1 1 1 1 1 1 1 1 1 1 1 1 1 1 1 1 1 1 255 255 255 255 17 255 255 255 63 63 63 63 63 63 63 63 63 63 63 63 63 63 63 63 63 63 255 255 255 255 255 255 255 255 255 255 255 255 255 255 255 255 255 255 255 255 255 255 255 255 255 255 255 255 255 255 255 255 255 255 255 255 255 255 255 255 255 255 255 255 255 255 255 255 11 255 255 255 11 255 255 255 255 255 255 255 255 70 70 255 255 255 255 70 70 70 70 70 70 70 70 255 255 255 255 255 255 70 255 255 255 255 255 255 70 70 70 70 255 255 255 70 255 255 255 255 255 70 70 70 70 70 70 70 70 70 70 70 70 70 70 70 255 255 255 70 70 70 70 70 70 70 70 70 70 70 255 255 255 255 255 255 255 255 255 255 70 70 70 70 70 70 70 70 70 70 70 70 70 70 255 255 255 255 255 255 255 255 255 255 255 7 7 7 7 7 7 7 255 255 56 56 56 255 255 255 255 255 255 255 255 255 255 255 255 255 255 70 70 70 70 70 70 70 70 70 70 70 70 70 70 70 70 70 70 70 70 70 70 70 70 70 70 70 255 255 255 255 255 255 255 255 70 70 70 70 70 70 70 70 70 255 255 255 255 255 255 28 28 28 28 28 28 255 255 255 255 255 7 7 7 7 7 7 7 7 255 255 255 53 53 53 53 53 53 53 53 255 255 255 255 255 255 255 71 71 71 71 71 71 71 71 71 255 255 255 255 255 255 255 255 255 255 71 71 71 71 71 71 71 71 71 71 71 71 71 71 71 71 71 71 71 71 71 71 71 71 71 71 71 71 71 255 255 255 255 5 255 255 255 255 255 255 64 64 64 64 64 64 64 64 64 64 64 64 64 64 64 64 64 64 64 64 64 64 64 64 64 64 64 64 64 64 64 64 64 255 255 255 255 255 255 255 255 255 19 19 19 255 255 255 5 5 5 5 5 5 5 5 5 5 5 5 5 5 5 5 5 5 5 5 5 5 5 5 5 5 5 5 5 5 5 5 5 5 5 5 5 5 5 5 5 5 5 5 5 5 5 5 5 5 5 5 5 5 255 255 255 255 5 5 5 5 255 255 255 5 5 255 255 255 255 255 255 255 255 255 255 
255 1 1 1 1 1 1 1 1 1 1 1 1 1 1 1 1 1 1 1 1 1 1 1 255 255 255 255 17 255 255 255 63 63 63 63 63 63 63 63 63 63 63 63 63 63 63 63 63 63 63 255 255 255 255 255 255 255 255 255 255 255 255 255 255 255 255 255 255 255 255 255 255 255 255 255 255 255 255 255 255 255 255 255 255 255 255 255 255 255 255 255 255 255 255 255 255 255 11 11 11 255 255 255 255 255 17 255 255 255 255 70 70 70 255 255 255 70 70 70 70 70 70 255 255 255 255 255 255 255 255 70 255 255 255 255 255 70 70 70 70 70 255 255 255 255 255 255 255 255 255 70 70 70 70 70 70 70 70 70 70 70 70 70 70 70 255 255 255 70 70 70 70 70 70 70 70 70 70 70 70 255 255 255 255 255 255 255 255 255 255 255 255 70 70 70 70 70 70 70 70 70 70 255 255 255 255 255 255 255 255 255 255 255 255 7 7 7 7 7 7 7 255 255 56 56 255 255 255 255 255 255 255 255 255 255 255 255 255 70 70 70 70 70 70 70 70 70 70 70 70 70 70 70 70 70 70 70 70 70 70 70 70 70 70 70 255 255 255 255 255 255 255 255 255 255 255 255 70 70 70 70 70 70 70 70 255 255 255 255 255 28 28 28 28 28 28 255 255 255 255 255 255 7 7 7 7 7 7 7 255 255 255 53 53 53 53 53 53 53 53 255 255 255 255 255 255 71 71 71 71 71 71 71 71 71 71 255 255 255 255 255 255 255 255 255 255 255 71 71 71 71 71 71 71 71 71 71 71 71 71 71 71 71 71 71 71 71 71 71 71 71 71 71 71 71 255 255 255 5 255 255 255 255 255 255 255 64 64 64 64 64 64 64 64 64 64 64 64 64 64 64 64 64 64 64 64 64 64 64 64 64 64 64 64 64 64 64 64 64 255 255 255 255 255 255 255 255 255 19 19 255 255 255 5 5 5 5 5 5 5 5 5 5 5 5 5 5 5 5 5 5 5 5 5 5 5 5 5 5 5 5 5 5 5 5 5 5 5 5 5 5 5 5 5 5 255 255 255 255 255 5 5 5 5 5 5 5 5 255 255 255 255 255 255 255 5 255 255 255 5 5 255 255 29 255 255 255 255 255 255 255 
255 1 1 1 1 1 1 1 1 1 1 1 1 1 1 1 1 1 1 1 1 1 1 1 255 255 255 255 17 17 255 255 63 63 63 63 63 63 63 63 63 63 63 63 63 63 63 63 63 63 63 255 255 255 255 255 255 255 255 75 255 255 255 255 255 255 255 255 255 255 255 255 255 255 255 255 255 75 255 255 255 255 255 255 255 57 255 255 255 17 255 255 255 255 255 255 255 11 11 11 255 255 255 255 255 255 255 255 255 255 255 70 70 70 255 255 255 70 70 70 70 70 255 255 255 255 255 255 255 70 70 255 255 255 255 255 70 70 70 70 70 70 70 70 70 255 255 255 255 255 255 70 70 70 70 70 70 70 70 70 70 70 70 70 70 70 255 255 255 255 70 70 70 70 70 70 70 70 70 70 70 70 70 255 255 255 255 255 255 255 255 255 255 70 70 70 70 70 70 70 70 70 255 255 255 255 255 255 255 255 255 255 255 255 7 7 7 7 7 7 7 7 255 255 56 255 255 255 255 255 255 255 255 255 255 255 255 255 70 70 70 70 70 70 70 70 70 70 70 70 70 70 70 70 70 70 70 70 70 70 70 70 70 255 255 255 255 255 255 255 255 255 255 255 255 255 255 255 255 70 70 70 255 255 255 255 255 255 255 255 255 28 28 28 28 28 28 28 255 255 255 255 255 7 7 7 7 7 7 7 255 255 255 53 53 53 53 53 53 53 255 255 255 255 255 255 71 71 71 71 71 71 71 71 71 71 71 255 255 255 255 255 255 255 255 255 255 255 71 71 71 71 71 71 71 71 71 71 71 71 71 71 71 71 71 71 71 71 71 71 71 71 71 71 71 71 255 255 255 5 255 255 255 255 255 255 255 255 64 64 64 64 64 64 64 64 64 64 64 64 64 64 64 64 64 64 64 64 64 64 64 64 64 64 64 64 64 64 64 64 255 255 255 255 255 255 255 255 19 19 255 255 255 255 5 5 5 5 5 5 5 5 5 5 5 5 5 5 5 5 5 5 5 5 5 5 5 5 5 5 5 5 5 5 5 5 5 5 5 5 5 5 5 5 5 5 255 255 255 255 255 5 5 5 5 5 5 5 5 5 5 5 255 255 255 255 5 255 255 255 5 5 255 255 255 255 255 255 255 255 255 255 
255 1 1 1 1 1 1 1 1 1 1 1 1 1 1 1 1 1 1 1 1 1 1 1 255 255 255 255 17 17 255 255 63 63 63 63 63 63 63 63 63 63 63 63 63 63 255 255 255 255 255 255 255 255 255 255 255 255 255 255 255 255 255 255 255 255 255 255 255 255 255 255 255 255 255 255 255 75 255 255 255 255 255 255 255 255 255 255 255 17 17 17 255 255 255 255 255 11 11 11 255 255 255 255 255 255 255 255 255 255 255 255 255 70 70 70 70 70 70 70 70 70 255 255 255 255 255 70 70 70 70 255 255 255 70 70 70 70 70 70 70 70 70 70 70 255 255 255 255 255 70 70 70 70 70 70 70 70 70 70 70 70 70 70 70 70 255 255 255 255 70 70 70 70 70 70 70 70 70 70 70 70 70 70 70 70 70 70 255 255 255 255 255 70 70 70 70 70 70 70 70 70 255 255 255 255 255 255 255 255 255 255 255 7 7 7 7 7 7 7 7 255 255 255 56 255 255 255 255 255 255 255 255 255 255 255 255 70 70 70 70 70 70 70 70 70 70 70 70 70 70 70 70 70 70 70 70 70 70 70 70 70 70 255 255 255 255 255 255 255 255 58 58 255 255 255 255 255 255 255 255 70 255 255 255 255 255 255 255 28 28 28 28 28 28 28 28 28 28 255 255 255 255 7 7 7 7 7 7 7 255 255 255 53 53 53 53 53 53 255 255 255 255 255 255 71 71 71 71 71 71 71 71 71 71 71 71 255 255 255 255 255 255 255 255 255 255 255 255 71 71 71 71 71 71 71 71 71 71 71 71 71 71 71 71 71 71 71 71 71 71 71 71 71 71 71 255 255 255 5 255 255 255 255 255 255 255 255 64 64 64 64 64 64 64 64 64 64 64 64 64 64 64 64 64 64 64 64 64 64 64 64 64 64 64 64 64 64 64 64 255 255 255 255 255 255 255 255 19 19 255 255 255 5 5 5 5 5 5 5 5 5 5 5 5 5 5 5 5 5 5 5 5 5 5 5 5 5 5 5 5 5 5 5 5 5 5 5 5 5 5 5 5 5 5 5 255 255 255 255 255 5 5 5 5 5 5 5 5 5 5 5 255 255 255 255 5 5 5 5 255 255 255 255 255 255 255 255 255 255 255 255 
255 1 1 1 1 1 1 1 1 1 1 1 1 1 1 1 1 1 1 1 1 1 1 1 255 255 17 17 17 17 255 255 63 63 63 63 63 63 63 63 63 63 63 63 63 63 255 255 255 255 255 255 255 255 255 255 255 255 255 255 255 255 255 255 255 255 255 255 255 255 255 255 255 255 255 255 255 255 255 255 255 255 255 255 255 255 255 255 17 17 17 17 255 255 255 255 255 11 11 11 255 255 255 255 255 255 255 255 255 255 255 255 255 70 70 70 70 70 70 70 70 255 255 255 255 255 255 70 70 70 70 255 255 255 70 70 70 70 70 70 255 255 255 255 70 255 255 255 255 255 70 70 70 70 70 70 70 70 70 70 70 70 70 70 70 70 255 255 255 255 70 70 70 70 70 70 70 70 70 70 70 70 70 70 70 70 70 70 70 70 255 255 255 70 70 70 70 70 70 70 70 255 255 255 255 255 255 255 255 255 255 255 7 7 7 7 7 7 7 7 255 255 255 255 56 255 255 255 255 255 255 255 255 255 255 255 255 255 255 70 70 70 70 70 70 70 70 70 70 70 70 255 255 255 70 70 70 255 255 255 70 70 70 255 255 255 70 255 255 255 255 58 58 58 58 58 255 255 255 255 255 70 255 255 255 255 255 255 255 28 28 28 28 28 28 28 28 28 28 255 255 255 255 255 255 7 7 7 7 7 255 255 53 53 53 53 53 53 53 255 255 255 255 255 71 71 71 71 71 71 71 71 71 71 71 71 71 255 255 255 255 255 255 7 255 255 255 255 255 71 71 71 71 71 71 71 71 71 71 71 71 71 71 71 71 71 71 71 71 71 71 71 71 71 71 71 255 255 255 5 255 255 255 255 255 255 255 255 64 64 64 64 64 64 64 64 64 64 64 64 64 64 64 64 64 64 64 64 64 64 64 64 64 64 64 64 64 64 64 64 255 255 255 255 255 19 19 19 19 19 255 255 255 5 5 5 5 5 5 5 5 5 5 5 5 5 5 5 5 5 5 5 5 5 5 5 5 5 5 5 5 5 5 5 5 5 5 5 5 5 5 5 5 5 5 5 5 5 255 255 255 5 5 5 5 5 5 5 5 5 5 5 5 5 5 5 255 255 255 255 255 255 255 255 255 255 255 255 255 255 255 255 
255 1 1 1 1 1 1 1 1 1 1 1 1 1 1 1 1 1 1 1 1 1 1 1 255 255 17 17 17 17 255 255 63 63 63 63 63 63 63 63 63 63 63 63 63 63 255 255 255 255 255 255 255 255 255 255 255 255 255 255 255 255 255 255 255 255 255 255 255 255 255 255 255 255 255 255 255 255 255 255 255 255 255 255 255 255 255 255 255 17 17 17 255 255 255 255 255 11 11 11 255 255 255 255 255 255 255 255 255 255 255 255 255 70 70 70 70 70 70 70 255 255 255 255 255 255 70 70 70 70 70 255 255 255 70 70 70 70 70 70 255 255 255 255 70 255 255 255 255 70 70 70 70 70 70 70 70 70 70 70 70 70 70 70 70 70 70 255 255 255 255 70 70 70 70 70 70 70 70 70 70 70 70 70 70 70 70 70 70 70 70 70 70 70 70 70 70 70 255 255 255 255 255 255 255 255 255 255 255 255 255 255 7 7 7 7 7 7 255 255 255 255 255 56 56 255 255 255 56 255 255 255 255 255 255 255 255 255 255 70 70 70 70 70 70 70 70 70 70 70 70 255 255 255 255 70 70 255 255 255 70 70 70 255 255 255 255 70 255 255 255 58 58 58 58 58 255 255 255 255 255 255 255 255 255 255 255 255 255 255 28 28 28 28 28 28 28 28 28 255 255 255 255 255 255 7 7 7 7 7 255 255 53 53 53 53 53 53 53 255 255 255 255 255 71 71 71 71 71 71 71 71 71 71 71 255 255 255 255 255 255 255 255 7 7 255 255 255 255 71 71 71 71 71 71 71 71 71 71 71 71 71 71 71 71 71 71 71 71 71 71 71 71 71 71 71 255 255 255 5 255 255 255 255 255 64 64 64 64 64 64 64 64 64 64 64 64 64 64 64 64 64 64 64 64 64 64 64 64 64 64 64 64 64 64 64 64 64 64 255 255 255 19 255 255 255 19 19 19 19 19 255 255 5 5 5 5 5 5 5 5 5 5 5 5 5 5 5 5 5 5 5 5 5 5 5 5 5 5 5 5 5 5 5 5 5 5 5 5 5 5 5 5 5 5 5 5 5 255 255 255 5 5 5 5 5 5 5 5 5 5 5 5 5 255 255 255 255 255 255 255 255 255 255 255 255 255 255 255 255 255 255 
255 1 1 1 1 1 1 1 1 1 1 1 1 1 1 1 1 1 1 1 1 1 255 255 255 255 255 17 17 255 255 255 63 63 63 63 63 63 63 255 255 255 63 63 63 63 255 255 255 255 255 255 255 255 255 255 255 255 255 255 255 255 255 255 255 255 255 255 255 255 255 255 255 255 255 255 255 255 255 255 255 255 255 255 255 255 255 255 255 255 255 255 255 255 255 255 255 255 255 255 255 255 255 255 255 255 255 255 255 70 70 70 70 70 70 70 70 70 70 70 255 255 255 255 70 70 70 70 70 70 70 70 70 70 70 70 70 70 70 70 255 255 255 255 70 70 255 255 255 70 70 70 70 70 70 70 70 70 70 70 70 70 70 70 70 70 70 255 255 255 255 70 70 70 70 70 70 70 70 70 70 70 70 70 70 70 70 70 70 70 70 70 70 70 70 70 70 70 255 255 255 255 255 255 255 255 255 255 255 255 255 255 7 7 7 7 7 7 255 255 255 255 56 56 56 255 255 255 255 255 255 255 255 255 255 255 255 255 255 255 255 70 70 70 70 70 70 70 70 70 70 255 255 255 255 255 70 255 255 255 255 255 70 255 255 255 255 70 255 255 255 58 58 58 58 58 58 255 255 255 255 255 255 255 255 255 255 255 255 255 255 28 28 28 28 28 28 28 28 28 28 255 255 255 255 7 7 7 255 255 255 255 53 53 53 53 53 53 255 255 255 255 255 255 255 255 255 255 71 255 255 255 71 71 71 255 255 255 71 71 255 255 255 7 255 255 255 255 255 71 71 71 71 71 71 71 71 71 71 71 71 71 71 71 71 71 71 71 71 71 71 71 71 71 71 71 255 255 255 5 255 255 255 255 255 64 64 64 64 64 64 64 64 64 64 64 64 64 64 64 64 64 64 64 64 64 64 64 64 64 64 64 64 64 64 64 64 64 64 255 255 255 19 255 255 255 19 19 19 19 255 255 255 5 5 5 5 5 5 5 5 5 5 5 5 5 5 255 255 255 255 5 5 5 5 255 255 255 5 5 5 5 5 5 5 5 5 5 5 5 5 5 5 5 5 5 5 5 5 5 5 5 5 5 5 5 255 255 255 5 5 5 5 5 255 255 255 255 255 255 255 255 255 255 255 255 255 255 255 255 255 255 
255 1 1 1 1 1 1 1 1 1 1 1 1 1 1 1 1 1 1 1 1 1 255 255 255 255 255 17 17 255 255 255 63 63 63 63 63 63 63 255 255 255 63 63 255 255 255 255 255 255 255 255 255 255 255 255 255 255 255 255 255 255 255 255 255 255 255 255 255 255 255 255 255 255 255 255 255 75 255 255 255 255 255 255 255 255 255 255 255 255 255 255 255 255 255 255 255 255 255 255 255 255 255 255 255 255 255 255 255 70 70 70 70 70 70 70 70 255 255 255 255 255 255 70 70 70 70 70 70 70 70 70 70 70 70 70 70 70 70 255 255 255 255 255 70 255 255 255 255 70 70 70 70 70 70 70 70 70 70 70 70 70 70 70 70 70 70 255 255 255 255 70 70 70 70 70 70 70 70 70 70 70 70 70 70 70 70 70 70 70 70 70 70 70 70 70 70 70 255 255 255 255 255 255 255 255 255 255 255 255 255 255 255 255 255 255 7 7 255 255 56 56 56 56 56 255 255 255 255 255 255 255 255 255 255 255 28 255 255 255 255 255 255 70 70 70 70 70 70 70 70 255 255 255 255 255 255 255 255 255 255 255 70 255 255 255 255 255 255 255 255 58 58 58 58 58 58 255 255 255 255 255 255 255 255 255 255 255 255 255 255 28 28 28 28 28 28 28 28 28 28 255 255 255 255 7 7 7 255 255 255 255 53 53 53 53 53 53 255 255 255 255 255 255 255 255 255 255 71 255 255 255 71 71 71 255 255 255 71 255 255 255 255 7 255 255 255 255 255 71 71 71 71 71 71 71 71 71 71 71 71 71 71 71 71 71 71 71 71 71 71 71 71 71 71 71 255 255 255 5 255 255 255 255 255 64 64 64 64 64 64 64 64 64 64 64 64 64 64 64 64 64 64 64 64 64 64 64 64 64 64 64 64 64 64 64 64 64 64 255 255 19 255 255 255 255 19 19 19 19 255 255 255 5 5 5 5 5 5 5 5 5 5 5 5 5 5 255 255 255 255 5 5 5 5 255 255 255 5 5 5 5 5 5 5 255 255 255 5 5 5 5 5 5 5 5 5 5 5 5 255 255 255 5 5 5 255 255 255 255 255 255 255 5 255 255 255 255 255 255 255 255 255 255 255 255 255 255 255 255 255 255 
255 1 1 1 1 1 1 1 1 1 1 1 1 1 1 1 1 1 1 1 1 1 255 255 255 255 255 17 17 255 255 255 255 63 63 63 63 63 63 255 255 255 255 255 255 255 255 255 255 255 255 255 255 255 255 255 255 255 255 255 255 255 255 255 255 255 255 255 255 255 255 255 255 255 255 255 255 75 75 255 255 255 255 255 255 255 255 255 255 255 255 255 255 255 255 255 255 255 255 255 255 255 255 255 255 255 255 255 70 255 255 255 70 70 70 70 255 255 255 255 70 70 70 70 70 70 70 70 70 70 70 70 70 70 70 70 70 70 70 255 255 255 255 70 70 255 255 255 255 70 70 70 70 70 70 70 70 70 70 70 70 70 70 70 70 70 70 255 255 255 255 255 70 70 70 70 70 70 70 70 70 70 70 70 70 70 70 70 70 70 70 70 70 70 70 70 70 70 70 255 255 255 255 255 255 255 255 255 255 255 255 255 255 255 255 255 255 255 255 255 56 56 56 255 255 255 255 255 255 255 255 255 255 255 28 28 28 255 255 255 255 255 255 255 255 255 70 70 70 70 255 255 255 255 255 255 255 255 70 255 255 255 70 70 70 70 255 255 255 255 58 58 58 58 58 58 58 255 255 255 255 255 255 255 255 255 28 255 255 255 255 28 28 28 28 28 28 28 28 28 255 255 255 255 255 7 7 7 255 255 255 53 53 53 53 53 53 53 255 255 255 255 255 255 255 255 255 255 255 255 255 255 71 71 71 71 71 71 255 255 255 255 255 7 255 255 255 255 255 71 71 71 71 71 71 71 71 71 71 71 71 71 71 71 71 71 71 71 71 71 71 71 71 71 71 71 71 255 255 5 5 255 255 255 255 64 64 64 64 64 64 64 64 64 64 64 64 64 64 64 64 64 64 64 64 64 64 64 64 64 64 64 64 64 64 64 64 64 64 255 255 19 255 255 255 19 19 19 19 19 255 255 5 5 5 5 5 5 5 5 5 5 5 5 5 5 5 255 255 255 255 5 5 5 5 255 255 255 5 5 5 5 5 5 5 255 255 255 5 5 5 5 5 5 5 5 5 5 5 5 255 255 255 5 5 5 255 255 255 255 255 255 255 5 255 255 255 255 255 255 255 255 255 255 255 255 255 255 255 255 255 255 
255 1 1 1 1 1 1 1 1 1 1 1 1 1 1 1 1 1 1 1 1 1 1 255 255 255 255 17 17 255 255 255 255 63 63 63 63 63 63 63 63 63 255 255 255 255 255 255 255 255 255 255 255 255 255 255 255 255 255 255 255 255 255 255 255 255 17 17 17 17 255 255 255 255 255 255 255 75 75 255 255 255 255 255 255 255 255 255 255 255 255 255 255 255 255 255 255 255 255 255 255 255 255 255 255 255 255 255 70 255 255 255 70 70 70 255 255 255 255 255 70 70 70 70 70 70 70 70 70 70 70 70 70 70 70 70 70 70 70 255 255 255 255 70 255 255 255 255 255 70 70 70 70 70 70 70 70 70 70 70 70 70 70 70 70 70 70 70 255 255 255 255 70 70 70 70 70 70 70 70 70 70 70 70 70 70 70 70 70 70 70 70 70 70 70 70 70 70 255 255 255 255 255 255 255 255 255 255 255 255 255 255 255 255 255 255 255 255 255 255 56 56 56 255 255 255 255 255 255 255 255 255 255 28 28 28 28 255 255 255 255 255 255 255 255 255 255 70 70 70 255 255 255 255 255 255 255 255 255 70 70 70 70 70 255 255 255 255 255 255 58 58 58 58 58 58 58 255 255 7 255 255 255 255 255 255 28 28 28 28 28 28 28 28 28 28 28 28 28 28 255 255 255 255 255 7 7 7 7 255 255 53 53 53 53 53 53 53 255 255 255 255 255 255 255 255 255 255 255 255 71 71 71 71 71 71 71 255 255 255 255 255 7 7 7 255 255 255 255 71 71 71 71 71 71 71 71 71 71 71 71 71 71 71 71 71 71 71 71 71 71 71 71 71 71 71 71 255 255 5 5 255 255 255 255 64 64 64 64 64 64 64 64 64 64 64 64 64 64 64 64 64 64 64 64 64 64 64 64 64 64 64 64 64 64 64 64 64 255 255 255 19 255 255 255 19 19 19 19 255 255 255 5 5 5 5 5 5 5 5 5 5 5 5 5 5 5 5 5 5 5 5 5 5 5 5 5 5 5 5 5 5 5 5 5 255 255 255 5 5 5 5 5 5 5 5 5 5 5 5 255 255 255 5 5 5 5 5 5 255 255 255 255 5 255 255 255 255 255 255 255 255 255 255 255 255 255 29 29 29 29 255 
255 1 1 1 1 1 1 1 1 1 1 1 1 1 1 1 1 1 1 1 1 1 1 255 255 255 17 17 17 255 255 255 255 63 63 63 63 63 63 63 63 63 255 255 255 255 255 255 255 255 17 17 17 255 255 255 17 17 17 17 17 17 255 255 255 255 255 255 17 17 255 255 255 255 255 75 75 75 75 255 255 255 255 255 255 255 255 255 255 255 255 255 255 255 255 255 255 255 255 255 255 255 255 70 70 70 70 70 70 255 255 255 70 70 70 255 255 255 255 70 70 70 70 70 70 70 70 70 70 70 70 70 70 70 70 70 70 70 70 255 255 255 255 70 255 255 255 255 255 255 70 70 70 70 70 70 70 70 70 70 70 70 70 70 70 70 70 70 255 255 255 255 70 70 70 70 70 70 70 70 70 70 70 70 70 70 70 70 70 70 70 70 70 70 70 70 70 70 255 255 255 255 255 255 255 255 255 255 255 255 255 255 255 255 255 255 255 255 56 56 56 56 56 255 255 255 255 255 255 255 255 255 28 28 28 28 28 28 28 28 255 255 255 28 255 255 255 70 70 70 255 255 255 255 255 28 255 255 255 255 255 70 255 255 255 255 255 255 255 58 58 58 58 58 58 58 255 255 255 7 255 255 255 255 255 28 28 28 28 28 28 28 28 28 28 28 28 28 28 28 255 255 255 255 255 7 7 7 7 255 255 53 53 53 53 53 53 53 255 255 255 21 21 21 21 255 255 255 255 255 255 255 71 71 71 255 255 255 255 255 255 255 7 7 255 255 255 255 255 71 71 71 71 71 71 71 71 71 71 71 71 71 71 71 71 71 71 71 71 71 71 71 71 71 71 71 71 255 255 255 5 255 255 255 255 64 64 64 64 64 64 64 64 64 64 64 64 64 64 64 64 64 64 64 64 64 64 64 64 64 64 64 64 64 64 64 64 64 255 255 255 19 19 255 255 255 19 19 19 255 255 255 5 5 5 5 5 5 5 5 5 5 5 255 255 255 5 5 5 5 5 5 5 5 5 5 5 5 5 5 5 5 5 5 5 5 5 5 5 5 5 5 5 5 5 5 5 5 5 255 255 255 5 5 5 255 255 255 5 5 5 5 5 5 255 255 255 255 255 255 255 255 255 255 255 255 29 29 29 29 29 255 
255 1 1 1 1 1 1 1 1 1 1 1 1 1 1 1 1 1 1 1 1 1 1 1 255 255 17 17 17 255 255 255 255 63 63 63 63 63 63 63 63 63 255 255 255 255 255 255 255 255 17 17 17 17 255 255 255 17 17 17 17 17 255 255 255 255 255 255 17 255 255 255 255 255 75 75 75 75 75 75 255 255 255 255 255 255 255 255 255 255 255 255 57 255 255 255 255 255 255 255 255 70 70 70 70 70 70 70 70 70 70 70 70 70 70 255 255 255 255 70 70 70 70 70 70 70 70 70 70 70 70 70 70 70 70 70 70 70 255 255 255 255 255 70 255 255 255 255 255 255 70 70 70 70 70 70 70 70 70 70 70 70 70 70 70 70 70 70 255 255 255 255 70 70 70 70 70 70 70 70 70 70 70 70 70 70 70 70 70 70 70 70 70 70 70 70 70 255 255 255 255 255 255 255 255 255 255 255 7 7 255 255 255 255 255 255 255 255 56 56 56 56 56 255 255 255 255 255 255 255 255 28 28 28 28 28 28 255 255 255 255 255 255 28 28 255 255 255 70 70 255 255 255 28 28 255 255 255 255 255 255 255 255 255 255 255 255 255 58 58 58 58 58 58 58 255 255 255 255 255 255 255 255 255 255 28 28 28 28 28 28 28 28 28 28 28 28 28 28 28 28 255 255 255 255 7 7 7 7 255 255 53 53 53 53 53 53 255 255 255 255 255 255 255 255 255 255 255 255 255 255 255 255 255 255 255 255 255 255 255 255 255 7 255 255 255 255 255 255 71 71 71 71 71 71 71 71 71 71 71 71 71 71 71 71 71 71 71 71 71 71 71 71 71 71 71 71 255 255 255 5 255 255 255 255 64 64 64 64 64 64 64 64 64 64 64 64 64 64 64 64 64 64 64 64 64 64 64 64 64 64 64 64 64 64 64 64 64 255 255 19 19 19 255 255 255 19 19 19 255 255 5 5 5 5 5 5 5 5 5 5 5 5 255 255 255 5 255 255 255 5 5 5 255 255 255 5 5 5 5 5 5 5 5 5 5 5 5 5 5 5 5 5 5 5 5 5 5 5 255 255 255 5 5 5 255 255 255 255 255 255 255 5 5 255 255 255 255 255 255 255 255 255 255 255 255 255 29 29 29 255 255 
255 1 1 1 1 1 1 1 1 1 1 1 1 1 1 1 1 1 1 1 1 1 1 1 255 255 255 255 17 255 255 255 255 63 63 63 63 63 63 63 63 63 63 255 255 255 255 255 17 17 17 255 255 255 255 255 255 17 17 17 17 17 255 255 255 255 255 255 255 255 255 255 75 75 75 75 75 75 75 255 255 255 255 255 255 255 255 255 255 255 255 255 57 57 255 255 255 255 255 255 70 70 70 70 70 70 70 70 70 70 70 70 255 255 255 255 70 70 70 70 70 70 70 70 70 70 70 70 70 70 70 70 70 255 255 255 255 70 255 255 255 255 255 70 70 255 255 255 255 255 70 70 70 70 70 70 70 70 70 70 70 70 70 70 70 70 70 70 70 70 70 70 70 70 70 70 70 70 70 70 70 70 70 70 70 70 70 70 70 70 70 70 70 70 70 70 255 255 255 255 255 255 255 255 255 255 255 7 7 7 255 255 255 255 255 255 255 255 56 56 56 56 255 255 255 255 255 255 255 255 28 28 28 28 28 28 28 255 255 255 255 255 255 28 28 255 255 255 255 255 255 255 255 255 255 255 255 255 255 255 255 255 255 255 255 255 255 255 255 58 58 58 58 58 255 255 255 255 255 255 255 255 255 255 255 28 28 28 28 28 28 28 28 28 28 28 28 28 28 28 28 28 28 255 255 7 7 7 7 255 255 53 53 53 53 53 53 255 255 255 255 255 255 255 255 255 255 255 255 255 255 255 255 255 255 255 255 255 255 255 255 255 255 255 255 255 255 255 71 71 71 71 71 71 71 71 71 71 71 71 71 71 71 71 71 71 71 71 71 71 71 71 71 71 71 71 71 255 255 255 255 255 255 255 255 255 64 64 64 255 255 255 64 64 64 64 64 64 64 64 64 64 64 64 64 64 64 64 64 64 64 64 64 64 64 64 64 255 255 255 255 255 255 255 255 255 19 19 255 255 255 5 5 5 5 5 5 5 5 5 5 5 5 255 255 255 5 255 255 255 5 5 255 255 255 255 255 5 5 5 5 5 5 5 5 5 5 5 5 5 5 5 5 5 5 5 5 5 5 255 255 255 5 5 5 255 255 255 255 255 255 255 255 255 255 255 255 255 255 255 255 255 255 255 255 255 255 29 255 255 255 255 
255 1 1 1 1 1 1 1 1 1 1 1 1 1 1 1 1 1 1 1 1 1 1 1 255 255 255 255 17 17 255 255 255 63 63 63 63 63 63 63 63 63 255 255 255 255 255 255 255 255 255 255 255 255 255 255 255 17 17 17 17 17 17 17 255 255 255 255 255 255 255 75 255 255 255 75 75 255 255 255 255 255 255 255 255 255 255 255 255 255 255 57 57 255 255 255 255 255 255 70 70 70 70 70 70 70 70 70 70 70 70 70 255 255 255 255 70 70 70 70 70 70 70 70 70 70 70 70 70 70 70 70 70 255 255 255 255 70 255 255 255 255 255 70 70 255 255 255 255 255 70 70 70 70 70 70 70 70 70 70 70 70 70 70 70 70 70 70 70 70 70 70 70 70 70 70 70 70 70 70 70 70 70 70 70 70 70 70 70 70 70 70 70 70 70 70 255 255 255 255 255 255 255 255 255 255 255 7 7 7 255 255 255 255 255 56 56 56 56 56 56 255 255 255 255 255 255 255 255 28 28 28 28 28 28 28 28 255 255 255 255 255 255 255 255 255 255 255 255 255 255 255 255 255 255 255 255 255 255 255 255 255 7 7 255 255 255 255 255 255 255 255 255 255 255 255 255 255 255 255 255 255 255 255 255 28 28 28 28 28 28 28 28 28 28 28 28 28 28 28 28 28 28 255 255 7 7 7 7 255 255 53 53 53 53 53 53 255 255 255 255 255 255 255 255 255 21 21 255 255 255 255 255 255 255 255 255 7 255 255 255 255 255 255 255 30 255 255 71 71 71 71 71 71 71 71 71 71 71 71 71 71 71 71 71 71 71 71 71 71 71 71 71 71 71 71 71 255 255 255 255 255 255 255 255 255 64 64 64 255 255 255 64 64 64 64 64 64 64 64 64 64 64 64 64 64 64 64 64 64 64 64 64 64 64 64 64 255 255 255 255 255 255 255 255 255 255 255 255 255 255 5 5 5 5 5 5 5 5 5 5 5 5 5 5 5 5 255 255 255 255 255 255 255 255 255 255 5 5 5 5 5 5 5 5 5 5 5 255 255 255 5 5 5 5 5 5 5 5 5 5 5 5 5 5 255 255 255 255 255 255 255 255 255 255 255 255 255 255 255 255 255 255 255 255 255 255 29 255 255 255 255 
255 1 255 255 255 1 1 1 1 1 1 1 1 1 1 1 1 1 1 1 1 1 1 1 255 255 255 255 17 17 255 255 255 255 63 63 63 63 63 63 63 63 255 255 255 255 255 255 255 255 255 255 255 255 255 17 255 255 255 17 17 17 255 255 255 255 255 255 255 75 75 75 255 255 255 255 255 255 255 255 255 255 255 255 255 255 255 255 255 255 255 255 255 255 255 255 255 255 70 255 255 255 70 70 70 70 70 70 70 70 255 255 255 255 255 255 255 70 70 70 70 70 70 70 70 70 70 70 70 70 70 70 70 255 255 255 255 70 255 255 255 255 255 255 70 255 255 255 255 255 255 70 70 70 70 70 70 70 70 70 70 70 70 70 70 70 70 70 70 70 70 70 70 70 70 70 70 70 70 70 70 70 70 70 70 70 70 70 70 70 70 70 70 70 70 255 255 255 255 255 255 255 255 255 255 255 255 7 7 7 255 255 255 255 255 56 56 56 56 56 255 255 255 255 255 255 255 255 28 28 28 28 28 28 28 28 28 255 255 255 255 255 255 255 255 255 255 255 28 28 255 255 255 255 255 255 255 255 255 255 255 255 255 255 7 7 7 255 255 255 255 255 255 255 255 255 255 255 255 255 7 7 255 255 255 255 255 255 28 28 28 28 28 28 28 28 28 28 28 28 28 28 255 255 255 7 7 7 7 255 255 53 53 53 53 53 53 255 255 255 255 255 255 255 255 255 255 255 255 255 255 255 255 255 255 255 255 255 255 255 255 255 255 30 30 255 255 255 71 71 71 71 71 71 71 71 71 71 71 71 71 71 71 71 71 71 71 71 71 71 71 71 71 71 71 71 71 255 255 255 255 255 255 255 255 255 64 64 64 255 255 255 64 64 64 64 64 64 64 64 64 64 64 64 64 64 64 64 64 64 64 64 64 64 64 64 255 255 255 19 255 255 255 19 19 19 255 255 255 255 5 5 5 5 5 5 5 5 5 5 5 5 5 5 5 5 5 5 5 255 255 255 255 255 255 255 255 5 5 5 5 5 5 5 5 5 5 5 255 255 255 5 5 5 5 5 5 5 5 5 5 5 5 5 5 255 255 255 255 255 255 255 255 255 255 255 255 255 255 255 255 255 255 29 29 29 29 29 255 255 255 255 
255 1 255 255 255 1 1 1 1 1 1 1 1 1 1 1 1 1 1 1 1 1 1 1 255 255 17 17 17 17 17 255 255 255 63 63 63 63 63 63 63 63 255 255 255 255 17 255 255 255 255 17 255 255 255 17 255 255 255 255 255 255 255 255 255 255 75 75 75 75 75 75 255 255 255 255 255 255 255 255 12 255 255 255 255 255 255 255 255 255 255 255 255 255 255 255 255 70 70 255 255 255 70 70 70 70 70 255 255 255 255 255 255 255 255 255 255 70 70 70 70 70 70 70 70 70 70 70 70 70 70 70 70 70 70 70 70 70 255 255 255 255 255 255 70 255 255 255 255 255 255 255 70 70 70 70 70 70 70 70 70 70 70 70 70 70 70 70 70 70 70 70 70 70 70 70 70 70 70 70 70 70 70 70 70 70 70 70 70 70 70 70 70 70 70 255 255 255 255 255 255 255 255 255 255 255 255 7 7 7 255 255 255 255 255 56 56 56 56 255 255 255 255 255 255 255 255 28 28 28 28 28 28 28 28 28 28 255 255 255 255 255 255 7 7 7 255 255 28 28 28 255 255 255 255 255 28 28 255 255 255 255 255 255 255 255 255 255 255 255 255 255 255 255 255 255 255 255 255 255 7 7 255 255 255 255 255 255 28 28 28 28 28 28 28 28 28 28 28 28 28 28 255 255 255 255 7 7 7 255 255 255 53 53 53 53 53 53 255 255 7 7 255 255 255 255 255 255 255 255 255 255 255 255 255 255 255 255 255 255 255 255 255 255 255 255 255 255 71 71 71 71 71 71 71 71 71 71 71 71 71 71 71 71 71 71 71 71 71 71 71 71 71 71 71 71 71 255 255 255 255 255 255 255 255 255 64 64 64 255 255 255 64 64 64 64 64 64 64 64 64 64 64 64 64 64 64 64 64 64 64 64 64 64 64 64 255 255 255 19 255 255 255 19 19 19 255 255 255 255 5 5 5 5 5 5 5 5 5 5 5 5 5 5 5 5 5 5 5 255 255 255 255 255 255 255 255 5 5 5 5 5 5 5 5 5 5 255 255 255 255 5 5 5 5 5 5 5 5 5 5 255 255 255 255 5 5 5 255 255 255 255 255 255 255 255 255 255 255 255 255 255 255 29 29 29 29 29 29 29 29 255 
255 1 255 255 255 1 1 1 1 1 1 1 1 1 1 1 1 1 1 1 1 1 1 1 255 255 255 17 17 17 255 255 255 255 63 63 63 63 63 63 63 63 255 255 255 255 17 255 255 255 17 17 255 255 255 17 255 255 255 255 255 255 255 255 75 75 75 75 75 75 75 255 255 255 255 255 255 255 255 12 12 12 255 255 255 255 255 255 255 255 255 255 255 255 255 70 70 70 70 255 255 255 255 70 70 70 255 255 255 255 255 255 255 255 255 255 255 70 70 70 70 70 70 70 255 255 255 255 70 70 70 70 70 70 70 70 70 70 255 255 255 255 255 255 255 255 255 255 255 255 255 255 70 70 70 70 70 70 70 70 70 70 70 70 70 70 70 70 70 70 70 70 70 70 70 70 70 70 70 70 70 70 70 70 70 70 70 70 70 70 70 70 70 70 255 255 255 255 255 255 255 255 255 255 255 255 7 7 7 7 255 255 255 56 56 56 56 56 255 255 255 255 255 255 255 255 28 28 28 28 28 255 255 255 28 28 28 255 255 7 255 255 255 255 255 255 255 255 255 28 255 255 255 255 28 28 28 28 28 28 255 255 255 255 255 255 255 255 255 255 255 255 255 255 255 255 255 255 255 255 7 7 7 7 7 7 255 255 28 28 28 28 28 28 28 28 28 28 28 28 28 28 255 255 255 255 7 7 7 255 255 255 53 53 53 53 53 53 255 255 7 7 7 7 255 255 255 255 255 255 255 255 30 255 255 255 255 255 255 255 255 255 255 255 255 255 255 71 71 71 71 71 71 71 71 71 71 71 71 71 71 71 71 71 71 71 71 71 71 71 71 71 71 71 71 71 71 255 255 255 255 255 255 255 255 255 255 64 64 64 64 64 64 64 64 64 64 64 64 64 64 64 64 64 64 64 64 64 64 64 64 64 64 64 64 255 255 255 19 19 255 255 255 19 19 19 255 255 255 255 5 5 5 5 5 5 5 5 5 5 5 5 5 5 5 5 5 5 5 255 255 255 5 5 255 255 255 5 5 5 5 5 5 5 5 5 5 255 255 255 5 5 5 5 5 5 5 5 5 5 5 255 255 255 255 5 255 255 255 255 255 255 255 255 255 255 255 255 255 255 29 29 29 29 29 29 29 29 29 29 29 255 
255 1 1 1 1 1 1 1 1 1 1 1 1 1 1 1 1 1 1 1 1 1 1 1 255 255 255 17 17 17 255 255 255 63 63 63 63 63 63 255 255 255 255 255 255 255 255 255 255 255 17 17 17 17 17 17 17 255 255 255 255 255 255 255 75 75 75 75 75 75 255 255 255 255 255 255 255 255 255 255 255 255 255 255 255 255 255 255 255 255 255 255 70 70 70 70 70 70 70 255 255 255 255 255 70 255 255 255 255 255 255 255 255 255 255 255 255 70 70 70 70 70 70 70 255 255 255 255 70 255 255 255 70 70 70 70 70 70 255 255 255 255 255 255 255 255 255 255 255 255 255 255 70 70 70 70 70 70 70 70 70 70 70 70 70 70 70 70 70 70 70 70 70 70 70 70 70 70 70 70 70 70 70 70 70 70 70 70 70 70 70 70 70 255 255 255 255 255 255 255 255 255 255 255 255 7 7 7 7 255 255 255 255 56 56 56 56 255 255 255 255 255 255 255 255 255 28 28 28 28 255 255 255 255 255 255 255 255 255 7 7 7 7 255 255 255 255 255 255 255 255 255 255 255 255 28 28 28 28 28 255 255 255 255 28 255 255 255 255 255 255 255 255 255 255 255 255 255 255 7 7 7 7 7 255 255 255 255 28 28 28 28 28 28 255 255 255 28 28 28 28 28 255 255 255 255 7 7 7 255 255 255 53 53 53 53 53 53 255 255 7 7 7 7 255 255 255 255 255 255 255 30 30 255 255 255 255 255 255 255 255 255 71 71 71 71 71 71 71 71 71 71 71 71 71 71 71 71 71 71 71 71 71 71 71 71 71 71 71 71 71 71 71 71 71 71 71 255 255 255 255 255 255 255 255 255 255 64 64 64 64 64 64 64 64 64 64 64 64 64 64 64 64 64 64 64 64 64 64 64 64 64 64 64 64 255 255 255 19 19 255 255 255 19 19 19 255 255 5 5 5 5 5 5 5 5 5 5 5 5 5 5 5 5 5 5 5 5 5 5 5 5 5 5 255 255 255 5 5 5 5 5 5 5 5 5 5 255 255 255 5 5 5 255 255 255 5 5 5 5 5 255 255 255 255 5 255 255 255 255 255 255 255 255 255 255 29 255 255 255 255 255 255 29 29 29 29 29 29 29 29 255 
255 1 1 1 1 1 1 1 1 1 1 1 1 1 1 1 1 1 1 1 1 1 1 1 1 255 255 17 17 17 255 255 63 63 63 63 63 63 63 255 255 255 255 255 255 255 255 255 17 17 17 17 17 17 17 17 17 255 255 255 255 255 255 75 75 75 75 255 255 255 255 255 255 255 255 255 255 255 255 255 255 255 255 255 255 255 255 255 255 255 255 255 70 70 70 70 70 70 70 70 255 255 255 255 255 255 255 255 255 255 255 70 70 70 70 70 70 70 70 70 70 70 70 70 255 255 255 255 70 255 255 255 255 255 70 70 70 70 255 255 255 255 255 255 255 255 255 255 255 255 255 255 255 255 255 70 70 70 70 70 70 70 70 70 70 70 70 70 70 70 70 70 70 70 70 70 70 70 70 70 70 70 70 70 70 70 70 70 70 70 70 70 70 255 255 255 255 255 255 255 255 255 255 255 7 7 7 7 7 255 255 255 56 56 56 56 255 255 255 255 255 255 255 255 255 28 28 28 28 28 255 255 255 255 255 255 255 255 255 7 7 7 7 255 255 255 7 255 255 255 255 255 255 255 255 255 28 28 28 28 255 255 255 255 28 255 255 255 255 255 255 255 255 255 255 255 255 255 255 7 7 7 7 7 255 255 255 255 28 28 28 28 28 28 255 255 255 28 28 28 28 28 28 255 255 255 7 7 7 255 255 255 53 53 53 53 53 53 255 255 7 7 7 7 255 255 255 255 255 255 30 30 30 255 255 255 255 255 255 255 255 255 255 255 255 255 255 71 255 255 255 71 71 71 71 71 71 71 71 71 71 71 71 71 71 71 71 71 71 71 71 71 71 71 71 71 71 255 255 255 255 255 255 255 27 255 255 64 64 64 64 64 64 64 64 64 64 64 64 64 64 64 64 64 64 64 64 64 64 64 64 64 64 64 64 255 255 19 19 19 19 19 19 19 19 255 255 255 5 5 5 5 5 5 5 5 5 5 5 5 5 5 5 255 255 255 5 5 5 5 255 255 255 5 5 5 5 5 5 5 5 5 5 5 5 5 5 255 255 255 255 255 255 255 255 255 5 5 5 255 255 255 255 255 255 255 255 255 255 255 255 255 255 255 255 29 29 29 255 255 255 255 255 29 29 29 29 29 29 29 29 255 
255 1 1 1 1 1 1 1 1 1 1 1 1 1 1 1 1 1 1 1 1 1 1 1 1 255 255 17 17 17 255 255 255 255 63 63 63 63 255 255 255 255 255 255 255 255 255 255 17 17 17 17 17 17 17 17 17 255 255 255 255 255 255 75 75 75 255 255 255 255 255 255 255 255 255 255 255 255 255 255 255 255 255 255 255 255 255 255 255 255 255 70 70 70 70 70 70 70 70 70 255 255 255 255 255 255 255 255 255 255 70 255 255 255 255 70 70 70 70 70 70 70 70 70 255 255 255 255 70 255 255 255 255 255 255 70 70 255 255 255 255 255 255 255 255 255 31 255 255 70 70 255 255 255 255 70 70 70 70 70 70 70 70 70 70 70 70 70 70 70 70 70 70 70 70 70 70 70 70 70 70 70 70 70 70 70 70 70 70 70 70 70 255 255 255 255 255 255 255 255 255 255 255 255 7 7 7 7 7 255 255 255 56 56 56 255 255 255 255 255 255 255 255 28 28 28 28 28 28 28 255 255 255 255 255 255 255 7 7 7 7 7 7 7 7 7 7 255 255 255 7 7 7 255 255 255 255 255 255 255 255 255 255 28 28 255 255 255 255 255 255 255 255 255 255 255 255 255 255 7 7 7 7 7 255 255 255 255 28 28 28 28 255 255 255 255 255 255 255 28 28 255 255 255 255 255 7 7 7 255 255 53 53 53 53 53 53 53 255 255 255 7 7 7 255 255 255 255 255 30 30 30 30 30 30 30 30 30 30 30 255 255 255 255 255 255 255 71 255 255 255 255 255 71 71 71 71 71 71 71 71 71 71 71 71 71 71 71 71 71 71 71 71 71 71 71 71 255 255 255 255 255 255 255 255 255 255 64 64 64 64 64 64 64 64 64 64 64 64 64 64 64 64 64 64 64 64 64 64 64 64 64 64 64 64 255 255 19 19 19 19 19 19 19 19 255 255 255 5 5 5 5 5 5 5 5 5 5 5 5 5 5 5 255 255 255 255 255 5 5 255 255 255 5 5 5 5 5 5 5 5 5 5 255 255 255 5 255 255 255 255 255 255 255 255 255 5 5 255 255 255 255 255 255 255 255 255 255 255 255 255 255 255 255 255 29 29 255 255 255 255 255 255 29 29 29 29 29 29 29 29 255 
255 1 1 1 1 1 1 1 1 1 1 1 1 1 1 1 255 255 255 1 1 1 1 1 1 255 255 17 17 17 255 255 255 255 63 63 63 63 255 255 255 255 255 255 255 17 17 17 17 17 17 17 17 17 17 17 17 255 255 255 255 255 255 75 75 75 255 255 255 255 255 255 255 255 255 255 255 255 255 255 255 255 255 255 255 255 255 255 255 70 70 70 70 70 70 70 70 70 70 70 70 255 255 255 255 255 255 255 70 70 255 255 255 255 255 70 70 70 70 70 70 70 70 70 70 255 255 255 70 70 255 255 255 255 255 70 70 255 255 255 255 255 255 255 255 255 31 255 255 255 255 255 255 255 255 70 70 70 70 70 70 70 70 70 70 70 70 70 70 70 70 70 70 70 70 70 70 70 70 70 70 70 70 70 70 70 70 70 70 70 70 255 255 255 255 255 255 255 255 255 255 255 255 7 7 7 7 7 255 255 255 255 56 56 255 255 255 255 255 255 255 255 255 28 28 28 28 28 28 28 255 255 255 7 255 255 255 7 7 7 7 7 7 7 7 7 7 255 255 255 7 7 7 7 255 255 255 255 255 255 255 255 255 255 28 28 255 255 255 255 255 255 255 255 255 255 255 255 255 7 7 7 7 7 7 7 255 255 28 28 28 28 255 255 255 255 255 255 255 28 28 255 255 255 255 255 7 7 7 255 255 53 53 53 53 53 53 53 255 255 255 7 7 7 7 7 255 255 255 255 255 30 30 30 30 30 30 30 30 30 30 255 255 255 255 255 255 71 255 255 255 255 255 255 255 71 71 71 71 71 71 71 71 71 71 71 71 71 71 71 71 71 71 71 71 71 71 255 255 255 255 255 255 255 255 255 255 255 64 64 64 64 64 64 64 64 64 64 64 64 64 64 64 64 64 64 64 64 64 64 64 64 64 64 64 255 255 19 19 19 19 19 19 19 19 255 255 5 5 5 5 5 5 5 5 5 5 5 5 5 5 5 5 255 255 255 255 255 5 5 255 255 255 5 5 5 5 5 5 5 5 5 5 255 255 255 5 255 255 255 255 255 255 5 5 5 5 5 255 255 255 255 255 255 255 255 255 255 255 255 255 255 255 255 255 29 29 255 255 255 255 29 29 29 29 29 29 29 29 255 255 255 
255 1 1 1 1 1 1 1 1 1 1 1 1 1 1 1 255 255 255 1 1 1 1 1 1 255 255 17 17 17 17 255 255 255 63 63 63 63 255 255 255 255 255 255 255 17 17 17 17 17 17 17 17 17 17 17 17 255 255 255 255 255 255 255 255 255 255 255 255 255 255 255 255 255 255 255 255 255 255 255 255 255 255 255 255 255 255 70 70 70 70 70 70 70 70 70 70 70 70 70 70 255 255 255 255 255 255 255 255 255 255 255 255 255 255 70 70 70 70 70 70 70 70 70 70 255 255 255 70 70 255 255 255 255 255 70 70 255 255 255 255 255 255 255 255 31 31 255 255 255 255 255 255 255 255 70 70 70 70 70 70 70 70 70 70 70 70 70 70 70 70 70 70 70 70 70 70 70 70 70 70 70 70 70 70 70 70 70 70 70 70 255 255 255 255 255 32 255 255 255 255 7 7 7 7 7 7 7 255 255 255 56 56 255 255 255 255 255 255 255 255 255 28 28 28 28 28 255 255 255 255 255 7 7 7 7 7 7 7 7 7 7 7 7 7 7 7 255 255 255 7 7 7 7 255 255 255 255 255 255 255 255 255 255 255 255 255 255 255 255 255 255 7 7 7 7 7 7 7 7 7 7 7 7 7 7 255 255 28 28 28 28 255 255 255 255 255 255 255 28 28 255 255 255 255 255 255 7 7 255 255 53 53 53 53 53 53 53 53 255 255 255 255 255 7 7 7 255 255 255 255 255 255 30 30 30 30 30 30 30 30 30 255 255 255 255 255 255 255 255 255 255 255 255 255 71 71 71 71 71 71 71 71 71 71 71 71 71 71 71 71 71 71 71 71 71 71 255 255 255 255 255 255 255 255 255 255 255 64 64 64 64 64 64 64 64 64 64 64 64 64 64 64 64 64 64 64 64 64 64 64 64 64 64 255 255 255 19 19 19 19 19 19 19 19 255 255 5 5 5 5 5 5 5 5 5 5 5 5 5 5 5 5 255 255 255 255 255 5 5 255 255 255 5 255 255 255 5 5 5 5 5 5 255 255 255 5 5 5 255 255 255 255 255 255 255 255 5 255 255 255 5 255 255 255 255 255 255 255 255 255 255 255 255 255 29 29 255 255 255 29 29 29 29 29 29 29 29 255 255 255 255 
255 1 1 1 1 1 1 1 1 1 1 1 1 1 1 1 255 255 255 1 1 1 1 1 1 255 255 17 17 17 17 255 255 255 63 63 63 63 63 63 63 255 255 255 255 255 255 17 17 17 17 17 17 17 17 17 17 255 255 255 255 255 255 255 255 255 255 255 255 255 255 255 255 255 255 255 255 255 255 255 255 255 255 255 70 70 255 255 255 70 70 70 70 70 70 70 70 70 70 70 70 70 255 255 255 255 255 255 255 255 255 255 33 255 255 255 255 255 255 70 70 70 70 70 70 255 255 255 70 70 70 255 255 255 255 255 70 255 255 255 255 255 255 255 31 31 31 255 255 255 31 255 255 70 70 70 70 70 70 70 70 70 70 70 70 70 70 70 70 70 70 70 70 70 70 70 70 70 70 70 70 70 70 70 70 70 70 70 70 70 255 255 255 255 255 255 32 255 255 255 255 7 7 7 7 255 255 255 255 255 56 56 255 255 255 255 255 255 255 255 255 255 28 28 28 28 28 255 255 255 255 255 7 7 7 7 7 7 7 7 7 7 7 7 7 7 7 255 255 255 7 7 7 255 255 255 255 7 7 255 255 255 255 255 255 255 255 255 7 7 7 7 7 7 7 7 7 7 7 7 7 7 7 7 7 255 255 255 28 28 28 28 255 255 255 255 255 255 255 28 28 255 255 255 255 255 255 7 7 255 255 255 53 53 53 53 53 53 53 255 255 255 255 255 7 7 7 7 7 255 255 255 255 255 255 30 30 30 30 30 30 30 255 255 255 255 255 255 255 255 255 255 255 255 255 71 71 71 71 71 71 71 71 71 71 71 71 71 71 71 71 71 71 71 71 71 71 255 255 255 255 255 255 255 255 255 255 255 64 64 64 64 64 64 64 64 64 64 64 64 64 64 64 64 64 64 64 64 64 64 64 64 64 64 255 255 255 255 255 255 19 19 19 19 19 255 255 5 5 5 5 5 5 5 5 5 5 5 5 5 5 5 5 255 255 255 5 5 5 5 5 5 5 5 255 255 255 255 255 255 5 5 5 255 255 255 255 255 5 255 255 255 255 255 255 255 255 255 255 255 255 255 255 255 255 255 255 255 255 255 255 255 255 255 255 29 29 29 29 29 29 29 29 29 29 29 29 255 255 255 255 255 
255 1 1 1 1 1 1 1 1 1 1 1 1 1 1 1 1 1 1 1 1 1 1 1 1 255 255 17 17 17 17 255 255 255 63 63 63 63 63 63 63 255 255 255 255 255 255 255 17 255 255 255 17 17 17 17 17 255 255 255 255 255 255 255 255 255 255 255 255 255 255 255 255 255 255 255 255 255 255 255 70 70 70 70 70 70 255 255 255 70 70 70 70 70 70 70 70 70 70 70 70 70 70 255 255 255 255 255 255 255 255 33 33 255 255 255 255 255 255 70 70 70 70 70 70 255 255 255 70 70 70 255 255 255 255 255 255 255 255 255 255 255 255 255 255 255 255 255 31 255 255 255 255 70 70 70 70 70 70 70 70 70 70 70 70 70 70 70 70 70 70 70 70 70 70 70 70 70 70 70 70 70 70 70 70 70 70 70 70 70 255 255 255 255 255 32 255 255 255 255 255 7 7 7 7 255 255 255 255 255 56 56 255 255 255 255 255 255 255 255 28 28 28 28 28 28 28 255 255 255 255 255 7 7 7 7 7 7 7 7 7 7 7 7 7 7 7 7 7 7 7 7 7 255 255 255 255 7 7 255 255 255 7 7 7 7 7 7 7 7 7 7 7 7 7 7 7 7 7 7 7 7 7 7 7 255 255 255 255 255 255 255 255 255 255 255 255 255 255 28 28 255 255 255 255 255 255 7 7 255 255 255 53 53 53 53 53 53 53 255 255 255 255 255 255 7 7 7 7 255 255 255 255 255 255 30 30 30 30 30 30 30 255 255 255 30 30 255 255 255 255 255 255 255 255 255 71 71 71 71 71 71 71 71 71 71 71 71 71 71 71 71 71 71 71 71 71 255 255 255 255 255 255 255 255 255 255 255 64 64 64 64 64 64 64 64 64 64 64 64 64 64 64 64 64 64 64 64 64 64 64 64 64 255 255 255 19 255 255 255 19 19 19 255 255 255 255 5 5 5 5 5 5 5 5 5 5 5 5 5 5 5 5 255 255 255 5 5 5 5 5 5 5 5 255 255 255 255 255 255 5 5 5 255 255 255 255 255 5 255 255 255 255 255 255 255 255 255 255 255 255 255 255 255 255 255 255 255 255 255 255 255 255 255 255 29 29 29 29 29 29 29 29 29 29 29 255 255 255 255 13 255 
255 1 1 1 1 1 1 1 1 1 1 1 1 1 1 1 1 1 1 1 1 1 1 1 1 255 255 17 17 17 17 255 255 255 63 63 63 63 63 63 255 255 255 255 255 255 255 255 17 255 255 255 17 17 17 17 17 17 17 17 255 255 255 255 255 255 255 255 255 255 255 255 255 255 255 255 255 255 70 70 70 70 70 70 70 70 255 255 255 70 70 70 70 70 70 70 70 70 70 70 70 70 70 70 255 255 255 255 255 33 33 33 255 255 255 255 255 255 255 70 70 70 70 70 70 70 70 70 70 70 70 255 255 255 255 255 255 255 255 255 255 70 255 255 255 255 255 255 255 255 255 255 255 70 70 70 70 70 70 70 70 70 70 70 70 70 70 70 70 70 70 70 70 70 70 70 70 70 70 70 70 70 70 70 70 70 70 70 70 255 255 255 255 255 255 32 255 255 255 255 7 7 7 7 255 255 255 255 255 56 56 255 255 255 255 255 255 255 255 255 28 28 28 28 28 255 255 255 255 255 255 255 7 7 7 7 7 7 7 7 7 7 7 7 7 7 7 7 7 7 7 7 7 255 255 255 255 7 7 255 255 255 7 7 7 7 7 7 7 7 7 7 7 7 7 7 7 7 7 7 7 7 7 7 7 255 255 255 255 255 255 255 255 255 255 255 255 28 255 255 255 255 255 255 255 255 255 7 7 7 255 255 255 53 53 53 53 53 53 255 255 255 255 255 255 255 7 7 7 7 7 7 7 255 255 255 30 30 30 30 30 30 30 30 30 30 30 30 30 30 30 255 255 255 255 255 71 71 71 71 71 71 71 71 71 71 71 71 71 71 71 71 71 71 71 71 71 255 255 255 255 255 255 255 255 27 255 255 64 64 64 64 64 64 64 64 64 64 64 64 64 64 64 64 64 64 64 64 64 64 64 64 64 255 255 255 19 255 255 255 19 19 19 255 255 255 255 5 5 5 5 5 5 5 5 5 5 5 5 5 5 5 5 5 5 5 5 5 5 5 5 5 5 5 255 255 255 255 255 255 5 5 5 5 5 255 255 255 255 255 255 255 255 255 255 255 255 255 255 255 255 255 255 255 255 255 255 255 255 255 255 255 255 255 255 29 29 29 29 29 29 29 29 29 29 255 255 255 255 13 255 255 
255 1 1 1 1 1 1 1 1 1 1 1 1 1 1 1 1 1 1 1 1 1 1 1 1 255 255 17 17 17 17 255 255 255 63 63 63 63 255 255 255 255 255 255 255 255 255 255 255 255 255 255 17 17 17 17 17 17 17 17 255 255 255 255 255 255 255 255 255 255 255 255 255 255 255 255 255 70 70 70 70 70 70 70 70 70 70 70 70 70 70 70 70 70 70 70 70 70 70 70 70 70 70 70 70 255 255 255 255 255 255 255 255 255 255 255 255 255 255 70 70 70 70 70 70 70 70 70 70 70 70 255 255 255 255 255 255 255 255 70 255 255 255 255 255 255 255 255 255 255 255 70 70 70 70 70 70 70 70 70 70 70 70 70 70 70 70 70 70 70 70 70 70 70 70 70 70 70 70 70 70 70 70 70 70 70 70 70 255 255 255 255 255 255 32 255 255 255 255 255 7 255 255 255 255 255 255 56 56 56 255 255 255 255 255 255 255 255 255 28 28 28 28 28 28 255 255 255 255 255 255 255 7 7 7 7 7 7 7 7 7 7 7 7 7 7 7 7 7 7 7 7 7 7 7 7 7 7 7 7 7 7 7 7 7 7 7 7 7 7 7 7 7 7 7 7 7 7 7 7 7 7 7 7 255 255 255 255 255 255 255 255 7 255 255 255 255 28 255 255 255 255 255 255 255 255 255 7 7 255 255 255 255 53 53 53 53 53 53 53 53 255 255 255 255 255 7 7 7 7 7 7 7 255 255 255 255 30 30 30 30 30 30 30 30 30 30 30 30 30 30 255 255 255 255 255 255 71 71 71 71 71 71 71 71 71 71 71 71 71 71 71 71 71 71 71 71 71 255 255 255 255 255 255 255 255 255 255 64 64 64 64 64 64 64 64 64 64 64 64 64 64 64 64 64 64 64 64 64 64 64 64 64 255 255 255 19 19 19 255 255 255 19 255 255 255 255 5 5 5 5 5 5 5 5 5 5 5 5 5 5 5 5 5 5 5 5 5 5 5 5 5 5 5 255 255 255 5 5 5 5 5 5 5 5 255 255 255 255 255 255 255 255 255 255 255 255 255 255 255 255 255 255 255 255 255 255 255 255 255 255 255 255 255 255 29 29 29 29 29 29 29 29 29 255 255 255 255 13 13 255 255 
255 1 1 1 1 1 1 1 1 1 1 1 1 1 1 1 1 1 1 1 1 1 1 1 1 255 255 17 17 17 255 255 255 255 63 63 63 63 255 255 255 255 255 255 255 255 255 255 255 255 17 17 17 17 17 17 17 255 255 255 255 255 255 255 255 255 255 255 255 255 255 255 255 255 255 255 255 70 70 70 70 70 70 70 70 70 70 70 70 70 70 70 70 70 70 70 70 70 70 70 70 70 70 70 255 255 255 255 255 255 255 255 255 255 70 70 70 70 70 70 70 70 70 70 70 70 70 70 70 70 70 70 255 255 255 255 255 255 255 255 255 255 255 255 255 255 70 255 255 255 255 255 255 255 255 70 70 70 70 70 70 70 70 70 70 70 70 70 70 70 70 70 70 70 70 70 70 70 70 70 70 70 70 70 70 70 70 70 255 255 255 255 255 255 32 255 255 255 7 7 7 255 255 255 255 255 56 56 56 255 255 255 255 255 255 255 255 255 28 28 28 28 28 28 28 255 255 255 255 255 255 255 7 7 7 7 7 7 7 7 7 7 7 7 7 7 7 7 7 7 7 7 7 7 7 7 7 7 7 7 7 7 7 7 7 7 7 7 7 7 7 7 7 7 7 7 7 7 7 7 7 7 7 7 255 255 255 255 255 255 255 255 255 255 255 255 255 255 255 255 255 255 255 255 255 255 255 7 7 255 255 255 255 53 53 53 53 53 53 53 53 255 255 255 255 255 7 7 7 7 7 7 7 7 255 255 255 255 30 30 30 30 30 30 30 30 30 30 30 30 30 30 30 255 255 255 255 71 71 71 71 71 71 71 71 71 71 71 71 71 71 71 71 71 71 71 71 71 255 255 255 255 255 255 255 255 255 255 64 64 64 64 64 64 64 64 64 64 64 64 64 64 64 64 64 64 64 64 64 64 64 64 64 255 255 255 19 19 19 255 255 255 19 255 255 255 5 5 5 5 5 5 5 5 5 5 5 5 5 5 5 5 5 5 5 5 5 5 5 5 5 5 255 255 255 255 255 255 5 5 5 5 5 255 255 255 5 255 255 255 255 255 255 255 255 255 255 255 255 255 255 255 255 255 255 255 255 255 255 255 29 29 29 29 29 29 29 29 29 29 29 29 29 255 255 255 255 13 13 255 255 255 
255 1 1 1 1 1 1 1 1 1 1 1 1 1 1 1 1 1 1 1 1 1 1 1 1 255 255 17 17 17 255 255 255 63 63 63 63 63 255 255 255 255 255 255 255 255 17 255 255 255 17 17 17 17 17 17 17 255 255 255 17 255 255 255 255 255 255 255 255 255 255 255 255 255 255 255 255 70 70 70 70 255 255 255 255 70 70 70 70 70 70 70 70 70 70 70 70 70 70 70 70 70 70 255 255 255 255 255 255 255 255 70 70 255 255 255 70 70 70 70 70 70 70 70 70 70 70 70 70 70 70 70 70 255 255 255 255 255 255 255 255 255 255 255 255 255 255 255 255 255 255 255 255 255 255 70 70 70 70 70 70 70 70 70 70 70 70 70 70 70 70 70 70 70 70 70 70 70 70 70 70 70 70 70 70 70 70 255 255 255 255 255 255 255 255 255 255 7 7 255 255 255 255 255 255 255 56 56 255 255 255 255 255 255 255 255 255 255 28 28 28 28 28 28 28 28 28 255 255 255 255 255 7 7 7 7 7 7 7 7 7 7 7 7 7 7 7 7 7 7 7 7 7 7 7 7 7 7 7 7 7 7 7 7 7 7 7 7 7 7 7 7 7 7 7 7 7 7 7 7 7 7 7 7 255 255 255 255 255 255 255 255 255 255 255 255 255 255 255 255 255 28 28 28 28 255 255 7 7 255 255 255 53 53 53 53 53 53 53 53 53 255 255 255 255 255 7 7 7 7 7 7 7 7 7 255 255 255 30 30 30 30 30 30 30 30 30 30 30 30 30 30 30 255 255 255 255 71 71 71 71 71 71 71 71 71 71 71 71 71 71 71 71 71 71 71 71 71 255 255 255 255 255 255 255 255 255 255 64 64 64 64 64 64 64 64 64 64 64 64 64 64 64 64 64 64 64 64 64 64 64 64 64 255 255 19 19 19 19 255 255 255 19 255 255 255 5 5 5 5 5 5 5 5 5 5 5 5 5 5 5 5 5 5 5 5 5 5 5 5 5 5 255 255 255 255 255 255 5 5 5 5 5 255 255 255 255 255 255 255 255 255 255 255 255 255 255 255 255 255 255 255 255 255 255 255 255 255 255 255 29 29 29 29 29 29 29 29 29 29 29 29 255 255 255 255 13 255 255 255 255 255 
255 1 1 1 1 1 1 1 1 1 1 1 1 1 1 1 1 1 1 1 1 1 1 1 1 255 255 17 17 17 255 255 255 63 63 63 63 63 255 255 255 63 255 255 255 255 255 17 17 17 17 17 17 17 17 17 17 255 255 255 17 255 255 255 255 255 255 255 255 255 255 255 255 255 255 255 255 70 70 70 70 255 255 255 255 70 70 70 70 70 70 70 70 70 70 70 70 70 70 70 255 255 255 255 255 255 255 255 70 70 70 70 70 255 255 255 70 70 70 70 70 70 70 70 70 70 70 70 255 255 255 255 70 70 255 255 255 255 255 255 255 255 255 255 255 70 255 255 255 255 255 255 255 255 255 70 70 70 70 70 70 70 70 70 70 70 70 70 70 70 70 70 70 70 70 70 70 70 70 70 70 70 70 70 70 70 70 255 255 255 255 255 255 255 255 255 255 7 7 255 255 255 255 255 255 255 56 255 255 255 255 255 255 255 255 255 255 28 28 28 28 28 28 28 28 28 28 255 255 255 255 255 255 7 7 7 7 7 7 7 7 7 7 7 7 7 7 7 7 7 7 7 7 7 7 7 7 7 7 7 7 7 7 7 7 7 7 7 7 7 7 7 7 7 7 7 7 7 7 7 7 7 7 7 7 255 255 255 255 255 7 255 255 28 28 255 255 255 28 28 28 28 28 28 28 255 255 255 7 255 255 255 53 53 53 53 53 53 53 53 53 255 255 255 7 7 7 7 7 7 7 7 7 7 255 255 255 255 30 30 30 30 30 30 30 30 30 30 30 30 30 30 30 255 255 255 255 71 71 71 71 71 71 71 71 71 71 71 71 71 71 71 71 71 71 71 71 71 255 255 255 5 5 5 255 255 255 255 64 64 64 64 64 64 64 64 64 64 64 64 64 64 64 64 64 64 64 64 64 64 64 64 255 255 255 19 19 19 19 19 19 19 255 255 255 255 5 5 5 5 5 5 5 5 5 5 5 5 5 5 5 5 5 5 5 5 5 255 255 255 5 5 255 255 255 255 255 255 5 5 5 5 5 255 255 255 255 255 255 255 255 255 255 255 255 255 255 255 255 255 255 255 255 255 255 255 255 255 255 255 255 255 29 29 29 29 29 29 29 29 29 255 255 255 255 13 13 255 255 255 255 255 
255 1 1 1 1 1 1 1 1 1 1 1 1 1 1 1 1 1 1 1 1 1 1 1 1 255 255 255 17 17 255 255 255 63 63 63 63 63 63 63 255 255 255 255 255 255 255 255 255 255 255 255 17 17 17 17 17 255 255 255 17 17 17 17 255 255 255 255 255 255 255 255 255 255 255 255 255 255 255 255 255 255 255 255 255 70 70 70 70 70 70 70 70 70 70 70 70 70 70 255 255 255 255 255 255 255 255 255 70 70 70 255 255 255 255 255 70 70 70 70 70 70 70 70 70 70 255 255 255 255 255 255 70 70 70 255 255 255 255 255 255 255 255 255 70 70 255 255 255 255 255 255 255 255 70 70 70 70 70 70 70 70 70 70 70 70 70 70 70 70 70 70 70 70 70 70 70 70 70 70 70 70 70 70 70 70 255 255 255 255 255 255 255 255 255 255 255 255 255 255 255 255 255 255 255 255 56 255 255 255 255 255 70 255 255 255 255 28 28 28 28 28 28 28 28 28 28 255 255 7 255 255 255 7 7 7 7 7 7 7 7 7 7 7 7 7 7 7 7 7 7 7 7 7 7 7 255 255 255 7 7 7 7 7 7 7 7 7 7 7 7 7 7 7 7 7 7 7 7 7 7 7 7 7 7 255 255 255 255 7 7 255 255 255 255 255 28 28 28 28 28 28 255 255 255 255 255 255 7 7 255 255 53 53 53 53 53 53 53 53 53 255 255 255 7 7 7 7 7 7 7 7 7 7 255 255 255 30 30 30 30 30 30 30 30 30 30 30 30 30 30 30 30 255 255 255 255 71 71 71 71 71 71 71 71 71 71 71 71 71 71 71 71 71 71 71 71 71 255 255 255 255 5 5 255 255 255 255 64 64 64 64 64 64 64 64 64 64 64 64 64 64 64 64 64 64 64 64 64 64 64 64 255 255 255 19 19 19 19 19 19 255 255 255 255 5 5 5 5 5 5 5 5 5 5 5 5 5 5 5 5 5 5 5 5 5 5 255 255 255 5 5 5 5 5 255 255 255 5 5 5 5 255 255 255 5 255 255 255 255 255 255 255 255 255 255 255 255 255 255 255 255 255 255 255 255 255 255 255 255 255 255 29 29 29 29 29 29 29 29 255 255 255 255 13 255 255 255 255 59 59 255 
255 1 1 1 1 1 1 1 1 1 1 1 255 255 255 1 1 1 1 1 1 1 1 1 1 255 255 255 17 17 17 255 255 255 255 63 63 255 255 255 255 255 255 255 255 255 255 255 255 255 255 255 255 255 17 17 17 255 255 255 17 17 17 255 255 255 255 255 255 255 255 255 255 255 255 255 255 255 255 255 255 255 255 70 70 70 70 70 70 70 70 70 70 70 70 70 70 70 70 255 255 255 255 255 255 255 255 255 70 70 255 255 255 255 255 255 70 70 70 70 70 70 70 70 70 70 255 255 255 255 255 255 255 70 70 70 255 255 255 255 255 255 255 255 255 255 255 255 255 255 255 255 255 70 70 70 70 70 70 70 70 70 70 70 70 70 70 70 70 70 70 70 70 70 70 70 70 70 70 70 70 70 70 70 70 70 255 255 255 255 255 32 32 255 255 255 255 255 255 255 255 255 255 255 255 56 255 255 255 255 255 70 70 70 255 255 255 28 28 28 28 28 28 28 28 28 28 255 255 255 255 255 255 7 7 7 7 7 7 7 7 7 7 7 7 7 7 7 7 7 7 7 255 255 255 7 255 255 255 255 255 7 7 7 255 255 255 7 7 7 7 7 7 7 7 7 7 7 7 7 7 7 7 7 7 7 255 255 255 7 7 255 255 255 255 255 255 255 255 255 255 255 255 255 255 255 255 255 7 7 255 255 53 53 53 53 53 53 53 53 53 255 255 255 7 7 7 7 7 7 7 7 7 7 255 255 255 30 30 30 30 30 30 30 30 30 30 30 30 30 30 30 30 30 255 255 255 71 71 71 71 71 71 71 71 71 71 71 71 71 71 71 71 71 71 71 71 71 255 255 255 255 5 255 255 255 255 255 64 64 64 64 64 64 64 64 64 64 64 64 64 64 64 64 64 64 64 64 64 64 64 255 255 255 19 19 19 19 19 19 19 255 255 255 5 5 5 5 5 5 5 5 5 5 5 5 5 5 5 5 5 5 5 5 5 5 5 255 255 255 255 5 5 5 5 5 5 5 5 5 5 5 255 255 255 255 255 255 255 255 255 255 255 29 255 255 255 255 255 255 255 255 255 255 255 255 255 255 29 255 255 255 29 29 29 29 29 29 29 255 255 255 255 13 13 255 255 255 255 59 59 255 
255 1 1 1 1 1 1 1 1 1 1 1 255 255 255 1 1 1 1 1 1 1 1 1 1 255 255 255 17 17 255 255 255 255 255 63 63 255 255 255 255 255 255 255 255 255 255 255 255 255 255 255 255 255 17 17 17 17 17 17 17 17 17 255 255 255 255 255 255 255 255 255 255 255 255 255 255 255 255 255 255 255 255 70 70 70 70 70 70 70 70 70 70 70 255 255 255 70 70 255 255 255 255 255 255 255 70 70 70 255 255 255 255 255 255 70 70 70 70 70 70 70 70 70 70 70 255 255 255 255 255 255 255 255 255 255 255 255 70 255 255 255 255 255 255 255 255 255 255 255 255 255 255 255 255 255 70 70 70 70 70 70 70 70 70 70 70 70 70 70 70 70 70 70 70 70 70 70 70 70 70 70 70 70 70 255 255 255 255 255 255 255 255 255 255 255 255 255 255 255 255 255 255 255 255 255 255 255 255 255 70 70 70 70 255 255 255 28 28 28 28 28 28 28 28 28 28 255 255 255 255 255 7 7 7 7 7 7 7 7 7 7 7 7 7 7 7 7 7 7 7 7 255 255 255 7 255 255 255 255 255 7 7 7 255 255 255 7 7 7 7 7 7 7 7 7 7 7 7 7 7 7 7 7 7 7 255 255 255 7 7 255 255 255 255 255 255 255 255 255 255 255 255 255 255 255 255 255 7 7 255 255 255 53 53 53 53 53 53 53 53 255 255 7 7 7 7 7 7 7 7 7 7 7 255 255 255 30 30 30 30 30 30 30 30 30 30 30 30 30 30 30 30 30 30 255 255 71 71 71 71 71 71 71 71 71 71 71 71 71 71 71 71 71 71 71 71 71 255 255 255 255 5 255 255 255 255 255 255 64 64 64 64 64 64 64 64 64 64 64 64 64 64 64 64 64 64 64 64 64 64 255 255 255 19 19 19 19 19 19 19 255 255 255 5 5 5 5 5 5 5 5 5 5 5 5 5 5 5 5 5 5 5 5 5 5 5 255 255 255 255 5 5 5 5 5 5 5 5 5 5 5 255 255 255 255 255 255 255 255 255 255 255 255 255 255 255 255 255 255 255 255 255 255 255 255 255 255 29 29 29 29 29 29 29 29 29 29 29 255 255 255 255 255 255 255 255 59 59 59 59 255 
255 1 1 1 1 1 1 1 1 1 1 1 255 255 255 1 1 1 1 1 1 1 1 1 1 255 255 255 17 17 255 255 255 255 255 63 63 255 255 255 255 255 255 255 255 255 255 255 255 255 17 255 255 255 17 17 17 17 255 255 255 255 255 255 255 255 255 255 255 255 255 255 255 255 255 255 255 255 255 255 255 255 255 70 70 70 70 70 70 70 70 70 70 70 255 255 255 70 70 255 255 255 255 255 255 255 255 255 255 255 255 255 255 255 255 70 70 70 70 70 70 70 70 70 70 70 70 70 255 255 255 255 255 255 255 255 255 255 255 255 70 255 255 255 255 255 255 255 255 255 255 255 255 255 255 255 255 70 70 70 70 70 70 70 70 70 70 70 70 70 70 70 70 70 70 70 70 70 70 70 70 70 70 70 70 255 255 255 255 255 255 255 255 255 255 7 7 7 255 255 255 255 255 56 56 255 255 255 255 255 70 70 70 70 255 255 255 28 28 28 28 28 28 28 28 28 28 28 255 255 255 255 7 7 7 7 7 7 7 7 7 7 7 7 7 7 7 7 7 7 7 7 255 255 255 255 7 255 255 255 255 7 7 7 255 255 255 255 255 7 7 7 7 7 7 7 7 7 7 7 7 7 7 7 7 7 7 7 7 7 7 7 7 255 255 255 255 255 255 255 255 255 255 255 255 255 255 255 255 7 255 255 255 53 53 53 53 53 53 53 53 255 255 255 255 7 7 7 7 7 7 7 7 7 7 255 255 30 30 30 30 30 30 30 30 30 30 30 30 30 30 30 30 30 255 255 255 71 71 71 71 71 71 71 71 71 71 71 71 71 71 71 71 71 71 71 71 71 255 255 255 255 5 255 255 255 255 255 255 64 64 64 64 64 64 64 64 64 64 64 64 64 64 64 64 64 64 64 64 64 64 255 255 19 19 19 19 19 19 19 19 255 255 255 5 5 5 5 5 5 5 5 5 5 5 5 5 5 5 5 5 5 5 5 5 5 5 255 255 255 255 5 5 5 5 5 5 5 5 5 5 5 5 255 255 255 255 255 255 255 255 255 255 255 255 255 255 255 255 255 255 255 255 255 255 255 255 29 29 29 29 29 29 29 29 29 29 255 255 255 255 13 255 255 255 255 255 59 59 59 59 255 
255 1 1 1 1 1 1 1 1 1 1 1 1 1 1 1 1 1 1 1 1 1 1 1 1 255 255 17 17 17 255 255 255 255 63 63 63 63 63 63 63 63 63 255 255 255 255 255 255 255 17 17 17 255 255 255 255 255 255 255 255 255 255 255 255 255 255 255 255 255 255 255 255 255 255 255 255 255 255 255 255 70 70 70 70 70 70 70 70 70 70 70 70 70 255 255 255 70 70 255 255 255 255 255 255 255 255 255 255 255 255 255 255 255 70 70 70 70 70 70 70 70 70 70 70 70 70 70 70 255 255 255 255 255 255 255 255 255 255 255 255 255 255 255 255 255 255 255 255 255 255 255 255 255 255 255 255 255 70 70 70 70 70 70 70 70 70 70 70 70 70 70 70 70 70 70 70 70 70 70 70 70 70 70 255 255 255 255 255 255 255 255 255 255 7 255 255 255 255 255 255 255 56 56 255 255 255 255 255 70 70 70 70 70 255 255 28 28 28 28 28 28 28 28 28 28 28 255 255 255 255 255 7 7 7 7 7 7 7 7 7 7 7 7 7 7 7 7 7 7 7 7 255 255 255 255 255 255 255 255 255 255 255 255 255 255 255 255 255 7 7 255 255 255 7 7 7 7 7 7 7 7 7 7 7 7 7 7 7 7 7 7 7 255 255 255 255 28 255 255 255 255 255 255 255 255 255 255 255 7 7 255 255 53 53 53 53 53 53 53 53 255 255 255 255 7 7 7 7 7 7 7 7 7 7 255 255 255 255 30 30 30 30 30 30 30 30 30 30 30 30 30 30 30 255 255 255 71 71 71 71 71 71 71 71 71 71 71 71 71 71 71 71 71 71 71 71 71 255 255 255 255 5 255 255 255 255 255 255 64 64 64 64 64 64 64 64 64 64 64 64 64 64 64 64 64 64 64 64 64 64 255 255 19 19 19 19 19 19 19 19 255 255 5 5 5 5 5 5 5 5 5 5 5 5 5 5 5 5 5 5 5 5 5 5 5 5 5 5 5 5 5 5 5 5 5 5 5 5 5 5 5 5 5 255 255 255 255 255 255 255 255 255 255 255 255 255 255 255 255 255 255 255 255 255 255 255 255 255 29 29 29 29 29 29 29 29 255 255 255 255 255 255 255 255 255 59 59 59 59 59 255 
255 1 1 1 1 1 1 1 1 1 1 1 1 1 1 1 1 1 1 1 1 1 1 1 1 255 255 17 17 17 17 255 255 255 63 63 63 63 63 63 63 63 63 255 255 255 255 255 255 255 17 17 255 255 255 255 255 255 255 255 255 255 255 255 255 255 255 255 255 255 255 255 255 255 255 255 255 70 70 70 70 70 70 70 70 70 70 70 70 70 70 70 70 70 255 255 255 70 255 255 255 255 255 255 255 255 255 34 255 255 255 255 70 70 70 70 70 70 70 70 70 70 70 70 70 70 70 70 70 70 70 255 255 255 255 255 255 255 255 255 255 255 255 255 255 255 255 255 255 70 70 255 255 255 35 255 255 255 255 70 70 70 70 70 70 70 70 70 70 70 70 70 70 70 70 70 70 70 70 70 70 70 70 70 255 255 255 255 255 255 255 255 255 255 7 255 255 255 255 255 255 255 56 255 255 255 255 255 70 70 70 70 70 255 255 255 28 28 28 28 28 28 28 28 28 28 28 255 255 255 255 255 255 7 7 7 7 7 7 7 7 7 7 7 7 7 7 7 7 7 7 7 255 255 255 255 255 255 255 255 255 255 255 255 255 255 255 255 255 7 7 255 255 255 7 7 7 7 7 7 7 7 7 7 7 7 7 7 7 7 7 7 7 7 7 255 255 28 255 255 255 255 255 255 255 255 255 255 255 7 7 255 255 53 53 53 53 53 53 53 53 255 255 255 255 7 7 7 7 7 7 7 7 7 7 255 255 255 255 30 30 30 30 30 30 30 30 30 30 30 30 30 30 30 255 255 255 71 71 71 71 71 71 71 71 71 71 71 71 71 71 71 71 71 71 71 71 71 255 255 255 255 5 255 255 255 255 255 255 64 64 64 64 64 64 64 64 64 64 64 64 64 64 64 64 64 64 64 64 64 255 255 255 19 19 19 19 19 19 19 19 255 255 5 5 5 5 5 5 5 5 5 5 5 5 5 5 5 5 5 5 5 5 5 5 5 5 5 5 5 5 5 5 5 255 255 255 5 5 5 5 255 255 255 255 255 255 255 255 255 255 255 255 255 255 255 255 255 255 255 255 255 255 255 255 255 255 255 255 29 29 29 29 29 29 29 255 255 255 13 255 255 255 255 255 255 59 59 59 59 59 255 
255 1 1 1 1 1 1 1 1 1 1 1 1 1 1 1 1 1 1 1 1 1 1 1 1 255 255 17 17 17 17 255 255 255 63 63 63 63 63 63 63 63 63 255 255 255 255 255 255 17 17 17 255 255 255 255 255 255 255 255 255 255 255 255 255 255 255 255 255 255 255 255 255 70 70 70 70 70 70 70 70 70 70 70 70 70 70 70 70 70 70 70 70 70 70 70 70 70 255 255 255 255 255 255 255 255 255 255 255 255 255 255 70 70 70 70 70 70 70 70 70 70 70 70 70 70 70 70 70 70 70 70 255 255 255 255 255 255 255 255 255 255 255 255 255 70 70 70 70 70 70 255 255 255 35 35 255 255 255 255 70 70 70 70 70 70 70 70 70 70 70 70 70 70 70 70 70 70 70 70 70 70 70 255 255 255 255 255 255 32 32 255 255 255 7 255 255 255 255 255 255 56 255 255 255 255 255 70 70 70 70 70 70 255 255 255 28 28 28 28 28 28 28 28 28 28 28 255 255 255 255 255 255 7 7 7 7 7 7 7 7 7 7 7 7 7 7 7 7 255 255 255 255 255 255 255 255 255 255 255 255 255 255 255 255 255 255 255 7 7 7 255 255 255 7 7 7 7 7 7 7 7 7 7 7 7 7 7 7 7 7 7 7 7 7 255 255 28 28 28 255 255 255 255 255 255 255 255 255 7 7 255 255 53 53 53 53 53 53 53 53 255 255 255 7 7 7 7 7 7 7 7 7 7 7 7 255 255 255 30 30 30 30 30 30 30 30 30 30 30 30 30 30 30 255 255 255 71 71 71 71 71 71 71 71 71 71 71 71 71 71 71 71 71 71 71 71 71 255 255 255 255 5 255 255 255 255 255 255 255 64 64 64 64 64 64 64 64 64 64 64 64 64 64 64 64 64 64 64 64 255 255 255 19 19 19 19 19 19 19 255 255 255 5 5 5 5 5 5 5 5 5 5 5 5 5 5 5 5 5 5 5 5 5 5 5 5 5 5 5 5 5 5 5 255 255 255 5 5 5 5 255 255 255 255 255 255 255 255 255 255 255 255 255 255 255 255 255 255 255 255 255 255 255 255 255 255 255 255 29 29 29 29 29 29 255 255 255 255 13 255 255 255 59 59 59 59 59 59 59 59 255 
255 1 1 1 1 1 1 1 1 1 1 1 1 1 1 1 1 1 1 1 1 1 1 1 1 255 255 255 17 17 17 255 255 255 63 63 63 63 63 63 63 255 255 255 255 255 255 255 17 17 17 17 255 255 255 255 255 255 255 255 255 255 17 17 17 255 255 255 255 255 255 255 70 70 70 70 70 70 70 70 70 70 70 70 70 70 70 70 70 70 70 70 70 70 70 70 70 70 255 255 255 255 255 255 255 255 34 255 255 255 255 70 70 70 70 70 70 70 70 70 70 70 70 70 70 70 70 70 70 70 70 70 255 255 255 255 255 255 255 255 255 255 255 255 255 70 70 70 70 70 70 255 255 255 35 35 255 255 255 255 70 70 70 70 70 70 70 70 70 70 70 70 70 70 70 70 70 70 70 70 70 70 70 255 255 255 255 255 255 32 255 255 255 255 255 255 255 255 255 255 255 255 255 255 255 255 70 70 70 70 70 70 70 255 255 28 28 28 28 28 28 28 28 28 28 28 28 255 255 255 255 255 255 7 7 7 7 7 7 7 7 7 7 7 7 7 255 255 255 255 255 255 7 255 255 255 255 255 255 255 255 255 255 255 255 255 255 255 7 255 255 255 255 255 7 7 7 7 7 7 7 7 7 7 7 7 7 7 7 7 7 7 7 7 7 255 255 255 255 28 255 255 255 255 255 255 255 255 255 7 7 255 255 53 53 53 53 53 53 53 53 53 255 255 7 7 7 7 7 7 7 7 7 7 7 7 255 255 255 255 255 30 30 30 30 30 30 30 30 30 30 30 30 30 255 255 255 71 71 71 71 71 71 71 71 71 71 71 71 71 71 71 71 71 71 71 71 71 255 255 255 255 5 255 255 255 255 255 255 255 64 64 64 64 64 64 64 64 64 64 64 64 64 64 64 64 64 64 64 64 255 255 19 19 19 19 19 19 19 19 255 255 255 5 5 5 5 5 5 5 5 5 5 5 5 5 5 5 5 5 5 5 5 5 5 5 5 255 255 255 255 5 5 5 255 255 255 5 255 255 255 255 255 255 255 255 255 255 255 255 255 255 255 255 255 5 255 255 255 255 255 255 255 255 255 29 29 29 29 29 29 29 29 29 29 255 255 255 13 13 255 255 59 59 59 59 59 59 59 59 59 255 
255 1 1 1 1 1 1 1 1 1 1 1 1 1 1 1 1 1 1 1 1 1 1 1 1 255 255 255 17 17 255 255 255 255 63 63 63 63 63 63 63 255 255 255 255 17 17 17 17 17 17 17 17 17 17 17 17 17 17 17 17 17 17 17 17 255 255 255 255 255 70 70 70 70 70 70 70 70 70 70 70 70 70 70 70 70 70 70 70 70 70 70 70 70 70 70 70 255 255 255 255 255 255 255 255 255 255 255 255 70 70 70 70 70 70 70 70 70 70 70 70 70 70 70 70 70 70 70 70 70 70 70 255 255 255 255 255 70 70 70 255 255 255 70 70 70 70 70 70 70 70 70 255 255 35 35 255 255 255 255 70 70 70 70 70 70 70 70 70 70 70 70 70 70 70 70 70 70 70 70 70 70 255 255 255 255 255 255 255 32 255 255 255 255 255 255 255 7 255 255 255 255 255 255 255 255 70 70 70 70 70 70 70 255 255 28 28 28 28 28 28 28 28 28 28 28 28 28 255 255 255 255 7 7 7 7 7 7 7 7 7 7 7 7 7 7 255 255 255 255 255 255 7 255 255 255 255 255 255 255 255 255 255 255 255 255 255 255 7 255 255 255 7 7 7 7 7 7 7 7 7 7 7 7 7 7 7 7 7 7 7 7 7 7 7 255 255 255 255 28 255 255 255 28 255 255 255 255 255 7 7 255 255 53 53 53 53 53 53 53 53 255 255 255 7 7 7 7 7 7 7 7 7 7 7 7 255 255 255 255 255 30 30 30 30 30 30 30 30 30 30 30 30 30 255 255 255 71 71 71 71 71 71 71 71 71 71 71 71 71 71 71 71 71 71 71 71 71 255 255 255 255 5 255 255 255 255 255 255 255 64 64 64 64 64 64 64 64 64 64 64 64 64 64 64 64 64 64 64 64 255 255 19 19 19 19 19 19 19 255 255 255 5 5 5 5 5 5 5 5 5 5 5 5 5 5 5 5 5 5 5 5 5 5 5 5 5 255 255 255 255 5 5 255 255 255 255 255 255 255 255 255 255 255 255 255 255 255 255 255 255 255 255 255 255 255 255 255 255 255 255 29 29 29 29 29 29 29 29 29 29 29 29 29 255 255 255 13 13 13 255 255 59 59 59 59 59 59 59 59 59 255 
255 1 1 1 1 1 1 1 1 1 1 1 1 1 1 1 1 1 1 1 1 1 1 1 1 255 255 255 17 17 255 255 255 63 63 63 63 63 63 63 63 255 255 255 255 255 255 255 255 17 17 17 17 17 17 17 17 17 17 17 17 17 17 17 17 255 255 255 70 70 70 70 70 70 70 70 70 70 70 70 70 70 70 70 70 70 70 70 70 70 70 70 70 70 70 70 70 255 255 255 255 255 255 255 255 255 255 255 255 255 70 70 70 70 70 70 70 70 70 70 70 70 70 70 70 70 70 70 70 70 70 70 70 255 255 255 255 255 255 70 70 70 70 70 70 70 70 70 70 70 255 255 255 255 35 35 255 255 255 255 255 255 70 70 70 70 70 70 70 70 70 70 70 70 70 70 70 70 70 70 70 70 255 255 255 255 255 32 32 255 255 255 255 255 255 255 255 255 255 255 255 255 255 255 255 70 70 70 70 70 70 70 70 255 255 28 28 28 28 28 28 28 28 28 28 28 28 28 255 255 255 255 255 7 7 7 7 7 7 7 7 7 7 7 7 7 255 255 255 255 255 255 7 255 255 255 255 255 255 255 255 255 255 255 255 255 255 255 7 255 255 255 7 7 7 7 7 7 7 7 7 7 7 7 7 7 7 7 7 7 7 7 7 7 7 255 255 255 255 255 28 28 28 28 255 255 255 255 255 7 7 255 255 255 53 53 53 53 53 53 53 255 255 255 7 7 7 7 7 7 7 7 7 7 7 7 7 7 255 255 255 255 30 30 30 30 30 30 30 30 30 30 30 255 255 255 71 71 71 71 71 71 71 71 71 71 71 71 71 71 255 255 255 71 71 71 71 71 255 255 255 255 5 255 255 255 255 255 255 255 64 64 64 64 64 64 64 64 64 64 64 64 64 64 64 64 64 64 64 64 255 255 19 19 19 19 19 19 19 255 255 255 5 5 5 5 5 5 5 5 5 5 5 5 5 5 5 5 255 255 255 5 5 255 255 255 255 255 255 255 255 255 255 255 255 255 5 255 255 255 255 255 255 255 255 255 255 255 255 255 255 255 255 255 255 255 255 255 255 255 255 255 29 29 29 29 29 29 29 29 29 29 29 255 255 255 255 13 255 255 255 255 59 59 59 59 59 59 59 59 59 255 
255 1 1 1 1 1 1 1 1 1 1 1 1 1 1 1 1 1 1 1 1 1 1 1 1 255 255 255 17 17 255 255 255 255 63 63 63 63 63 63 63 255 255 255 255 255 255 255 255 17 17 17 17 17 17 17 17 17 17 17 17 255 255 255 255 255 255 255 70 70 70 70 70 70 70 70 70 70 70 70 70 70 70 70 70 70 70 70 70 255 255 255 70 70 70 70 70 255 255 255 255 255 255 255 255 255 255 255 255 255 70 70 70 70 70 70 70 70 70 70 70 70 70 70 70 70 70 70 70 70 70 70 70 70 255 255 255 255 255 70 70 70 70 70 70 70 70 70 70 70 255 255 255 255 255 255 255 255 255 255 255 255 70 70 70 70 70 70 70 70 70 70 70 70 70 70 70 70 70 70 70 255 255 255 255 255 32 32 255 255 255 255 255 255 255 255 255 255 255 255 255 255 255 255 70 70 70 70 70 70 70 70 70 255 255 255 28 28 28 28 28 28 28 28 28 28 28 28 28 28 255 255 255 255 7 7 7 7 7 7 7 7 7 7 7 7 7 7 7 255 255 255 255 255 255 255 255 255 255 255 255 255 255 255 255 255 255 7 7 7 7 7 7 7 7 7 7 7 7 7 7 7 7 255 255 255 255 7 7 7 7 7 7 7 7 255 255 255 255 255 28 28 255 255 255 255 255 255 255 7 7 255 255 255 53 53 53 53 53 53 53 255 255 255 7 7 7 7 7 7 7 7 7 7 7 255 255 255 255 255 255 255 30 30 30 30 30 30 30 30 30 30 30 255 255 255 71 71 71 71 71 71 71 71 71 71 71 71 71 71 255 255 255 71 71 71 71 71 71 255 255 5 5 255 255 255 255 255 255 255 64 64 64 64 64 64 64 64 64 64 64 64 64 64 64 64 64 64 64 255 255 255 19 19 19 19 19 19 19 255 255 5 5 5 5 5 5 5 5 5 5 5 5 5 5 5 5 5 255 255 255 255 255 255 255 255 255 255 255 255 255 255 255 255 255 255 255 255 255 255 255 255 255 255 255 255 255 255 255 255 255 255 255 255 255 29 255 255 255 255 255 255 29 29 29 29 29 29 29 29 29 29 29 255 255 255 13 255 255 255 255 255 59 59 59 59 59 59 59 59 59 255 
255 1 1 1 1 1 1 1 1 1 1 1 1 1 1 1 1 1 1 1 1 1 1 1 1 255 255 255 17 17 17 255 255 255 63 63 63 63 63 63 63 63 255 255 255 255 255 255 255 255 255 255 255 17 17 17 17 17 17 17 17 255 255 255 255 255 255 255 70 70 70 70 70 70 70 70 70 70 70 70 70 70 70 70 70 70 70 255 255 255 255 255 70 70 70 70 255 255 255 255 255 255 255 255 255 70 70 255 255 255 70 70 70 70 70 70 70 70 70 70 70 70 70 70 70 70 70 70 70 70 70 70 70 70 70 255 255 255 255 70 70 70 70 70 70 70 70 70 70 70 255 255 255 255 255 255 255 255 255 255 255 255 70 70 70 70 70 70 70 70 70 70 70 70 70 70 70 70 70 70 70 255 255 255 255 255 32 32 255 255 255 255 255 255 255 255 255 255 255 255 255 255 255 255 70 70 70 70 70 70 70 70 70 255 255 255 28 28 28 28 28 28 28 28 28 28 28 255 255 255 255 255 255 255 7 7 7 7 7 7 7 7 7 7 7 7 7 7 7 255 255 255 255 255 255 255 255 255 255 255 255 255 255 255 255 255 255 7 7 7 255 255 255 7 7 7 7 7 7 7 7 7 7 255 255 255 255 7 7 7 7 7 7 7 7 255 255 255 255 255 28 28 255 255 255 255 255 255 7 7 7 7 255 255 53 53 53 53 53 53 53 255 255 255 7 7 7 7 7 7 7 7 7 7 7 255 255 255 255 255 255 255 30 30 30 30 30 30 30 30 30 30 30 255 255 255 71 71 71 71 71 71 71 71 71 71 71 71 71 71 255 255 255 71 71 71 71 71 71 255 255 255 5 255 255 255 255 255 255 255 64 64 64 64 64 64 64 64 64 64 64 64 64 64 64 64 64 64 64 255 255 255 19 19 19 19 19 19 19 255 255 5 5 5 5 5 5 5 5 5 5 5 5 5 5 5 5 5 255 255 255 255 255 255 255 255 255 255 255 5 5 255 255 255 255 255 255 5 5 5 255 255 255 255 255 255 255 255 255 255 29 29 255 255 255 255 255 255 255 255 255 255 29 29 29 29 29 29 29 29 29 29 255 255 255 13 255 255 255 255 59 59 59 59 59 59 59 59 59 59 59 255 
255 1 1 1 1 1 1 1 1 1 1 1 1 1 1 1 1 1 1 1 1 1 1 1 1 255 255 255 17 17 17 255 255 255 63 63 63 63 63 63 63 63 255 255 255 255 255 255 255 255 255 255 255 17 17 17 17 17 17 17 255 255 255 255 255 255 70 70 70 70 70 255 255 255 255 70 255 255 255 255 70 70 70 70 70 70 255 255 255 255 255 255 70 70 70 70 255 255 255 255 255 255 255 255 255 70 70 70 255 255 255 70 70 70 70 70 70 70 70 70 70 70 70 70 70 70 70 70 70 70 70 70 70 70 70 70 70 70 70 70 70 70 70 70 70 70 70 70 70 70 70 255 255 255 255 255 255 255 255 255 255 255 70 70 70 70 70 70 70 70 70 70 70 70 70 70 70 70 70 70 255 255 255 255 255 32 32 255 255 255 255 255 255 255 255 255 255 255 255 255 255 255 255 70 70 70 70 70 70 70 70 70 255 255 255 255 28 28 28 28 28 28 28 28 28 255 255 255 255 255 255 255 255 255 7 7 7 7 7 7 7 7 7 7 7 7 7 7 7 7 7 7 255 255 255 255 255 255 255 255 7 255 255 255 255 255 7 7 7 7 255 255 255 7 7 7 7 7 7 7 7 7 7 255 255 255 255 7 7 7 7 7 7 7 255 255 255 255 28 28 28 28 255 255 255 255 255 255 7 7 7 7 255 255 53 53 53 53 53 53 53 53 255 255 7 7 7 7 7 7 7 7 7 7 7 255 255 255 255 255 255 30 30 30 30 30 30 30 30 30 30 30 255 255 255 255 71 71 71 71 71 71 71 71 71 71 71 71 71 71 71 71 71 71 71 71 71 71 71 255 255 255 5 255 255 255 255 255 255 255 255 64 64 64 64 64 64 64 64 64 64 64 64 64 64 64 64 64 255 255 255 19 19 19 19 19 19 19 255 255 255 5 5 5 5 5 5 5 5 5 5 5 5 5 5 5 5 5 5 5 255 255 255 5 255 255 255 5 5 5 5 255 255 255 255 255 255 255 255 5 255 255 255 255 255 255 255 255 255 29 29 29 29 29 255 255 255 255 255 255 255 255 29 29 29 29 29 29 29 29 29 255 255 255 255 255 255 255 255 59 59 59 59 59 59 59 59 59 59 59 59 255 
255 1 1 1 1 1 1 1 1 1 1 1 1 1 1 1 1 1 1 1 1 1 1 1 1 1 255 255 17 17 17 255 255 63 63 63 63 63 63 63 63 63 255 255 255 255 255 255 255 255 255 255 255 17 17 17 17 17 17 17 255 255 255 255 255 255 70 70 70 255 255 255 255 255 255 255 255 255 255 255 255 70 70 70 255 255 255 255 255 255 255 70 70 70 70 70 255 255 255 255 255 255 255 255 255 255 70 70 255 255 255 70 70 70 70 70 70 70 70 70 70 70 70 70 70 70 70 70 70 70 70 70 70 70 70 70 70 70 70 70 70 70 70 70 70 70 70 70 70 70 70 255 255 255 35 255 255 255 255 255 255 255 255 70 70 70 70 70 70 70 70 70 70 70 70 70 70 70 70 70 255 255 255 255 32 32 32 255 255 255 255 255 255 255 255 255 255 255 255 255 255 255 70 70 70 70 70 70 70 70 70 70 255 255 255 28 28 28 28 28 28 28 28 28 28 255 255 255 255 255 255 255 255 255 7 7 7 7 7 7 7 7 7 7 7 7 7 7 7 7 7 7 7 255 255 255 255 255 255 255 7 7 255 255 255 255 7 7 7 7 255 255 255 7 7 7 7 7 7 7 7 7 7 7 7 7 7 7 7 7 7 7 7 7 255 255 255 255 28 28 28 28 255 255 255 255 255 255 255 7 7 7 255 255 255 53 53 53 53 53 53 53 255 255 7 7 7 7 7 7 7 7 7 7 7 7 7 7 255 255 255 30 30 30 30 30 30 30 30 30 30 30 255 255 255 255 71 71 71 71 71 71 71 71 71 71 71 71 71 71 71 71 71 71 71 71 71 71 71 255 255 255 5 255 255 255 255 255 255 255 255 64 64 64 64 64 64 64 64 64 64 64 64 64 64 64 64 64 255 255 255 19 19 19 19 19 19 19 255 255 255 5 5 5 5 5 5 5 5 5 5 5 5 5 5 5 5 5 5 5 255 255 255 5 255 255 255 255 255 5 5 255 255 255 255 255 255 255 255 5 255 255 255 255 255 255 255 255 255 255 255 255 255 29 255 255 255 255 255 255 255 255 29 29 29 29 29 29 29 29 29 255 255 255 13 255 255 255 59 59 59 59 59 59 59 59 59 59 59 59 59 255 
255 1 1 1 1 1 1 1 1 1 1 1 1 1 1 1 1 1 1 1 1 1 1 1 1 1 255 255 17 17 17 255 255 63 63 63 63 63 63 63 63 63 255 255 255 255 255 255 255 17 17 17 17 17 17 17 17 17 17 17 255 255 70 255 255 255 255 255 255 255 255 255 255 255 255 255 255 255 255 255 255 70 70 255 255 255 255 255 255 255 255 70 70 70 70 70 255 255 255 255 255 255 255 255 255 255 70 70 255 255 255 70 70 70 70 70 70 70 70 70 70 70 70 70 70 70 70 70 70 70 70 70 70 70 70 70 70 70 70 70 70 70 70 70 70 70 70 70 70 70 255 255 255 255 255 255 255 255 255 255 255 255 255 255 70 70 70 70 70 70 70 70 70 70 70 70 70 70 70 255 255 255 255 255 32 32 32 255 255 255 255 255 255 255 255 255 56 255 255 255 255 70 70 70 70 70 70 70 70 70 70 70 255 255 255 28 28 28 28 28 28 28 28 28 28 255 255 255 255 255 255 255 255 7 7 7 7 7 7 7 7 7 7 7 7 7 7 7 7 7 7 7 7 7 7 7 7 255 255 255 255 255 255 255 255 255 7 7 7 7 7 7 7 7 7 7 7 7 7 7 7 7 7 7 7 7 7 7 7 7 7 7 7 7 255 255 28 28 28 28 28 28 28 28 255 255 255 255 255 7 7 7 255 255 255 255 53 53 53 53 53 53 255 255 7 7 7 7 7 7 7 7 7 7 7 7 7 255 255 255 30 30 30 30 30 30 30 30 30 30 30 30 255 255 255 255 71 71 71 71 71 71 71 71 71 71 71 71 71 71 71 71 71 71 71 71 71 71 71 255 255 255 5 255 255 255 255 255 255 255 255 64 64 64 64 64 64 64 64 64 64 64 64 64 64 64 64 64 255 255 19 19 19 19 19 19 19 19 255 255 5 5 5 5 5 5 5 5 5 5 5 5 5 5 5 5 5 5 5 5 255 255 255 5 5 5 255 255 255 5 5 5 5 255 255 255 255 255 255 255 255 255 29 29 255 255 255 255 255 255 255 255 255 29 255 255 255 255 255 255 255 255 29 29 29 29 29 29 29 29 255 255 255 13 13 255 255 59 59 59 59 59 59 59 59 59 59 59 59 59 59 255 
255 1 1 1 1 1 1 1 1 1 1 1 1 1 1 1 1 1 1 1 1 1 1 1 255 255 255 255 17 17 17 255 255 63 63 63 63 63 63 63 63 63 63 63 255 255 255 255 255 17 17 17 17 17 17 17 17 17 17 17 255 255 70 255 255 255 255 255 255 255 255 255 255 255 255 255 255 255 255 255 255 70 255 255 255 255 255 255 255 70 70 70 70 70 70 70 70 255 255 255 255 255 255 255 255 255 70 70 70 70 70 70 70 70 70 70 70 70 70 70 70 70 70 70 70 70 70 70 70 70 70 70 70 70 70 70 70 70 70 70 70 70 70 70 70 70 70 70 70 70 255 255 255 255 255 255 255 255 255 255 255 255 255 255 255 70 70 70 70 70 70 70 70 70 70 70 70 70 255 255 255 255 255 32 32 32 255 255 255 255 255 255 255 255 255 255 255 255 255 255 70 70 70 70 70 70 70 70 70 70 70 70 255 255 255 28 28 28 28 28 28 28 28 28 28 28 255 255 255 255 255 255 255 7 7 7 7 7 7 7 7 7 7 7 7 7 7 7 7 7 7 7 7 7 7 7 255 255 255 7 255 255 255 255 255 255 7 7 7 7 7 7 7 7 7 7 7 7 7 7 7 7 7 7 7 7 7 255 255 255 255 255 255 255 255 255 28 28 28 28 28 28 28 28 255 255 255 255 255 7 7 7 7 255 255 255 53 53 53 53 53 53 255 255 7 7 7 7 7 7 7 7 7 7 255 255 255 255 255 255 255 255 30 30 30 30 30 30 30 30 30 30 255 255 255 255 71 71 71 71 71 71 71 71 71 71 71 71 71 71 71 71 71 71 71 71 71 71 71 255 255 255 5 5 255 255 255 255 255 255 255 64 64 64 64 64 64 64 64 64 64 64 64 64 64 64 64 255 255 255 19 19 19 19 19 19 19 255 255 255 5 5 5 5 5 5 5 5 5 5 5 5 5 5 5 5 5 5 5 5 5 5 255 255 255 255 255 255 255 5 5 5 255 255 255 255 255 255 255 255 255 255 255 255 255 255 255 255 255 255 255 255 255 255 255 255 255 255 255 255 255 255 255 29 29 29 29 29 29 255 255 255 255 13 255 255 255 59 59 59 59 59 59 59 59 59 59 59 59 59 59 255 
255 1 1 1 1 1 1 1 1 1 1 1 1 1 1 1 1 1 1 1 1 1 1 1 255 255 255 255 17 17 17 255 255 63 63 63 63 63 63 63 255 255 255 255 255 255 255 255 255 255 255 255 17 17 17 17 17 17 17 17 255 255 255 255 255 255 255 255 255 255 255 255 70 255 255 255 255 255 255 70 70 255 255 255 255 255 255 255 70 70 70 70 70 70 70 70 70 255 255 255 255 255 255 255 255 255 70 70 70 70 70 70 70 70 70 70 70 70 70 70 70 70 70 70 70 70 70 70 70 70 70 70 70 70 70 70 70 70 70 70 70 70 70 70 70 70 70 70 70 70 255 255 255 255 255 255 255 255 255 255 255 255 255 255 255 255 70 70 70 70 70 70 70 70 70 70 70 70 255 255 255 255 255 32 32 32 255 255 255 255 255 255 255 56 56 56 255 255 255 255 70 70 70 70 70 70 70 70 70 70 70 70 255 255 255 28 28 28 28 28 28 28 28 28 28 28 28 28 28 255 255 255 7 7 7 7 7 7 7 7 7 7 7 7 7 7 7 7 7 7 7 7 7 7 7 7 255 255 255 7 255 255 255 255 255 255 7 7 7 7 7 7 7 7 7 7 7 7 7 7 7 7 7 7 255 255 255 255 255 255 255 255 255 255 255 255 28 28 28 28 28 28 28 28 255 255 255 255 255 7 7 7 7 255 255 255 53 53 53 53 53 53 255 255 7 7 7 7 7 7 7 7 7 7 255 255 255 255 255 255 255 255 30 30 30 30 30 30 30 30 30 30 255 255 255 255 71 71 71 71 71 71 71 71 71 71 71 71 71 71 71 255 255 255 71 71 71 71 71 255 255 255 5 5 255 255 19 19 19 255 255 64 64 64 64 64 64 64 64 64 64 64 64 64 64 64 64 255 255 255 19 19 19 255 255 255 255 255 255 255 5 5 5 5 5 5 5 5 5 5 5 5 5 5 5 5 5 5 5 255 255 255 255 255 255 255 5 5 5 5 5 5 255 255 255 255 255 255 255 255 29 255 255 255 255 255 255 255 255 255 255 255 29 255 255 255 29 29 29 29 255 255 255 29 29 29 29 29 29 255 255 255 13 13 255 255 255 59 59 59 59 59 59 59 59 59 59 59 59 59 59 255 
255 1 1 1 1 1 1 1 1 1 1 1 1 1 1 1 1 1 1 1 1 1 1 1 255 255 255 255 17 17 255 255 255 63 63 63 63 63 63 63 255 255 255 255 255 255 255 255 255 255 255 255 255 255 255 255 255 17 17 17 255 255 255 255 255 255 255 255 255 255 255 70 255 255 255 255 255 255 255 70 255 255 255 255 255 255 255 70 70 70 70 70 70 70 70 70 70 70 255 255 255 255 255 255 255 255 255 70 70 70 70 70 70 70 70 70 70 70 70 70 70 70 70 70 70 70 70 70 70 70 70 70 70 70 70 70 70 70 70 70 70 70 70 70 70 70 70 70 70 70 255 255 255 255 255 255 255 255 255 255 255 255 255 255 255 255 255 70 70 70 70 70 70 70 70 70 70 70 255 255 255 255 32 32 32 255 255 255 255 255 255 255 56 56 56 255 255 255 255 70 70 70 70 70 70 70 70 70 70 70 70 70 255 255 255 28 28 28 28 28 28 28 28 28 28 28 28 28 28 255 255 255 7 7 7 7 7 7 7 7 7 7 7 7 7 7 7 7 7 7 7 7 7 7 7 7 255 255 255 7 255 255 255 255 255 255 7 7 7 7 7 7 7 7 7 7 7 7 7 7 7 7 7 255 255 255 255 255 255 28 28 28 255 255 255 255 28 28 28 28 28 28 28 28 255 255 255 255 255 255 255 7 7 255 255 53 53 53 53 53 53 53 255 255 255 7 7 7 7 7 7 7 7 7 255 255 255 255 255 255 255 255 255 255 30 30 30 30 30 30 30 30 255 255 71 71 71 71 71 71 71 71 71 71 71 71 71 71 71 71 71 255 255 255 71 71 71 71 71 255 255 255 5 5 255 255 255 255 255 255 255 255 64 64 64 64 64 64 64 64 64 64 64 64 64 64 64 255 255 19 19 19 19 255 255 255 255 255 255 5 5 5 5 5 5 5 5 5 5 5 5 5 5 5 5 5 5 5 5 255 255 255 255 255 255 255 255 255 255 5 5 5 255 255 255 255 255 255 255 255 255 255 255 255 255 255 255 255 255 255 255 255 255 255 255 255 29 29 29 29 255 255 255 255 29 29 29 29 255 255 255 13 255 255 255 255 59 59 59 59 59 59 59 59 59 59 59 59 59 59 59 255 
255 1 1 1 1 1 1 1 1 1 1 1 1 1 1 1 1 1 1 1 1 1 1 1 1 255 255 255 17 17 255 255 255 63 63 63 63 63 63 255 255 255 255 255 255 255 255 255 255 255 255 255 255 255 255 255 255 255 255 255 255 255 255 255 255 255 255 255 255 255 70 255 255 255 255 255 255 255 255 255 255 255 255 255 255 255 70 70 70 70 70 70 70 70 70 70 70 70 70 255 255 255 255 255 255 255 255 70 70 70 70 70 70 70 70 70 70 70 70 70 70 70 70 70 70 70 70 70 70 70 70 70 70 70 70 70 70 70 70 70 70 70 70 70 70 70 70 70 70 70 255 255 255 255 255 255 255 255 255 255 255 255 255 255 255 255 255 255 70 70 70 70 70 70 70 70 70 255 255 255 255 255 32 32 32 255 255 255 255 255 255 56 56 56 255 255 255 255 255 70 70 70 70 70 70 70 70 70 70 70 70 70 70 255 255 255 28 28 28 28 28 28 28 28 28 28 255 255 255 28 255 255 255 255 255 7 7 7 7 7 7 7 7 7 7 7 7 7 7 7 7 7 7 7 7 7 255 255 255 7 7 7 7 7 7 7 7 7 7 7 7 7 7 7 7 7 7 7 7 7 7 7 255 255 255 255 255 255 255 28 28 28 28 28 28 28 28 28 28 28 28 28 28 28 255 255 255 255 255 255 255 7 7 255 255 53 53 53 53 53 53 53 255 255 255 7 7 7 7 7 7 7 7 7 255 255 255 255 255 255 255 255 255 255 30 30 30 30 30 30 30 255 255 255 71 71 71 71 71 71 71 71 71 71 71 71 71 71 71 71 71 255 255 255 71 71 71 71 71 255 255 255 5 5 255 255 255 255 255 255 255 255 64 64 64 64 64 64 64 64 64 64 64 64 64 64 64 255 255 19 19 19 19 255 255 255 255 255 255 5 5 5 5 5 5 5 5 5 5 5 5 5 5 5 5 5 5 5 5 255 255 255 5 5 5 255 255 255 255 5 5 5 5 255 255 255 255 255 255 255 255 255 255 255 255 255 255 255 255 255 255 255 255 255 29 29 29 29 29 29 29 255 255 255 29 29 29 29 255 255 255 13 255 255 255 255 59 59 59 59 59 59 59 59 59 59 59 59 59 59 59 255 
255 1 1 1 1 1 1 1 1 1 1 1 1 1 1 1 1 1 1 1 1 1 1 1 1 255 255 255 17 17 255 255 255 63 63 63 63 63 63 255 255 255 255 255 255 255 255 255 255 255 255 17 255 255 255 255 255 255 255 255 255 255 255 255 255 255 255 255 70 70 70 255 255 255 255 255 255 70 255 255 255 255 255 255 255 70 70 70 70 70 70 70 70 70 70 70 255 255 255 255 255 255 255 255 255 255 255 255 70 70 70 70 70 70 70 70 70 70 70 70 70 70 70 70 70 70 70 70 70 70 70 70 70 70 70 70 70 70 70 70 70 70 70 70 70 70 70 70 70 255 255 255 255 255 255 255 255 255 255 255 255 255 255 255 255 255 255 255 70 70 70 70 70 70 70 70 70 255 255 255 255 255 32 32 255 255 255 255 56 56 56 56 56 255 255 255 255 255 70 70 70 70 70 70 70 70 70 70 70 70 70 70 70 255 255 255 255 255 28 28 28 28 28 28 28 28 255 255 255 28 255 255 255 255 255 7 7 7 7 7 7 7 7 7 7 7 7 7 7 7 7 7 7 7 7 7 7 7 7 7 7 7 7 7 7 7 7 7 7 7 7 7 7 7 7 7 7 7 7 7 7 7 255 255 255 255 255 255 255 28 28 255 255 255 28 28 28 28 28 28 28 28 28 28 28 28 28 255 255 255 255 7 7 255 255 53 53 53 53 53 53 53 53 255 255 7 7 7 7 7 7 7 7 7 7 7 7 255 255 255 255 255 255 255 30 30 30 30 30 30 30 255 255 255 71 71 71 71 71 71 71 71 71 71 71 71 71 71 71 71 71 71 71 71 71 71 71 71 71 255 255 255 5 5 255 255 255 255 255 19 255 255 64 64 64 64 64 64 64 64 64 64 64 64 64 64 255 255 255 19 19 19 19 19 19 19 255 255 255 5 5 5 5 5 5 5 5 5 5 5 5 5 5 5 5 5 5 5 5 5 5 5 5 5 5 255 255 255 255 5 5 5 5 255 255 255 255 255 255 255 255 255 255 255 255 255 255 255 255 255 255 255 255 255 29 29 29 29 29 29 29 255 255 255 29 29 29 255 255 255 13 255 255 255 59 59 59 59 59 59 59 59 59 59 59 59 59 59 59 59 59 255 
255 1 1 1 1 1 1 1 1 1 1 1 1 1 1 1 1 1 1 1 1 1 1 1 1 255 255 255 17 17 17 255 255 63 63 63 63 63 63 255 255 255 255 255 255 255 255 255 255 255 255 17 255 255 255 255 255 255 255 255 255 255 255 255 255 70 70 70 70 255 255 255 255 255 255 255 255 70 255 255 255 255 255 70 70 70 70 70 255 255 255 70 70 70 70 70 255 255 255 255 255 34 255 255 255 255 255 255 70 70 70 70 70 70 70 70 70 70 70 70 70 70 70 70 70 70 70 70 70 70 70 70 70 70 70 70 70 70 70 70 70 70 70 70 70 70 70 70 70 255 255 255 255 255 255 255 255 255 255 70 70 255 255 255 255 255 255 255 70 70 70 70 70 70 70 70 255 255 255 255 255 32 32 32 255 255 255 255 56 56 56 56 255 255 255 255 255 255 70 70 70 70 70 70 70 70 70 70 70 70 70 70 70 70 255 255 255 255 28 28 28 28 28 28 28 28 255 255 255 28 255 255 255 255 255 7 7 7 7 7 7 7 7 7 7 7 7 7 7 7 7 7 7 7 7 7 7 7 7 7 7 7 7 7 7 7 7 7 7 7 7 7 7 7 7 7 7 7 7 7 7 7 255 255 255 255 255 255 255 28 28 255 255 255 255 255 28 28 28 28 28 28 28 28 28 28 28 255 255 7 7 7 7 255 255 53 53 53 53 53 53 53 53 255 255 255 255 7 7 7 7 7 7 7 7 7 7 255 255 255 255 30 30 30 30 30 30 30 30 30 30 255 255 71 71 71 71 71 71 71 71 71 71 71 71 71 71 71 71 71 71 71 71 71 71 71 71 71 71 71 255 255 255 5 255 255 255 255 255 19 255 255 64 64 64 64 64 64 64 64 64 64 64 64 64 64 255 255 255 19 19 19 19 19 19 255 255 255 255 5 5 5 5 5 5 5 5 5 5 5 5 5 5 5 5 5 5 5 5 5 5 5 5 5 5 255 255 255 255 5 5 5 5 255 255 255 255 255 255 255 255 255 255 255 255 255 255 255 255 255 255 255 255 255 29 29 29 29 29 29 29 29 29 29 29 29 29 255 255 255 13 255 255 255 59 59 59 59 59 59 59 59 59 59 59 59 59 59 59 59 59 255 
255 1 1 1 1 1 1 1 1 1 1 1 1 1 1 1 1 1 1 1 1 1 1 1 1 255 255 17 17 17 17 255 255 63 63 63 63 63 63 63 255 255 255 255 255 255 255 255 255 255 255 255 255 255 255 255 255 255 255 255 255 255 255 70 70 70 70 70 70 255 255 255 255 255 255 255 70 255 255 255 255 255 255 70 70 70 70 255 255 255 255 70 70 70 70 70 255 255 255 255 255 255 255 255 255 255 255 255 255 70 70 70 70 70 70 70 70 70 70 70 70 70 70 70 70 70 70 70 70 70 70 70 70 70 70 70 70 70 70 70 70 70 70 70 70 70 255 255 255 255 255 255 255 255 255 255 255 255 255 70 70 255 255 255 255 255 255 255 70 70 70 70 70 70 70 70 255 255 255 255 255 32 32 32 255 255 255 56 56 56 56 56 255 255 255 255 255 70 70 70 70 70 70 70 70 70 70 70 70 70 70 70 255 255 255 255 255 255 28 28 28 28 28 28 28 28 28 28 28 28 255 255 255 255 255 7 7 7 7 7 7 7 7 7 7 7 7 7 7 7 7 7 7 7 7 7 7 7 7 7 7 7 7 7 7 7 7 7 7 7 7 7 7 7 7 7 7 7 7 7 7 7 255 255 255 255 255 28 28 28 28 255 255 255 255 255 28 28 28 28 28 28 28 28 28 28 28 255 255 255 7 7 7 255 255 255 53 53 53 53 53 53 53 255 255 255 255 7 7 7 7 7 7 7 7 255 255 255 255 255 255 30 30 30 30 30 30 30 30 30 30 255 255 71 71 71 71 71 71 71 71 71 71 71 71 71 71 71 71 71 71 71 71 71 71 71 71 71 71 71 255 255 255 5 255 255 255 255 255 255 255 255 64 64 64 64 64 64 64 64 64 64 64 64 64 64 255 255 19 19 19 19 19 19 19 255 255 255 255 5 5 5 5 5 5 5 5 5 5 5 5 255 255 255 5 5 5 5 5 5 5 5 5 5 5 5 5 5 5 5 5 5 5 5 255 255 255 255 255 255 255 255 255 255 255 255 255 255 255 255 255 255 255 255 29 29 29 29 29 29 29 29 29 29 29 29 255 255 255 13 13 255 255 59 59 59 59 59 59 59 59 59 59 59 59 59 59 59 59 59 59 255 
255 1 1 1 1 1 1 1 1 1 1 1 1 1 1 1 1 1 1 1 1 1 1 1 1 255 255 17 17 17 17 255 255 63 63 63 63 63 63 63 255 255 255 255 255 255 255 255 255 255 255 255 255 255 255 255 255 255 255 17 255 255 70 70 70 70 70 70 255 255 255 255 255 255 255 255 255 255 255 255 255 70 70 70 70 70 70 255 255 255 255 255 255 255 70 70 255 255 255 255 255 255 255 255 255 255 255 255 255 70 70 70 70 70 70 70 70 70 70 70 70 70 70 70 70 70 70 70 70 70 70 70 70 70 70 255 255 255 255 255 255 70 70 70 70 255 255 255 255 255 255 255 255 255 255 255 255 255 255 255 70 70 255 255 255 255 255 255 70 70 70 70 70 70 70 255 255 255 255 255 32 32 32 255 255 255 255 255 56 56 56 255 255 255 255 255 70 70 70 70 70 70 70 70 70 70 70 70 70 70 70 70 255 255 255 255 28 28 28 28 28 28 28 28 28 28 28 28 28 28 255 255 255 7 7 7 7 7 7 7 7 7 7 7 7 7 7 7 7 7 7 7 7 7 7 7 7 7 7 7 7 7 7 7 7 7 7 7 7 7 7 7 7 7 7 7 7 7 7 7 7 7 255 255 255 255 255 28 28 255 255 255 255 255 255 255 255 28 28 28 28 28 28 28 28 28 28 255 255 255 255 7 7 255 255 255 255 53 53 53 53 53 53 255 255 255 255 7 7 7 7 7 7 7 7 255 255 255 255 255 255 30 30 30 30 30 30 30 30 30 30 255 255 71 71 71 71 71 71 71 71 71 71 71 71 71 71 71 71 71 71 71 71 71 71 71 71 71 71 71 255 255 255 5 255 255 255 255 255 255 255 255 64 64 64 64 64 64 64 64 64 64 64 64 64 255 255 255 19 19 19 19 19 19 255 255 255 5 5 5 5 5 5 5 5 5 5 5 5 5 5 255 255 255 5 5 5 5 5 255 255 255 5 5 255 255 255 255 255 5 5 5 5 5 255 255 255 255 5 255 255 29 255 255 255 255 255 255 255 255 255 255 255 29 29 29 29 29 29 29 29 29 29 29 29 29 255 255 255 13 255 255 255 59 59 59 59 59 59 59 59 59 59 59 59 59 59 59 59 59 59 255 
255 1 1 1 1 1 1 1 1 1 1 1 1 1 1 1 1 1 1 1 1 1 1 1 1 255 255 17 17 17 17 255 255 63 63 63 63 63 63 63 255 255 255 255 255 255 255 255 255 255 255 255 255 255 255 255 255 255 255 17 255 255 70 70 70 70 255 255 255 255 255 255 255 255 255 255 255 255 255 255 70 70 70 70 70 70 70 255 255 255 255 255 255 255 70 255 255 255 255 255 255 255 255 255 255 255 255 255 255 255 70 70 70 70 70 70 70 70 70 70 70 70 70 70 70 70 70 70 70 70 70 70 70 70 70 255 255 255 255 255 255 70 70 70 70 255 255 255 255 255 255 255 255 255 255 255 255 255 255 255 70 70 70 255 255 255 255 255 70 70 70 70 70 70 70 255 255 255 255 255 32 32 32 255 255 255 255 255 56 56 255 255 255 255 255 70 70 70 70 70 70 70 70 70 70 255 255 255 70 70 70 70 255 255 255 255 28 28 28 28 28 28 28 28 28 28 28 28 28 28 28 255 255 255 7 7 7 7 7 7 7 7 7 7 7 7 7 7 7 7 7 7 7 7 7 7 7 7 7 7 7 7 7 7 7 7 7 7 7 7 7 7 7 7 7 7 7 7 7 7 7 7 255 255 255 255 255 28 28 255 255 255 28 28 255 255 255 28 28 28 28 28 28 28 28 28 28 28 255 255 255 7 7 7 255 255 255 53 53 53 53 53 53 53 255 255 7 7 7 7 7 7 7 7 7 255 255 255 255 255 255 30 30 30 30 30 30 30 30 30 30 255 255 71 71 71 71 71 71 71 71 71 71 71 71 71 71 71 71 71 71 71 71 71 71 71 71 71 71 71 255 255 255 5 5 255 255 255 255 255 255 255 255 64 64 64 64 64 64 64 64 64 64 64 64 255 255 255 19 19 19 19 19 19 255 255 255 5 5 5 5 5 5 5 5 5 5 5 5 5 5 255 255 255 5 5 5 5 5 255 255 255 5 5 255 255 255 255 255 5 5 5 5 5 255 255 255 255 255 255 255 255 255 255 255 255 255 255 255 255 255 255 255 29 29 29 29 29 29 29 29 29 29 29 29 255 255 255 13 255 255 255 255 59 59 59 59 59 59 59 59 59 59 59 59 59 59 59 59 59 59 255 
255 1 1 1 1 1 1 1 1 1 1 1 1 1 1 1 1 1 1 1 1 1 1 1 1 255 255 17 17 17 255 255 255 63 63 63 63 63 63 63 255 255 255 255 255 255 255 255 255 255 255 255 255 255 255 255 255 255 255 255 255 255 70 70 70 70 255 255 255 255 255 255 255 255 70 255 255 255 255 70 70 70 70 70 70 70 70 255 255 255 255 255 255 255 70 255 255 255 255 255 255 255 255 255 255 255 255 255 255 255 70 70 70 70 70 70 70 70 70 70 70 70 70 70 70 70 70 70 70 70 70 70 70 70 70 255 255 255 255 255 255 70 70 70 70 255 255 255 255 255 255 255 255 255 255 255 255 255 255 255 255 70 70 255 255 255 255 255 70 70 70 70 70 70 255 255 255 255 255 32 32 32 255 255 255 255 255 255 56 255 255 255 255 255 255 70 70 70 70 70 70 70 70 70 70 255 255 255 70 70 70 70 255 255 255 255 28 28 28 28 28 28 28 28 28 28 28 28 28 28 28 255 255 255 255 7 7 7 7 7 7 7 7 7 7 7 7 7 7 7 7 7 7 7 7 7 7 7 7 7 7 7 7 7 7 7 7 7 7 7 7 7 7 7 7 7 7 7 7 7 7 7 255 255 255 255 255 28 28 255 255 255 28 28 255 255 255 28 28 28 28 28 28 28 28 28 28 28 255 255 255 7 7 7 7 255 255 255 53 53 53 53 53 53 255 255 7 7 7 7 7 7 7 7 255 255 255 255 255 255 255 30 30 30 30 30 30 30 30 30 255 255 255 71 71 71 71 71 71 71 71 71 71 71 71 71 71 71 71 71 71 71 71 71 71 71 71 71 71 71 255 255 255 255 5 255 255 255 255 255 255 255 255 64 64 64 64 64 64 64 64 64 64 64 64 255 255 19 19 19 19 19 19 19 255 255 255 5 5 5 5 5 5 5 5 5 5 5 5 5 5 5 5 5 5 5 5 5 5 255 255 255 5 5 255 255 255 255 255 5 5 5 5 5 255 255 255 255 255 255 255 255 255 255 255 255 255 255 29 29 29 255 255 255 29 29 29 29 29 29 29 29 29 29 255 255 255 255 13 255 255 255 59 59 59 59 59 59 59 59 59 59 59 59 59 59 59 59 59 59 59 255 
255 1 1 1 1 1 1 1 1 1 1 1 1 1 1 1 1 1 1 1 1 1 1 1 1 255 255 255 17 17 255 255 255 63 63 63 63 63 63 63 63 255 255 255 255 255 255 255 255 255 255 255 17 17 17 17 255 255 255 255 255 255 70 70 70 70 255 255 255 255 255 255 255 255 70 255 255 255 70 70 70 70 70 70 70 255 255 255 70 255 255 255 255 255 70 255 255 255 255 255 255 255 255 255 255 255 255 255 255 255 70 70 70 70 70 70 70 70 70 70 70 70 70 70 70 70 70 70 70 70 70 70 70 70 70 255 255 255 255 255 255 70 70 255 255 255 255 255 255 255 255 255 255 255 255 255 255 255 255 255 255 70 70 255 255 255 255 70 70 70 70 70 70 70 255 255 255 255 255 255 32 32 255 255 255 255 56 56 56 255 255 255 255 255 70 70 70 70 70 70 70 70 70 70 255 255 255 255 70 70 70 70 255 255 255 255 28 28 28 28 28 28 28 28 28 28 28 28 28 28 28 28 255 255 255 255 255 255 255 7 7 7 7 7 7 7 7 7 7 7 7 7 7 7 7 7 7 7 7 7 7 7 7 7 7 7 7 7 7 7 7 7 7 7 7 7 7 7 7 7 7 255 255 255 255 255 255 28 28 255 255 255 28 28 255 255 255 28 28 28 28 28 28 28 28 28 28 28 255 255 255 7 7 7 7 255 255 255 53 53 53 53 53 53 255 255 255 255 7 7 7 7 7 7 255 255 255 255 255 255 255 30 30 30 30 30 30 30 30 255 255 255 255 71 71 71 71 71 71 71 71 71 71 71 71 71 71 71 71 71 71 71 71 71 71 71 71 71 71 71 255 255 255 255 5 255 255 255 255 255 255 255 255 64 64 64 64 64 64 64 64 64 64 64 64 255 255 19 19 19 19 19 19 19 255 255 255 5 5 5 5 5 5 5 5 5 5 5 5 5 5 5 5 5 5 5 5 5 255 255 255 255 5 5 255 255 255 255 255 255 5 5 5 5 5 255 255 255 255 255 255 255 255 255 255 255 255 255 29 29 255 255 255 255 29 29 29 29 29 29 29 29 29 29 255 255 255 255 255 255 255 59 59 59 59 59 59 59 59 59 59 59 59 59 59 59 59 59 59 59 59 255 
255 1 1 1 1 1 1 1 1 1 1 1 1 1 1 1 1 1 1 1 1 1 1 1 1 255 255 255 17 17 255 255 255 63 63 63 63 63 63 63 63 63 255 255 255 255 255 255 17 255 255 255 255 255 255 255 255 255 255 255 255 255 255 70 70 70 255 255 255 255 255 255 255 70 70 70 70 70 70 70 70 70 70 70 70 255 255 255 70 255 255 255 255 255 70 255 255 255 255 255 255 255 255 255 255 255 255 255 255 255 70 70 70 70 70 70 70 70 70 70 70 70 70 70 70 70 70 70 70 70 70 70 70 70 70 70 255 255 255 255 255 70 70 255 255 255 255 255 255 255 255 255 255 255 255 255 255 255 255 255 255 70 70 70 70 70 70 70 70 70 70 70 70 70 255 255 255 255 255 255 32 255 255 255 255 56 56 56 255 255 255 255 255 70 70 70 70 70 70 70 70 70 70 70 255 255 255 70 70 70 70 70 70 255 255 255 28 28 28 28 28 28 28 28 28 28 28 28 28 28 28 255 255 255 255 255 255 255 255 255 255 7 7 7 7 7 7 7 7 7 7 7 7 7 7 7 7 7 7 7 7 7 7 7 7 7 7 7 7 7 7 7 7 7 7 7 7 7 7 7 7 255 255 255 255 255 255 28 28 28 28 28 28 28 255 255 255 28 28 28 28 28 28 28 28 28 28 28 255 255 255 255 7 7 7 7 255 255 53 53 53 53 53 53 255 255 255 255 7 7 7 7 7 7 255 255 255 255 255 255 255 30 30 30 30 30 30 30 30 255 255 255 71 71 71 71 71 71 71 71 71 71 71 71 71 71 71 71 71 71 71 71 71 71 71 71 71 71 71 71 255 255 255 255 5 255 255 255 255 255 255 255 255 64 64 64 64 64 64 64 64 64 64 64 255 255 255 255 255 255 19 19 19 19 255 255 5 5 5 5 5 5 5 5 5 5 5 5 5 5 5 5 5 5 5 5 5 5 255 255 255 255 255 255 255 255 255 255 255 255 255 255 255 255 255 255 255 255 255 255 255 255 255 255 255 255 255 255 29 29 255 255 255 255 29 29 29 29 29 29 29 29 29 29 255 255 13 255 255 255 255 59 59 59 59 59 59 59 59 59 59 59 59 59 59 59 59 59 59 59 59 255 
255 1 1 1 1 1 1 1 1 1 1 1 1 1 1 1 1 1 1 1 1 1 1 1 1 255 255 255 17 17 17 255 255 63 63 63 63 63 63 63 63 63 255 255 255 255 255 255 255 255 255 255 255 255 255 255 255 17 17 17 255 255 255 70 70 70 255 255 255 255 255 70 70 70 70 70 70 70 70 70 70 70 70 70 70 255 255 255 255 255 255 255 255 70 70 255 255 255 255 255 255 255 255 255 255 255 255 255 255 255 70 70 70 70 70 70 70 70 70 70 70 70 70 70 70 70 70 70 70 70 70 70 70 70 70 70 70 70 255 255 255 70 70 255 255 255 255 255 255 255 255 255 255 255 255 255 255 255 255 255 255 70 70 70 70 70 70 70 70 70 70 70 70 255 255 255 255 255 255 255 32 255 255 255 255 255 255 255 255 255 255 255 70 70 70 70 70 70 70 70 70 70 70 70 255 255 255 255 70 70 70 70 70 255 255 255 255 28 28 28 28 28 28 28 28 28 28 28 28 28 28 255 255 255 255 255 255 255 255 255 255 7 7 7 7 7 7 7 7 7 7 7 7 7 7 7 7 7 7 7 7 7 7 7 7 7 7 7 7 7 7 7 7 7 7 7 7 7 7 7 7 255 255 255 255 28 28 28 28 28 28 28 28 28 255 255 255 28 28 28 28 28 28 28 28 28 28 255 255 255 255 255 7 7 7 7 255 255 53 53 53 53 53 53 255 255 255 255 7 7 7 7 7 7 7 7 255 255 30 30 30 30 30 30 30 30 30 30 30 255 255 71 71 71 71 71 71 71 71 71 71 71 71 71 71 71 71 71 71 71 71 71 71 71 71 71 71 71 71 71 71 255 255 255 5 255 255 255 255 255 255 255 255 64 64 64 64 64 64 64 64 64 64 64 255 255 255 255 255 255 255 255 255 19 255 255 5 5 5 5 5 5 5 5 5 5 5 5 5 5 5 5 5 5 5 255 255 255 255 255 255 255 255 255 255 5 255 255 255 255 255 255 255 255 255 255 255 255 255 255 255 255 255 255 255 255 255 255 29 29 255 255 255 29 29 29 29 29 29 29 29 29 29 255 255 255 13 255 255 59 59 59 59 59 59 59 59 59 59 59 59 59 59 59 59 59 59 59 59 59 59 255 
255 1 1 1 1 1 1 1 1 1 1 1 1 1 1 1 1 1 1 1 1 1 1 1 1 255 255 17 17 17 17 255 255 63 63 63 63 63 63 63 63 63 63 63 255 255 255 255 255 255 255 255 255 255 255 255 255 17 17 17 255 255 255 70 70 70 255 255 255 255 255 70 255 255 255 70 70 70 70 70 70 70 70 70 70 70 70 70 255 255 255 255 255 70 70 255 255 255 255 255 255 255 255 255 255 255 70 255 255 255 255 70 70 70 70 70 70 70 70 70 70 70 70 70 70 70 70 70 70 70 70 70 70 255 255 255 255 255 255 255 255 70 255 255 255 255 255 255 255 255 255 255 70 255 255 255 255 255 255 255 255 70 70 70 70 70 70 70 70 70 70 70 70 255 255 255 32 32 32 32 255 255 255 255 255 255 255 255 255 255 255 70 70 70 70 70 70 70 70 70 70 70 70 70 255 255 255 255 70 70 70 70 70 255 255 255 255 28 28 28 28 28 28 28 28 28 28 28 28 28 28 255 255 255 255 255 255 255 255 255 255 7 7 7 7 7 7 7 7 7 7 7 7 7 7 7 7 7 7 7 7 7 7 7 7 7 7 7 7 7 7 7 7 7 7 7 7 7 7 7 7 7 255 255 255 28 28 28 28 28 28 28 28 255 255 255 28 28 28 28 28 28 28 28 28 28 28 255 255 255 255 255 7 7 7 7 255 255 53 53 53 53 53 53 255 255 255 255 255 255 255 7 7 7 7 255 255 255 30 30 30 30 30 30 30 30 30 30 30 255 255 71 71 71 71 71 71 71 71 71 71 71 71 71 71 71 71 71 71 71 71 71 71 71 71 71 71 71 71 71 71 255 255 255 255 255 255 255 255 255 255 255 255 255 64 64 64 64 64 64 64 64 64 255 255 255 255 255 255 255 255 255 255 19 255 255 5 5 5 5 5 5 5 5 5 5 5 5 5 5 5 5 5 5 5 255 255 255 255 255 255 255 255 255 255 5 5 255 255 255 255 255 255 255 255 255 255 255 255 255 255 255 255 255 255 255 255 255 29 29 29 255 255 255 29 29 29 29 29 29 29 29 29 255 255 255 13 255 255 59 59 59 59 59 59 59 59 59 59 59 59 59 59 59 59 59 59 59 59 59 59 255 
255 1 1 1 1 1 1 1 1 1 1 1 1 1 1 1 1 1 1 1 1 1 1 1 1 255 255 17 17 17 17 255 255 63 63 63 63 63 63 63 63 63 63 63 63 255 255 255 255 17 255 255 255 255 255 255 255 17 17 255 255 255 255 70 70 70 255 255 255 255 255 70 255 255 255 70 70 70 70 70 70 70 70 70 70 70 70 255 255 255 255 255 70 70 70 255 255 255 70 255 255 255 255 255 255 255 70 255 255 255 255 70 70 70 70 70 70 70 70 70 70 70 70 70 70 70 70 70 70 70 70 70 70 255 255 255 255 255 255 255 255 70 255 255 255 255 255 255 255 255 255 255 255 255 255 255 255 70 70 70 70 70 70 70 70 70 70 70 70 70 70 255 255 255 255 255 255 255 32 32 255 255 255 255 255 255 255 255 255 255 255 70 70 70 70 70 70 70 70 70 70 70 70 70 255 255 255 255 70 70 70 70 70 255 255 255 255 28 28 28 28 28 28 28 28 28 28 28 28 28 28 28 28 255 255 255 255 255 255 7 7 7 7 7 7 7 7 7 7 7 7 7 7 7 7 7 7 7 7 7 7 7 7 7 7 7 7 7 7 7 7 7 7 7 7 7 7 7 7 255 255 255 255 255 28 28 28 28 28 28 28 28 255 255 255 255 28 28 255 255 255 255 255 28 28 28 28 255 255 255 255 255 7 7 255 255 255 255 53 53 53 53 53 53 255 255 255 255 255 255 255 255 255 7 7 255 255 255 30 30 30 30 30 30 30 30 30 30 255 255 255 71 71 71 71 71 71 71 71 71 71 71 71 71 71 71 71 71 71 71 71 71 71 71 71 71 71 71 71 71 71 255 255 255 255 255 255 255 255 255 255 255 255 255 64 64 64 64 64 64 64 64 64 255 255 255 255 255 255 255 255 255 255 255 255 255 5 5 5 5 5 5 5 5 5 5 5 5 5 5 5 5 5 5 5 255 255 255 255 255 255 255 255 255 255 5 5 255 255 255 255 5 5 255 255 255 255 255 255 5 5 5 255 255 255 255 255 255 255 255 255 255 255 255 29 29 29 29 29 29 29 29 255 255 255 13 255 255 255 59 59 59 59 59 59 59 59 59 59 59 59 59 59 59 59 59 59 59 59 59 59 255 
255 1 1 1 1 1 1 1 1 1 1 1 1 1 1 1 1 1 1 1 1 1 1 1 1 255 255 17 17 17 17 255 255 63 63 63 63 63 63 63 63 63 63 63 255 255 255 255 17 17 255 255 255 255 255 255 255 17 17 255 255 255 70 70 70 70 70 70 70 70 70 255 255 255 255 70 70 70 70 255 255 255 70 70 70 70 70 255 255 255 255 70 70 70 70 255 255 255 70 255 255 255 255 255 255 255 70 255 255 255 255 255 70 70 70 70 70 70 70 70 70 70 70 70 70 70 70 70 70 70 70 70 70 255 255 255 255 255 255 255 255 255 255 255 255 255 255 255 255 255 255 255 255 255 255 255 255 70 70 70 70 70 70 70 70 70 70 70 70 255 255 255 255 255 255 255 255 255 255 255 255 255 255 255 255 255 255 255 255 255 255 70 70 70 70 70 70 70 70 70 70 70 70 70 255 255 255 255 70 70 70 70 70 255 255 255 255 28 28 28 28 28 28 28 28 28 28 28 28 28 28 28 28 28 255 255 255 255 255 7 7 7 7 7 7 7 7 7 7 7 7 7 7 7 7 7 7 7 7 7 7 7 7 7 7 7 7 7 7 7 7 7 7 7 7 7 7 7 255 255 255 255 255 255 28 28 28 28 28 28 28 28 255 255 255 255 255 255 255 255 255 255 255 255 255 28 28 255 255 255 255 255 7 7 255 255 255 255 53 53 53 53 53 53 255 255 255 255 255 255 255 255 255 255 255 255 255 30 30 30 30 30 30 30 30 30 30 30 255 255 255 71 71 71 71 71 71 71 71 71 71 71 71 71 71 71 71 71 71 71 71 71 71 71 71 71 71 71 71 71 71 255 255 255 255 5 5 255 255 255 255 255 255 255 64 64 64 64 64 64 64 64 64 255 255 255 255 255 255 255 255 255 255 255 255 255 5 5 5 5 5 5 5 5 5 5 5 5 5 5 5 255 255 255 255 255 255 255 255 255 255 255 255 255 255 5 5 255 255 255 255 5 5 255 255 255 255 255 255 255 255 255 255 255 255 255 255 255 255 255 255 255 255 255 29 29 29 29 29 29 29 29 255 255 255 13 255 255 255 59 59 59 59 59 59 59 59 59 59 59 59 59 59 59 59 59 59 59 59 59 59 255 
255 1 1 1 1 1 1 1 1 1 1 1 1 1 1 1 1 1 1 1 1 1 1 1 1 255 255 255 17 17 17 255 255 63 63 63 63 63 63 63 63 63 255 255 255 255 255 17 255 255 255 255 255 255 255 255 17 17 17 255 255 70 70 70 70 70 70 70 70 70 70 255 255 255 255 70 70 70 70 255 255 255 70 70 70 70 255 255 255 255 255 70 70 70 70 255 255 255 255 70 255 255 255 255 255 255 255 70 255 255 255 255 70 70 70 70 70 70 70 70 70 70 70 70 70 70 70 70 70 70 70 70 70 70 70 70 70 255 255 255 255 255 255 255 255 255 255 255 255 255 255 255 255 255 255 255 255 70 70 70 70 70 70 70 70 70 70 70 255 255 255 255 255 255 255 255 255 255 255 255 255 255 255 255 255 255 255 255 255 255 255 70 70 70 70 70 70 70 70 70 70 70 70 70 255 255 255 255 70 70 70 70 70 70 255 255 255 28 28 28 28 28 28 28 28 28 28 28 28 28 28 255 255 255 255 255 255 255 255 7 7 7 7 7 7 7 7 7 7 7 7 7 7 7 7 7 7 7 7 7 7 7 7 7 7 7 7 7 7 7 7 7 7 7 7 7 7 7 255 255 255 255 255 255 28 28 28 28 28 28 28 255 255 255 255 255 255 255 255 255 255 255 255 255 255 28 28 255 255 255 255 255 7 7 255 255 255 53 53 53 53 53 53 53 255 255 255 255 255 7 255 255 255 255 255 255 255 30 30 30 30 30 30 30 30 30 30 30 255 255 71 71 71 71 71 71 71 71 71 71 71 71 71 71 71 71 71 71 71 71 71 71 71 71 71 71 71 71 71 71 71 255 255 255 255 5 5 255 255 255 255 19 255 255 64 64 64 64 64 64 64 64 64 255 255 255 255 255 255 255 255 255 19 255 255 5 5 5 5 5 5 5 5 5 5 5 5 5 5 5 5 255 255 255 255 255 255 255 255 255 5 5 255 255 255 5 5 255 255 255 255 255 255 255 255 255 255 255 255 255 255 255 255 255 255 255 255 255 255 255 255 255 255 255 29 29 29 29 29 29 29 29 255 255 13 13 255 255 59 59 59 59 59 59 59 59 59 59 59 59 59 59 59 59 59 59 59 59 59 59 59 255 
255 1 1 1 1 1 1 1 1 1 1 1 1 1 1 1 1 1 1 1 1 1 1 1 1 255 255 255 17 17 17 255 255 63 63 63 63 63 63 63 255 255 255 255 255 255 255 255 255 255 255 255 255 255 255 255 17 17 255 255 255 70 70 70 70 70 70 70 70 70 255 255 255 255 255 70 70 70 70 255 255 255 70 70 70 70 255 255 255 255 255 70 70 70 70 255 255 255 255 70 255 255 255 255 255 255 255 70 255 255 255 255 70 70 70 70 70 70 70 70 70 70 70 70 70 70 70 70 70 70 70 255 255 255 70 255 255 255 255 255 255 255 255 255 255 255 255 255 255 255 255 255 255 255 255 255 255 70 70 70 70 70 70 70 70 70 70 255 255 255 255 255 255 255 255 255 255 255 255 255 255 255 255 255 255 255 255 255 255 255 255 70 70 70 70 70 70 70 70 70 70 70 70 70 255 255 255 255 70 70 70 70 70 70 255 255 28 28 28 28 28 28 28 28 28 28 28 28 28 28 28 255 255 255 255 255 255 255 255 7 7 7 7 7 7 7 7 7 7 7 7 7 7 7 7 7 7 7 7 7 7 7 7 7 7 7 7 7 7 7 7 7 7 7 7 7 7 7 255 255 255 255 255 255 28 28 28 28 28 28 28 255 255 255 255 255 255 255 255 255 255 255 255 255 255 255 28 255 255 255 255 255 7 7 7 255 255 53 53 53 53 53 53 53 255 255 255 255 255 7 255 255 255 255 255 255 30 30 30 30 30 30 30 30 30 30 30 30 255 255 71 71 71 71 71 71 71 71 71 71 71 71 71 71 71 71 71 71 71 71 71 71 71 71 71 71 71 71 71 71 71 255 255 255 255 5 5 255 255 19 19 19 255 255 64 64 64 64 64 64 64 64 64 255 255 255 255 255 255 255 255 255 19 255 255 5 5 5 5 5 5 5 5 5 5 5 5 5 5 5 5 255 255 255 255 255 255 255 255 255 5 5 255 255 255 5 5 255 255 255 255 255 255 255 255 255 255 255 255 255 255 255 255 255 255 255 255 255 255 255 255 255 255 255 29 29 29 29 29 29 29 255 255 255 13 13 255 255 59 59 59 59 59 59 59 59 59 59 59 59 59 59 59 59 59 59 59 59 59 59 59 255 
255 1 1 1 1 1 1 1 1 1 1 1 1 1 1 1 1 1 1 1 1 1 1 1 1 1 255 255 17 17 17 255 255 63 63 63 63 63 63 255 255 255 255 255 17 17 255 255 255 255 255 255 255 255 255 17 17 17 255 255 255 70 70 70 70 70 70 70 70 70 255 255 255 255 255 70 70 70 70 70 70 70 70 70 70 255 255 255 255 255 255 70 70 70 70 255 255 255 255 70 255 255 255 255 255 255 255 70 255 255 255 255 70 70 70 70 70 70 70 70 70 70 70 70 70 70 70 70 70 70 70 255 255 255 70 255 255 255 255 255 255 255 255 255 255 255 255 255 255 255 255 255 255 255 70 70 70 70 70 70 70 70 70 70 70 70 70 255 255 255 255 14 14 255 255 255 255 255 255 255 255 255 255 255 255 255 255 255 255 255 70 70 70 70 70 70 70 70 70 70 70 70 70 70 255 255 255 255 70 70 70 70 70 255 255 255 28 28 28 28 28 28 28 28 28 28 28 28 28 28 28 255 255 255 255 255 255 255 255 7 7 7 7 7 7 7 7 7 7 7 7 7 7 7 7 7 7 7 7 7 7 7 7 7 7 7 7 7 7 7 7 7 7 7 7 7 7 255 255 255 7 255 255 255 28 28 28 28 28 28 28 255 255 255 255 255 255 255 255 255 255 255 255 255 255 255 28 28 28 28 255 255 255 255 7 255 255 255 53 53 53 53 53 255 255 255 255 255 7 7 255 255 255 255 255 255 30 30 30 30 30 30 30 30 30 30 30 255 255 255 71 71 71 71 71 71 71 71 71 71 71 71 71 71 71 71 71 71 71 71 71 71 71 71 71 71 71 71 71 71 71 255 255 255 255 5 5 255 255 19 19 19 255 255 255 64 64 64 64 64 64 64 255 255 255 255 255 255 255 255 255 255 255 255 255 5 5 5 5 5 5 5 5 5 255 255 255 255 5 5 5 255 255 255 5 5 255 255 255 5 5 5 5 5 5 5 255 255 255 255 255 255 255 255 255 255 255 255 255 255 255 255 255 255 255 255 255 255 255 255 255 29 29 29 29 29 29 29 29 29 29 255 255 255 13 255 255 255 59 59 59 59 59 59 59 59 59 59 59 59 59 59 59 59 59 59 59 59 59 59 59 255 
255 1 1 1 1 1 1 1 1 1 1 1 1 1 1 1 1 1 1 1 1 1 1 1 1 1 255 255 17 17 17 255 255 63 63 63 63 63 255 255 255 255 255 17 255 255 255 255 255 255 17 255 255 255 255 17 17 17 255 255 70 70 70 70 70 70 70 70 70 255 255 255 255 255 255 70 70 70 70 70 70 70 70 70 70 255 255 255 255 255 70 70 70 70 70 255 255 255 255 70 255 255 255 255 255 255 255 70 70 255 255 255 255 70 70 70 70 70 70 70 70 70 70 70 70 70 70 70 70 70 70 255 255 255 70 255 255 255 255 255 255 255 70 70 70 70 255 255 255 255 255 255 70 70 70 70 70 70 70 70 70 70 70 70 70 70 255 255 255 255 14 14 14 14 14 14 255 255 255 255 255 255 255 255 255 255 255 255 255 255 70 70 70 70 70 70 70 70 70 70 70 70 70 70 255 255 255 255 255 255 255 70 70 255 255 255 28 28 28 28 28 28 28 28 28 28 28 28 28 28 28 255 255 255 255 255 255 255 7 7 7 7 7 7 7 7 7 7 7 7 7 7 7 7 7 7 7 7 7 7 7 7 7 7 7 7 7 7 7 7 7 7 7 7 7 7 7 255 255 255 255 255 255 255 28 28 28 28 28 28 28 255 255 255 255 255 255 255 255 255 255 255 255 255 255 255 28 28 28 28 255 255 255 255 7 255 255 255 53 53 53 53 255 255 255 255 255 255 255 255 255 255 255 255 255 255 255 255 255 30 30 30 30 30 30 30 255 255 255 255 71 71 71 71 71 71 71 71 71 71 71 71 71 71 71 71 71 71 71 71 71 71 71 71 71 71 71 71 71 71 71 71 255 255 255 255 5 255 255 255 255 255 255 255 255 64 64 64 64 64 64 64 255 255 255 255 255 255 255 255 255 255 255 255 255 5 5 5 5 5 5 5 5 5 255 255 255 255 5 5 5 255 255 255 5 5 255 255 255 5 5 5 5 5 255 255 255 255 255 255 255 255 255 255 255 255 255 255 255 255 255 255 255 255 255 255 255 255 255 255 255 255 255 255 255 29 29 29 29 29 29 255 255 13 13 255 255 255 59 59 59 59 59 59 59 59 59 59 59 59 59 59 59 59 59 59 59 59 59 59 59 255 
255 1 1 1 1 1 1 1 1 1 1 1 1 1 1 1 1 1 1 1 1 1 1 1 1 1 255 255 17 17 17 255 255 63 63 255 255 255 255 255 255 255 255 255 255 255 255 255 255 255 255 255 17 17 17 17 17 255 255 255 70 70 70 70 70 70 70 70 70 255 255 255 255 255 255 70 70 70 70 70 70 70 70 70 70 255 255 255 255 70 70 70 70 70 70 255 255 255 255 70 255 255 255 255 255 255 255 70 70 255 255 255 255 70 70 70 70 70 70 70 70 70 70 70 70 70 70 70 70 70 70 70 70 70 70 255 255 255 255 255 255 255 70 70 70 70 70 255 255 255 255 255 255 70 70 70 70 70 70 70 70 70 70 70 70 70 255 255 255 14 14 14 14 14 14 14 14 14 14 255 255 255 255 255 255 255 255 255 255 70 70 70 70 70 70 70 70 70 70 70 70 70 70 70 255 255 255 255 255 255 255 70 70 255 255 255 255 255 28 28 28 28 28 28 28 28 28 28 28 28 28 255 255 255 255 255 255 255 255 255 255 255 7 7 7 7 7 7 7 7 7 7 7 7 7 7 7 7 7 7 7 7 7 7 7 7 7 7 7 7 7 7 7 7 7 7 7 255 255 255 255 255 255 255 28 28 28 28 28 28 28 255 255 255 255 28 255 255 255 255 255 255 255 255 255 255 28 28 28 28 28 255 255 255 255 255 255 255 255 53 53 53 255 255 255 255 255 255 255 255 255 255 255 255 255 255 255 255 255 30 30 30 30 30 30 255 255 255 255 71 71 71 71 71 71 71 71 71 71 71 71 71 71 71 71 71 71 71 71 71 71 71 71 71 71 71 71 71 71 71 71 71 255 255 255 255 5 255 255 255 255 255 255 255 255 64 64 64 64 64 64 64 255 255 255 255 255 255 255 255 255 255 255 255 5 5 5 5 5 5 5 5 5 5 255 255 255 255 5 5 5 255 255 255 5 5 5 255 255 255 5 5 5 255 255 255 255 255 255 255 255 255 255 255 255 255 255 255 255 255 255 255 255 255 255 255 255 255 255 255 29 255 255 255 255 29 29 29 29 29 29 255 255 13 255 255 255 59 59 59 59 59 59 59 59 59 59 59 59 59 59 59 59 59 59 59 59 59 59 59 59 255 
255 1 1 1 1 1 1 1 1 1 1 1 1 1 1 1 1 1 1 1 1 1 1 1 1 1 255 255 17 17 17 255 255 255 255 255 255 255 255 255 255 255 255 255 255 255 255 255 255 255 255 255 17 17 17 17 17 255 255 255 70 70 70 70 70 70 255 255 255 255 255 255 255 255 70 70 70 70 70 70 70 70 70 70 255 255 255 255 255 70 70 70 70 70 70 255 255 255 255 70 70 255 255 255 255 255 255 70 70 255 255 255 255 255 70 70 70 70 70 70 70 70 70 70 70 70 70 70 70 70 70 70 70 70 70 70 70 70 70 70 70 70 70 70 70 70 70 255 255 255 255 255 255 70 70 70 70 70 70 70 70 70 70 70 70 70 255 255 255 14 14 255 255 255 14 14 14 14 14 255 255 255 255 255 255 255 255 255 70 70 70 70 70 70 70 70 70 70 70 70 70 70 70 70 255 255 255 255 255 255 255 70 70 255 255 255 255 255 28 28 28 28 28 28 28 28 28 28 28 28 28 255 255 255 255 255 255 255 255 255 255 255 7 7 7 7 7 7 7 7 7 7 7 7 7 7 7 7 7 7 7 7 7 7 7 7 7 7 7 7 7 7 7 7 7 7 7 7 255 255 255 255 255 255 28 28 28 28 28 28 28 255 255 255 255 255 255 255 255 255 255 255 255 28 28 28 28 28 28 28 28 255 255 255 255 255 255 255 255 255 53 255 255 255 7 7 255 255 255 255 255 255 255 255 255 255 255 255 255 30 30 30 30 30 30 255 255 255 71 71 71 71 71 71 71 71 71 71 71 71 71 71 71 71 71 71 71 71 71 71 71 71 71 71 71 71 71 71 71 71 71 71 255 255 255 255 5 5 255 255 255 255 255 255 255 64 64 64 64 64 64 255 255 255 255 255 255 255 255 255 255 255 255 255 5 5 5 5 5 5 5 5 5 5 5 5 5 5 5 5 5 5 5 5 255 255 255 255 255 255 5 5 5 255 255 255 255 255 255 255 255 255 255 255 255 255 255 255 255 255 255 29 29 255 255 255 255 255 255 255 255 255 255 255 255 29 29 29 29 29 255 255 255 13 255 255 255 59 59 59 59 59 59 59 59 59 59 59 59 59 59 59 59 59 59 59 59 59 59 59 59 255 
255 1 1 1 1 1 1 1 1 1 1 1 1 1 1 1 1 1 1 1 1 1 1 1 1 1 255 255 17 17 17 255 255 255 255 255 255 255 255 255 255 255 255 255 255 255 255 255 255 255 255 255 17 17 17 17 17 255 255 70 70 70 70 70 70 70 255 255 255 255 255 255 255 255 255 70 70 70 70 70 70 70 255 255 255 255 255 255 255 70 70 70 70 70 70 255 255 255 255 70 70 70 255 255 255 255 255 255 70 255 255 255 255 255 70 70 70 70 70 70 70 70 70 70 70 70 70 70 70 70 70 70 70 70 70 70 70 70 70 70 70 70 70 255 255 255 255 255 255 255 255 255 255 70 70 70 70 70 70 70 70 70 70 70 70 70 255 255 14 14 14 255 255 255 14 14 14 14 14 14 14 14 255 255 255 255 255 70 70 70 70 70 70 70 70 70 70 70 70 70 70 70 70 70 255 255 255 255 255 70 255 255 255 255 255 255 255 255 28 28 28 28 28 28 28 28 28 28 28 28 28 255 255 255 255 255 255 255 255 255 255 255 7 7 7 7 7 7 7 7 7 7 7 7 7 7 7 7 7 7 7 7 7 7 7 7 7 7 7 7 7 7 7 7 7 7 7 7 255 255 255 255 255 255 255 255 28 28 28 28 28 255 255 255 255 255 255 255 255 255 255 255 255 255 255 255 255 255 28 28 28 28 28 28 255 255 7 255 255 255 255 255 255 255 7 7 255 255 255 7 7 7 255 255 255 255 255 30 30 30 30 30 30 30 30 255 255 71 71 71 71 71 71 71 71 71 71 71 71 71 71 71 71 71 71 71 71 71 71 71 71 71 71 71 71 71 71 71 71 71 71 71 255 255 255 255 5 5 255 255 255 255 255 255 255 64 64 64 64 64 64 255 255 255 255 255 255 255 255 255 255 255 255 255 5 5 5 5 5 5 5 5 5 5 5 5 5 255 255 255 5 5 5 5 255 255 255 255 255 255 5 5 5 255 255 255 255 255 255 255 255 255 255 255 255 255 255 255 255 255 255 29 255 255 255 255 255 255 255 255 255 255 255 255 255 29 29 29 29 29 255 255 255 13 255 255 59 59 59 59 59 59 59 59 59 59 59 59 59 59 59 59 59 59 59 59 59 59 59 59 59 255 
255 1 1 1 1 1 1 1 1 1 1 1 1 1 1 1 1 1 1 1 1 1 1 1 1 1 255 255 17 17 17 17 17 255 255 255 255 255 255 255 255 76 76 255 255 255 255 255 255 255 255 255 17 17 17 255 255 255 255 70 70 70 70 70 70 70 255 255 255 255 255 255 255 255 255 70 70 70 70 70 70 70 255 255 255 255 255 255 70 70 70 70 70 70 70 255 255 255 255 255 255 255 255 255 255 255 255 255 70 70 255 255 255 255 70 70 70 70 70 70 70 70 70 70 70 70 70 70 70 70 70 70 70 70 70 70 70 70 70 70 70 70 70 255 255 255 255 255 255 70 70 70 70 70 70 70 70 70 70 70 70 70 70 70 70 255 255 255 14 14 14 255 255 255 14 14 255 255 255 255 255 255 255 255 255 255 255 70 70 70 70 70 70 70 70 70 70 70 70 70 70 70 70 70 255 255 255 255 255 70 255 255 255 255 255 255 255 28 28 28 28 28 28 28 28 28 28 28 28 28 28 28 28 28 28 255 255 255 255 255 255 255 7 7 7 7 7 7 7 7 7 7 7 7 7 7 7 7 7 7 7 7 7 7 7 7 7 7 7 7 7 7 7 7 7 7 7 7 255 255 255 7 255 255 255 255 28 28 28 28 28 28 28 28 255 255 255 255 255 255 255 255 255 255 255 255 255 255 255 255 28 28 28 28 255 255 255 255 255 255 255 255 255 7 7 7 255 255 255 7 7 255 255 255 255 255 255 30 30 30 30 30 30 30 255 255 255 71 71 71 71 71 71 71 71 71 71 71 71 71 71 71 71 71 71 71 71 71 71 71 71 71 71 71 71 71 71 71 71 71 71 71 255 255 255 255 255 5 255 255 255 255 255 255 255 64 64 64 64 64 64 255 255 255 255 255 255 255 255 255 255 255 255 5 5 5 5 5 5 5 5 5 5 5 5 5 5 255 255 255 5 5 5 5 255 255 255 255 5 255 255 255 5 5 5 255 255 255 255 255 255 255 255 255 255 255 255 255 255 255 255 255 255 255 255 255 255 255 255 255 255 255 255 255 29 29 29 29 29 255 255 255 13 13 255 255 59 59 59 59 59 59 59 59 59 59 59 59 59 59 59 59 59 59 59 59 59 59 59 59 59 255 
255 1 1 1 1 1 1 1 1 1 1 1 1 1 1 1 1 1 1 1 1 1 1 1 1 1 255 255 17 17 17 17 255 255 255 255 76 76 76 76 76 76 76 255 255 255 255 255 255 255 255 17 17 17 17 255 255 255 255 70 70 70 70 70 70 70 70 255 255 255 255 255 255 255 255 70 70 70 70 70 70 70 255 255 255 255 255 255 70 70 70 70 70 70 70 255 255 255 255 255 255 255 255 255 255 255 255 255 70 70 255 255 255 255 70 70 70 70 70 70 70 70 70 70 70 70 70 70 70 70 70 70 70 70 70 70 70 70 70 255 255 255 70 255 255 255 255 255 255 70 70 70 70 70 70 70 70 70 70 70 70 70 70 70 70 255 255 255 14 14 14 255 255 255 14 255 255 255 255 255 255 255 255 255 70 70 70 70 70 70 70 70 70 70 70 70 70 70 70 70 70 70 70 70 70 255 255 255 255 255 255 255 255 255 255 255 255 28 28 28 28 28 28 28 28 28 28 28 28 28 28 28 28 28 255 255 255 255 255 255 255 255 7 7 7 7 7 7 7 7 7 7 7 7 7 7 7 7 7 7 7 7 7 7 7 7 7 7 7 7 7 7 7 7 7 7 7 7 7 7 7 7 255 255 255 255 28 28 28 28 28 28 28 28 255 255 255 255 255 255 255 255 255 255 255 255 255 255 255 255 28 28 28 28 255 255 255 255 255 255 255 255 7 7 7 7 7 7 7 7 255 255 255 255 255 255 255 30 30 30 30 30 30 30 255 255 255 71 71 71 71 71 71 71 71 71 71 71 71 71 71 71 71 71 71 71 71 71 71 71 71 71 71 71 71 71 71 71 71 71 71 71 255 255 255 255 255 5 255 255 255 255 255 255 255 64 64 64 64 64 255 255 255 255 255 255 255 255 255 255 255 255 255 5 5 5 5 5 5 5 5 5 5 5 5 5 5 255 255 255 5 5 5 5 255 255 255 255 5 255 255 255 5 5 255 255 255 255 255 255 255 255 255 255 255 255 255 255 255 255 255 255 255 255 255 255 255 255 255 255 255 255 255 255 29 29 29 29 29 255 255 255 13 13 255 255 59 59 59 59 59 59 59 59 59 59 59 59 59 59 59 59 59 59 59 59 59 59 59 59 59 255 
255 1 1 1 1 1 1 1 1 1 1 1 1 1 1 1 1 1 1 1 1 1 1 1 1 255 255 255 17 17 17 255 255 255 255 76 76 76 76 76 76 76 76 255 255 255 255 255 255 255 255 17 17 17 17 255 255 255 70 70 70 70 70 70 70 70 70 70 70 255 255 255 255 255 255 70 70 70 70 70 70 70 255 255 255 255 255 70 70 255 255 255 255 70 70 255 255 255 255 255 255 255 255 255 255 255 255 255 255 70 255 255 255 255 255 70 70 70 70 70 70 70 255 255 255 70 70 70 70 70 70 70 70 70 70 70 70 70 70 255 255 255 255 255 255 255 255 255 255 70 70 70 70 70 70 70 70 70 70 70 70 70 70 70 255 255 255 255 14 14 14 255 255 255 14 255 255 255 255 255 255 255 255 255 70 70 70 70 70 70 70 70 70 70 70 70 70 70 70 70 70 70 70 70 255 255 255 255 255 255 70 255 255 255 255 255 255 28 28 28 28 28 28 28 28 28 28 28 28 28 28 28 28 28 255 255 255 255 255 255 255 255 7 7 7 7 7 7 7 7 7 7 7 7 7 7 7 7 7 7 7 7 7 7 7 7 7 7 7 7 7 7 7 7 7 7 7 7 7 7 7 7 7 7 255 255 255 28 28 28 28 28 28 28 28 255 255 255 255 255 255 28 255 255 255 255 255 255 255 255 28 28 28 28 255 255 255 255 255 255 255 7 7 7 7 7 7 7 7 7 255 255 255 30 30 30 30 30 30 30 30 30 30 30 255 255 71 71 71 71 71 71 71 71 71 71 71 71 71 71 71 71 71 71 71 71 71 71 71 71 71 71 71 71 71 71 71 71 71 71 71 71 71 255 255 255 255 5 255 255 255 255 255 255 255 64 64 64 64 64 255 255 255 255 255 255 255 255 255 255 255 255 5 5 5 5 5 5 5 5 5 5 5 5 5 5 5 255 255 255 5 5 5 5 5 5 5 5 255 255 255 255 5 5 255 255 255 255 255 255 255 255 255 255 255 255 255 255 255 255 255 255 255 255 29 29 255 255 255 255 255 255 255 255 29 29 29 29 29 255 255 13 13 13 255 255 59 59 59 59 59 59 59 59 59 59 59 59 59 59 59 59 59 59 59 59 59 59 59 59 59 255 
255 1 1 1 1 1 1 1 1 1 1 1 1 1 1 1 1 1 1 1 1 1 1 1 255 255 255 255 17 17 17 255 255 255 76 76 76 76 76 76 76 76 76 76 76 76 255 255 255 255 255 17 17 17 17 255 255 255 70 255 255 255 255 70 70 70 70 70 70 255 255 255 255 255 255 70 70 70 70 70 70 255 255 255 255 255 70 70 70 255 255 255 255 70 70 70 255 255 255 255 70 255 255 255 255 255 255 255 255 70 255 255 255 255 255 70 70 70 70 70 70 70 255 255 255 70 70 70 70 70 70 70 70 70 70 70 70 70 70 255 255 255 255 255 255 255 255 255 255 70 70 70 70 70 70 70 70 70 70 70 70 70 70 70 255 255 255 255 255 255 14 255 255 255 14 255 255 255 255 255 255 255 255 70 70 70 70 70 70 70 70 70 70 70 70 70 70 70 70 70 70 70 70 70 255 255 255 37 255 255 70 255 255 255 255 255 255 28 28 28 28 28 28 28 28 28 28 28 28 28 28 28 28 255 255 255 255 255 255 255 7 7 7 7 7 7 7 7 7 7 7 7 7 7 7 7 7 7 7 7 7 7 7 7 7 7 7 7 7 7 7 7 7 7 7 7 7 7 7 7 7 7 7 7 255 255 255 255 28 28 28 28 28 28 28 28 255 255 255 255 255 255 255 255 255 28 28 255 255 255 28 28 255 255 255 255 255 255 255 255 255 7 7 7 7 7 7 7 7 255 255 255 255 30 30 30 30 30 30 30 30 30 30 255 255 255 71 71 71 71 71 71 71 71 71 71 71 71 71 71 71 71 71 71 71 71 71 71 71 71 71 71 71 71 71 71 71 71 71 71 71 71 71 255 255 255 255 5 255 255 19 255 255 255 255 255 64 64 64 64 255 255 255 255 255 255 255 255 255 255 255 255 5 5 5 5 5 5 5 5 5 5 5 5 5 5 5 255 255 255 5 5 5 5 5 5 5 5 255 255 255 255 255 255 255 255 255 255 255 255 255 255 255 255 255 255 255 255 255 255 255 255 255 255 29 255 255 255 255 255 255 255 255 255 29 29 29 29 29 255 255 13 13 255 255 255 59 59 59 59 59 59 59 59 59 59 59 59 59 59 59 59 59 59 59 59 59 59 59 59 59 255 
255 1 1 1 1 1 1 1 1 1 1 1 1 1 1 1 1 1 1 1 1 1 1 1 255 255 255 255 17 17 17 255 255 255 76 76 76 76 76 76 76 76 76 76 76 76 255 255 255 255 255 17 17 17 17 255 255 255 70 255 255 255 255 70 255 255 255 70 70 255 255 255 255 255 70 70 70 70 70 70 255 255 255 255 255 255 70 70 70 255 255 255 255 70 70 70 255 255 255 255 70 255 255 255 255 255 255 255 255 255 70 255 255 255 255 70 70 70 70 70 70 70 255 255 255 255 255 255 255 255 255 70 70 70 70 70 70 70 70 70 255 255 255 255 255 255 255 70 70 70 70 70 70 70 70 70 70 70 70 70 70 70 255 255 255 255 255 255 255 255 255 255 255 255 255 14 14 255 255 255 255 255 255 70 70 70 70 70 70 70 70 70 70 70 70 70 70 70 70 70 70 70 70 70 255 255 255 255 255 255 70 70 255 255 255 255 255 28 28 28 28 28 28 28 28 28 28 28 28 28 28 28 28 255 255 255 255 255 255 255 255 255 255 255 7 7 7 7 7 7 7 7 7 7 7 7 7 7 7 7 7 7 7 7 7 7 7 7 7 7 7 7 7 7 7 7 7 7 7 7 7 7 7 7 7 255 255 255 255 28 28 28 28 28 28 28 255 255 255 255 255 255 255 255 255 28 28 28 255 255 255 255 255 255 255 255 255 255 255 255 255 7 7 7 7 7 7 7 7 255 255 255 255 30 30 30 30 30 30 30 30 30 30 255 255 255 71 71 71 71 71 71 71 71 71 71 71 71 71 71 71 71 71 71 71 71 71 71 71 71 71 71 71 71 71 71 71 71 71 71 71 71 71 255 255 255 255 5 255 255 19 255 255 255 255 255 64 64 64 255 255 255 255 255 255 255 255 255 255 255 255 255 5 5 5 5 5 5 5 5 5 5 5 5 5 5 5 5 5 5 5 5 5 5 5 5 255 255 255 255 255 255 255 255 255 255 255 255 255 255 255 255 255 255 255 255 255 255 255 255 255 255 255 29 29 255 255 255 29 29 255 255 255 255 29 29 29 29 255 255 255 13 13 255 255 255 59 59 59 59 59 59 59 59 59 59 59 59 59 59 59 59 59 59 59 59 59 59 59 59 59 255 
255 1 1 1 1 1 1 1 1 1 1 1 1 1 1 1 1 1 1 1 1 1 1 1 255 255 255 255 17 17 17 255 255 255 76 76 76 76 76 76 76 76 76 76 255 255 255 255 255 255 255 17 17 17 17 17 255 255 70 255 255 255 255 70 255 255 255 70 70 70 255 255 255 70 70 70 70 70 70 255 255 255 255 255 255 255 70 70 70 70 255 255 255 70 70 70 255 255 255 255 70 255 255 255 255 255 255 255 255 255 70 255 255 255 255 70 70 70 70 70 70 70 70 70 70 255 255 255 255 255 255 70 70 70 70 70 70 70 70 70 70 255 255 255 255 255 255 70 70 70 70 70 70 70 70 255 255 255 255 255 255 255 255 255 255 255 255 255 255 255 255 255 255 255 255 255 255 255 255 255 255 255 70 70 70 70 70 70 70 70 70 70 70 70 70 70 70 70 70 70 70 70 70 70 255 255 255 255 255 255 255 70 255 255 28 28 28 28 28 28 28 28 28 28 28 28 28 255 255 255 255 28 28 255 255 255 255 255 255 255 255 255 255 255 7 7 7 7 7 7 7 7 7 7 7 7 7 7 7 7 7 7 7 7 7 7 7 7 7 7 7 7 7 7 7 7 7 7 7 7 7 7 7 7 7 7 255 255 255 255 255 255 255 28 28 28 28 28 28 28 255 255 255 255 255 28 28 255 255 255 255 255 255 255 255 255 255 53 255 255 255 7 7 7 7 7 7 7 7 255 255 255 255 30 30 30 30 30 30 30 30 30 255 255 255 71 71 71 71 71 71 71 71 71 71 71 71 71 71 71 71 71 71 71 71 71 71 71 71 71 71 71 71 71 71 71 71 71 71 71 71 71 71 255 255 255 255 5 255 255 255 255 255 255 255 255 64 64 64 255 255 255 19 255 255 255 255 255 255 255 255 255 5 5 5 5 5 5 5 5 5 5 5 5 5 5 5 5 5 5 5 5 5 5 5 5 255 255 255 255 255 255 255 255 255 255 255 255 255 255 255 255 255 255 255 255 255 255 255 255 255 255 255 29 29 255 255 255 29 29 255 255 255 255 29 29 29 29 255 255 255 13 13 255 255 59 59 59 59 59 59 59 59 59 59 59 59 59 59 59 59 59 59 59 59 59 59 59 59 59 59 255 
255 1 1 1 1 1 1 1 1 1 1 1 1 1 1 1 1 1 1 1 1 1 1 1 1 1 255 255 17 17 17 255 255 255 76 76 76 76 76 76 76 76 76 76 255 255 255 255 255 255 17 17 17 17 17 17 255 255 70 255 255 255 255 70 255 255 255 70 70 70 70 70 70 70 70 70 70 70 70 255 255 255 255 255 255 70 70 70 70 70 255 255 255 70 70 70 255 255 255 255 255 255 255 255 255 255 255 255 255 255 255 255 255 255 255 255 70 70 70 70 70 70 70 70 70 255 255 255 255 255 255 70 70 70 70 70 70 70 70 70 70 255 255 255 255 255 70 70 70 70 70 255 255 255 70 255 255 255 255 255 255 255 255 255 255 255 255 255 255 255 38 38 255 255 255 255 255 255 255 255 70 70 70 70 70 70 70 70 70 70 70 70 70 70 70 70 70 70 70 70 70 70 70 70 255 255 255 255 255 255 255 255 255 255 28 28 28 28 28 28 28 28 28 28 28 28 28 255 255 255 255 28 28 28 28 28 255 255 255 255 255 255 255 255 7 7 7 7 7 7 7 7 7 7 7 7 7 7 7 7 7 7 7 7 7 7 7 7 7 7 7 7 7 7 7 7 7 7 7 7 7 7 7 7 7 7 7 255 255 255 255 255 255 255 255 255 255 255 255 255 255 255 255 255 255 255 255 255 255 255 255 255 255 53 53 53 53 53 255 255 255 7 7 7 7 7 7 7 7 7 255 255 255 30 30 30 30 30 30 30 30 30 255 255 255 71 71 71 71 71 71 71 71 71 71 71 71 71 71 71 71 71 71 71 71 71 71 71 71 71 71 71 71 71 71 71 71 71 71 71 71 71 71 255 255 255 255 5 255 255 255 255 255 255 255 255 255 64 64 255 255 255 255 255 255 255 255 255 255 255 255 255 5 5 5 5 5 5 5 5 5 5 5 5 5 5 5 5 5 5 5 5 5 5 5 5 255 255 255 255 255 255 255 255 255 255 255 255 255 255 255 255 255 255 255 255 255 255 255 255 255 255 255 255 255 255 255 255 29 29 29 29 29 29 29 29 29 29 255 255 13 13 13 255 255 59 59 59 59 59 59 59 59 59 59 59 59 59 59 59 59 59 59 59 59 59 59 59 59 59 59 255 
255 1 1 1 1 1 1 1 1 1 1 1 1 1 1 1 1 1 1 1 1 1 1 1 1 1 255 255 17 17 17 255 255 255 76 76 76 76 76 76 76 76 76 76 255 255 255 255 255 255 17 17 17 17 17 17 255 255 70 70 70 70 70 70 255 255 255 70 70 70 70 70 70 70 70 70 70 70 255 255 255 255 255 255 70 70 255 255 255 70 70 70 70 70 70 70 255 255 255 255 255 70 255 255 255 255 255 255 255 255 255 255 255 255 255 255 70 70 70 70 70 70 70 70 70 255 255 255 255 255 255 255 255 70 70 70 70 70 70 70 255 255 255 255 255 255 255 70 70 70 70 255 255 255 255 255 255 255 255 255 255 255 255 255 255 255 255 255 255 255 38 38 255 255 255 255 255 255 255 255 70 70 70 70 70 70 70 70 70 70 70 70 70 70 70 70 70 70 70 70 70 70 70 70 255 255 37 255 255 255 255 255 255 255 28 28 28 28 28 28 28 28 28 28 28 28 28 255 255 255 255 28 28 28 28 28 28 28 255 255 255 255 255 255 7 7 7 7 7 7 7 7 7 7 7 7 7 7 7 7 7 7 7 7 7 7 7 7 7 7 7 7 7 7 7 7 7 7 7 7 7 7 7 7 7 7 7 7 7 7 7 255 255 255 255 255 255 255 255 255 255 255 7 255 255 255 255 255 255 7 255 255 53 53 53 53 53 53 255 255 7 7 7 7 7 7 7 7 7 7 255 255 255 30 30 30 30 30 30 30 30 255 255 255 71 71 71 71 71 71 71 71 71 71 71 71 71 71 71 71 71 71 71 71 71 71 71 71 71 71 71 71 71 71 71 71 71 71 71 71 71 71 71 255 255 255 255 255 255 255 255 255 255 255 255 255 255 64 64 255 255 255 255 255 255 255 255 255 255 255 255 5 5 5 5 5 5 5 5 5 5 5 5 5 5 5 5 5 5 5 5 5 255 255 255 5 255 255 255 255 255 255 255 255 255 255 255 255 255 255 255 255 255 255 255 255 255 255 255 255 255 255 255 255 255 255 255 255 29 29 29 29 29 29 29 29 29 29 255 255 13 13 13 255 255 59 59 59 59 59 59 59 59 59 59 59 59 59 59 59 59 59 59 59 59 59 59 59 59 59 59 255 
255 1 1 1 1 1 1 1 1 1 1 1 1 1 1 1 1 1 1 1 1 1 1 1 1 1 255 255 17 17 17 17 255 255 76 76 76 76 76 76 76 76 76 76 76 76 255 255 255 255 17 17 17 17 17 17 255 255 255 70 70 70 70 70 70 70 70 70 70 70 70 70 70 70 70 70 70 255 255 255 255 255 255 70 70 70 255 255 255 70 70 70 255 255 255 70 255 255 255 255 255 70 255 255 255 255 255 255 255 255 255 255 255 255 255 255 70 70 70 70 70 70 70 70 70 255 255 255 255 255 255 255 255 70 70 70 70 70 70 70 255 255 255 70 255 255 255 70 70 70 70 255 255 255 255 255 255 255 255 255 255 255 255 255 255 255 255 255 255 255 38 255 255 255 255 255 255 255 255 70 70 70 70 70 70 70 70 70 70 70 70 70 70 70 70 70 70 70 70 70 70 70 70 70 255 255 37 255 255 255 255 255 255 255 255 28 28 28 28 28 28 28 28 28 28 28 28 28 28 28 28 28 28 28 28 28 28 28 255 255 255 255 255 7 7 7 7 7 7 7 7 7 7 7 7 7 7 7 7 7 7 7 7 7 7 7 7 7 7 7 7 7 7 7 7 7 7 7 7 7 7 7 7 7 7 7 7 7 7 7 7 7 7 255 255 255 255 255 255 255 255 7 255 255 255 255 255 255 7 7 255 255 53 53 53 53 53 53 255 255 255 7 7 7 7 7 7 7 7 255 255 255 30 30 30 30 30 30 30 30 30 255 255 255 71 71 71 71 71 71 71 71 71 71 71 71 71 71 71 71 71 71 71 71 71 71 71 71 71 71 71 71 71 71 71 71 71 71 71 71 71 71 71 71 255 255 255 255 255 255 255 255 255 255 255 255 255 64 64 255 255 255 255 255 255 255 255 5 255 255 255 5 5 5 5 5 5 5 5 5 5 5 5 5 5 5 5 5 5 5 5 5 255 255 255 5 255 255 255 255 255 255 255 255 255 255 255 255 255 5 5 255 255 255 255 255 255 255 255 255 255 255 255 255 255 255 255 255 255 29 29 29 29 29 29 29 29 29 255 255 13 13 255 255 255 59 59 59 59 59 59 59 59 59 59 59 59 59 59 59 59 59 59 59 59 59 59 59 59 59 59 255 
255 1 1 1 1 1 1 1 1 1 1 1 1 1 1 1 1 1 1 1 1 1 1 1 1 1 255 255 17 17 17 17 255 255 76 76 76 76 76 76 76 76 76 76 76 76 255 255 255 255 255 255 255 255 17 17 255 255 255 70 70 70 70 70 70 70 70 70 70 70 70 70 70 70 70 70 255 255 255 255 255 255 70 70 70 70 255 255 255 70 70 70 255 255 255 255 255 255 255 255 70 255 255 255 255 255 255 255 255 255 255 255 255 39 255 255 255 70 70 70 70 70 70 70 70 255 255 255 255 255 255 255 255 70 70 70 70 70 70 70 255 255 255 70 255 255 255 70 255 255 255 255 255 255 255 38 255 255 255 255 255 255 255 255 255 255 255 255 255 255 255 255 255 255 255 255 255 255 70 70 70 70 70 70 70 70 70 70 70 70 70 70 70 70 70 70 70 70 70 70 70 70 70 70 255 255 255 255 255 255 255 255 255 255 255 28 28 28 28 28 28 28 28 28 28 28 28 28 28 28 28 28 28 28 28 28 28 28 255 255 255 255 7 7 7 7 7 7 7 7 7 7 7 7 7 7 7 7 7 7 7 7 7 7 7 7 7 7 7 7 7 7 7 7 7 7 7 7 7 7 7 7 7 7 7 7 7 7 7 7 7 7 7 255 255 255 255 255 7 7 7 255 255 255 255 255 255 7 7 7 255 255 53 53 53 53 53 53 255 255 255 7 7 7 7 7 7 7 7 255 255 255 255 30 30 30 30 30 30 30 255 255 255 71 71 71 71 71 71 71 71 71 71 71 71 71 71 71 71 71 71 71 71 71 71 71 71 71 71 71 71 71 71 71 71 71 71 71 71 71 71 71 71 71 255 255 255 255 255 255 255 255 255 255 255 255 255 64 255 255 255 255 255 255 255 255 255 5 255 255 255 5 5 5 5 5 5 5 5 5 5 5 5 5 5 5 255 255 255 5 5 5 255 255 255 5 255 255 255 255 255 255 255 255 255 255 255 255 255 5 5 255 255 255 255 255 255 255 255 255 255 255 255 29 255 255 255 255 255 29 29 255 255 255 29 29 29 29 255 255 13 13 255 255 255 59 59 59 59 59 59 59 59 59 59 59 59 59 59 59 59 59 59 59 59 59 59 59 59 59 59 255 
255 1 1 1 1 1 1 1 1 1 1 1 1 1 1 1 1 1 1 1 1 1 1 1 1 255 255 255 17 17 17 17 255 255 76 76 76 76 76 76 76 76 76 76 76 76 255 255 255 255 255 255 255 255 17 255 255 255 255 255 70 70 70 70 70 70 70 70 70 70 70 70 70 70 70 255 255 255 255 255 255 70 70 70 70 70 70 70 70 70 70 70 255 255 255 255 255 255 255 255 255 255 255 255 255 255 255 255 255 255 255 255 255 39 255 255 255 70 70 70 70 70 70 70 70 255 255 255 255 255 255 255 255 70 70 70 70 70 70 70 255 255 255 70 70 70 255 255 255 255 255 255 255 255 255 255 255 255 255 255 255 255 255 255 255 255 255 255 255 255 255 255 255 255 255 255 255 255 70 70 70 70 70 70 70 70 70 70 70 70 70 70 70 70 70 70 70 70 70 70 70 70 70 70 255 255 255 255 255 255 255 255 255 255 255 255 28 28 28 28 28 28 28 28 28 28 28 28 28 28 28 28 28 255 255 255 255 255 255 255 255 255 7 7 7 7 7 7 7 7 7 7 7 7 7 7 7 7 7 7 7 7 7 7 7 7 7 7 7 7 7 7 7 7 7 7 7 7 7 7 7 7 7 7 7 7 7 7 7 7 7 7 7 255 255 255 7 7 7 7 7 255 255 255 53 255 255 7 7 7 255 255 53 53 53 53 53 53 53 255 255 7 7 7 7 255 255 255 255 255 255 255 255 30 30 30 30 30 30 30 255 255 255 71 71 71 71 71 71 71 71 71 71 71 71 71 71 71 71 71 71 71 71 71 71 71 71 71 71 71 71 71 71 71 71 71 71 71 71 71 71 71 71 71 255 255 255 5 255 255 255 255 255 255 255 255 255 64 255 255 255 255 255 255 255 255 255 5 255 255 255 5 5 5 5 5 5 5 5 5 5 5 5 5 5 5 255 255 255 255 255 255 255 255 255 255 255 255 255 255 255 255 255 255 255 255 255 255 255 255 255 255 255 255 255 255 255 255 255 255 255 255 255 255 255 255 255 255 255 29 29 255 255 255 29 29 29 255 255 255 13 13 255 255 59 59 59 59 59 59 59 59 59 59 59 59 59 59 59 59 59 59 59 59 59 59 59 59 59 59 59 255 
255 1 1 1 1 1 1 1 1 1 1 1 1 1 1 1 1 1 1 1 1 1 1 1 1 255 255 255 255 17 17 17 255 255 76 76 76 76 76 76 76 76 76 76 76 255 255 255 255 255 255 255 255 255 255 255 255 255 255 255 70 70 70 70 70 70 70 70 70 70 70 70 70 70 70 255 255 255 255 255 255 70 70 70 70 255 255 255 70 70 70 70 255 255 255 255 255 255 255 255 255 255 255 255 255 255 70 255 255 255 255 255 255 255 255 255 255 255 70 70 70 70 70 70 70 70 255 255 255 255 255 255 255 70 70 70 70 70 70 70 70 70 70 70 70 255 255 255 255 255 255 255 255 255 255 255 255 255 255 255 255 255 255 255 255 255 255 255 255 255 255 255 255 255 255 255 255 70 70 70 70 70 70 70 70 70 70 70 70 70 70 70 70 70 70 70 70 70 70 70 70 70 70 70 255 255 255 255 255 255 255 255 255 255 255 255 28 28 28 28 28 28 28 28 28 28 28 28 28 28 28 28 28 255 255 255 255 255 255 255 255 255 7 7 7 7 7 255 255 255 7 7 7 7 7 7 7 7 7 7 7 7 7 7 7 7 7 7 7 7 7 7 7 7 7 7 7 7 7 7 7 7 7 7 7 7 7 7 7 7 7 7 7 255 255 255 7 7 7 7 7 255 255 53 53 255 255 255 7 255 255 255 53 53 53 53 53 53 53 255 255 7 7 7 7 255 255 255 255 255 255 255 255 30 30 30 30 30 30 255 255 255 71 71 71 71 71 71 71 71 71 71 71 71 71 71 71 71 71 71 71 71 71 71 71 71 71 71 71 71 71 71 71 71 71 71 71 71 71 71 71 71 71 71 255 255 255 255 255 255 255 255 255 255 255 255 255 255 255 255 255 255 255 255 255 255 255 255 255 255 255 5 5 5 5 5 5 5 5 5 5 5 5 5 5 5 255 255 255 255 255 255 255 255 255 255 255 255 255 255 255 255 255 255 255 255 255 255 255 255 255 255 255 255 255 255 255 255 255 255 255 255 255 255 255 255 255 255 255 29 255 255 255 255 29 29 255 255 255 255 13 255 255 255 59 59 59 59 59 59 59 59 59 59 59 59 59 59 59 59 59 59 59 59 59 59 59 59 59 59 59 255 
255 1 1 1 1 1 1 1 1 1 1 1 1 1 1 1 1 1 1 1 1 1 1 1 1 255 255 255 255 17 17 17 255 255 76 76 76 76 76 76 76 76 76 255 255 255 255 255 255 255 255 17 17 17 255 255 255 255 255 255 70 70 70 70 70 70 70 70 70 70 70 70 70 70 255 255 255 255 255 70 70 70 70 70 70 255 255 255 70 70 70 70 255 255 255 255 255 255 255 255 255 255 255 255 255 255 70 255 255 255 255 255 255 255 255 255 255 255 70 70 70 70 70 70 70 70 255 255 255 255 255 255 70 70 70 70 70 70 70 70 70 70 70 70 70 255 255 255 255 255 255 255 255 255 255 255 15 255 255 255 255 255 255 255 255 255 255 255 255 255 255 255 255 255 255 255 70 70 70 70 70 70 70 70 70 70 70 70 70 70 70 70 70 70 70 70 70 70 70 70 70 70 70 70 255 255 255 255 255 255 255 255 255 255 255 255 28 28 28 28 28 28 28 28 28 28 28 28 28 28 28 28 28 255 255 255 255 255 255 255 255 255 7 7 7 7 7 255 255 255 7 7 7 7 7 7 7 7 7 7 7 7 7 7 7 7 7 7 7 7 7 7 7 7 7 7 7 7 7 7 7 7 7 7 7 7 7 7 7 7 7 7 7 255 255 255 7 7 7 7 255 255 255 53 53 255 255 255 7 255 255 255 53 53 53 53 53 53 53 255 255 7 7 7 7 255 255 255 255 255 255 255 255 30 30 30 30 30 30 255 255 255 71 71 71 71 71 71 71 71 71 71 71 71 71 71 71 71 71 71 71 71 71 71 71 71 71 71 71 71 71 71 71 71 71 71 71 71 71 71 71 71 71 71 71 255 255 255 255 255 255 255 255 255 255 255 255 255 255 255 255 255 255 255 255 255 255 255 255 255 255 5 5 5 5 5 5 5 5 5 5 5 5 5 5 5 255 255 255 255 255 255 255 255 255 255 255 255 255 255 255 255 255 255 255 255 255 255 255 255 255 255 255 255 255 255 255 255 255 255 255 255 255 255 255 255 255 255 255 255 255 255 255 255 29 29 255 255 255 13 13 255 255 255 59 59 59 59 59 59 59 59 59 59 59 59 59 59 59 59 59 59 59 59 59 59 59 59 59 59 59 255 
255 1 1 1 1 1 1 1 1 1 1 1 1 1 1 1 1 1 1 1 1 1 1 1 1 255 255 255 255 17 17 17 255 255 76 76 76 76 76 76 76 76 76 255 255 255 255 255 255 255 17 17 255 255 255 255 255 255 255 255 70 70 70 70 70 70 70 70 70 70 70 70 255 255 255 255 255 255 255 70 70 70 70 70 70 255 255 255 70 70 70 70 70 70 70 255 255 255 255 255 255 255 255 255 255 255 255 255 255 255 255 255 255 255 255 39 255 255 70 70 70 70 70 255 255 255 255 255 255 255 255 255 70 70 70 70 70 70 70 70 70 70 70 70 255 255 255 255 255 255 255 255 255 255 15 15 15 255 255 255 255 255 255 255 255 255 255 255 255 255 255 255 255 255 255 70 70 70 70 70 70 70 70 70 70 70 70 70 70 70 70 70 70 70 70 70 70 70 70 70 70 70 70 70 255 255 255 255 255 255 255 255 255 255 28 28 28 28 28 28 28 28 28 28 28 28 28 28 28 28 28 28 255 255 255 255 255 255 255 255 255 255 255 255 7 7 7 255 255 255 7 7 7 7 7 7 7 7 7 7 7 7 7 7 7 7 7 7 7 7 7 7 7 7 7 7 7 7 7 7 7 7 7 7 7 7 7 7 7 7 7 7 7 7 7 7 7 7 7 7 255 255 255 53 53 53 255 255 255 255 255 255 53 53 53 53 53 53 255 255 255 7 7 7 7 255 255 255 255 255 255 255 30 30 30 30 30 30 30 255 255 71 71 71 71 71 71 71 71 71 71 71 71 71 71 71 71 71 71 71 71 71 71 71 71 71 71 71 71 71 71 71 71 71 71 71 71 71 71 71 71 71 71 71 71 255 255 255 255 255 255 255 255 255 255 255 255 255 255 19 255 255 255 5 255 255 255 255 255 255 255 5 5 5 5 5 5 5 5 5 5 5 5 5 5 5 5 5 255 255 255 5 255 255 255 255 255 255 255 255 255 255 255 255 255 255 255 255 255 255 255 255 255 255 255 255 255 255 255 255 255 255 255 255 255 255 29 255 255 255 255 255 255 29 29 29 255 255 255 13 13 255 255 59 59 59 59 59 59 59 59 59 59 59 59 59 59 59 59 59 59 59 59 59 59 59 59 59 59 59 59 255 
255 1 1 1 1 1 1 1 1 1 1 1 1 1 1 1 1 1 1 1 1 1 1 1 1 255 255 255 17 17 17 255 255 255 76 76 76 76 76 76 76 76 76 255 255 255 76 255 255 255 255 255 255 255 255 255 255 255 255 255 70 70 70 70 70 70 70 70 70 70 255 255 255 255 255 255 255 255 255 255 70 70 70 70 70 70 70 70 70 70 70 70 70 70 70 255 255 255 255 255 255 255 255 255 255 255 255 255 255 255 255 255 255 255 255 255 255 255 255 70 70 70 70 255 255 255 255 255 255 255 255 255 70 70 70 70 70 70 70 70 70 70 70 255 255 255 255 255 255 255 255 255 255 255 15 255 255 255 255 255 255 255 255 255 255 255 255 255 255 255 255 255 255 255 255 70 70 70 70 70 70 70 70 70 70 70 70 70 70 70 70 70 70 70 70 70 70 70 70 70 70 70 70 70 70 255 255 255 255 255 255 255 255 255 28 28 28 28 28 28 28 28 28 28 28 28 28 28 28 28 28 28 255 255 255 255 255 255 255 255 255 255 255 255 7 7 7 7 7 7 255 255 255 7 7 7 7 7 7 7 7 7 7 7 7 7 7 7 7 7 7 7 7 7 7 7 7 7 7 7 7 7 7 7 7 7 7 7 7 7 7 7 7 7 7 7 7 7 7 7 255 255 53 53 53 53 255 255 255 255 255 255 53 53 53 53 53 53 255 255 255 7 7 7 7 7 7 255 255 255 255 255 30 30 30 30 30 30 255 255 255 71 71 71 71 71 71 71 71 71 71 71 71 71 71 71 71 71 71 71 71 71 71 71 71 71 71 71 71 71 71 71 71 71 71 71 71 71 71 71 71 71 71 71 71 255 255 255 255 255 255 255 255 255 255 255 255 255 255 255 255 255 255 255 255 255 255 255 5 5 5 5 5 5 5 5 5 5 5 5 5 5 5 5 5 5 5 5 255 255 255 5 255 255 255 255 255 255 255 255 255 255 5 255 255 255 255 255 255 255 29 255 255 255 255 255 255 255 255 255 255 255 255 255 255 255 29 255 255 255 29 255 255 255 29 29 29 255 255 13 13 255 255 59 59 59 59 59 59 59 59 59 59 59 59 59 59 59 59 59 59 59 59 59 59 59 59 59 59 59 59 255 
255 1 1 1 1 1 1 1 1 1 1 1 1 1 1 1 1 1 1 1 1 1 1 1 1 1 255 255 255 17 17 255 255 255 76 76 76 76 76 76 76 76 76 76 255 255 255 255 255 255 255 255 255 255 255 255 255 255 255 70 70 70 70 70 70 70 70 70 70 255 255 255 255 255 255 255 255 255 255 255 70 70 70 70 70 70 70 70 70 70 70 70 70 70 70 70 70 70 70 255 255 255 255 255 255 255 255 70 255 255 255 255 255 255 255 255 255 255 255 255 70 70 70 255 255 255 70 70 70 255 255 255 70 70 70 70 70 70 70 70 70 70 70 255 255 255 255 255 255 255 255 255 255 15 255 255 255 255 255 255 255 255 255 255 255 255 255 255 255 255 255 255 255 255 70 70 70 70 70 70 70 70 70 70 70 70 70 70 70 70 70 70 70 70 70 70 70 70 70 70 70 70 70 70 70 255 255 255 255 255 255 255 255 255 255 28 28 28 28 28 28 28 28 28 28 28 28 28 28 28 28 28 255 255 255 255 255 255 255 255 7 255 255 255 7 7 7 7 7 7 255 255 255 255 255 255 255 7 7 7 7 7 7 7 7 7 7 7 7 7 7 7 7 7 7 7 7 7 7 7 7 7 7 7 7 7 7 7 7 7 7 7 7 7 7 7 7 7 7 255 255 255 53 53 53 53 53 255 255 7 255 255 53 53 53 53 53 53 255 255 255 7 7 7 255 255 255 255 255 255 255 255 30 30 30 30 30 255 255 255 255 71 71 71 71 71 71 71 71 71 71 71 71 71 71 71 71 71 71 71 71 71 71 71 71 71 71 71 71 71 71 71 71 71 71 71 71 71 71 71 71 71 71 71 71 255 255 255 255 255 255 255 255 255 255 255 255 255 255 255 255 255 255 255 255 255 255 255 5 5 5 5 5 5 5 5 5 5 5 5 5 5 5 5 5 5 5 5 255 255 255 5 5 5 255 255 255 255 255 255 255 255 5 255 255 255 255 255 255 255 29 255 255 255 255 255 255 255 255 255 255 255 255 255 255 255 255 255 255 255 29 255 255 255 29 29 255 255 255 13 13 255 255 59 59 59 59 59 59 59 59 59 59 59 59 59 59 59 59 59 59 59 59 59 59 59 59 59 59 59 59 255 
255 1 1 1 1 1 1 1 1 1 1 1 1 1 1 1 1 1 1 1 1 1 1 1 1 1 255 255 255 17 17 255 255 255 76 76 76 76 76 76 76 76 76 76 255 255 255 255 255 255 255 255 255 255 255 255 255 255 255 70 70 70 70 70 70 70 70 70 255 255 255 255 255 255 255 255 255 255 255 255 70 70 70 70 70 70 70 70 70 70 70 70 70 70 70 70 70 70 70 70 255 255 255 255 255 255 255 70 255 255 255 255 255 255 255 255 255 255 255 255 70 70 70 255 255 255 255 70 70 70 70 70 70 70 70 70 70 70 70 70 70 70 255 255 255 255 255 255 255 255 255 15 255 255 255 255 255 255 255 255 255 255 255 255 255 255 255 255 255 255 255 255 255 70 70 70 70 70 70 70 70 70 70 70 70 70 70 70 70 70 70 70 70 70 70 70 70 70 70 70 70 70 70 70 70 255 255 255 255 255 255 255 255 255 255 28 28 28 28 28 28 28 28 28 28 28 28 28 28 28 28 28 255 255 255 255 255 255 7 255 255 255 255 7 7 7 7 7 7 7 255 255 255 255 255 255 255 7 7 7 7 7 7 7 7 7 7 7 7 7 7 7 7 7 7 7 7 7 7 7 7 7 7 7 7 7 7 7 7 7 7 7 7 7 7 7 7 7 7 255 255 255 53 53 53 53 53 255 255 7 255 255 255 53 53 53 53 53 255 255 255 7 7 7 255 255 255 255 255 255 255 30 30 30 30 30 30 255 255 255 71 71 71 71 71 71 71 71 71 71 71 71 71 71 71 71 71 71 71 71 71 71 71 71 71 71 71 71 71 71 71 71 71 71 71 71 71 71 71 71 71 71 71 71 71 255 255 255 255 255 255 255 255 255 255 255 255 255 255 255 255 255 255 255 255 255 255 255 5 5 5 5 5 5 5 5 5 5 5 5 5 5 5 5 5 5 5 5 255 255 255 255 255 255 255 255 255 255 255 255 255 255 255 255 255 255 255 255 255 255 255 29 29 29 255 255 255 255 255 255 255 255 255 255 255 255 255 255 255 29 29 255 255 255 29 29 255 255 255 13 13 255 255 59 59 59 59 59 59 59 59 59 59 59 59 59 59 59 59 59 59 59 59 59 59 59 59 59 59 59 59 255 
255 1 1 1 1 1 1 1 1 1 1 1 1 1 1 1 1 1 1 1 1 1 1 1 1 1 255 255 255 17 17 255 255 255 76 76 76 76 76 76 76 76 76 76 255 255 255 255 255 255 255 255 255 255 255 255 255 255 255 70 70 70 70 70 70 70 70 255 255 255 255 255 255 255 70 70 70 70 70 70 70 70 70 70 70 70 70 70 70 70 70 70 70 70 70 70 70 70 70 70 255 255 255 255 255 70 70 70 70 255 255 255 255 255 255 255 255 39 255 255 70 70 255 255 255 255 255 70 70 70 70 70 70 70 70 70 70 70 70 70 255 255 255 255 255 255 255 255 255 255 255 15 255 255 255 255 255 255 255 255 255 255 255 255 255 255 255 255 255 255 255 255 70 70 70 70 70 70 70 70 70 70 70 70 70 70 70 70 70 70 70 70 70 70 70 70 70 70 70 70 70 70 70 70 70 255 255 255 255 255 255 255 255 255 255 255 255 28 28 28 28 28 28 28 28 28 28 28 28 28 28 28 28 28 28 28 255 255 7 255 255 255 255 7 7 7 7 7 255 255 255 255 255 255 255 255 255 7 7 7 7 7 7 7 7 7 7 7 7 7 7 7 7 7 7 7 7 7 7 7 7 7 7 7 7 7 7 7 7 7 7 7 7 7 7 7 7 7 7 255 255 53 53 53 53 53 255 255 255 7 255 255 255 53 53 53 53 255 255 255 255 7 7 255 255 255 255 255 255 255 255 30 30 30 30 30 30 255 255 71 71 71 71 71 71 71 71 71 71 71 71 71 71 71 71 71 71 71 71 71 71 71 71 71 71 71 71 71 71 71 71 71 71 71 71 71 71 71 71 71 71 71 71 71 71 71 255 255 255 255 255 255 255 255 255 255 255 19 19 255 255 255 255 255 255 255 255 255 255 5 5 5 5 5 5 5 5 5 5 5 5 5 5 5 5 5 255 255 255 255 255 255 255 255 255 255 255 255 255 255 255 255 255 255 5 5 255 255 255 255 255 255 255 29 255 255 255 255 255 255 255 255 255 255 255 255 255 255 255 29 29 29 29 29 29 29 255 255 255 13 13 255 255 59 59 59 59 59 59 59 59 59 59 59 59 59 59 59 59 59 59 59 59 59 59 59 59 59 59 59 59 255 
255 1 1 1 1 1 1 1 1 1 1 1 1 1 1 1 1 1 1 1 1 1 1 1 1 1 255 255 17 17 17 255 255 255 76 76 76 76 76 76 76 76 76 76 76 76 255 255 255 255 255 255 255 255 255 255 255 255 255 70 70 70 70 70 70 70 255 255 255 255 255 255 255 70 70 70 70 70 70 70 70 70 70 70 70 70 70 70 70 70 70 70 70 70 70 70 70 70 70 70 255 255 255 255 255 70 70 70 255 255 255 39 255 255 255 255 255 255 255 255 255 70 255 255 255 255 255 70 70 70 70 70 70 70 70 70 70 70 255 255 255 255 255 255 255 255 255 255 255 255 255 15 255 255 255 255 255 255 255 255 255 255 255 255 255 255 255 255 255 255 255 70 70 70 70 70 70 70 70 70 70 70 70 70 70 70 70 70 70 70 70 70 70 70 70 70 70 70 70 70 70 70 70 70 70 255 255 255 255 255 255 255 255 255 255 255 255 28 28 28 28 28 28 28 28 28 28 28 28 28 28 28 28 28 28 28 255 255 255 255 255 255 255 7 7 7 7 7 255 255 255 7 7 7 255 255 255 7 7 7 7 7 7 7 7 7 7 7 7 7 7 7 7 7 7 7 7 7 7 7 7 7 7 7 7 7 7 7 7 7 7 7 7 7 7 7 7 7 7 255 255 53 53 53 53 53 255 255 255 7 255 255 255 53 53 53 53 255 255 255 255 7 7 255 255 255 255 255 255 255 30 30 30 30 30 30 255 255 255 71 71 71 71 71 71 71 71 71 71 71 71 71 71 71 71 71 71 71 71 71 71 71 71 71 71 71 71 71 71 71 71 71 71 71 71 71 71 71 71 71 71 71 71 71 71 255 255 255 255 255 255 255 255 255 255 255 255 19 19 255 255 255 255 255 255 255 255 255 255 5 5 5 5 5 5 5 5 5 5 5 5 5 255 255 255 5 255 255 255 255 255 255 255 255 255 255 255 255 255 255 255 255 255 255 255 255 255 255 255 255 255 255 255 29 255 255 255 255 255 255 255 255 255 255 255 255 255 255 255 29 29 29 29 29 29 29 255 255 255 13 13 255 255 59 59 59 59 59 59 59 59 59 59 59 59 59 59 59 59 59 59 59 59 59 59 59 59 59 59 59 59 255 
255 1 1 1 1 1 1 1 1 1 1 1 1 1 1 1 1 1 1 1 1 1 1 1 1 1 255 255 255 17 17 255 255 255 76 76 76 76 76 76 76 76 76 76 76 76 255 255 255 255 255 255 255 255 255 255 17 255 255 70 70 70 70 70 70 255 255 255 255 36 255 255 255 70 70 70 70 70 70 70 70 70 70 70 70 70 70 70 70 70 70 70 70 70 70 70 70 70 70 70 70 255 255 255 255 70 70 70 255 255 255 39 255 255 255 255 255 255 255 255 255 255 255 255 255 255 255 70 70 70 70 70 70 255 255 255 70 255 255 255 255 255 255 255 255 255 255 255 255 15 15 255 255 255 255 255 255 255 255 255 255 255 255 255 255 255 255 255 255 255 70 70 70 70 70 70 70 70 70 70 70 70 70 70 70 70 70 70 70 70 70 70 70 70 70 70 70 70 70 70 70 70 70 70 70 255 255 255 255 255 255 255 255 255 255 255 255 28 28 28 28 28 28 28 28 28 28 28 28 28 28 28 28 28 28 28 255 255 255 255 255 255 255 7 7 7 7 7 255 255 255 7 255 255 255 255 255 7 7 255 255 255 7 7 7 7 7 7 7 7 7 7 7 7 7 7 7 7 7 7 7 7 7 7 7 7 7 7 7 7 7 7 7 7 7 7 7 7 7 255 255 53 53 53 53 53 255 255 255 255 255 255 53 53 53 53 53 255 255 255 255 255 255 255 255 30 255 255 255 255 30 30 30 30 30 255 255 255 255 71 71 71 71 71 71 71 71 71 71 71 71 71 71 71 71 71 71 71 71 71 71 71 71 71 71 71 71 71 71 71 71 71 71 71 71 71 71 71 71 71 71 71 71 71 71 255 255 255 255 255 255 255 255 255 255 255 255 19 255 255 255 255 255 255 255 5 255 255 255 5 5 5 5 5 5 5 5 5 5 255 255 255 255 255 255 5 255 255 255 5 255 255 255 255 255 255 255 255 255 255 255 255 255 255 255 255 255 255 255 255 255 255 255 29 255 255 255 255 255 255 255 255 255 255 255 255 255 255 255 29 29 29 29 29 29 29 255 255 255 13 13 255 255 59 59 59 59 59 59 59 59 59 59 59 59 59 59 59 59 59 59 59 59 59 59 59 59 59 59 59 59 255 
255 1 1 1 1 1 1 1 1 1 1 1 1 1 1 1 1 1 1 1 1 1 1 1 1 1 255 255 255 17 17 255 255 255 76 76 76 76 76 76 76 76 76 76 76 255 255 255 255 255 255 255 255 255 255 255 17 255 255 70 70 70 70 70 255 255 255 255 36 36 255 255 70 70 70 70 70 70 70 70 70 70 70 70 70 70 70 70 70 70 70 70 70 70 70 70 70 70 70 70 70 70 255 255 255 255 70 70 255 255 255 255 39 255 255 255 255 255 255 255 255 255 255 255 255 255 255 70 70 70 70 70 70 255 255 255 255 255 255 255 255 255 255 255 255 255 255 255 255 15 255 255 255 255 255 255 255 255 255 255 77 77 255 255 255 255 255 255 255 255 70 70 70 70 70 70 70 70 70 70 70 70 70 70 70 70 70 70 70 70 70 70 70 70 70 70 70 70 70 70 70 70 70 70 70 255 255 255 255 255 255 255 255 255 255 255 28 28 28 28 28 28 28 28 28 28 28 28 28 28 28 28 28 28 28 28 255 255 255 255 255 255 255 7 7 7 7 7 7 7 7 7 255 255 255 255 255 7 7 255 255 255 7 7 7 7 7 7 7 7 7 7 255 255 255 7 7 7 7 7 7 7 7 7 7 7 7 7 7 7 7 7 7 7 7 7 7 7 7 255 255 255 53 53 53 53 255 255 255 255 255 255 53 255 255 255 255 255 255 255 255 255 255 255 255 30 255 255 255 255 30 30 30 30 30 255 255 255 71 71 71 71 71 71 71 71 71 71 71 71 71 71 71 71 71 71 71 71 71 71 71 71 71 71 71 71 71 71 71 71 71 71 71 71 71 71 71 71 71 71 71 71 71 71 71 255 255 255 255 255 255 255 255 255 255 255 255 19 255 255 255 255 255 255 255 255 255 255 255 5 5 5 5 5 5 5 5 5 5 255 255 255 255 255 255 5 255 255 255 255 255 255 255 255 255 255 255 5 255 255 255 255 255 255 255 255 255 255 255 255 255 255 255 29 255 255 255 255 255 255 255 255 255 255 255 255 29 29 29 29 29 29 29 29 29 29 255 255 255 13 13 255 255 59 59 59 59 59 59 59 59 59 59 59 59 59 59 59 59 59 59 59 59 59 59 59 59 59 59 59 59 255 
255 1 1 1 1 1 1 1 1 1 1 1 1 1 1 1 1 1 1 1 1 1 1 1 1 1 1 255 255 17 17 17 255 255 76 76 76 76 76 76 76 76 76 76 255 255 255 255 255 255 255 255 255 255 255 17 17 255 255 70 70 70 70 255 255 255 255 255 36 255 255 255 70 70 70 70 70 70 70 70 70 70 70 70 70 70 70 70 70 70 70 70 70 70 70 70 70 70 70 70 70 70 255 255 255 255 255 70 70 255 255 255 255 255 255 255 255 255 255 255 255 255 255 255 255 255 255 70 70 70 70 70 70 255 255 255 255 255 255 255 255 255 255 255 255 255 255 15 15 255 255 255 255 255 255 255 255 255 255 255 77 255 255 255 255 255 255 255 255 70 70 70 70 70 70 70 70 70 70 70 70 70 70 70 70 70 70 70 70 70 70 70 70 70 70 70 70 70 70 70 70 70 70 70 70 255 255 255 255 255 255 255 255 255 255 255 28 28 28 28 28 28 28 28 28 28 28 28 28 28 28 28 28 255 255 255 255 255 255 255 255 255 255 255 255 255 255 255 255 255 7 255 255 255 255 255 255 255 255 255 255 255 7 7 7 7 255 255 255 7 7 7 255 255 255 255 255 255 7 7 7 7 7 7 7 7 7 7 7 7 7 7 7 7 7 7 7 7 7 255 255 255 255 255 255 255 255 53 53 53 255 255 255 255 255 255 255 255 255 255 255 255 255 255 30 30 30 30 30 30 30 30 30 30 30 255 255 71 71 71 71 71 71 71 71 71 71 71 71 71 71 71 71 71 71 71 71 71 71 71 71 71 71 71 71 71 71 71 71 71 71 71 71 71 71 71 71 71 71 71 71 71 71 71 71 255 255 255 255 5 255 255 255 255 255 255 255 19 255 255 255 255 255 255 255 255 255 255 255 5 5 5 5 5 5 5 255 255 255 255 255 255 5 5 5 5 255 255 255 255 255 255 255 255 255 255 255 255 5 255 255 255 255 255 255 255 255 255 255 255 255 255 255 255 255 255 255 255 255 255 255 255 255 255 255 255 29 29 29 29 29 29 29 29 29 29 255 255 255 13 255 255 255 59 59 59 59 59 59 59 59 59 59 59 59 59 59 59 59 59 59 59 59 59 59 59 59 59 59 59 59 255 
255 1 1 1 1 1 1 1 1 1 1 1 1 1 1 1 1 1 1 1 1 1 1 1 1 1 255 255 255 17 17 17 255 255 76 76 76 76 76 76 76 76 76 255 255 255 255 255 255 255 255 255 255 255 17 17 17 255 255 70 70 70 70 255 255 255 255 255 255 255 255 255 70 70 70 70 70 70 70 70 70 70 70 70 70 70 70 70 70 70 70 70 70 70 70 70 70 70 70 70 70 70 70 255 255 255 255 255 70 70 255 255 255 255 255 255 255 255 255 255 255 255 255 255 255 255 70 70 70 70 70 70 70 255 255 255 255 255 255 255 255 255 255 255 255 255 255 15 255 255 255 255 255 255 255 255 255 255 255 255 255 255 255 255 255 255 255 255 70 70 70 70 70 70 70 70 70 70 70 70 70 70 70 70 70 70 70 70 70 70 70 70 70 70 70 70 70 70 70 70 70 70 70 70 70 255 255 255 255 255 255 255 255 255 255 255 255 28 28 28 28 28 28 28 28 28 28 28 28 28 28 28 28 255 255 255 255 255 255 255 255 255 255 255 255 255 255 255 255 255 7 255 255 255 255 255 255 255 255 255 255 255 255 7 7 7 255 255 255 255 255 7 255 255 255 255 255 255 255 7 7 7 7 7 7 7 7 7 7 7 7 7 7 7 7 7 7 7 7 7 255 255 255 255 255 255 255 255 255 255 255 255 255 255 255 7 7 255 255 255 255 255 255 255 30 30 30 30 30 30 30 30 30 30 255 255 255 71 71 71 71 71 71 71 71 71 71 71 71 71 71 71 71 71 71 71 71 71 71 71 71 71 71 71 71 71 71 71 71 71 71 71 71 71 71 71 71 71 71 71 71 71 71 71 71 71 255 255 255 5 255 255 255 255 255 255 255 255 255 255 255 255 255 255 255 255 255 255 255 5 5 5 5 5 5 5 255 255 255 5 5 5 255 255 255 5 255 255 255 255 255 255 255 255 255 255 255 255 255 255 255 255 255 255 255 255 255 255 255 255 255 255 255 255 255 255 255 255 255 255 255 255 255 255 29 29 29 29 29 29 29 29 29 29 29 29 255 255 255 13 255 255 255 59 59 59 59 59 59 59 59 59 59 59 59 59 59 59 59 59 59 59 59 59 59 59 59 59 59 59 59 255 
255 1 1 1 1 1 1 1 1 1 1 1 1 1 1 1 1 1 1 1 1 1 1 1 1 1 255 255 255 17 17 17 255 255 76 76 76 76 76 76 76 76 76 255 255 255 255 255 255 255 255 255 255 255 17 17 17 255 255 70 70 70 70 255 255 255 255 255 255 255 255 70 70 70 70 70 70 70 70 70 70 70 70 70 70 70 70 70 70 70 70 70 70 70 70 70 70 70 70 70 70 70 70 70 255 255 255 255 70 70 70 255 255 255 255 255 255 255 255 255 255 255 255 255 255 255 70 70 70 70 70 255 255 255 255 255 255 255 255 255 255 255 255 255 255 255 255 255 255 255 255 255 255 255 255 255 255 255 255 255 255 255 255 255 255 255 255 70 70 70 70 70 70 70 70 255 255 255 70 70 70 70 70 70 70 70 70 70 70 70 70 70 70 70 70 70 70 70 70 70 70 70 70 70 70 70 70 70 70 255 255 255 255 255 255 255 255 28 28 28 28 28 28 28 28 28 28 28 28 28 28 28 28 255 255 255 255 255 255 255 255 255 255 255 255 255 255 255 255 255 7 255 255 255 255 255 255 255 255 255 255 255 255 255 255 255 255 255 255 255 255 255 255 255 255 255 255 255 255 7 7 7 7 7 7 7 7 7 7 7 7 7 7 7 7 255 255 255 255 255 255 255 255 7 7 255 255 255 255 255 255 255 7 7 7 7 7 7 7 7 7 255 255 255 30 30 30 30 30 30 30 30 30 30 255 255 255 71 71 71 71 71 71 71 71 71 71 71 71 71 71 71 71 71 71 71 71 71 71 71 71 71 71 71 71 71 71 71 71 71 71 71 71 71 71 71 71 71 71 71 71 71 71 71 71 71 255 255 255 5 255 255 255 255 255 255 255 255 255 255 255 255 255 255 5 5 255 255 255 5 5 5 5 5 5 5 255 255 255 5 5 5 255 255 255 5 255 255 255 255 255 255 255 255 255 255 255 255 255 255 255 255 255 255 255 255 255 255 255 255 29 255 255 255 255 255 255 255 255 255 255 255 255 255 29 29 29 29 29 29 29 29 29 29 29 29 255 255 13 13 255 255 59 59 59 59 59 59 59 59 59 59 59 59 59 59 59 59 59 59 59 59 59 59 59 59 59 59 59 59 59 255 
255 1 1 1 1 1 1 1 1 1 1 1 1 1 1 1 1 1 1 1 1 1 1 1 1 1 255 255 255 17 17 17 255 255 76 76 76 76 76 76 76 76 255 255 255 255 255 255 255 255 255 255 255 255 17 17 255 255 255 70 70 70 70 70 70 255 255 255 255 255 70 70 70 70 70 70 70 70 70 70 70 70 70 70 70 70 70 70 70 255 255 255 70 70 70 70 70 70 70 70 70 70 70 70 255 255 255 255 255 70 70 70 255 255 255 255 255 255 255 255 255 255 255 255 255 70 70 70 70 70 70 255 255 255 255 255 255 255 255 255 255 255 255 255 255 255 255 255 255 255 255 255 255 255 255 255 255 255 255 255 255 255 255 255 255 255 255 70 70 70 70 70 70 255 255 255 255 255 70 70 70 70 70 70 70 70 70 70 70 70 70 70 70 70 70 70 70 70 70 70 70 70 70 70 70 70 70 70 70 255 255 255 255 255 255 255 255 255 255 28 28 28 28 28 28 28 28 28 255 255 255 28 28 28 28 28 255 255 255 255 255 255 255 255 255 255 255 255 255 255 7 255 255 255 255 255 255 255 255 255 255 255 255 255 255 255 255 255 255 255 255 255 255 255 255 255 255 255 255 255 255 255 7 255 255 255 7 255 255 255 255 255 255 255 255 255 255 255 255 255 255 255 255 7 7 7 7 7 7 7 7 255 255 255 255 255 255 7 255 255 255 255 255 30 30 30 30 30 30 30 30 30 30 255 255 255 71 71 71 71 71 71 71 71 71 71 71 71 71 71 71 71 71 71 71 71 71 71 71 71 71 71 71 71 71 71 71 71 71 71 71 71 71 71 71 71 71 71 71 71 71 71 71 71 71 71 255 255 255 5 255 255 255 255 255 255 255 255 255 255 255 255 255 255 255 255 255 255 255 5 5 5 5 5 5 5 5 5 5 5 5 5 255 255 255 255 255 5 255 255 255 255 255 255 255 255 5 255 255 255 255 255 255 255 255 255 255 255 255 255 255 255 255 255 255 255 255 255 255 255 255 255 255 255 255 255 255 29 29 29 29 29 29 29 29 29 255 255 13 13 255 255 59 59 59 59 59 59 59 59 59 59 59 59 59 59 59 59 59 59 59 59 59 59 59 59 59 59 59 59 59 255 
255 1 1 1 1 1 1 1 1 1 1 1 1 1 1 1 1 1 1 1 1 1 1 1 1 1 255 255 255 17 17 17 255 255 76 76 76 76 76 76 76 255 255 255 255 255 255 255 255 255 255 255 255 255 17 17 255 255 255 70 70 70 70 70 70 255 255 255 255 255 255 70 70 70 70 70 70 70 70 70 70 70 70 70 70 70 70 70 70 255 255 255 255 70 70 70 70 70 70 70 70 70 70 70 70 255 255 255 255 255 70 70 70 255 255 255 255 255 255 255 255 255 255 255 255 255 70 70 70 70 255 255 255 255 255 255 255 255 255 255 255 255 255 255 255 255 60 255 255 255 255 255 255 255 255 255 255 255 255 255 255 255 255 255 255 255 70 70 70 70 70 70 70 255 255 255 255 255 70 70 70 70 70 70 70 70 70 70 70 70 70 70 70 70 70 70 70 70 70 70 70 70 70 70 70 70 70 70 70 255 255 255 255 255 255 255 255 255 255 28 28 28 28 28 28 28 28 28 255 255 255 28 28 28 28 28 255 255 255 255 255 255 255 255 255 255 255 255 255 7 7 7 255 255 255 255 255 255 255 255 255 255 255 255 255 30 30 30 30 255 255 255 255 255 255 255 255 255 255 255 255 255 255 255 255 255 255 255 255 255 255 255 255 255 255 255 255 30 30 30 30 255 255 255 255 255 255 255 255 255 255 255 255 255 255 255 255 255 255 255 255 255 255 255 255 30 30 30 30 30 30 30 255 255 255 255 71 71 71 71 71 71 71 71 71 71 71 71 71 71 71 71 71 71 71 71 71 71 71 71 71 71 71 71 71 71 71 71 71 71 71 71 71 71 71 71 71 71 71 71 71 71 71 71 71 71 255 255 255 5 255 255 255 255 255 255 255 255 255 255 255 5 5 5 255 255 255 255 255 5 5 5 5 5 5 5 5 5 5 5 5 5 5 255 255 255 255 5 5 5 5 255 255 255 255 255 5 255 255 255 255 255 255 255 255 255 255 255 255 255 255 255 255 255 255 255 255 255 255 255 255 255 255 255 255 255 255 255 29 29 29 29 29 29 29 29 255 255 13 255 255 255 59 59 59 59 59 59 59 59 59 59 59 59 59 59 59 59 59 59 59 59 59 59 59 59 59 59 59 59 59 255 
255 1 1 1 1 1 1 1 1 1 1 1 1 1 1 1 1 1 1 1 1 1 1 1 1 1 255 255 255 17 17 17 255 255 76 76 76 76 76 76 76 255 255 255 255 255 255 255 70 70 255 255 255 255 17 17 255 255 70 70 70 70 70 70 70 255 255 255 255 255 255 70 70 70 70 70 70 70 70 70 70 70 70 70 70 70 70 70 70 255 255 255 255 70 70 70 70 70 70 70 70 70 70 70 70 70 255 255 255 255 255 70 70 70 255 255 255 255 255 255 255 255 255 255 255 255 255 70 70 255 255 255 255 255 255 255 255 255 255 255 60 60 255 255 255 60 60 255 255 255 255 255 255 255 255 255 255 255 255 255 255 255 255 255 255 255 70 70 70 70 70 70 70 255 255 255 255 255 70 70 70 70 70 70 70 70 70 70 70 70 70 70 70 70 70 70 70 70 70 70 70 70 70 70 70 255 255 255 255 70 255 255 255 255 70 255 255 255 255 28 28 28 28 28 28 28 28 28 255 255 255 28 28 28 28 28 255 255 255 255 255 255 255 255 255 255 255 255 255 255 7 7 255 255 255 255 255 255 255 255 255 255 255 255 30 30 30 30 30 30 30 30 30 30 255 255 255 255 255 255 255 255 255 255 255 255 255 255 255 30 30 30 30 30 30 30 30 30 30 30 30 255 255 255 255 255 255 255 255 255 255 255 255 30 30 255 255 255 255 255 255 255 255 255 255 30 30 30 255 255 255 30 255 255 255 71 71 71 71 71 71 71 71 71 71 71 71 71 71 71 71 71 71 71 71 71 71 71 71 71 71 71 71 71 71 71 71 71 71 71 71 71 71 71 71 71 71 71 71 71 71 71 71 71 71 71 255 255 255 255 255 255 255 255 255 255 19 255 255 255 255 255 5 5 255 255 255 255 5 5 5 5 5 5 5 5 5 5 5 5 5 5 5 255 255 255 255 255 255 5 5 255 255 255 255 255 255 5 5 255 255 255 255 255 255 255 255 255 255 255 255 255 255 255 255 255 255 255 255 255 255 255 255 255 255 255 255 255 29 29 29 29 29 29 29 29 255 255 13 255 255 255 59 59 59 59 59 59 59 59 59 59 59 59 59 59 59 59 59 59 59 59 59 59 59 59 59 59 59 59 59 255 
255 1 1 1 1 1 1 1 1 1 1 1 1 1 1 1 1 1 1 1 1 1 1 1 1 1 255 255 255 17 17 17 255 255 255 76 76 76 76 76 255 255 255 255 255 255 255 255 255 255 255 255 255 255 17 17 255 255 70 70 70 70 70 70 70 255 255 255 255 255 255 70 70 70 70 70 70 70 70 70 70 70 70 70 70 70 70 70 70 70 255 255 255 255 70 255 255 255 70 70 70 70 70 70 70 70 255 255 255 255 255 255 70 70 70 70 255 255 255 255 255 39 255 255 255 255 255 255 70 255 255 255 255 255 255 255 255 255 255 255 255 60 60 60 60 60 255 255 255 255 255 255 255 255 255 255 255 255 255 255 255 255 255 255 255 70 70 70 70 70 70 70 70 255 255 255 255 255 70 70 70 70 70 70 70 70 70 70 70 70 70 70 70 70 70 70 70 70 70 70 70 70 70 70 70 255 255 255 255 70 255 255 255 255 70 255 255 255 255 28 28 28 28 28 28 28 28 28 28 255 255 255 255 255 255 28 28 28 28 255 255 255 255 255 28 255 255 255 255 255 7 7 255 255 255 255 255 7 255 255 255 255 30 255 255 255 255 255 255 255 30 30 30 30 30 30 30 30 30 30 30 30 30 30 30 30 30 30 30 30 30 30 30 30 30 30 30 30 30 30 30 30 30 30 30 30 30 255 255 255 255 255 255 255 255 255 255 255 255 255 255 255 255 255 255 30 30 30 255 255 255 30 255 255 71 71 71 71 71 71 71 71 71 71 71 71 71 71 71 71 71 71 71 71 71 71 71 71 71 71 71 71 71 71 71 71 71 71 71 71 71 71 71 71 71 71 71 71 71 71 71 71 71 71 71 71 255 255 255 255 255 255 255 255 255 255 19 255 255 255 255 255 5 5 255 255 255 255 5 5 5 5 5 5 5 5 255 255 255 5 5 5 5 5 5 5 255 255 255 5 5 255 255 255 255 255 255 255 255 255 255 255 255 255 255 255 255 255 255 255 255 255 255 255 255 255 255 255 255 255 255 255 255 255 255 255 255 255 29 29 29 29 29 29 29 29 255 255 13 255 255 255 59 59 59 59 59 59 59 59 59 59 59 59 59 59 59 59 59 59 59 59 59 59 59 59 59 59 59 59 59 255 
255 1 1 1 1 1 1 1 1 1 1 1 1 1 1 1 1 1 1 1 1 1 1 1 1 1 255 255 255 17 17 255 255 255 255 76 76 76 76 76 255 255 255 255 255 255 70 255 255 255 255 255 255 255 255 255 255 255 70 70 70 70 70 70 70 70 255 255 255 255 255 70 70 70 70 70 70 70 70 70 70 70 70 70 70 70 70 70 70 70 255 255 255 255 70 255 255 255 70 70 70 70 70 70 70 70 70 255 255 255 255 255 255 70 70 70 255 255 255 255 255 39 255 255 255 255 255 255 255 255 255 255 255 255 255 255 255 255 255 255 255 255 60 60 60 60 255 255 255 255 255 255 255 255 255 255 255 255 255 255 255 255 255 255 70 70 70 70 70 70 70 70 70 70 70 70 70 70 70 70 70 70 70 70 70 70 70 70 70 70 70 70 70 70 70 70 70 70 70 70 70 70 70 70 70 255 255 255 255 70 255 255 255 70 70 255 255 255 255 28 28 28 28 28 28 28 28 28 28 255 255 255 255 255 255 28 28 28 28 28 28 255 255 255 255 255 255 255 255 255 7 7 7 7 7 255 255 255 255 255 255 255 30 255 255 255 255 255 255 255 255 255 255 255 30 30 30 30 30 30 30 30 30 30 30 30 30 255 255 255 255 255 255 255 255 255 255 255 255 255 255 30 30 30 30 30 30 30 30 30 255 255 255 255 255 255 255 255 255 255 255 255 255 30 30 30 30 30 255 255 255 255 255 255 71 71 71 71 71 71 71 71 71 71 71 71 71 71 71 71 71 71 71 71 71 71 71 71 71 71 71 71 71 71 71 71 71 71 71 71 71 71 71 71 71 71 71 71 71 71 71 71 71 71 71 71 71 255 255 255 255 255 255 255 255 255 19 255 255 255 255 255 5 5 5 255 255 255 5 5 5 5 5 5 5 5 255 255 255 5 5 5 5 5 5 5 255 255 255 255 255 5 5 255 255 255 255 255 255 255 255 255 255 255 255 255 255 255 255 255 255 255 255 255 255 255 255 255 255 255 255 255 255 255 255 255 255 255 29 29 29 29 29 29 29 29 255 255 13 255 255 255 59 59 59 59 59 59 59 59 59 59 59 59 59 59 59 59 59 59 59 59 59 59 59 59 59 59 59 59 59 255 
255 1 1 1 1 1 1 1 1 1 1 1 1 1 1 1 1 1 1 1 1 1 1 1 1 1 255 255 255 17 17 255 255 255 255 76 76 76 255 255 255 255 255 255 255 255 70 255 255 255 255 255 255 255 255 255 255 255 70 70 70 70 70 70 70 70 70 255 255 255 255 70 70 70 70 70 70 70 70 70 70 70 70 70 70 70 70 70 70 255 255 255 255 255 255 255 255 255 70 70 70 70 70 70 70 70 70 70 255 255 255 255 255 255 70 255 255 255 255 255 255 255 255 255 255 255 255 255 255 255 255 255 255 255 255 255 255 255 255 255 255 255 60 60 255 255 255 255 255 255 255 255 255 255 255 255 255 255 255 255 255 255 255 70 70 70 70 70 70 70 70 70 70 70 70 70 70 70 70 70 70 70 70 70 70 70 70 70 70 70 70 70 70 70 70 70 70 70 70 70 70 70 70 70 70 70 255 255 255 70 255 255 255 255 70 255 255 255 255 28 28 28 28 28 28 28 28 28 28 255 255 255 255 255 255 28 28 28 28 28 28 255 255 255 255 255 255 255 255 255 255 255 255 7 7 255 255 255 255 255 255 30 30 255 255 255 255 255 255 255 255 255 255 255 255 255 255 255 255 255 255 255 255 255 255 255 255 255 255 255 255 255 255 255 255 255 255 255 255 255 255 255 255 30 30 30 30 30 30 30 255 255 255 255 255 255 255 255 255 255 255 30 30 30 30 30 30 30 30 30 30 255 255 255 71 71 71 71 71 71 71 71 71 71 71 71 71 71 71 71 71 71 71 71 71 71 71 71 71 71 71 71 71 71 71 71 71 71 71 71 71 71 71 71 71 71 71 71 71 71 71 71 71 71 71 71 71 255 255 255 5 255 255 255 255 255 255 255 255 255 255 255 5 5 5 255 255 255 5 5 5 5 5 5 5 5 255 255 255 5 5 5 5 5 5 5 5 5 255 255 255 5 5 255 255 255 255 255 255 255 255 255 255 255 255 255 255 255 255 255 255 255 255 255 255 255 255 255 255 255 255 255 255 255 255 255 255 255 29 29 29 29 29 29 29 255 255 255 13 255 255 255 59 59 59 59 59 59 59 59 59 59 59 59 59 59 59 59 59 59 59 59 59 59 59 59 59 59 59 59 59 255 
255 1 1 1 1 1 1 1 1 1 1 1 1 1 1 1 1 1 1 1 1 1 1 1 1 1 255 255 255 17 17 255 255 255 255 76 76 76 255 255 255 255 255 255 255 255 70 70 255 255 255 255 255 255 255 255 255 255 70 70 70 70 70 70 70 70 70 70 255 255 255 70 70 70 70 70 70 70 70 70 70 70 70 70 70 70 70 70 70 255 255 255 255 255 255 255 255 255 255 255 255 255 255 70 70 70 70 70 70 255 255 255 255 255 255 255 255 255 70 255 255 255 255 255 255 255 255 255 255 255 255 255 255 255 255 255 255 255 255 255 255 255 60 60 255 255 255 255 255 255 255 255 255 255 255 255 255 255 255 255 255 255 255 70 70 70 70 70 70 70 70 70 70 70 70 70 70 70 70 70 70 70 70 70 70 70 70 70 70 70 70 70 70 70 70 70 70 70 70 70 70 70 70 70 70 70 255 255 255 70 255 255 255 255 70 70 255 255 255 28 28 28 28 28 28 28 28 28 255 255 255 255 255 255 255 28 28 28 28 28 28 255 255 255 255 255 255 255 255 255 255 255 255 7 7 255 255 255 255 255 255 255 30 255 255 255 255 255 255 255 255 255 255 255 255 255 255 255 255 255 255 255 255 255 255 255 255 255 255 255 255 255 255 255 255 255 255 255 255 255 255 255 255 30 30 30 30 255 255 255 255 255 255 255 255 255 255 255 255 255 255 30 30 30 30 30 30 30 30 30 255 255 255 71 71 71 71 71 71 71 71 71 71 71 71 71 71 71 71 71 71 71 71 71 71 71 71 71 71 71 71 71 71 71 71 71 71 71 71 71 71 71 71 71 71 71 71 71 71 71 71 71 71 71 71 71 71 255 255 255 5 255 255 255 255 255 255 255 255 255 255 255 5 5 5 255 255 255 5 5 5 5 5 5 5 5 5 5 5 5 5 5 5 5 5 5 5 5 255 255 255 5 5 255 255 255 255 255 255 255 255 255 255 255 255 255 255 255 255 255 255 255 255 255 255 255 255 255 255 255 255 255 255 255 255 29 29 29 29 29 29 29 29 29 29 255 255 255 13 255 255 255 59 59 59 59 59 59 59 59 59 59 59 59 59 59 59 59 59 59 59 59 59 59 59 59 59 59 59 59 59 255 
255 1 1 1 1 1 1 1 1 1 1 1 1 1 1 1 1 1 1 1 1 1 1 1 1 1 255 255 255 17 17 17 255 255 255 76 76 255 255 255 255 255 255 255 255 255 70 70 255 255 255 255 255 255 255 255 255 255 70 70 70 70 70 70 70 70 70 70 70 70 70 70 70 70 70 70 70 70 70 70 70 70 70 70 70 70 70 70 70 255 255 40 40 255 255 255 255 255 255 255 255 255 255 255 255 70 70 70 70 70 255 255 255 255 255 255 255 255 70 70 255 255 255 255 255 70 255 255 255 255 255 255 255 255 255 255 255 255 255 255 255 255 60 60 255 255 255 255 255 255 255 255 255 255 255 255 255 255 255 255 255 255 70 70 70 70 70 70 70 70 70 70 70 70 70 70 70 70 70 70 70 70 70 70 70 70 70 70 70 70 70 70 70 70 70 70 70 70 70 70 70 70 70 70 70 70 255 255 255 70 255 255 255 255 70 70 255 255 255 255 28 28 28 28 28 28 28 28 255 255 255 28 28 28 28 28 28 28 28 28 28 28 28 255 255 255 255 255 28 255 255 255 255 7 7 7 7 7 7 255 255 255 255 255 30 30 30 255 255 255 255 255 255 255 255 255 255 255 255 255 255 255 255 255 255 255 255 255 255 255 255 255 255 255 255 255 255 255 255 255 255 255 255 255 255 255 255 255 255 255 255 255 255 255 255 30 30 255 255 255 255 30 30 30 30 30 30 30 30 255 255 255 255 71 71 71 71 71 71 71 71 71 71 71 71 71 71 71 71 71 71 71 71 71 71 71 71 71 71 71 71 71 71 71 71 71 71 71 71 71 71 71 71 71 71 71 71 71 71 71 71 71 71 71 71 71 71 255 255 255 5 255 255 255 255 255 255 255 255 255 255 5 5 5 5 255 255 255 5 5 5 5 5 5 5 5 255 255 255 5 5 5 5 5 5 5 5 5 255 255 255 5 5 255 255 255 255 255 255 255 255 255 255 255 255 255 255 255 255 255 255 255 255 255 255 255 255 255 255 255 255 255 255 255 29 29 29 29 29 29 29 29 29 29 29 255 255 13 13 255 255 59 59 59 59 59 59 59 59 59 59 59 59 59 59 59 59 59 59 59 59 59 59 59 59 59 59 59 59 59 59 255 
255 1 1 1 1 1 1 1 1 1 1 1 1 1 1 1 1 1 1 1 1 1 1 1 1 1 255 255 255 17 17 255 255 255 76 76 255 255 255 255 255 255 255 255 255 255 70 70 255 255 255 255 255 255 255 255 255 255 70 70 70 70 70 70 70 70 70 70 70 70 70 70 70 70 70 70 70 70 70 70 70 70 70 70 70 70 70 70 70 255 255 40 40 255 255 255 255 255 255 255 255 255 255 255 255 255 255 255 70 70 70 255 255 255 255 255 255 255 70 70 70 70 70 70 70 70 70 255 255 255 255 255 255 255 255 255 255 255 60 60 60 60 60 255 255 255 255 255 255 255 255 255 255 255 255 255 255 255 255 255 255 70 70 70 70 70 70 70 70 70 70 70 70 70 70 70 70 70 70 70 70 70 70 70 70 70 70 70 70 70 70 70 70 70 70 70 70 70 70 70 70 70 70 70 70 70 255 255 255 70 255 255 255 255 70 70 255 255 255 255 28 28 28 28 28 28 28 28 255 255 255 28 28 28 28 28 28 28 28 28 28 28 28 255 255 255 255 255 255 255 255 7 7 7 7 7 7 7 7 7 255 255 255 255 255 30 30 30 30 30 30 30 255 255 255 255 255 255 255 255 255 255 255 255 255 255 255 255 255 255 255 255 255 255 255 255 255 255 255 255 255 255 255 255 255 255 255 255 255 255 255 255 255 255 255 30 30 255 255 255 30 30 30 30 30 30 30 30 30 255 255 255 71 71 71 71 71 71 71 71 71 71 71 71 71 71 71 71 71 71 71 71 71 71 71 71 71 71 71 71 71 71 71 71 71 71 71 71 71 71 71 71 71 71 71 71 71 71 71 71 71 71 71 71 71 71 71 255 255 255 255 255 255 255 255 255 255 255 255 5 5 5 5 5 5 255 255 255 5 5 5 5 5 5 5 5 255 255 255 5 5 5 5 5 5 5 5 5 255 255 255 5 5 5 255 255 255 255 255 255 255 255 255 255 255 255 255 255 255 255 255 255 255 255 255 255 255 255 255 29 255 255 255 255 255 255 255 29 29 29 29 29 29 29 29 255 255 13 13 255 255 59 59 59 59 59 59 59 59 59 59 59 59 59 59 59 59 59 59 59 59 59 59 59 59 59 59 59 59 59 59 255 
255 1 1 1 1 1 1 1 1 1 1 1 1 1 1 1 1 1 1 1 1 1 1 1 1 1 255 255 255 17 17 255 255 255 76 255 255 255 255 255 255 255 255 70 70 70 70 255 255 255 255 255 255 255 17 17 255 255 70 70 70 70 70 70 70 70 70 70 70 70 70 70 70 70 70 70 70 70 70 70 70 70 70 70 70 70 70 70 70 255 255 40 40 40 255 255 255 255 70 255 255 255 255 255 255 255 255 255 255 255 255 255 255 255 255 255 255 255 255 255 70 70 70 70 70 70 255 255 255 255 255 255 255 255 255 255 255 255 255 60 60 60 255 255 255 255 255 255 255 255 255 255 255 255 255 255 255 255 255 255 255 70 70 70 70 70 70 70 70 70 70 70 70 70 70 70 70 70 70 70 70 70 70 70 70 70 70 70 70 70 70 70 70 70 70 70 70 70 70 70 70 70 70 70 70 70 255 255 255 70 70 70 70 70 70 70 70 255 255 255 255 255 28 28 28 28 28 28 28 28 28 28 28 28 28 28 28 28 28 28 28 28 28 255 255 255 255 255 255 255 255 7 7 7 7 7 7 7 7 7 7 7 255 255 255 255 30 30 30 30 30 255 255 255 255 255 255 30 30 30 30 30 255 255 255 255 255 255 255 255 255 255 255 255 255 255 255 255 255 255 255 255 255 255 255 255 255 255 255 255 255 255 7 255 255 255 255 255 255 255 255 255 255 30 30 30 30 30 255 255 255 71 71 71 71 71 71 71 71 71 71 71 71 71 71 71 71 71 71 71 71 71 71 71 71 71 71 71 71 71 71 71 71 71 71 71 71 71 71 71 71 71 71 71 71 71 71 71 71 71 71 71 71 71 71 71 71 255 255 255 255 255 255 255 255 255 255 255 255 5 5 5 5 5 5 255 255 255 5 5 5 5 5 5 5 5 255 255 255 5 5 5 5 5 5 5 5 5 255 255 255 5 5 5 255 255 255 255 255 255 255 255 255 255 255 255 255 255 255 255 255 255 255 255 255 255 255 255 255 255 255 255 255 255 255 255 255 29 29 29 29 29 29 29 29 255 255 13 13 255 255 59 59 59 59 59 59 59 59 59 59 59 59 59 59 59 59 59 59 59 59 59 59 59 59 59 59 59 59 59 59 255 
255 1 1 1 1 1 1 1 1 1 1 1 1 1 1 1 1 1 1 1 1 1 1 1 1 1 1 255 255 17 17 255 255 76 255 255 255 255 255 255 255 255 255 70 70 70 70 255 255 255 255 255 255 17 17 255 255 255 70 70 70 70 70 70 70 70 70 70 70 70 70 70 70 70 70 70 70 70 70 70 70 70 70 255 255 255 70 70 70 255 255 255 255 40 255 255 70 255 255 255 255 255 255 255 255 255 255 255 255 255 255 255 255 255 255 255 255 255 255 255 70 70 70 70 255 255 255 255 255 255 255 255 255 255 255 255 255 255 255 255 60 60 255 255 255 255 255 255 255 255 255 255 255 255 255 255 255 255 255 255 70 70 70 70 70 70 70 70 70 70 70 70 70 70 70 70 70 70 70 70 70 70 70 70 70 70 70 70 70 70 70 70 70 70 70 70 70 70 70 70 70 70 70 70 70 70 255 255 255 70 70 70 70 70 70 70 70 255 255 255 255 255 28 28 28 28 28 28 28 28 28 28 28 28 28 28 28 28 28 28 28 28 28 255 255 255 255 255 255 255 255 7 7 7 7 7 7 7 7 7 7 7 7 255 255 255 30 30 30 30 30 255 255 255 255 255 255 30 30 30 30 30 255 255 255 255 255 255 255 255 255 7 255 255 255 255 255 255 255 255 255 255 255 255 255 255 255 255 255 255 255 255 7 255 255 255 255 255 255 255 255 255 255 30 30 30 30 30 255 255 255 71 71 71 71 71 71 71 71 71 71 71 71 71 71 71 71 71 71 71 71 71 71 71 71 71 71 71 71 71 71 255 255 255 71 71 71 71 71 71 71 71 71 71 71 71 71 71 71 71 71 71 71 71 71 71 71 71 255 255 255 255 255 255 255 255 255 255 255 5 255 255 255 255 255 255 5 5 5 5 5 5 5 5 5 5 5 5 5 5 5 5 5 5 5 5 5 5 255 255 255 5 5 5 255 255 255 255 255 255 255 255 255 255 255 255 255 255 255 255 255 255 255 255 255 255 255 255 255 255 255 255 255 255 255 255 255 255 255 255 29 29 29 29 29 255 255 13 255 255 255 59 59 59 59 59 59 59 59 59 59 59 59 59 59 59 59 59 59 59 59 59 59 59 59 59 59 59 59 59 59 255 
255 1 1 1 1 1 1 1 1 1 1 1 1 1 1 1 1 1 1 1 1 1 1 1 1 1 255 255 255 17 17 255 255 255 255 255 255 255 255 255 255 70 70 70 70 255 255 255 255 255 255 255 255 255 17 255 255 255 70 70 70 70 70 70 70 70 70 70 70 70 70 70 70 70 70 70 70 70 70 70 70 70 70 255 255 255 70 70 70 255 255 255 255 40 255 255 70 255 255 255 255 255 255 255 255 255 255 255 255 255 255 255 255 255 255 255 255 255 255 255 255 255 255 255 255 255 255 255 255 255 255 255 255 255 255 255 255 255 255 255 60 255 255 255 255 255 255 255 255 255 255 255 255 255 255 255 255 255 255 70 70 70 70 70 70 70 70 70 70 70 70 70 70 70 70 70 70 70 70 70 70 70 70 70 70 70 70 70 70 70 70 70 70 70 70 70 70 70 70 70 70 70 70 70 70 70 255 255 255 70 70 70 70 70 70 70 70 255 255 255 255 255 255 28 28 28 28 28 28 28 28 28 28 28 28 28 28 28 28 28 28 28 28 28 28 28 28 255 255 255 255 255 7 7 7 7 7 7 7 7 7 7 7 255 255 255 255 255 255 30 30 255 255 255 255 255 255 30 30 30 30 30 30 255 255 255 255 255 7 7 7 7 255 255 255 255 255 255 255 255 255 255 255 255 255 255 255 255 255 255 255 255 255 255 255 255 255 255 255 255 255 255 255 30 30 30 30 255 255 255 71 71 71 71 71 71 71 71 71 71 71 71 71 71 71 71 71 71 71 71 71 71 71 71 71 71 71 71 71 71 255 255 255 255 71 71 71 71 71 71 71 71 71 71 71 71 71 71 71 71 71 71 71 71 71 71 71 71 255 255 255 255 255 255 255 255 255 255 255 255 255 255 255 255 255 255 255 255 5 5 5 5 5 5 5 5 5 5 5 5 5 5 5 5 5 5 5 5 5 5 5 5 5 5 5 255 255 255 255 255 255 255 255 255 255 255 255 255 255 255 255 255 255 255 255 255 255 255 255 255 255 255 255 255 255 29 255 255 255 255 29 29 29 29 255 255 255 13 255 255 255 59 59 59 59 59 59 59 59 59 59 59 59 59 59 59 59 59 59 59 59 59 59 59 59 59 59 59 59 59 59 255 
255 1 1 1 1 1 1 1 1 1 1 1 1 1 1 1 1 1 1 1 1 1 1 1 1 1 255 255 255 17 17 255 255 255 255 255 255 255 255 255 70 70 70 70 70 255 255 255 255 255 255 255 255 255 255 255 255 70 70 70 70 70 70 70 70 70 70 70 70 70 70 70 70 70 70 70 70 70 70 70 70 70 70 255 255 255 70 70 70 255 255 255 255 40 255 255 70 255 255 255 255 255 255 255 255 255 255 255 255 255 255 255 255 70 70 70 70 255 255 255 255 255 255 255 255 255 255 255 255 255 255 255 255 255 255 255 255 255 255 255 255 255 255 255 255 255 255 255 255 255 255 255 255 255 255 255 255 255 255 70 70 70 70 70 70 70 70 70 70 70 70 70 70 70 70 70 70 70 70 70 70 70 70 70 70 70 70 70 70 70 70 70 70 70 70 70 70 70 70 70 70 70 70 70 70 70 70 70 70 70 70 70 70 70 70 70 70 70 255 255 255 255 255 28 28 28 28 28 28 28 28 28 28 28 28 28 28 28 28 28 28 28 28 28 28 28 28 255 255 255 255 255 255 7 7 7 7 7 7 7 7 7 7 255 255 255 255 255 255 30 30 30 30 30 255 255 255 30 30 30 30 30 30 30 30 255 255 255 7 7 7 7 7 7 255 255 255 255 255 255 255 255 255 255 255 255 255 255 255 255 255 255 255 255 255 255 255 255 255 255 255 255 255 30 30 30 255 255 255 255 71 71 71 71 71 71 71 71 71 71 71 71 71 71 71 71 71 71 71 71 71 71 71 71 71 71 71 71 71 71 255 255 255 255 71 71 71 71 71 71 71 71 71 71 71 71 71 71 71 71 71 71 71 71 71 71 71 71 255 255 255 5 255 255 255 255 255 255 255 255 255 255 255 255 255 255 255 255 5 5 5 5 5 5 5 5 5 5 5 5 5 5 5 5 5 5 5 5 5 5 5 5 5 5 5 255 255 255 255 255 255 255 255 255 255 255 255 255 255 255 255 255 255 255 255 255 255 255 255 255 255 255 255 255 255 29 255 255 255 255 29 29 29 29 255 255 255 13 255 255 59 59 59 59 59 59 59 59 59 59 59 59 59 59 59 59 59 59 59 59 59 59 59 59 59 59 59 59 59 59 59 255 
255 1 1 1 1 1 1 1 1 1 1 1 1 1 1 1 1 1 1 1 1 1 1 1 1 1 255 255 255 17 17 255 255 255 255 255 255 255 255 70 70 70 70 70 70 255 255 255 255 255 255 255 255 255 255 255 255 255 70 70 70 70 70 255 255 255 70 70 70 70 70 70 70 70 70 70 70 70 70 70 70 70 70 255 255 255 255 70 70 255 255 255 255 40 255 255 70 70 70 255 255 255 255 255 255 255 255 255 70 70 70 70 70 70 70 70 70 255 255 255 255 255 255 255 255 255 255 255 255 255 255 255 255 255 255 39 255 255 255 255 255 255 255 255 255 255 255 255 255 255 255 255 255 255 255 255 255 255 70 70 70 70 70 70 70 70 70 70 70 70 70 70 70 70 70 70 70 70 70 70 70 70 70 70 70 70 70 70 70 70 70 70 70 70 70 70 70 70 70 70 70 70 70 70 70 70 70 70 70 70 70 70 70 70 70 70 70 70 255 255 255 255 255 28 28 28 28 28 28 28 28 28 28 28 28 28 28 28 28 28 28 28 28 28 28 28 28 255 255 255 255 255 255 255 7 7 7 7 7 7 7 7 7 7 255 255 255 255 255 30 30 30 30 30 30 30 30 30 30 30 30 30 30 30 30 30 255 255 255 255 7 7 7 7 7 7 7 7 7 7 7 7 7 7 7 7 7 7 7 7 255 255 255 255 255 255 255 255 255 7 255 255 255 30 30 30 255 255 255 71 71 71 71 71 71 71 71 71 71 71 71 71 71 71 71 71 71 71 71 71 71 71 71 71 71 71 71 71 71 71 255 255 255 255 71 71 71 71 71 71 71 71 71 71 71 71 71 71 71 71 71 71 71 71 71 71 71 71 255 255 255 5 255 255 255 255 255 255 255 255 255 255 5 255 255 255 255 255 5 5 5 5 5 5 5 5 5 5 5 5 5 5 5 5 5 5 5 5 5 5 5 5 255 255 255 255 255 255 255 255 255 255 255 255 255 255 255 255 29 29 255 255 255 255 255 255 255 255 255 255 255 255 255 255 255 29 29 29 29 29 29 29 29 29 255 255 255 13 255 255 59 59 59 59 59 59 59 59 59 59 59 59 59 59 59 59 59 59 59 59 59 59 59 59 59 59 59 59 59 59 59 255 
255 1 1 1 1 1 1 1 1 1 1 1 1 1 1 1 1 1 1 1 1 1 1 1 1 1 1 255 255 17 17 255 255 255 255 255 255 255 70 70 70 70 70 70 70 255 255 255 255 255 255 255 255 255 255 255 255 255 70 70 70 70 70 255 255 255 70 70 70 70 70 70 70 70 70 70 70 70 70 70 70 70 70 70 255 255 255 70 70 255 255 255 255 40 255 255 70 70 70 70 255 255 255 255 255 255 255 255 255 255 70 255 255 255 70 70 70 70 255 255 255 255 255 255 255 255 255 255 255 255 255 255 255 255 255 255 255 255 255 255 255 255 255 255 255 255 255 255 255 255 255 255 255 255 255 255 255 70 70 70 70 70 70 70 70 70 70 70 70 70 70 70 70 70 70 70 70 70 70 70 70 70 70 70 70 70 70 70 70 70 70 70 70 70 70 70 70 70 70 70 70 70 70 70 70 70 70 70 70 70 70 70 70 70 70 70 70 70 70 255 255 255 255 28 28 28 28 28 28 28 28 28 28 28 28 28 28 28 28 28 28 28 28 28 28 28 28 28 28 28 28 255 255 255 255 7 7 7 7 7 7 7 255 255 255 7 255 255 255 30 30 30 30 30 30 30 30 30 30 30 30 30 30 30 30 30 255 255 255 255 7 7 7 7 7 7 7 7 7 7 7 7 7 7 7 7 7 7 255 255 255 255 255 255 255 255 255 255 255 255 255 255 30 30 30 255 255 255 71 71 71 71 71 71 71 71 71 71 71 71 71 71 71 71 71 71 71 71 71 71 71 71 71 71 71 71 71 71 71 71 255 255 255 255 71 71 71 71 71 71 71 71 71 71 71 71 71 71 71 71 71 71 71 71 71 71 71 71 255 255 255 5 255 255 255 255 255 255 255 5 5 5 5 255 255 255 255 255 255 5 5 5 5 5 5 255 255 255 5 5 5 5 255 255 255 255 255 5 5 5 5 5 255 255 255 255 255 255 255 255 255 255 255 255 255 255 255 255 255 255 255 255 255 255 255 255 255 255 255 255 255 255 255 255 255 29 29 29 29 29 29 29 29 29 29 255 255 13 255 255 59 59 59 59 59 59 59 59 59 59 59 59 59 59 59 59 59 59 59 59 59 59 59 59 59 59 59 59 59 59 59 255 
255 1 1 1 1 1 1 1 1 1 1 1 255 255 255 1 1 1 1 1 1 1 1 1 1 1 1 255 255 17 17 255 255 255 255 255 255 255 70 70 70 70 70 70 255 255 255 255 255 255 255 255 255 255 255 255 255 255 70 70 70 70 255 255 255 255 70 70 70 70 70 70 70 70 70 70 70 70 70 70 70 70 70 70 255 255 255 70 70 255 255 255 255 40 255 255 255 70 70 70 255 255 255 255 255 255 255 255 255 255 70 255 255 255 70 70 70 70 70 255 255 255 255 255 39 39 39 255 255 255 255 255 39 39 39 255 255 255 255 255 255 255 255 255 255 255 255 255 255 255 255 255 255 255 255 255 70 70 70 70 70 70 70 70 70 70 70 70 70 70 70 70 70 70 70 70 70 70 70 70 70 70 70 70 70 70 70 70 70 70 70 70 70 70 70 70 70 70 70 70 70 70 70 70 70 70 70 70 70 70 70 70 70 70 70 70 70 70 70 255 255 255 255 28 28 28 28 28 28 28 28 28 28 28 28 28 28 28 28 28 28 28 28 28 28 28 28 28 28 28 28 28 255 255 255 7 7 7 7 7 7 7 255 255 255 7 255 255 255 30 30 30 30 30 30 30 30 30 30 30 30 30 30 30 30 30 30 30 255 255 255 255 7 7 7 7 7 7 7 7 7 7 7 7 7 7 7 7 255 255 255 255 255 255 255 255 255 255 255 255 255 255 30 30 255 255 255 255 71 71 71 71 71 71 71 71 71 71 71 71 71 71 71 71 71 71 71 71 71 71 71 71 71 71 71 71 71 71 71 71 255 255 255 71 71 71 71 71 71 71 71 71 71 71 71 71 71 71 71 71 71 71 71 71 71 71 71 71 255 255 255 5 5 255 255 255 255 255 255 5 5 5 5 255 255 255 255 255 255 5 5 5 5 5 5 255 255 255 255 255 255 5 255 255 255 255 255 5 5 5 5 5 255 255 255 255 255 255 255 255 255 255 255 255 255 255 255 255 255 255 255 255 255 255 255 255 255 255 255 255 255 255 255 255 255 29 29 29 29 29 29 29 29 29 29 255 255 13 255 255 59 59 59 59 59 59 59 59 59 59 59 59 59 59 59 59 59 59 59 59 59 59 59 59 59 59 59 59 59 59 59 255 
255 1 1 1 1 1 1 1 1 1 1 1 255 255 255 1 1 1 1 1 1 1 1 1 1 255 255 255 255 255 255 255 255 255 255 255 70 70 70 70 70 70 70 255 255 255 255 255 255 255 255 255 255 255 255 255 70 70 70 70 70 70 255 255 255 255 70 70 70 70 70 70 70 70 70 70 255 255 255 255 70 70 70 70 255 255 255 70 70 255 255 255 255 40 255 255 255 255 70 70 70 70 70 70 255 255 255 255 255 255 255 255 255 255 70 70 70 70 70 70 70 70 255 255 255 255 255 255 255 255 255 255 39 39 39 255 255 255 255 255 255 255 255 255 255 255 255 255 255 255 255 255 255 255 255 255 70 70 70 70 70 70 70 70 70 70 70 70 70 70 70 70 70 70 70 70 70 70 70 70 70 70 70 70 70 70 70 70 70 70 70 70 70 70 70 70 70 70 70 70 70 70 70 70 70 70 70 70 70 70 70 70 70 70 70 70 70 70 70 255 255 255 255 28 28 28 28 28 28 28 28 28 28 28 28 28 28 28 28 28 28 28 28 28 28 28 28 28 28 28 28 28 28 255 255 7 7 7 7 7 7 7 255 255 255 255 255 255 255 30 30 30 30 30 30 30 30 30 30 30 30 30 30 30 30 30 30 255 255 255 255 255 255 255 7 7 7 7 7 7 255 255 255 255 255 255 255 255 255 255 30 255 255 255 255 255 255 255 255 255 30 30 30 30 255 255 255 71 71 71 71 71 71 71 71 71 71 71 71 71 71 71 71 71 71 71 71 71 71 71 71 71 71 71 71 71 71 71 71 71 255 255 255 71 71 71 71 255 255 255 71 71 71 71 71 71 71 255 255 255 71 71 71 71 71 71 71 71 255 255 255 5 5 255 255 255 255 255 255 5 5 5 5 255 255 255 255 255 255 5 5 5 5 5 5 255 255 255 255 255 255 5 255 255 255 255 255 5 5 5 5 5 5 5 255 255 255 255 255 255 255 255 255 255 255 255 255 255 255 255 255 255 255 255 255 255 255 255 29 29 29 29 29 29 29 29 29 29 29 29 29 29 29 29 29 255 255 13 255 255 59 59 59 59 59 59 59 59 59 59 59 59 59 59 59 59 59 59 59 59 59 59 59 59 59 59 59 59 59 59 59 255 
255 1 1 1 1 1 1 1 1 1 1 1 255 255 255 1 1 1 1 1 1 1 1 1 1 255 255 255 255 255 255 255 255 255 255 70 70 70 70 70 70 70 70 255 255 255 255 255 255 255 255 255 255 255 255 255 70 70 70 70 70 70 255 255 255 255 70 70 70 70 70 70 70 70 70 70 255 255 255 255 70 255 255 255 255 255 255 255 255 255 255 255 255 255 255 255 255 255 70 70 70 70 70 70 70 255 255 255 255 255 255 255 255 255 255 255 255 70 255 255 255 70 255 255 255 255 255 255 255 255 255 255 255 39 255 255 255 255 255 255 255 255 255 255 255 255 255 255 255 255 255 255 255 255 255 70 70 70 70 70 70 70 70 70 70 70 70 70 70 70 70 70 70 70 70 70 70 70 70 70 70 70 70 70 70 70 70 70 70 70 70 70 70 70 70 70 70 70 70 70 70 70 70 70 70 70 70 70 70 70 70 70 70 70 70 70 70 70 70 70 70 255 255 28 28 28 28 28 28 28 28 28 28 28 28 28 28 28 28 28 28 28 28 28 28 28 28 28 28 28 28 28 28 255 255 255 255 255 7 7 255 255 255 7 255 255 255 255 255 30 30 30 30 30 30 30 30 30 30 30 30 30 30 30 30 30 30 255 255 255 255 255 255 255 255 255 255 255 255 255 255 255 255 255 255 255 255 255 255 255 255 255 255 255 255 255 255 255 255 255 30 30 30 255 255 255 71 71 71 71 71 71 71 71 71 71 71 71 71 71 71 71 71 71 71 71 71 71 71 71 71 71 71 71 71 71 71 71 71 71 255 255 255 71 71 71 71 255 255 255 71 71 71 71 71 71 71 255 255 255 71 71 71 71 71 71 71 71 255 255 255 5 5 255 255 255 255 255 255 5 5 5 5 5 5 5 5 5 5 5 5 5 5 5 5 5 5 5 255 255 255 5 5 5 5 5 5 5 5 5 255 255 255 5 255 255 255 255 255 255 255 255 255 255 255 255 255 255 29 255 255 255 255 255 255 255 255 29 29 29 29 29 29 29 29 29 29 29 29 29 29 29 29 29 29 255 255 255 255 255 59 59 59 59 59 59 59 59 59 59 59 59 59 59 59 59 59 59 59 59 59 59 59 59 59 59 59 59 59 59 59 255 
255 1 1 1 1 1 1 1 1 1 1 1 1 1 1 1 1 1 1 1 1 1 1 1 1 255 255 255 255 255 255 255 255 255 255 70 70 70 70 70 70 70 70 255 255 255 255 255 255 255 255 255 255 255 255 255 70 70 70 70 70 255 255 255 255 255 70 70 70 70 70 70 70 70 70 70 255 255 255 255 70 255 255 255 255 255 255 255 255 255 255 255 255 255 255 255 255 255 255 70 70 70 70 255 255 255 255 255 255 255 255 255 255 255 255 255 255 255 255 255 255 255 255 255 255 255 255 255 255 255 255 255 255 39 255 255 255 255 255 255 255 255 255 255 255 255 255 255 255 255 255 255 255 255 70 70 70 70 70 70 70 70 70 70 70 70 70 70 70 70 70 70 70 70 70 70 70 70 70 70 70 70 70 70 70 70 70 70 70 70 70 70 70 70 70 70 70 70 70 70 70 70 70 70 70 70 70 70 70 70 70 70 70 70 70 70 70 70 70 70 70 255 255 255 255 28 28 28 28 28 28 28 28 28 28 28 28 28 28 28 28 28 28 28 28 28 28 28 28 28 28 28 28 255 255 255 255 255 255 255 255 255 255 255 255 255 255 255 255 30 30 30 30 30 30 30 30 30 30 30 30 30 30 30 30 30 30 255 255 255 30 30 255 255 255 255 255 255 255 255 255 255 255 255 255 255 255 30 255 255 255 255 255 7 255 255 255 255 255 255 30 30 255 255 255 255 71 71 71 71 71 71 71 71 71 71 71 71 71 71 71 71 71 71 71 71 71 71 71 71 71 71 71 71 71 71 71 71 71 71 71 71 71 71 71 71 71 255 255 255 71 71 71 71 71 71 71 255 255 255 71 71 71 71 71 71 71 71 255 255 255 5 5 255 255 255 255 255 255 5 5 5 5 5 5 5 5 5 5 5 5 5 5 5 5 5 5 5 5 5 5 5 5 5 5 5 5 5 5 5 255 255 255 5 5 5 5 255 255 255 255 255 255 255 255 255 255 255 255 255 255 255 255 255 255 255 255 255 255 29 29 255 255 255 29 29 29 29 29 29 29 29 29 29 29 255 255 255 255 255 59 59 59 59 59 59 59 59 59 59 59 59 59 59 59 59 59 59 59 59 59 59 59 59 59 59 59 59 59 59 59 255 
255 1 1 1 1 1 1 1 1 1 1 1 1 1 1 1 1 1 1 1 1 1 1 1 1 1 1 255 255 255 255 255 255 255 70 70 70 70 70 70 70 255 255 255 255 255 255 255 255 255 255 255 17 255 255 255 70 70 70 70 70 255 255 255 255 255 70 70 70 70 70 70 70 70 70 70 70 70 70 70 70 255 255 255 255 255 255 255 255 255 255 255 255 255 255 255 255 255 255 70 70 255 255 255 255 255 70 255 255 255 255 255 255 255 255 255 255 255 255 255 255 255 255 255 255 255 255 255 255 255 255 255 255 39 255 255 255 255 255 255 255 255 255 255 255 255 255 255 255 255 255 255 255 70 70 70 70 70 70 70 70 70 70 70 70 70 70 70 70 70 70 70 70 70 70 70 70 70 70 70 70 70 70 70 70 70 70 70 70 70 70 70 70 70 70 70 70 70 70 70 70 70 70 70 70 70 70 70 70 70 70 70 70 70 70 70 70 70 70 70 70 255 255 255 255 28 28 28 28 28 28 28 28 28 28 28 28 28 28 28 28 28 28 28 28 28 28 28 28 28 28 28 255 255 255 255 255 255 255 255 255 255 255 255 7 7 255 255 255 255 30 30 30 30 30 30 30 30 30 30 30 30 30 30 30 30 30 30 30 30 30 30 30 30 30 30 30 255 255 255 255 255 30 30 30 30 30 255 255 255 255 255 255 255 255 255 255 255 255 255 30 255 255 255 255 71 71 71 71 71 71 71 71 71 71 71 71 71 71 71 71 71 71 71 71 71 71 71 71 71 71 71 71 71 71 71 71 71 71 71 71 71 71 71 71 71 71 255 255 255 71 71 71 71 71 71 71 71 71 71 71 71 71 71 71 71 71 71 255 255 255 5 5 255 255 255 255 255 255 5 5 255 255 255 5 255 255 255 5 5 5 5 5 5 5 5 5 5 5 5 5 5 5 5 255 255 255 5 5 5 255 255 255 5 5 255 255 255 255 255 255 255 255 255 255 255 255 255 255 255 255 255 255 255 255 255 255 255 255 29 255 255 255 255 29 29 29 29 29 29 29 29 29 29 29 255 255 255 255 255 59 59 59 59 59 59 59 59 59 59 59 59 59 59 59 59 59 59 59 59 59 59 59 59 59 59 59 59 59 59 59 255 
255 1 1 1 1 1 1 1 1 1 1 1 1 1 1 1 1 1 1 1 1 1 1 1 1 1 255 255 255 255 17 255 255 70 70 70 70 70 70 70 70 255 255 255 255 255 255 255 255 70 255 255 17 255 255 70 70 70 70 70 70 255 255 255 255 255 70 70 70 70 70 70 70 70 70 255 255 255 255 70 70 255 255 255 255 70 70 70 255 255 255 255 255 255 78 255 255 255 255 255 70 255 255 255 255 255 70 70 70 255 255 255 255 255 255 255 255 255 40 40 255 255 255 255 255 255 255 255 255 255 255 255 39 39 255 255 255 255 255 255 255 255 255 255 255 255 255 255 255 255 255 255 70 70 70 70 70 70 70 70 70 70 70 70 70 70 70 70 70 70 70 70 70 70 70 70 70 70 70 70 70 70 70 70 70 70 70 70 70 70 70 70 70 70 70 70 70 70 70 70 70 70 70 70 70 70 70 70 70 70 70 70 70 70 70 70 70 70 70 70 70 255 255 255 255 255 255 28 28 28 28 28 28 28 28 28 28 28 28 28 28 28 28 28 28 28 28 28 28 28 28 28 255 255 255 255 255 255 255 255 255 255 255 255 255 255 255 255 255 255 255 255 255 30 30 30 30 30 30 30 30 30 30 30 30 30 30 30 30 30 30 30 30 30 30 30 30 30 30 30 30 30 30 30 30 30 255 255 255 255 7 7 255 255 255 255 255 255 255 255 30 255 255 255 71 71 71 71 71 71 71 71 71 71 71 71 71 71 71 71 71 71 71 71 71 71 71 71 71 71 71 71 71 71 71 71 71 71 71 71 71 71 71 71 71 71 71 255 255 255 71 71 71 71 71 71 71 71 71 71 71 71 71 71 71 71 71 71 255 255 255 5 5 255 255 255 255 255 255 5 5 255 255 255 5 255 255 255 5 5 5 5 5 5 5 5 5 5 5 5 5 5 5 5 255 255 255 255 255 255 5 5 5 5 5 255 255 255 255 255 255 255 255 255 255 255 255 255 255 255 255 255 255 29 29 29 255 255 255 255 255 255 255 255 29 29 29 29 29 29 29 29 29 29 29 255 255 255 255 255 59 59 59 59 59 59 59 59 59 59 59 59 59 59 59 59 59 59 59 59 59 59 59 59 59 59 59 59 59 59 59 255 
255 1 1 1 1 1 1 1 1 1 1 1 1 1 1 1 1 1 1 1 1 1 1 1 1 1 255 255 255 17 17 255 255 255 70 70 70 70 70 70 70 255 255 255 255 255 255 255 70 70 255 255 255 255 255 70 70 70 70 70 70 255 255 255 255 255 70 70 70 70 70 70 70 70 70 255 255 255 255 70 70 70 255 255 255 70 70 70 255 255 255 255 255 255 78 255 255 255 255 255 255 255 255 255 255 255 70 70 70 70 255 255 255 255 255 255 255 255 255 255 255 255 255 255 255 255 255 255 255 255 255 255 255 39 39 255 255 255 255 255 255 255 255 255 255 255 255 255 255 255 255 70 70 70 70 70 70 70 70 70 70 70 70 70 70 70 70 70 70 70 70 70 70 70 70 70 70 70 70 70 70 70 70 70 70 70 70 70 70 70 70 70 70 70 70 70 70 70 70 70 70 70 70 70 70 70 70 70 70 70 70 70 70 70 70 70 70 70 70 70 70 70 70 255 255 255 255 28 28 28 28 255 255 255 28 28 28 28 28 28 28 28 28 28 28 28 28 28 28 28 28 28 255 255 255 255 255 255 255 255 255 255 255 255 255 255 255 255 255 255 255 255 255 255 255 255 30 30 30 30 30 30 30 30 30 30 30 30 30 30 30 30 30 30 30 30 30 30 30 30 30 30 30 255 255 255 255 255 255 7 7 255 255 255 255 255 255 255 255 255 255 255 255 71 71 71 71 71 71 71 71 71 71 71 71 71 71 71 71 71 71 71 71 71 71 71 71 71 71 71 71 71 71 71 71 71 71 71 71 71 255 255 255 71 71 71 71 255 255 255 71 71 71 71 71 71 71 71 71 71 71 71 71 71 71 71 71 71 255 255 255 5 5 255 255 255 5 5 5 5 255 255 255 255 5 255 255 255 5 5 5 5 5 5 5 5 5 5 5 5 5 5 5 5 255 255 255 255 255 255 5 5 5 5 5 255 255 255 255 255 255 255 255 255 255 255 255 255 255 29 29 29 29 255 255 255 29 255 255 255 255 255 255 29 29 29 29 29 29 29 29 29 29 29 29 255 255 255 255 255 59 59 59 59 59 59 59 59 59 59 59 59 59 59 59 59 59 59 59 59 59 59 59 59 59 59 59 59 59 59 59 255 
255 1 1 1 1 1 1 1 1 1 1 1 1 1 1 1 1 1 1 1 1 1 1 1 1 1 255 255 255 17 17 255 255 255 70 70 70 70 70 70 255 255 255 255 255 255 255 255 70 70 255 255 255 255 255 70 70 70 70 70 70 255 255 255 255 255 70 70 70 70 70 70 70 70 70 255 255 255 255 70 70 70 70 70 70 70 70 255 255 255 255 255 255 255 78 255 255 255 255 255 255 255 255 255 255 255 70 70 70 70 70 255 255 255 255 255 255 255 255 255 255 255 255 255 255 255 255 255 255 255 255 255 255 39 255 255 255 255 255 255 255 255 255 255 255 255 255 255 255 255 70 70 70 70 70 70 70 70 70 70 70 70 70 70 70 70 70 70 70 70 70 70 70 70 70 70 70 70 70 70 70 70 70 70 70 70 70 70 70 70 70 70 70 70 70 70 70 70 70 70 70 70 70 70 70 70 70 70 70 70 70 70 70 70 70 70 70 70 70 70 70 70 70 70 70 255 255 255 255 255 28 255 255 255 28 28 28 28 28 28 28 28 28 28 28 28 28 28 28 28 28 28 28 28 28 255 255 255 255 255 255 255 255 255 255 255 255 7 255 255 255 255 255 255 255 255 30 30 30 30 30 30 30 30 30 30 255 255 255 255 30 30 30 30 30 30 30 255 255 255 255 255 255 255 255 255 255 255 7 7 7 255 255 255 255 255 255 30 30 255 255 255 255 71 71 71 71 71 71 71 71 71 71 71 71 71 71 71 71 71 71 71 71 71 71 71 71 71 71 71 71 71 71 71 71 71 71 71 71 71 255 255 255 71 71 71 71 255 255 255 71 71 71 71 71 71 71 71 71 71 71 71 71 71 71 71 71 71 255 255 255 5 5 255 255 255 5 5 5 5 255 255 255 255 5 5 5 5 5 5 5 5 5 5 5 5 5 5 5 5 5 5 5 5 5 5 255 255 255 255 5 5 5 5 5 5 5 255 255 255 255 255 255 255 255 255 255 255 255 255 255 255 255 255 255 255 29 255 255 255 29 29 29 29 29 29 29 29 29 29 29 29 29 29 29 255 255 255 255 255 59 59 59 59 59 59 59 59 59 59 59 59 59 59 59 59 59 59 59 59 59 59 59 59 59 59 59 59 59 59 59 255 
255 1 1 1 1 1 1 1 1 1 1 1 1 1 1 1 1 1 1 1 1 1 1 1 1 1 255 255 255 17 17 17 255 255 70 70 70 70 70 70 255 255 255 255 255 255 255 70 255 255 255 255 255 255 70 70 70 70 70 70 70 255 255 255 255 255 70 70 70 70 70 70 70 70 70 70 70 70 70 70 70 70 70 70 70 70 70 255 255 255 255 255 255 255 255 78 255 255 255 255 255 255 255 255 255 255 255 70 70 70 70 70 255 255 255 255 255 255 255 255 255 255 255 255 255 255 255 255 255 255 255 255 255 39 255 255 255 255 255 255 255 255 255 255 255 255 255 255 255 255 70 70 70 70 70 70 70 70 70 70 70 70 70 70 70 70 70 70 70 70 70 70 70 70 70 70 70 70 70 70 70 70 70 70 70 70 70 70 70 70 70 70 70 70 70 70 70 70 70 70 70 70 70 70 70 70 70 70 70 70 70 70 70 70 70 70 70 70 70 70 70 70 70 70 70 255 255 255 255 255 28 255 255 255 28 28 255 255 255 28 28 28 28 28 28 28 28 28 28 28 28 28 28 28 28 255 255 255 255 255 255 255 255 255 255 255 255 7 255 255 255 255 30 255 255 255 30 30 30 30 30 30 30 30 30 255 255 255 255 255 255 255 255 255 255 255 255 255 255 255 255 255 255 255 255 7 7 7 7 7 7 255 255 255 255 255 255 30 30 255 255 255 71 71 71 71 71 71 71 71 71 71 71 71 71 71 71 71 71 71 71 71 71 71 71 71 71 71 71 71 71 71 71 71 71 71 71 71 71 71 255 255 255 71 71 71 71 255 255 255 71 71 71 71 71 71 71 71 71 71 71 71 71 71 71 71 71 71 255 255 255 5 5 255 255 255 5 5 255 255 255 255 255 5 5 5 5 5 5 5 5 5 5 5 5 5 5 5 255 255 255 255 5 5 5 5 5 5 5 5 5 255 255 255 255 255 255 255 255 255 255 255 255 255 255 255 255 255 255 255 255 255 255 255 255 255 29 29 29 29 29 29 29 29 29 29 29 29 29 29 29 29 29 29 29 255 255 255 255 255 59 59 59 59 59 59 59 59 59 59 59 59 59 59 59 59 59 59 59 59 59 59 59 59 59 59 59 59 59 59 59 255 
255 1 1 1 1 1 1 1 1 1 1 1 1 1 1 1 1 1 1 1 1 1 1 1 1 1 255 255 255 17 17 255 255 255 70 70 70 70 70 70 255 255 255 255 255 255 70 70 255 255 255 255 255 255 70 70 70 70 70 70 255 255 255 255 255 70 70 70 70 70 70 70 70 70 70 70 70 70 70 70 70 70 70 70 70 70 255 255 255 255 255 255 255 255 255 255 78 255 255 255 255 255 255 255 255 255 255 70 70 70 70 70 255 255 255 255 255 40 255 255 255 255 255 255 255 255 255 255 255 255 255 255 255 39 255 255 255 255 255 255 255 255 255 255 255 255 255 255 255 70 70 70 70 70 70 70 70 70 70 70 70 70 70 70 70 70 70 70 70 70 70 70 70 70 70 70 70 70 70 70 70 70 70 70 70 70 70 70 70 70 70 70 70 70 70 70 70 70 70 70 70 70 70 70 70 70 70 70 70 70 70 70 70 70 70 70 70 70 70 70 70 70 70 70 70 255 255 255 255 255 255 255 255 255 28 28 255 255 255 28 28 28 28 28 28 28 28 28 28 28 28 255 255 255 255 255 255 255 255 255 255 255 255 255 255 255 255 255 255 255 255 255 255 255 255 30 30 30 30 30 30 30 30 255 255 255 255 255 255 255 255 255 255 255 255 255 255 255 255 7 7 7 7 7 7 7 7 7 7 7 7 255 255 255 255 255 255 30 30 255 255 71 71 71 71 71 71 71 71 71 71 71 71 71 71 71 71 71 71 71 71 71 71 71 71 71 71 71 71 71 71 71 71 71 71 71 71 71 71 71 255 255 255 71 71 71 71 71 71 71 71 71 71 71 71 71 71 71 71 71 71 71 71 71 71 71 71 71 255 255 255 5 5 255 255 255 5 5 255 255 255 255 255 5 5 5 5 255 255 255 255 5 5 5 5 5 5 255 255 255 255 255 255 5 255 255 255 5 255 255 255 255 255 255 255 255 255 5 5 255 255 255 255 255 255 255 255 255 255 255 255 255 255 255 255 255 29 29 29 29 29 29 29 29 29 29 29 29 29 29 29 29 29 29 29 255 255 255 255 255 59 59 59 59 59 59 59 59 59 59 59 59 59 59 59 59 59 59 59 59 59 59 59 59 59 59 59 59 59 59 59 255 
255 1 1 1 1 1 1 1 1 1 1 1 1 1 1 1 1 1 1 1 1 1 1 1 1 1 255 255 255 17 17 255 255 255 70 70 70 70 70 70 255 255 255 255 255 255 70 70 255 255 255 255 255 255 70 70 70 70 70 70 255 255 255 255 255 70 70 70 70 70 70 70 70 70 70 70 70 70 70 70 70 70 70 70 70 70 255 255 255 255 255 255 255 255 255 255 255 255 255 255 255 255 255 255 255 255 255 70 70 255 255 255 255 255 255 255 255 255 255 255 255 255 255 255 255 255 255 39 255 255 255 255 255 255 255 255 255 255 255 255 255 255 255 255 255 255 255 255 70 70 70 70 70 70 70 70 70 70 70 70 70 70 70 70 70 70 70 70 70 70 70 70 70 70 70 70 70 70 70 70 70 70 70 70 70 70 70 70 70 70 70 70 70 70 70 70 70 70 70 70 70 70 70 70 70 70 70 70 70 70 70 70 70 70 70 70 70 70 70 70 70 70 70 70 70 255 255 255 255 255 255 255 255 255 28 28 255 255 255 28 28 28 28 28 28 28 28 28 28 28 28 255 255 255 255 255 255 255 255 255 255 255 255 255 255 255 255 255 255 255 255 255 255 255 255 255 255 255 255 255 255 30 255 255 255 255 255 7 7 7 7 7 7 7 7 7 7 7 7 7 7 7 7 7 7 7 7 7 7 7 7 255 255 255 255 255 30 30 255 255 255 71 71 71 71 71 71 71 71 71 71 71 71 71 71 71 71 71 71 71 71 71 71 71 71 71 71 71 71 71 71 71 71 71 71 71 71 71 71 71 255 255 255 71 71 71 71 71 71 71 71 71 71 71 71 71 71 71 71 71 71 71 71 71 71 71 71 71 255 255 255 5 5 5 5 5 5 5 255 255 255 255 255 5 5 5 5 255 255 255 255 5 5 5 5 5 5 255 255 255 255 255 255 5 255 255 255 255 255 255 255 255 255 255 255 255 255 5 5 255 255 255 255 255 255 255 255 255 255 255 255 255 255 255 255 255 29 29 29 29 29 29 29 29 29 29 29 29 29 29 29 29 29 29 29 255 255 255 255 59 59 59 59 59 59 59 59 59 59 59 59 59 59 59 59 59 59 59 59 59 59 59 59 59 59 59 59 59 59 59 59 255 
255 1 1 1 1 1 1 1 1 1 1 1 1 1 1 1 1 1 1 1 1 1 1 1 1 1 255 255 255 17 17 255 255 255 70 70 70 70 70 70 255 255 255 255 255 255 70 255 255 255 255 255 70 70 70 70 70 70 70 70 255 255 255 255 255 70 70 70 70 70 70 70 70 70 70 70 70 70 70 70 70 70 70 70 70 70 255 255 255 255 255 255 255 255 255 255 255 255 255 255 255 255 255 40 255 255 255 70 255 255 255 255 255 255 255 255 255 255 255 255 255 255 255 70 255 255 255 39 255 255 255 255 255 255 255 255 255 255 255 255 255 255 255 255 255 255 255 70 70 70 70 70 70 70 70 70 70 70 70 70 70 70 70 70 70 70 70 70 70 70 70 70 70 70 70 70 70 70 70 70 70 70 70 70 70 70 70 70 70 70 70 70 70 70 70 70 70 70 70 70 70 70 70 70 70 70 70 70 70 70 70 70 70 70 70 70 70 70 70 70 70 70 70 70 70 255 255 255 255 255 255 255 255 28 28 28 28 28 28 28 28 28 28 28 28 28 28 28 28 28 28 255 255 255 255 255 255 28 28 28 28 255 255 255 255 255 255 255 255 255 255 255 255 255 255 255 255 255 255 255 255 255 255 255 255 7 7 7 7 7 7 7 7 7 7 7 7 7 7 7 7 7 7 7 7 7 7 7 7 255 255 255 255 255 255 255 30 255 255 255 255 71 71 71 71 71 71 71 71 71 71 71 71 71 71 71 71 71 71 71 71 71 71 71 71 71 71 71 71 71 71 71 71 71 71 71 71 71 71 71 255 255 255 71 71 71 71 71 71 71 71 71 71 71 71 71 71 71 71 71 71 71 71 71 71 71 71 71 255 255 255 5 5 5 5 5 5 5 255 255 255 255 255 5 5 5 5 255 255 255 255 5 5 5 5 255 255 255 255 255 255 255 255 255 255 255 255 255 255 255 255 255 255 255 255 255 255 255 5 5 5 255 255 255 255 255 255 255 255 255 29 29 29 29 29 29 29 29 29 29 29 29 29 29 29 29 29 29 29 29 29 29 29 29 29 255 255 255 255 59 59 59 59 59 59 59 59 59 59 59 59 59 59 59 59 59 59 59 59 59 59 59 59 59 59 59 59 59 59 59 59 255 
255 1 1 1 1 1 1 1 1 1 1 1 1 1 1 1 1 1 1 1 1 1 1 1 1 1 255 255 255 17 17 255 255 255 70 70 70 70 70 70 70 255 255 255 255 255 70 255 255 255 255 255 70 70 70 70 70 70 70 70 255 255 255 255 70 70 70 70 70 70 70 70 70 70 70 70 70 70 70 70 70 70 70 70 70 70 255 255 255 255 255 40 255 255 255 255 255 255 255 255 255 255 255 40 255 255 255 255 255 255 255 255 255 255 255 255 255 255 255 255 255 255 255 70 255 255 255 255 39 255 255 255 255 255 255 255 255 255 255 255 255 255 255 255 255 255 70 70 70 70 70 70 70 70 70 70 70 70 70 70 70 70 70 70 70 70 70 70 70 70 70 70 70 70 70 70 70 70 70 70 70 70 70 70 70 70 70 70 70 70 70 70 70 70 70 70 70 70 70 70 70 70 70 70 70 70 70 70 70 70 70 70 70 70 70 70 70 70 70 70 70 70 70 70 70 70 255 255 255 255 255 255 255 28 28 28 28 28 28 28 28 28 28 28 28 28 28 28 28 28 28 28 28 28 28 28 255 255 255 255 255 255 255 255 255 255 255 255 255 255 255 255 255 255 255 255 255 7 7 255 255 255 255 255 7 7 7 7 7 7 7 7 7 7 7 7 7 7 7 7 7 7 7 7 7 7 7 7 7 255 255 255 255 255 255 255 30 255 255 255 71 71 71 71 71 71 71 71 71 71 71 71 71 71 71 71 71 71 71 71 71 71 71 71 71 71 71 71 71 71 71 71 71 71 71 71 71 71 71 255 255 255 255 71 71 71 71 71 71 71 71 71 71 71 71 71 71 71 71 71 71 71 71 71 71 71 71 71 255 255 255 5 5 5 5 5 5 255 255 255 255 255 255 5 5 5 5 5 5 5 5 5 5 5 5 255 255 255 255 255 5 255 255 255 255 255 255 255 255 255 255 255 255 255 255 255 255 255 255 5 255 255 255 255 255 255 255 255 255 255 29 29 29 29 29 29 29 29 29 29 29 29 29 29 29 29 29 29 29 29 29 29 29 29 29 255 255 255 255 59 59 59 59 59 59 59 59 59 59 59 59 59 59 59 59 59 59 59 59 59 59 59 59 59 59 59 59 59 59 59 59 255 
255 1 1 1 1 1 1 1 1 1 1 1 1 1 1 1 1 1 1 1 1 1 1 1 1 1 255 255 255 17 17 17 255 255 70 70 70 70 70 70 70 255 255 255 255 255 255 255 255 255 255 70 70 70 70 70 70 70 70 70 70 255 255 255 70 70 70 70 70 70 70 70 70 70 70 70 70 70 70 70 70 70 70 70 70 70 255 255 255 255 255 40 255 255 255 255 255 255 255 255 255 255 255 40 255 255 255 255 255 255 255 255 255 70 70 255 255 255 255 255 255 255 255 70 70 255 255 255 255 255 255 255 39 255 255 255 255 61 255 255 255 255 255 255 255 255 70 70 70 70 70 70 70 70 70 70 70 70 70 70 70 70 70 70 70 70 70 70 70 70 70 70 70 70 70 70 70 70 70 70 70 70 70 70 70 70 70 70 70 70 70 70 70 70 70 70 70 70 70 70 70 70 70 70 70 70 70 70 70 70 70 70 70 70 70 70 70 70 70 70 70 70 70 70 70 70 255 255 255 255 255 255 255 28 28 28 28 28 28 28 28 28 28 28 28 28 28 28 28 28 28 28 28 28 28 28 255 255 255 255 255 255 255 255 255 255 255 255 255 255 255 255 255 255 255 255 7 7 7 7 7 7 7 7 7 7 7 7 7 7 7 7 7 7 7 7 7 7 7 7 7 7 7 7 7 7 7 7 7 255 255 255 255 255 255 255 30 255 255 71 71 71 71 71 71 71 71 71 71 71 71 71 71 71 71 71 71 71 71 71 71 71 71 71 71 71 71 71 71 71 71 71 71 71 71 71 71 71 71 255 255 255 255 71 71 71 71 71 71 71 71 71 71 71 71 71 71 71 71 71 71 71 71 71 71 71 71 71 255 255 255 5 5 5 5 5 5 255 255 255 255 255 255 255 255 255 5 5 5 5 5 5 5 5 5 255 255 255 255 255 255 255 255 255 255 255 255 255 255 255 255 255 255 255 255 255 255 255 255 255 255 255 255 255 255 255 255 255 255 255 29 29 29 29 29 29 29 29 29 29 29 29 29 29 29 29 29 29 29 29 29 29 29 29 29 255 255 255 255 59 59 59 59 59 59 59 59 59 59 59 59 59 59 59 59 59 59 59 59 59 59 59 59 59 59 59 59 59 59 59 59 255 
255 1 1 1 1 1 1 1 1 1 1 1 1 1 1 1 1 1 1 1 1 1 1 1 1 1 255 255 255 17 17 255 255 255 70 70 70 70 70 70 70 255 255 255 255 255 255 255 255 255 70 70 70 70 70 70 70 70 70 70 70 70 70 70 70 70 70 70 70 70 70 70 70 70 70 70 70 70 70 70 70 70 70 70 70 70 255 255 255 255 255 255 255 255 255 255 255 255 255 255 255 255 255 255 255 255 255 255 255 255 255 255 70 70 255 255 255 255 255 255 255 255 255 255 255 255 255 255 255 255 255 39 255 255 255 255 255 61 255 255 255 255 255 255 255 70 70 70 70 70 70 70 70 70 70 70 70 70 70 70 70 70 70 70 70 70 70 70 70 70 70 70 70 70 70 70 70 70 70 70 70 70 70 70 70 70 70 70 70 70 70 70 70 70 70 70 70 70 70 70 70 70 70 70 70 70 70 70 70 70 70 70 70 70 70 70 70 70 70 70 70 70 70 70 70 70 255 255 255 255 70 255 255 255 28 28 28 28 28 28 28 28 28 28 28 28 28 28 28 28 28 28 28 28 28 255 255 255 255 255 255 255 255 255 255 255 255 255 255 255 255 255 255 255 255 7 7 7 7 7 7 7 7 7 7 7 7 7 7 7 7 7 7 7 7 7 7 7 7 7 7 7 7 7 7 7 7 7 7 255 255 255 255 255 255 255 255 255 255 71 71 71 71 71 71 71 71 71 71 71 71 71 71 71 71 71 71 71 71 71 71 71 71 71 71 71 71 71 71 71 71 71 71 71 71 71 71 71 71 255 255 255 255 71 71 71 71 71 71 71 71 71 71 71 71 71 71 71 71 71 71 71 71 71 71 71 71 71 255 255 255 5 5 5 5 5 5 255 255 29 255 255 5 255 255 255 5 5 5 5 5 5 5 5 5 5 5 255 255 255 255 255 255 255 255 255 255 255 255 255 255 255 255 5 5 5 255 255 255 255 255 255 255 255 255 255 255 255 255 255 255 29 29 29 29 29 29 29 29 29 29 29 29 29 29 29 29 29 29 29 29 29 29 29 29 255 255 255 255 59 59 59 59 59 59 59 59 59 59 59 59 59 59 59 59 59 59 59 59 59 59 59 59 59 59 59 59 59 59 59 59 255 
255 1 1 1 1 1 1 1 1 1 1 1 1 1 1 1 1 1 1 1 1 1 1 1 1 1 1 255 255 17 17 255 255 255 70 70 70 70 70 70 70 255 255 255 17 255 255 255 255 255 70 70 70 70 70 70 70 70 70 70 70 70 70 70 70 70 70 70 70 70 70 70 70 70 70 70 70 70 70 70 70 70 70 70 70 70 70 255 255 255 255 255 255 255 255 255 255 255 255 255 255 255 255 255 255 255 255 255 255 255 255 255 70 70 255 255 255 255 255 255 255 255 255 255 255 255 255 255 255 255 255 255 255 255 255 255 255 255 255 255 255 255 255 255 70 70 70 70 70 70 70 70 70 70 70 70 70 70 70 70 70 70 70 70 70 70 70 70 70 70 70 70 70 70 70 70 70 70 70 70 70 70 70 70 70 70 70 70 70 70 70 70 70 70 70 70 70 70 70 70 70 70 70 70 70 70 70 70 70 70 70 70 70 70 70 70 70 70 70 70 70 70 70 70 70 70 70 70 70 70 70 255 255 255 255 255 255 28 28 28 28 28 28 28 28 28 28 28 28 28 28 28 28 28 28 255 255 255 255 255 255 255 255 255 255 255 7 7 7 7 7 7 7 7 7 7 7 7 7 7 7 7 7 7 7 7 7 7 7 7 7 7 7 7 7 7 7 7 7 7 7 7 7 7 7 7 7 7 7 255 255 255 7 255 255 255 255 255 255 71 71 71 71 71 71 71 71 71 71 71 71 71 71 71 71 71 71 71 71 71 71 71 71 71 71 71 71 71 71 71 71 71 71 71 71 71 71 71 71 255 255 255 255 71 71 71 71 71 71 71 71 71 71 71 71 71 71 71 71 71 71 71 71 71 71 71 71 71 255 255 255 5 5 5 5 5 5 255 255 255 255 255 5 255 255 255 5 5 5 5 5 5 5 5 5 255 255 255 255 255 255 255 255 255 255 255 255 255 255 255 255 255 5 5 255 255 255 255 255 255 255 255 255 255 255 29 29 255 255 255 255 29 29 29 29 29 29 29 29 29 29 29 29 29 29 29 29 29 29 29 29 29 29 29 29 255 255 255 255 59 59 59 59 59 59 59 59 59 59 59 59 59 59 59 59 59 59 59 59 59 59 59 59 59 59 59 59 59 59 59 59 255 
255 1 1 1 1 1 1 1 1 1 1 1 1 1 1 1 1 1 1 1 1 1 1 1 1 1 1 255 255 17 17 255 255 255 70 70 70 70 70 70 70 255 255 255 17 17 255 255 255 255 70 70 70 70 70 70 70 70 70 70 70 70 70 70 70 70 70 70 70 70 70 70 70 70 70 70 70 70 70 70 70 70 70 70 70 70 70 255 255 255 255 255 255 255 255 255 255 255 255 255 255 255 255 255 255 255 255 255 255 255 70 70 70 70 255 255 255 255 255 255 255 255 255 255 255 255 255 255 255 255 255 255 255 255 255 255 255 255 255 255 255 255 255 255 70 70 70 70 70 70 70 70 70 70 70 70 70 70 70 70 70 70 70 70 70 70 70 70 70 70 70 70 70 70 70 70 70 70 70 70 70 70 70 70 70 70 70 70 70 70 70 70 70 70 70 70 70 70 70 70 70 70 70 70 70 70 70 70 70 70 70 70 70 70 70 70 70 70 70 70 70 70 70 70 70 70 70 70 70 70 70 255 255 255 255 255 255 255 255 255 255 28 28 28 28 28 28 28 28 28 28 28 28 28 28 255 255 255 255 255 255 255 255 255 255 7 7 7 7 7 7 7 7 7 7 7 7 7 7 7 7 7 7 7 7 7 7 7 7 7 7 7 7 7 7 7 7 7 7 7 7 7 7 7 7 7 7 7 255 255 255 255 7 255 255 255 255 255 71 71 71 71 71 71 71 71 71 71 71 71 71 71 71 71 71 71 71 71 71 71 71 71 71 71 71 71 71 71 71 71 71 71 71 71 71 71 71 71 71 255 255 255 255 71 71 71 71 71 71 71 71 71 71 71 71 71 71 71 71 71 71 71 71 71 71 71 71 71 255 255 255 5 5 5 5 5 5 255 255 255 255 255 255 255 255 255 5 5 5 5 5 5 5 5 5 255 255 255 255 255 255 255 255 255 255 255 255 255 255 255 255 255 255 255 255 255 255 255 255 255 255 255 255 255 255 255 255 255 255 255 255 29 29 29 29 29 29 29 29 29 29 29 29 29 29 29 29 29 29 29 29 29 29 29 29 255 255 255 255 59 59 59 59 59 59 59 59 59 59 59 59 59 59 59 59 59 59 59 59 59 59 59 59 59 59 59 59 59 59 59 59 255 
255 1 1 1 1 1 1 1 1 1 1 1 1 1 1 1 1 1 1 1 1 1 1 1 1 1 1 255 255 17 17 17 255 255 70 70 70 70 70 70 70 70 255 255 255 255 255 255 255 255 70 70 70 70 70 70 70 70 70 70 70 70 70 70 70 70 70 70 70 70 70 70 70 70 70 70 70 70 70 70 70 70 70 70 70 70 70 255 255 255 255 255 255 255 255 255 255 255 255 255 255 255 255 255 255 255 255 255 255 255 255 70 255 255 255 70 70 70 255 255 255 255 255 255 255 255 255 255 255 70 255 255 255 255 255 255 255 255 255 255 255 255 70 70 70 70 70 70 70 70 70 70 70 70 70 70 70 70 70 70 70 70 70 70 70 70 70 70 70 70 70 70 70 70 70 70 70 70 70 70 70 70 70 70 70 70 70 70 70 70 70 70 70 70 70 70 70 70 70 70 70 70 70 70 70 70 70 70 70 70 70 70 70 70 70 70 70 70 70 70 70 70 70 70 70 70 70 70 70 70 70 255 255 255 70 255 255 255 255 255 255 28 28 28 28 28 28 28 28 28 28 28 28 28 28 28 28 28 255 255 255 255 255 255 255 7 7 7 7 7 7 7 7 7 7 7 7 7 7 7 7 7 7 7 7 7 7 7 7 7 7 7 7 7 7 7 7 7 7 7 7 7 7 7 7 7 7 7 255 255 255 255 255 255 255 255 255 255 71 71 71 71 71 71 71 71 71 71 71 71 71 71 71 71 71 71 71 71 71 71 71 71 71 71 71 71 71 71 71 71 71 71 71 71 71 71 71 71 71 255 255 255 255 255 71 71 71 71 71 71 71 71 71 71 71 71 71 71 71 71 71 71 71 71 71 71 71 71 255 255 255 5 5 5 5 5 5 255 255 255 255 255 255 255 255 255 5 5 5 5 5 5 5 5 5 255 255 255 255 255 255 255 255 255 255 255 255 255 255 255 255 255 255 255 255 255 255 255 255 255 255 255 255 255 255 255 255 255 255 29 29 29 29 29 29 29 29 29 29 29 29 29 29 29 29 29 29 29 29 29 29 29 29 29 29 255 255 255 59 59 59 59 59 59 59 59 59 59 59 59 59 59 59 59 59 59 59 59 59 59 59 59 59 59 59 59 59 59 59 59 59 255 
255 1 1 1 1 1 1 1 1 1 1 1 1 1 1 1 1 1 1 1 1 1 1 1 1 1 1 255 255 17 17 17 255 255 70 70 70 70 70 70 70 70 255 255 255 255 255 255 255 255 255 70 70 70 70 70 70 70 70 70 70 70 70 70 70 70 70 70 70 70 70 70 70 70 70 70 70 70 70 70 70 70 70 70 70 70 70 255 255 255 255 255 255 255 255 255 255 255 255 255 255 255 255 255 255 255 255 255 255 255 255 255 255 255 255 70 70 70 255 255 255 255 255 255 255 255 255 255 255 255 255 255 255 255 255 255 255 255 255 255 255 70 70 70 70 70 70 70 70 70 70 70 70 70 70 70 70 70 70 70 70 70 70 70 70 70 70 70 70 70 70 70 70 70 70 70 70 70 70 70 70 70 70 70 70 70 70 70 70 70 70 70 70 70 70 70 70 70 70 70 70 70 70 70 70 70 70 70 70 70 70 70 70 70 70 70 70 70 70 70 70 70 70 70 70 70 70 70 70 70 70 255 255 255 70 255 255 255 255 255 255 255 255 28 28 28 28 28 28 28 28 28 28 28 28 28 28 28 255 255 255 255 255 255 255 255 7 7 7 7 7 7 7 7 7 7 7 7 7 7 7 7 7 7 7 7 7 7 7 7 7 7 7 7 7 7 7 7 7 7 7 7 7 7 7 7 7 7 255 255 255 255 255 255 255 255 255 71 71 71 71 71 71 71 71 71 71 71 71 71 71 71 71 71 71 71 71 71 71 71 71 71 71 71 71 71 71 71 71 71 71 71 71 71 71 71 71 71 71 255 255 255 255 255 71 71 71 71 71 71 71 71 71 71 71 71 71 71 71 71 71 71 71 71 71 71 71 71 255 255 255 5 5 5 5 5 5 5 255 255 255 255 255 255 5 5 5 5 5 5 5 5 5 5 5 255 255 255 255 255 255 255 255 29 255 255 255 255 255 255 255 255 255 255 255 255 255 255 255 255 255 255 255 255 255 255 255 255 255 29 29 29 29 29 29 29 29 29 29 29 29 29 29 29 29 29 29 29 29 29 29 29 29 29 29 255 255 255 59 59 59 59 59 59 59 59 59 59 59 59 59 59 59 59 59 59 59 59 59 59 59 59 59 59 59 59 59 59 59 59 59 255 
255 1 1 1 1 1 1 1 1 1 1 1 1 1 1 1 1 1 1 1 1 1 1 1 1 1 255 255 255 17 17 17 255 255 70 70 70 70 70 70 70 70 255 255 255 255 255 255 255 255 255 70 70 70 70 70 70 70 70 70 70 70 70 70 70 70 70 70 70 70 70 70 70 70 70 70 70 70 70 70 70 70 70 70 70 70 70 255 255 255 255 255 255 255 79 79 255 255 255 255 255 255 255 255 255 255 255 255 40 255 255 255 255 255 255 255 70 70 255 255 255 255 255 255 255 255 255 255 255 255 70 255 255 255 255 255 255 255 255 255 255 70 70 70 70 70 70 70 70 70 70 70 70 70 70 70 70 70 70 70 70 70 70 70 70 70 70 70 70 70 70 70 70 70 70 70 70 70 70 70 70 70 70 70 70 70 70 70 70 70 70 70 70 70 70 70 70 70 70 70 70 70 70 70 70 70 70 70 70 70 70 70 70 70 70 70 70 70 70 70 70 70 70 70 70 70 70 70 70 70 70 70 70 70 70 255 255 255 255 255 255 255 255 28 28 28 28 28 28 28 28 28 28 28 28 28 28 28 28 255 255 255 255 255 255 255 7 7 7 7 7 7 7 7 7 7 7 7 7 7 7 7 7 7 7 7 7 7 7 7 7 7 7 7 7 7 7 7 7 7 7 7 7 7 7 7 7 255 255 255 255 255 255 255 30 255 255 71 71 71 71 71 71 71 71 71 71 71 71 71 71 71 71 71 71 71 71 71 71 71 71 71 71 71 71 71 71 71 71 71 71 71 71 71 71 71 71 71 71 255 255 255 255 255 71 71 71 71 71 71 71 71 71 71 71 71 71 71 71 71 71 71 71 71 71 71 71 71 255 255 255 255 255 5 5 5 5 5 255 255 255 255 255 255 5 5 5 5 5 5 5 5 5 5 5 255 255 255 255 255 255 255 255 255 255 255 255 255 255 255 255 255 255 255 255 255 255 255 255 255 255 255 255 255 255 29 255 255 255 255 29 29 29 29 29 29 29 29 29 29 29 29 29 29 29 29 29 29 29 29 29 29 29 29 29 255 255 255 59 59 59 59 59 59 59 59 59 59 59 59 59 59 59 59 59 59 59 59 59 59 59 59 59 59 59 59 59 59 59 59 59 255 
255 1 1 1 1 1 1 1 1 1 1 1 1 1 1 1 1 1 1 1 1 1 1 1 1 1 255 255 255 17 17 255 255 255 70 70 70 70 70 70 70 70 70 255 255 255 255 255 255 255 255 70 70 70 70 70 70 70 70 255 255 255 70 70 70 70 70 70 70 70 70 70 70 70 70 70 70 70 70 70 70 70 70 70 70 70 70 255 255 255 255 255 255 255 79 79 79 255 255 255 255 255 255 255 255 255 255 255 255 255 255 255 40 255 255 255 255 70 255 255 255 255 255 255 255 255 255 255 255 255 255 70 255 255 255 255 255 255 255 255 255 70 255 255 255 70 70 70 70 70 70 70 70 70 70 70 70 70 70 70 70 70 70 70 70 70 70 70 70 70 70 70 70 70 70 70 70 70 70 70 70 70 70 70 70 70 70 70 70 70 70 70 70 70 70 70 70 70 70 70 70 70 70 70 70 70 70 70 70 70 70 70 70 70 70 70 70 70 70 70 70 70 70 70 70 70 70 70 70 70 70 70 70 70 70 70 70 70 255 255 255 255 255 255 255 28 28 28 28 28 28 28 28 28 28 28 28 28 28 255 255 255 255 255 255 255 7 7 7 255 255 255 7 7 7 7 7 7 7 7 7 7 7 7 7 7 7 7 7 7 7 7 7 7 7 7 7 7 7 7 7 7 7 7 7 7 7 255 255 255 255 255 255 255 255 255 255 71 71 71 71 71 71 71 71 71 71 71 71 71 71 71 71 71 71 71 71 71 71 71 71 71 71 71 71 71 71 71 71 71 71 71 71 71 71 71 71 71 71 255 255 255 255 255 71 71 71 71 71 71 71 71 71 71 71 71 71 71 71 71 71 255 255 255 71 71 71 71 71 255 255 255 255 5 5 5 5 5 255 255 255 255 255 255 5 5 255 255 255 5 5 5 5 255 255 255 255 255 255 255 255 255 255 255 255 255 255 255 255 255 255 255 255 255 255 255 255 255 255 255 255 255 255 255 255 29 29 255 255 255 29 29 29 29 29 29 29 29 29 29 29 29 29 29 29 29 29 29 29 29 29 29 29 29 255 255 255 255 59 59 59 59 59 59 59 59 59 59 59 59 59 59 59 59 59 59 59 59 59 59 59 59 59 59 59 59 59 59 59 59 59 255 
255 1 1 1 1 1 1 1 1 1 1 1 1 1 1 1 1 1 1 1 1 1 1 1 1 1 255 255 255 17 17 255 255 255 70 70 70 70 70 70 70 70 70 255 255 255 255 255 255 255 255 70 70 70 70 70 70 70 70 255 255 255 70 70 70 70 70 70 70 70 70 70 70 70 70 70 70 70 70 70 70 70 70 70 70 70 70 255 255 255 255 255 255 255 79 79 79 79 79 255 255 255 255 255 255 255 255 255 255 255 255 255 40 40 255 255 255 255 255 255 255 255 255 255 255 255 255 255 255 255 255 70 255 255 255 255 255 255 255 255 255 255 255 255 255 70 70 70 70 70 70 70 70 70 70 70 70 70 70 70 70 70 70 70 70 70 70 70 70 70 70 70 70 70 70 70 70 70 70 70 70 70 70 70 70 70 70 70 70 70 70 70 70 70 70 70 70 70 70 70 70 70 70 70 70 70 70 70 70 70 70 70 70 70 70 70 70 70 70 70 70 70 70 70 70 70 70 70 70 70 70 70 70 70 70 70 70 70 255 255 255 255 255 255 255 28 28 28 28 28 28 28 28 28 28 28 28 28 255 255 255 255 255 255 255 255 7 7 7 255 255 255 255 255 7 7 7 7 7 7 7 7 7 7 7 7 7 7 7 7 7 7 7 7 7 7 7 7 7 7 7 7 7 7 7 7 7 255 255 255 255 255 255 30 255 255 255 71 71 71 71 71 71 71 71 71 71 71 71 71 71 71 71 71 71 71 71 71 71 71 71 71 71 71 71 71 71 71 71 71 71 71 71 71 71 71 71 71 71 255 255 255 255 71 71 71 255 255 255 71 71 71 71 71 71 71 71 71 71 71 71 255 255 255 71 71 71 71 71 255 255 255 255 5 5 5 5 5 255 255 255 255 255 255 255 255 255 255 255 255 5 5 5 255 255 255 255 255 255 255 255 255 255 255 255 255 255 255 255 255 255 255 255 255 255 5 255 255 255 255 255 255 255 255 255 29 29 255 255 255 255 255 29 29 29 29 29 29 29 29 255 255 255 29 29 29 29 29 29 29 29 29 29 29 255 255 255 255 59 59 59 59 59 59 59 59 59 59 59 59 59 59 59 59 59 59 59 59 59 59 59 59 59 59 59 59 59 59 59 59 59 255 
255 1 1 1 1 1 1 1 1 1 1 1 1 1 1 1 1 1 1 1 1 1 1 1 1 1 1 255 255 17 17 255 255 255 70 70 70 70 70 70 70 70 70 255 255 255 70 255 255 255 255 70 70 70 70 70 70 70 255 255 255 255 70 70 70 70 70 70 70 70 70 70 70 70 70 70 70 70 70 70 70 70 70 70 70 70 70 255 255 255 255 255 255 255 79 79 79 79 79 79 79 255 255 255 255 40 255 255 255 255 255 255 255 40 40 255 255 255 255 255 255 255 255 255 255 255 255 255 255 255 255 255 255 255 255 255 255 255 255 255 70 255 255 255 255 70 70 70 70 70 70 70 70 70 70 70 70 70 70 70 70 70 70 70 70 70 70 70 70 70 70 70 70 70 70 70 70 70 70 70 70 70 70 70 70 70 70 70 70 70 70 70 70 70 70 70 70 70 70 70 70 70 70 70 70 70 70 70 70 70 70 70 70 70 70 70 70 70 70 70 70 70 70 70 70 70 70 70 70 70 70 70 70 70 70 70 70 70 70 70 255 255 255 255 255 255 255 28 28 28 28 28 28 28 28 28 28 28 255 255 255 255 255 255 255 255 255 7 7 255 255 255 255 255 7 7 7 7 7 7 7 7 7 7 7 7 7 7 7 7 7 7 7 7 7 7 7 7 7 7 7 7 7 7 7 7 7 255 255 255 255 255 255 30 255 255 71 71 71 71 71 71 71 71 71 71 71 71 71 71 71 71 71 71 71 71 71 71 71 71 71 71 71 71 71 71 71 71 71 71 71 71 71 71 71 71 71 71 71 255 255 255 255 71 71 71 255 255 255 71 71 71 71 71 71 71 71 71 71 71 71 255 255 255 71 71 71 71 71 255 255 5 5 5 5 5 5 5 255 255 255 255 255 255 255 255 255 255 255 255 255 255 255 255 255 255 255 255 255 255 255 255 255 255 255 255 255 255 255 255 255 255 255 255 255 255 255 255 255 255 255 255 255 255 255 255 29 29 29 255 255 255 29 29 29 29 29 255 255 255 255 255 255 29 29 29 29 29 29 29 29 29 29 29 255 255 255 255 59 59 59 59 59 59 59 59 59 59 59 59 59 59 59 59 59 59 59 59 59 59 59 59 59 59 59 59 59 59 59 59 59 255 
255 1 1 1 1 1 1 1 1 1 1 1 1 1 1 1 1 1 1 1 1 1 1 1 1 1 1 255 255 17 17 17 255 255 70 70 70 70 70 70 70 70 70 70 255 255 255 255 255 70 70 70 70 70 70 70 70 70 255 255 255 255 70 70 70 70 70 70 70 70 70 70 70 70 70 70 70 70 70 70 70 70 70 70 70 70 70 255 255 255 255 255 255 255 255 79 79 79 79 79 79 79 255 255 255 255 255 255 40 255 255 255 255 40 40 40 255 255 255 255 255 255 255 255 255 255 255 255 255 255 255 255 255 255 255 255 255 70 70 70 70 255 255 255 70 70 70 70 70 70 70 70 70 70 70 70 70 70 70 70 70 70 70 70 70 70 70 70 70 70 70 70 70 70 255 255 255 70 70 70 70 70 70 70 70 70 70 70 70 70 70 70 70 70 70 70 70 70 70 70 70 70 70 70 70 70 70 70 70 70 70 70 70 70 70 70 70 70 70 70 70 70 70 70 70 70 70 70 70 70 70 70 70 70 70 70 70 70 70 70 70 70 70 255 255 255 255 28 28 28 28 28 28 28 28 28 28 28 255 255 255 255 255 255 255 255 255 7 7 7 7 255 255 255 7 7 7 7 7 7 7 7 7 7 7 7 7 7 7 7 7 7 7 7 7 7 7 7 7 7 7 7 7 7 7 7 255 255 255 255 255 255 30 30 255 255 255 71 71 71 71 71 71 71 71 71 71 71 71 71 71 71 71 71 71 71 71 71 71 71 71 71 71 71 71 71 71 71 71 71 71 71 71 71 71 71 71 71 71 255 255 255 255 71 71 71 255 255 255 71 71 71 71 71 71 71 71 71 71 71 71 255 255 255 71 71 71 71 71 255 255 5 5 5 5 5 5 5 255 255 255 255 255 255 29 29 255 255 255 255 255 255 255 255 255 255 255 255 255 255 255 255 255 255 255 255 255 255 255 255 255 255 255 255 255 255 255 255 255 255 255 255 255 255 255 255 29 29 29 255 255 255 29 29 29 29 29 255 255 255 255 255 255 29 29 29 29 29 29 29 29 29 29 29 255 255 255 255 59 59 59 59 59 59 59 59 59 59 59 59 59 59 59 59 59 59 59 59 59 59 59 59 59 59 59 59 59 59 59 59 59 255 
255 1 1 1 1 1 1 1 1 1 1 1 1 1 1 1 1 1 1 1 1 1 1 1 1 1 1 255 255 17 17 255 255 255 70 70 70 70 70 70 70 70 70 70 255 255 255 255 255 70 70 70 70 70 70 70 70 70 255 255 255 255 70 70 70 70 70 70 70 70 70 70 70 70 70 70 70 70 70 70 70 70 70 70 70 70 255 255 255 255 255 255 255 255 255 79 79 79 79 79 79 255 255 255 255 255 255 255 255 255 255 255 255 40 40 40 255 255 255 255 255 255 255 255 255 255 255 255 255 255 255 255 255 255 255 255 255 70 70 70 70 70 70 70 70 70 70 70 70 70 70 70 70 70 70 70 70 70 70 70 70 70 70 70 70 70 70 70 70 70 70 70 70 70 255 255 255 70 70 70 70 70 70 70 70 70 70 70 70 70 70 70 70 70 70 70 70 70 70 70 70 70 70 70 70 70 70 70 70 70 70 70 70 70 70 70 70 70 70 70 70 70 70 70 70 70 70 70 70 70 70 70 70 70 70 70 70 70 70 70 70 70 70 255 255 255 255 255 255 28 28 28 28 28 28 28 28 28 28 28 255 255 255 255 255 255 255 255 255 7 7 255 255 255 7 7 7 7 7 7 7 7 7 7 7 7 7 7 7 7 7 7 7 7 7 7 7 7 7 7 7 7 7 7 7 7 255 255 255 255 255 255 30 30 255 255 255 71 71 71 71 71 71 71 71 71 71 71 71 71 71 71 71 71 71 71 71 71 71 71 71 71 71 71 71 71 71 71 71 71 71 71 71 71 71 71 71 71 71 255 255 255 255 255 71 71 71 71 71 71 71 71 71 71 71 71 71 71 71 71 71 255 255 255 71 71 71 71 71 255 255 5 255 255 255 5 5 5 255 255 29 29 29 29 29 29 29 29 255 255 255 255 255 255 255 255 255 255 255 255 255 255 255 255 255 255 255 255 255 255 255 255 255 255 255 255 255 255 255 255 255 255 255 255 255 255 255 29 29 29 29 29 29 29 29 255 255 255 255 255 29 29 29 29 29 29 29 29 29 29 29 29 29 255 255 255 255 59 59 59 59 59 59 59 59 59 59 59 59 59 59 59 59 59 59 59 59 59 59 59 59 59 59 59 59 59 59 59 59 59 59 255 
255 1 1 1 1 1 1 1 1 1 1 1 1 1 1 1 1 1 1 1 1 1 1 1 1 1 1 255 255 17 17 255 255 255 70 70 70 70 70 70 70 70 70 255 255 255 255 255 255 70 70 70 70 70 70 70 70 70 255 255 255 255 70 70 70 70 70 70 70 70 70 70 70 70 70 70 70 70 70 70 70 70 70 70 70 70 255 255 255 255 255 40 40 255 255 79 79 79 79 79 79 255 255 255 255 255 255 255 255 255 255 255 40 40 40 40 255 255 255 255 255 255 255 255 255 255 255 255 255 255 255 255 255 255 255 255 255 70 70 70 70 70 70 70 70 70 70 70 70 70 70 70 70 70 70 70 70 70 70 70 70 70 70 70 70 70 70 70 70 70 70 70 70 70 255 255 255 70 70 70 70 70 70 70 70 70 70 70 70 70 70 70 70 70 70 70 70 70 70 70 70 70 70 70 70 70 70 70 70 70 70 70 70 70 70 70 70 70 70 70 70 70 70 70 70 70 70 70 70 70 70 70 70 70 70 70 70 70 70 70 70 70 70 255 255 255 255 255 255 255 255 255 28 28 28 28 28 28 28 28 255 255 255 28 255 255 255 255 255 255 255 255 255 255 7 7 7 7 7 7 7 7 7 7 7 7 7 7 7 7 7 7 7 7 7 7 7 7 7 7 7 7 7 7 7 255 255 255 255 255 30 30 30 30 255 255 255 71 71 71 71 71 71 71 71 71 71 71 71 71 71 71 71 71 71 71 71 71 71 71 71 71 71 71 71 71 71 71 71 71 71 71 71 71 71 71 71 71 71 255 255 255 255 255 71 71 71 71 71 71 71 71 71 71 71 71 71 71 71 71 71 255 255 255 71 71 71 71 71 255 255 5 255 255 255 5 5 5 255 255 29 29 29 29 29 29 29 29 29 29 29 29 29 255 255 255 29 255 255 255 255 255 255 255 255 255 255 255 255 255 255 255 255 255 255 255 255 255 255 255 255 29 255 255 255 255 255 29 29 29 29 29 29 29 29 255 255 255 29 29 29 29 29 29 29 29 29 29 29 29 29 29 29 255 255 255 255 59 59 59 59 59 59 59 59 59 59 59 59 59 59 59 59 59 59 59 59 59 59 59 59 59 59 59 59 59 59 59 59 59 59 255 
255 1 1 1 1 1 1 1 1 1 1 1 1 1 1 1 1 1 1 1 1 1 1 1 1 1 1 255 255 17 17 255 255 255 70 70 70 70 70 70 70 70 70 255 255 255 255 255 70 70 70 70 70 70 70 70 70 70 70 70 70 70 70 70 70 70 70 70 70 70 70 70 70 70 70 70 70 70 70 70 70 70 70 70 70 70 255 255 255 255 255 40 40 255 255 255 79 79 79 79 79 255 255 255 255 255 255 255 255 255 255 255 255 255 255 255 255 255 255 255 255 255 255 255 40 40 255 255 255 255 255 255 70 70 255 255 255 255 255 70 70 70 70 70 70 70 70 70 70 70 70 70 70 70 70 70 70 70 70 70 70 70 70 70 70 70 70 70 70 70 70 70 70 70 255 255 255 70 70 70 70 70 70 70 70 70 70 70 70 70 70 70 70 70 70 70 70 70 70 70 70 70 70 70 70 70 70 70 70 70 70 70 70 70 70 70 70 70 70 70 70 70 70 70 70 70 70 70 70 70 70 70 70 70 70 70 70 70 70 70 70 70 70 70 70 70 255 255 255 255 255 255 255 255 255 255 255 255 255 255 255 255 255 255 255 255 255 255 255 255 255 255 255 255 255 255 255 255 7 7 7 7 7 7 7 7 7 7 7 7 7 7 7 7 7 7 7 7 7 7 7 7 7 7 7 255 255 255 255 255 30 30 30 30 255 255 255 71 71 71 71 71 71 71 71 71 71 71 71 71 71 71 71 71 71 71 71 71 71 71 71 71 71 71 71 71 71 71 71 71 71 71 71 71 71 71 71 71 71 255 255 255 255 255 71 71 71 71 71 71 71 71 71 71 71 71 71 71 71 71 71 255 255 255 71 71 71 71 255 255 255 5 255 255 255 5 255 255 255 255 29 29 29 29 29 29 29 29 29 29 29 29 29 255 255 255 29 29 29 29 29 29 255 255 255 255 255 255 255 255 255 255 255 255 5 5 255 255 255 255 255 29 29 29 255 255 255 29 29 29 29 29 29 29 29 255 255 255 29 29 29 29 29 29 29 29 29 29 29 29 29 29 29 255 255 255 255 59 59 59 59 59 59 59 59 59 59 59 59 59 59 59 59 59 59 59 59 59 59 59 59 59 59 59 59 59 59 59 59 59 59 255 
255 1 1 1 1 1 1 1 1 1 1 1 1 1 1 1 1 1 1 1 1 1 1 1 1 1 255 255 255 17 17 255 255 255 70 70 70 70 70 70 70 70 255 255 255 255 255 70 70 70 70 70 70 70 70 70 70 70 70 70 70 70 70 70 70 70 70 70 70 70 70 70 70 70 70 70 70 70 70 70 70 70 70 70 70 70 255 255 255 255 255 255 255 255 255 255 79 79 79 79 79 255 255 255 255 255 255 255 255 255 255 255 255 255 255 255 255 255 255 255 255 255 255 255 255 255 255 255 255 255 255 255 70 255 255 255 255 255 255 255 70 70 70 70 70 70 70 70 70 70 70 70 70 70 70 70 70 70 70 70 70 70 70 70 70 70 70 70 70 70 70 70 70 70 70 70 70 70 70 70 70 70 70 70 70 70 70 70 70 70 70 70 70 70 70 70 70 70 70 70 70 70 70 70 70 70 70 70 70 70 70 70 70 70 70 70 70 70 70 70 70 70 70 70 70 70 70 70 70 70 70 70 70 70 70 70 70 70 70 70 70 70 70 70 70 70 255 255 255 255 255 255 255 255 255 255 255 255 255 255 255 255 255 255 255 255 255 255 28 28 255 255 255 255 255 255 255 255 255 7 7 7 7 7 7 7 7 7 7 7 7 7 7 7 7 7 7 7 7 7 255 255 255 255 255 255 255 255 255 255 30 30 30 30 255 255 71 71 71 71 71 71 71 71 71 71 71 71 71 71 71 71 71 71 71 71 71 71 71 71 71 71 71 71 71 71 71 71 71 71 71 71 71 71 71 71 71 71 71 255 255 255 255 255 71 71 71 71 71 71 71 71 71 71 71 71 71 71 71 71 71 71 71 71 71 71 71 71 255 255 255 5 255 255 255 5 255 255 255 255 29 29 29 29 29 29 29 29 29 29 29 29 29 255 255 255 29 29 29 29 29 29 255 255 255 255 255 255 255 255 255 29 255 255 255 255 255 255 255 255 255 255 255 29 29 29 255 255 255 29 29 29 29 29 29 29 29 29 29 29 29 29 29 29 29 29 29 29 29 29 29 29 255 255 255 255 255 59 59 59 59 59 59 59 59 59 59 59 59 59 59 59 59 59 59 59 59 59 59 59 59 59 59 59 59 59 59 59 59 59 59 255 
255 1 1 1 1 1 1 1 1 1 1 1 1 1 1 1 1 1 1 1 1 1 1 1 1 1 255 255 255 17 17 255 255 255 70 70 70 70 70 70 70 255 255 255 255 255 255 70 70 70 70 70 70 70 70 70 70 70 70 70 70 70 70 70 70 70 70 70 70 70 70 70 70 70 70 70 70 70 70 70 70 70 70 70 70 70 70 255 255 255 255 255 255 40 255 255 79 79 79 79 79 79 79 79 79 255 255 255 255 255 255 255 255 255 255 255 255 255 255 255 255 255 255 255 255 255 255 255 255 255 255 255 255 255 255 255 255 255 255 255 255 70 70 70 70 70 70 70 70 70 70 70 70 70 70 70 70 70 70 70 70 70 70 70 70 70 70 70 70 70 70 70 70 70 70 70 70 70 70 70 70 70 70 70 70 70 70 70 70 70 70 70 70 70 70 70 70 70 70 70 70 70 70 70 70 70 70 70 70 70 70 70 70 70 70 70 70 70 70 70 70 70 70 70 70 70 70 70 70 70 70 70 70 70 70 70 70 70 70 70 70 70 70 70 70 70 70 70 70 70 70 70 70 70 70 255 255 255 255 255 255 255 255 255 255 255 255 255 255 255 255 255 255 255 255 255 255 255 255 7 7 7 7 7 7 7 7 7 7 7 7 7 7 7 7 7 7 7 7 7 255 255 255 255 255 255 255 30 30 30 30 30 30 30 255 255 71 71 71 71 71 71 71 71 71 71 71 71 71 71 71 71 71 71 71 71 71 71 71 71 71 71 71 71 71 71 71 71 71 71 71 71 71 71 71 71 71 71 71 255 255 255 255 255 71 71 71 71 71 71 71 71 71 71 71 71 71 71 71 71 71 71 71 71 71 71 71 71 255 255 255 255 255 255 255 255 255 255 255 255 255 255 255 255 255 255 29 29 29 29 29 29 29 29 29 29 29 29 29 29 29 29 29 29 29 255 255 255 255 255 255 29 255 255 255 255 255 255 255 255 255 255 255 29 29 29 255 255 255 29 255 255 255 29 29 29 29 29 29 29 29 29 29 29 29 29 29 29 29 29 29 29 255 255 255 255 59 59 59 59 59 59 59 59 59 59 59 59 59 59 59 59 59 59 59 59 59 59 59 59 59 59 59 59 59 59 59 59 59 59 59 255 
255 1 1 1 1 1 1 1 1 1 1 1 1 1 1 1 1 1 1 1 1 1 1 1 1 1 255 255 255 17 17 255 255 255 70 70 70 70 70 70 255 255 255 255 255 255 70 255 255 255 70 70 70 70 70 70 70 70 70 70 70 70 70 70 70 70 70 70 70 70 70 70 70 70 70 70 70 70 70 70 70 70 70 70 70 70 70 255 255 255 255 255 255 255 255 255 79 79 79 79 79 79 79 79 79 255 255 255 255 255 255 255 255 79 255 255 255 255 255 255 255 255 255 255 255 255 255 255 255 255 255 255 255 255 255 255 255 255 255 255 255 70 70 70 70 70 70 70 70 70 70 70 70 70 70 70 70 70 70 70 70 70 70 70 70 70 70 70 70 70 70 70 70 70 70 70 70 70 70 70 70 70 70 70 70 70 70 70 70 70 70 70 70 70 70 70 70 70 70 70 70 70 70 70 70 70 70 70 70 70 70 70 70 70 70 70 70 70 70 70 70 70 70 70 70 70 70 70 70 70 70 70 70 70 70 70 70 70 70 70 70 70 70 70 70 70 70 70 70 70 70 70 255 255 255 255 255 255 255 255 255 255 255 255 28 28 28 28 255 255 255 255 255 255 255 255 255 255 255 7 7 7 7 7 7 7 7 7 7 7 7 7 7 7 7 7 7 7 7 7 255 255 255 255 255 30 30 30 30 30 30 30 255 255 255 255 71 71 71 71 71 71 71 71 71 71 71 71 71 71 71 71 71 71 71 71 71 71 71 71 71 71 71 71 71 71 71 71 71 71 71 71 71 71 71 71 71 71 71 71 255 255 255 255 71 71 71 71 71 71 71 71 71 71 71 71 71 71 71 71 71 71 71 71 71 71 71 71 255 255 255 255 255 255 255 255 255 255 255 255 255 255 255 255 255 255 29 29 29 29 29 29 29 29 29 29 29 29 29 29 29 29 29 29 29 29 29 29 29 29 29 29 29 29 255 255 255 255 255 255 255 255 255 29 29 29 255 255 255 29 255 255 255 29 29 29 29 29 29 29 29 29 29 29 29 29 29 29 29 29 29 29 255 255 255 255 59 59 59 59 59 59 59 59 59 59 59 59 59 59 59 59 59 59 59 59 59 59 59 59 59 59 59 59 59 59 59 59 59 59 59 255 
255 1 1 1 1 1 1 1 1 1 1 1 1 1 1 1 1 1 1 1 1 1 1 1 1 1 255 255 255 17 17 255 255 255 70 70 70 70 70 255 255 255 255 255 255 70 255 255 255 255 255 70 70 70 70 70 70 70 70 70 70 70 70 70 70 70 70 70 70 70 70 70 70 70 70 70 70 70 70 70 70 70 70 70 70 70 70 255 255 255 255 40 255 255 255 255 255 79 79 79 79 79 79 79 79 79 255 255 255 255 255 255 255 79 79 255 255 255 255 255 255 255 40 40 40 255 255 255 255 255 255 40 255 255 255 255 255 255 255 255 255 255 70 70 70 70 70 70 70 70 70 70 70 70 70 70 70 70 70 70 70 70 70 70 70 70 70 70 70 70 70 70 70 70 70 70 70 70 70 70 70 70 70 70 70 70 70 70 70 70 70 70 70 70 70 70 70 70 70 70 70 70 70 70 70 70 70 70 70 70 70 70 70 70 70 70 70 70 70 70 70 70 70 70 70 70 70 70 70 70 255 255 255 70 70 70 70 70 70 70 70 255 255 255 255 255 255 255 255 255 255 255 255 255 255 255 255 255 255 255 255 255 255 255 255 255 255 255 255 255 255 255 255 255 255 255 255 255 7 7 7 7 7 7 7 7 7 7 7 7 7 7 7 7 7 7 7 7 7 7 7 255 255 255 255 255 255 255 255 255 255 255 255 255 255 255 71 71 71 71 71 71 71 71 71 71 71 71 71 71 71 71 71 71 71 71 71 71 71 71 71 71 71 71 71 71 71 71 71 71 71 71 71 71 71 71 71 71 71 71 255 255 255 255 71 71 255 255 255 71 71 71 71 71 71 71 71 71 71 71 71 71 71 71 71 71 71 71 255 255 255 255 255 255 5 255 255 29 255 255 255 255 255 255 255 255 255 255 255 29 29 29 29 29 29 29 29 29 29 29 29 29 29 29 29 29 29 29 29 29 29 29 29 29 255 255 255 255 255 255 255 255 255 29 29 29 29 29 29 29 255 255 255 29 29 29 29 29 29 29 29 29 29 29 29 29 29 29 29 29 29 255 255 255 255 255 59 59 59 59 59 59 59 59 59 59 59 59 59 59 59 59 59 59 59 59 59 59 59 59 59 59 59 59 59 59 59 59 59 59 59 255 
255 1 1 1 1 1 1 1 1 1 1 1 1 1 1 1 1 1 1 1 1 1 1 1 1 1 255 255 17 17 17 255 255 255 70 70 70 255 255 255 255 255 255 255 255 70 255 255 255 255 255 70 70 70 70 70 70 70 70 70 70 70 70 70 70 70 70 70 70 70 70 70 70 70 70 70 70 70 70 70 70 70 70 70 70 70 70 255 255 255 255 40 255 255 255 255 255 255 255 255 255 79 79 79 79 79 79 255 255 255 255 255 255 255 79 255 255 255 255 255 255 255 255 255 255 255 255 255 255 40 40 40 40 255 255 255 255 255 255 255 255 255 255 70 70 70 70 70 70 70 70 70 70 70 70 70 70 70 70 70 70 70 70 70 70 70 70 70 70 70 70 70 70 70 70 70 70 70 70 70 70 70 70 70 70 70 70 70 70 70 70 70 70 70 70 70 70 70 70 70 70 70 70 70 70 70 70 70 70 70 70 70 70 70 70 70 70 70 70 70 70 70 70 70 70 70 70 70 70 70 255 255 255 70 70 70 70 70 255 255 255 255 255 255 255 255 255 255 255 255 255 255 255 255 255 255 255 255 255 255 255 255 255 255 255 255 255 255 255 255 255 255 255 255 255 255 255 255 7 7 7 7 7 7 7 7 7 7 7 7 7 7 7 7 7 7 7 7 7 7 7 7 7 255 255 255 255 255 255 255 255 255 255 255 255 255 255 255 71 71 71 71 71 71 71 71 71 71 71 71 71 71 71 71 71 71 71 71 71 71 71 71 71 71 71 71 71 71 71 71 71 71 71 71 71 71 71 71 71 71 255 255 255 255 71 71 255 255 255 71 71 71 71 71 71 71 71 71 71 71 71 71 71 71 71 71 71 71 255 255 255 255 255 255 5 255 255 29 255 255 255 255 29 255 255 255 255 255 255 255 255 255 29 29 29 29 29 29 29 29 29 29 29 29 29 29 29 29 29 29 29 29 29 29 29 29 255 255 255 255 29 29 29 29 29 29 29 29 29 29 29 29 29 29 29 29 29 29 29 29 29 29 29 29 29 29 29 29 29 29 29 255 255 255 255 59 59 59 59 59 59 59 59 59 59 59 59 59 59 59 59 59 59 59 59 59 59 59 59 59 59 59 59 59 59 59 59 59 59 59 59 255 
255 1 1 1 1 1 1 1 1 1 1 1 1 1 1 1 1 1 1 1 1 1 1 1 1 1 255 255 17 17 17 255 255 255 70 70 255 255 255 255 255 255 255 255 255 70 255 255 255 255 255 70 70 70 70 70 70 70 70 70 70 70 70 70 70 70 70 70 70 70 70 70 70 70 70 70 70 70 70 70 70 70 70 70 70 70 70 70 255 255 255 40 255 255 255 255 255 255 255 255 255 79 79 79 79 79 79 255 255 255 255 255 255 255 79 255 255 255 255 255 255 255 255 255 255 255 255 255 255 255 255 255 255 255 255 255 255 255 255 255 255 255 255 255 255 70 70 70 70 70 70 70 70 70 70 70 70 70 70 70 70 70 70 70 70 70 70 70 70 70 70 70 70 70 70 70 70 70 70 70 70 70 70 70 70 70 70 70 70 70 70 70 70 70 70 70 70 70 70 70 70 70 70 70 70 70 70 70 70 70 70 70 70 70 70 70 70 70 70 70 70 70 70 70 70 70 70 70 70 70 255 255 255 70 255 255 255 255 255 255 255 255 255 28 28 28 28 255 255 255 255 255 28 255 255 255 255 255 255 255 255 255 255 255 255 255 255 255 255 255 255 255 255 255 255 7 7 7 7 7 7 7 7 7 7 7 7 7 7 7 7 7 7 7 7 7 7 7 7 7 7 7 7 7 7 7 255 255 255 255 255 255 255 255 255 255 255 255 255 255 255 71 71 71 71 71 71 71 71 71 71 71 71 71 71 71 71 71 71 71 71 71 71 71 71 71 71 71 71 71 71 71 71 71 71 71 71 71 71 71 255 255 255 255 71 71 255 255 255 71 71 71 71 71 71 71 71 71 71 71 71 71 71 71 71 71 71 71 255 255 255 255 255 255 5 255 255 29 255 255 255 255 255 255 255 255 255 255 255 255 255 255 255 29 29 29 29 29 29 29 29 29 29 29 29 29 29 29 29 29 29 29 29 29 29 29 29 29 29 29 29 29 29 29 29 29 29 29 29 29 29 29 29 29 29 29 29 29 29 29 29 29 29 29 29 29 29 29 29 29 29 255 255 255 255 59 59 59 59 59 59 59 59 59 59 59 59 59 59 59 59 59 59 59 59 59 59 59 59 59 59 59 59 59 59 59 59 59 59 59 59 255 
255 1 1 1 1 1 1 1 1 1 1 1 1 1 1 1 1 1 1 1 1 1 1 1 1 1 255 255 17 17 17 255 255 255 70 255 255 255 255 255 255 255 255 255 255 70 255 255 255 255 70 70 70 70 70 70 70 70 70 70 70 70 70 70 70 70 70 70 70 70 70 70 70 70 70 70 70 70 70 70 70 70 70 70 70 70 70 70 255 255 40 40 255 255 255 255 255 255 255 255 255 79 79 79 79 79 79 255 255 255 255 255 255 255 79 79 255 255 255 255 255 255 255 255 255 255 255 255 255 255 255 255 255 255 255 255 255 255 255 255 255 255 255 255 255 255 70 70 70 70 70 70 70 70 70 70 70 70 70 70 70 70 70 70 70 70 70 70 70 70 70 70 70 70 70 70 70 70 70 70 70 70 70 70 70 70 70 70 70 70 70 70 70 70 70 70 70 70 70 70 70 70 70 70 70 70 70 70 70 70 70 70 70 70 70 70 70 70 70 70 70 70 70 70 70 70 70 70 70 70 70 70 255 255 255 255 255 255 255 255 28 28 28 28 28 28 28 255 255 255 255 255 28 255 255 255 255 255 255 255 255 255 255 255 255 255 255 255 255 255 255 255 255 255 255 255 7 7 7 7 7 7 7 7 7 7 7 7 7 7 7 7 7 7 7 7 7 7 7 7 7 7 7 7 7 7 255 255 255 62 62 62 62 255 255 255 255 255 255 255 255 255 255 255 71 71 71 71 71 71 71 71 71 71 71 71 71 71 71 71 71 71 71 71 71 71 71 71 71 71 71 71 71 71 71 71 71 71 71 71 255 255 255 255 71 71 71 71 71 71 71 71 71 71 71 71 71 71 71 71 71 71 71 71 71 71 71 71 255 255 255 255 255 255 5 255 255 29 255 255 255 255 255 29 29 255 255 255 255 255 255 255 255 29 29 29 29 29 29 29 29 29 255 255 255 29 29 29 29 29 29 29 29 29 29 29 29 29 29 29 29 29 29 29 29 29 29 29 29 29 29 29 29 29 29 29 29 29 29 29 29 29 29 29 29 29 29 29 29 29 29 255 255 255 255 59 59 59 59 59 59 59 59 59 59 59 59 59 59 59 59 59 59 59 59 59 59 59 59 59 59 59 59 59 59 59 59 59 59 59 59 255 
255 1 1 1 1 1 1 1 1 1 1 1 1 1 1 1 1 1 1 1 1 1 1 1 1 1 255 255 17 17 17 255 255 70 255 255 255 255 255 255 255 255 255 70 70 255 255 255 255 255 70 70 70 70 70 70 70 70 70 70 70 70 70 70 70 70 70 70 70 70 70 70 70 70 70 70 70 70 70 70 70 70 70 70 70 70 70 70 255 255 40 40 255 255 255 255 255 255 255 79 79 79 79 79 79 79 79 79 255 255 255 255 255 255 79 255 255 255 255 255 255 255 255 255 255 255 255 255 255 255 255 255 255 80 80 80 255 255 255 255 255 255 255 255 255 255 255 70 70 70 70 70 70 70 70 70 70 70 70 70 70 70 70 70 70 70 70 70 70 70 70 70 70 70 70 70 70 70 70 70 70 70 70 70 70 70 70 70 70 70 70 70 70 70 70 70 70 70 70 70 70 70 70 70 70 70 70 70 70 70 70 70 70 70 70 70 70 70 70 70 70 70 70 70 70 70 70 70 70 70 70 70 255 255 255 255 255 255 255 255 28 28 28 28 28 28 28 255 255 255 255 255 28 255 255 255 255 255 255 255 255 28 28 28 255 255 255 255 255 255 255 255 255 255 255 255 7 7 7 7 7 7 7 7 7 7 7 7 7 7 7 7 7 7 7 7 7 7 7 7 7 7 7 7 7 7 7 255 255 62 62 62 62 62 62 62 255 255 255 255 255 255 255 255 255 255 71 71 71 71 71 71 71 71 71 71 71 71 71 71 71 71 71 71 71 71 71 71 71 71 71 71 71 71 71 71 71 71 71 71 255 255 255 255 71 71 71 71 71 71 71 71 71 71 71 71 71 71 71 71 71 71 71 71 71 71 71 71 255 255 255 255 255 255 255 255 255 29 255 255 255 255 255 29 29 255 255 255 255 255 255 255 255 255 255 255 255 29 29 29 29 29 255 255 255 255 255 255 29 29 29 29 255 255 255 29 29 29 29 29 29 29 29 29 29 29 29 29 29 29 29 29 29 29 29 29 29 29 29 29 29 29 29 29 29 29 29 29 29 29 29 255 255 255 255 59 59 59 59 59 59 59 59 59 59 59 59 59 59 59 59 59 59 59 59 59 59 59 59 59 59 59 59 59 59 59 59 59 59 255 255 255 
255 1 1 1 1 1 1 1 1 1 1 1 1 1 1 1 1 1 1 1 1 1 1 1 1 1 255 255 17 17 255 255 255 255 255 255 255 255 255 255 255 255 70 70 70 255 255 255 255 255 70 70 70 70 70 70 70 70 70 70 70 70 70 70 70 70 70 70 70 70 70 70 70 70 70 70 70 70 70 70 70 70 70 70 70 70 70 255 255 255 40 40 255 255 255 255 255 255 255 255 79 79 79 79 79 79 79 79 79 255 255 255 255 255 255 255 255 255 255 255 255 255 255 255 255 255 255 255 255 255 255 255 255 255 255 80 80 255 255 255 255 255 255 255 255 255 255 255 70 70 70 70 70 70 70 70 70 70 70 70 70 70 70 70 70 70 70 70 70 70 70 70 70 70 70 70 70 70 70 70 70 70 70 70 70 70 70 70 70 70 70 70 70 70 70 70 70 70 70 70 70 70 70 70 70 70 70 70 70 70 70 70 70 70 70 70 70 70 70 70 70 70 70 70 70 70 70 70 70 70 70 70 255 255 255 255 255 255 255 255 28 28 28 28 28 28 28 28 28 28 28 28 28 255 255 255 28 28 28 28 255 255 255 28 255 255 255 28 28 255 255 255 255 255 255 255 7 7 7 7 7 7 7 7 7 7 7 7 7 7 7 7 7 7 7 7 7 7 7 7 7 7 7 7 7 7 7 255 255 62 62 62 62 62 62 62 62 62 62 255 255 255 255 255 255 255 255 255 71 71 71 71 71 71 71 71 71 71 71 71 71 71 71 71 71 71 71 71 71 71 71 71 71 71 71 71 71 71 71 71 255 255 255 255 71 71 71 71 71 71 71 71 71 71 71 71 71 71 71 71 71 71 71 71 71 71 71 71 255 255 255 255 255 255 255 255 255 29 29 255 255 255 29 29 29 255 255 255 255 255 255 255 255 255 255 255 255 29 29 29 29 29 255 255 255 255 255 255 255 255 255 29 255 255 255 29 29 29 255 255 255 29 29 29 29 29 29 29 29 29 29 29 29 29 29 29 29 29 29 29 29 29 29 29 29 29 29 29 29 29 29 255 255 255 255 59 59 59 59 59 59 59 59 59 59 59 59 59 59 59 59 59 59 59 59 59 59 59 59 59 59 59 59 59 59 59 59 255 255 255 255 255 
255 1 1 1 1 1 1 1 1 1 1 1 1 1 255 255 255 1 1 1 1 1 1 1 1 1 255 255 17 17 255 255 255 255 255 255 255 255 255 255 255 70 70 70 70 255 255 255 255 255 70 70 70 70 70 70 70 70 70 70 70 70 70 70 70 70 70 70 70 70 70 70 70 70 70 70 70 70 70 70 70 70 70 70 70 70 70 255 255 255 40 40 255 255 255 255 255 255 255 255 255 79 79 79 79 79 79 79 79 79 255 255 255 255 255 255 255 255 255 255 255 255 255 255 255 255 255 255 255 255 255 255 255 255 255 255 80 80 255 255 255 255 255 255 255 255 255 255 255 70 70 70 70 70 70 70 70 70 70 70 70 70 70 70 70 70 70 70 70 70 70 70 70 70 70 70 70 70 70 70 70 70 70 70 70 70 70 70 70 70 70 70 70 70 70 70 70 70 70 70 70 70 70 70 70 70 70 70 70 70 70 70 70 70 70 70 70 70 70 70 70 70 70 70 70 70 70 70 70 70 70 70 70 70 255 255 255 255 255 28 28 28 28 28 28 28 28 28 28 28 28 28 28 28 28 28 28 28 28 28 255 255 255 28 28 28 28 28 28 255 255 255 255 7 7 7 7 7 7 7 7 7 7 7 7 7 7 7 7 7 7 255 255 255 7 7 7 7 7 7 7 7 7 7 7 255 255 255 255 62 62 62 62 62 62 62 62 62 62 62 62 62 255 255 255 255 255 255 255 255 255 71 71 71 71 71 71 71 71 71 71 71 71 71 71 71 71 71 71 71 71 71 71 71 71 71 71 71 71 71 255 255 255 255 71 71 71 71 71 71 71 71 71 71 71 71 71 71 71 71 71 71 71 71 71 71 71 71 255 255 255 255 255 255 255 255 29 29 29 255 255 255 29 29 29 255 255 255 255 255 255 255 255 255 255 255 255 29 255 255 255 255 29 255 255 255 255 255 255 255 255 255 255 255 255 29 29 29 255 255 255 29 29 29 255 255 255 29 29 29 29 29 29 29 29 29 29 29 29 29 29 29 29 29 29 29 29 29 29 29 29 255 255 255 255 59 59 59 59 59 59 59 59 59 59 59 59 59 59 59 59 59 59 59 59 59 59 59 59 59 59 59 59 59 59 59 59 255 255 255 255 255 
255 1 1 1 1 1 1 1 1 1 1 1 1 1 255 255 255 1 1 1 1 1 1 1 1 1 255 255 255 17 255 255 255 255 255 255 255 255 255 255 70 70 70 70 70 255 255 255 255 255 70 70 70 70 70 70 70 70 70 70 70 70 70 70 70 70 70 70 70 70 70 70 70 70 70 70 70 70 70 70 70 70 70 70 70 70 70 255 255 40 40 40 255 255 255 255 255 255 255 255 255 255 79 79 79 79 79 79 79 79 255 255 255 255 255 255 255 255 255 255 255 255 255 255 255 255 255 255 255 255 255 255 255 255 255 255 255 255 80 255 255 255 255 255 255 255 255 255 255 255 70 70 70 70 70 70 70 70 70 70 70 70 70 70 70 70 70 70 70 70 70 70 70 70 70 70 70 70 70 70 70 70 70 70 70 70 70 70 70 70 70 70 70 70 70 70 70 70 70 70 70 70 70 70 70 70 70 70 70 70 70 70 70 70 70 70 70 70 70 70 70 70 70 70 70 70 70 70 70 70 70 70 70 70 255 255 255 255 28 28 28 28 28 28 28 28 28 28 28 28 28 28 28 28 28 28 28 28 28 28 255 255 255 28 28 28 28 255 255 255 255 255 255 7 7 7 7 7 7 7 7 7 7 7 7 7 7 255 255 255 7 255 255 255 7 7 7 7 7 7 7 7 7 7 7 255 255 255 255 62 62 62 62 62 62 62 62 62 62 62 62 62 62 62 62 255 255 255 255 255 255 255 255 71 71 71 71 71 71 71 71 71 71 71 71 71 71 71 71 71 71 71 71 71 71 71 71 71 71 71 255 255 255 255 71 71 71 71 71 71 71 71 71 71 71 71 71 71 71 71 71 71 71 71 71 71 71 71 255 255 255 255 255 255 255 255 29 29 29 29 29 29 29 29 29 29 29 29 29 29 29 29 29 29 29 29 29 29 255 255 255 255 29 29 255 255 255 255 255 255 255 255 255 255 255 255 255 255 255 255 255 29 29 29 255 255 255 29 29 29 29 29 29 29 29 29 29 29 29 29 29 29 29 29 29 29 255 255 255 29 29 255 255 255 255 59 59 59 59 59 59 59 59 59 59 59 59 59 59 59 59 59 59 59 59 59 59 59 59 59 59 59 59 59 59 59 59 255 255 16 16 255 
255 1 1 1 1 1 1 1 1 1 1 1 1 1 255 255 255 1 1 1 1 1 1 1 1 1 255 255 255 255 255 255 255 255 255 255 255 255 255 70 70 70 70 70 70 255 255 255 255 70 70 70 70 70 70 70 70 70 70 70 70 70 70 70 70 70 70 70 70 70 70 70 70 70 70 70 70 70 70 70 70 70 70 70 70 70 70 255 255 255 255 40 40 255 255 255 255 255 255 255 255 255 255 79 79 79 79 79 79 79 255 255 255 255 255 255 255 255 255 255 255 255 255 255 255 255 255 255 255 255 255 255 255 255 255 255 255 255 80 80 255 255 255 255 255 255 255 255 255 255 255 70 70 70 70 70 70 70 70 70 70 70 70 70 70 70 70 70 70 70 70 70 70 70 70 70 70 70 70 70 70 70 70 70 70 70 70 70 70 70 70 70 70 70 70 70 70 70 70 70 70 70 70 70 70 70 70 70 70 70 70 70 70 70 70 70 70 70 70 70 70 70 70 70 70 70 70 70 70 70 70 70 70 70 255 255 255 255 28 28 28 28 28 28 28 28 28 28 28 28 28 28 28 28 28 28 28 28 28 28 28 28 28 28 28 28 255 255 255 255 255 255 255 7 7 7 7 7 7 7 7 7 7 7 7 7 7 255 255 255 7 255 255 255 255 7 7 7 7 7 7 7 7 7 7 255 255 255 62 62 62 62 62 62 62 62 62 62 62 62 62 62 62 62 62 62 62 255 255 255 255 255 255 255 255 71 71 71 71 71 71 71 71 71 71 71 71 71 71 71 71 71 71 71 71 71 71 71 71 71 71 255 255 255 71 71 71 71 71 71 71 71 71 71 71 71 71 71 71 71 71 71 71 71 71 71 71 71 255 255 255 255 255 255 255 255 29 29 29 29 29 29 29 29 29 29 255 255 255 29 29 29 29 29 29 29 29 29 255 255 255 255 255 255 255 255 255 255 255 255 255 255 255 255 255 255 255 255 255 255 255 255 255 255 255 255 255 255 255 255 255 255 255 255 255 255 255 29 29 29 29 29 29 29 29 29 255 255 255 29 29 255 255 255 255 59 59 59 59 59 59 59 59 59 59 59 59 59 59 59 59 59 59 59 59 59 59 59 59 59 59 59 59 59 59 59 59 255 255 16 16 255 
255 1 1 1 1 1 1 1 1 1 1 1 1 1 1 1 1 1 1 1 1 1 1 1 1 1 255 255 255 255 255 255 255 255 255 255 255 255 70 70 70 70 70 70 255 255 255 255 255 70 70 70 70 70 70 70 70 70 70 70 70 70 70 70 70 70 70 70 70 70 70 70 70 70 70 70 255 255 255 70 70 70 70 70 70 70 70 255 255 255 255 255 40 40 255 255 255 255 255 40 255 255 255 255 79 79 79 79 79 79 255 255 255 255 255 255 255 255 255 255 255 255 255 255 255 255 255 255 255 255 255 255 255 255 255 255 255 255 255 80 255 255 255 255 255 255 255 255 255 255 255 255 70 70 70 70 70 70 70 70 70 70 70 70 70 70 70 70 70 70 70 70 70 70 70 70 70 70 70 70 70 70 70 70 70 70 70 70 70 70 70 70 70 70 70 70 70 70 70 70 70 70 70 70 70 70 70 70 70 70 70 70 70 70 70 70 70 70 70 70 70 70 70 70 70 70 70 70 70 70 70 70 70 70 255 255 255 255 28 28 28 28 28 28 28 28 28 28 28 28 28 28 28 28 28 28 28 28 28 28 28 255 255 255 255 28 255 255 255 255 255 255 255 7 7 7 7 7 7 7 7 255 255 255 7 7 255 255 255 255 7 7 255 255 255 7 7 7 7 7 7 7 7 7 7 7 255 255 62 62 62 62 62 62 62 62 62 62 62 62 62 62 62 62 62 62 62 62 62 255 255 255 255 255 255 255 255 255 71 71 71 71 71 71 71 71 71 71 71 71 71 71 71 71 71 71 71 71 71 71 71 255 255 255 71 71 71 71 71 71 71 71 71 71 71 71 71 71 71 71 71 71 71 71 71 71 71 255 255 255 255 255 255 255 255 255 29 29 29 29 29 29 29 29 29 29 255 255 255 29 29 29 29 29 29 29 29 29 29 29 29 29 255 255 255 255 255 255 255 255 255 255 255 255 255 81 81 255 255 255 255 255 255 255 255 255 255 255 255 255 255 255 255 255 255 255 255 255 255 29 29 29 255 255 255 255 255 255 255 255 255 255 255 255 255 255 59 59 59 59 59 59 59 59 59 59 59 59 59 59 59 59 59 59 59 59 59 59 59 59 59 59 59 59 59 255 255 255 255 16 16 255 
255 1 1 1 1 1 1 1 1 1 1 1 1 1 1 1 1 1 1 1 1 1 1 1 1 1 255 255 255 255 255 255 255 255 255 255 255 70 70 70 70 70 70 70 255 255 255 255 255 70 70 70 70 70 70 70 70 70 70 70 70 70 70 70 70 70 70 70 70 70 70 70 70 70 70 70 255 255 255 70 70 70 70 70 70 70 70 70 70 255 255 255 255 40 255 255 255 255 255 255 255 255 255 255 255 255 79 79 79 79 255 255 255 255 255 255 255 255 255 255 255 255 255 255 255 255 255 255 255 255 255 255 255 255 255 255 255 255 255 255 255 255 255 255 255 255 255 255 255 255 255 255 255 70 70 70 70 70 70 70 70 70 70 70 70 70 70 70 70 70 70 70 70 70 70 70 70 70 70 70 70 70 70 70 70 70 70 70 70 70 70 70 70 70 70 70 70 70 70 70 70 70 70 70 70 70 70 70 70 70 70 70 70 70 70 70 70 70 70 70 70 70 70 70 70 70 70 70 70 70 70 70 70 70 255 255 28 28 28 28 28 28 28 28 28 28 28 28 28 28 28 28 28 28 28 28 28 28 28 28 28 255 255 255 255 255 255 255 255 255 255 255 255 7 7 7 7 7 7 7 255 255 255 255 7 255 255 255 255 255 255 255 255 255 255 7 7 7 7 7 7 7 7 7 7 7 255 255 62 62 62 62 62 62 62 62 62 62 62 62 62 62 62 62 62 62 62 62 62 62 62 255 255 255 255 255 255 255 255 71 71 71 71 71 71 71 71 71 71 71 71 71 71 71 71 71 71 71 71 71 71 255 255 255 71 71 71 71 71 71 71 71 71 71 71 71 71 71 71 71 71 71 71 71 71 71 71 255 255 255 255 255 255 255 255 255 29 29 29 29 29 29 29 29 29 29 255 255 255 29 29 29 29 29 29 29 29 29 29 29 29 29 255 255 255 29 29 255 255 255 255 255 255 255 255 81 255 255 255 255 255 255 255 255 255 255 255 255 255 255 255 255 255 255 255 255 255 255 255 255 255 255 255 255 255 255 255 255 255 255 255 255 255 255 255 255 59 59 59 59 59 59 59 59 59 59 59 59 59 59 59 59 59 59 59 59 59 59 59 59 59 59 59 59 59 255 255 255 255 16 255 255 
255 1 1 1 1 1 1 1 1 1 1 1 1 1 1 1 1 1 1 1 1 1 1 1 1 1 255 255 255 255 255 255 255 255 255 70 70 70 70 70 70 70 70 255 255 255 255 255 255 70 70 70 70 70 70 70 70 70 70 70 70 70 70 70 70 70 70 70 70 70 70 70 70 70 70 70 255 255 255 255 70 70 70 70 70 70 70 70 70 70 255 255 255 255 40 255 255 255 255 255 255 255 255 255 255 255 255 255 255 255 255 255 255 255 255 255 255 255 255 70 70 255 255 255 255 255 255 255 255 255 255 40 255 255 255 80 255 255 255 255 255 255 255 255 255 255 255 255 255 255 255 255 255 255 70 70 70 70 70 70 70 70 70 70 70 70 70 70 70 70 70 70 70 70 70 70 70 70 70 70 70 70 70 70 70 70 70 70 70 70 70 70 70 70 70 70 70 70 70 70 70 70 70 70 70 70 70 70 70 70 70 70 70 70 70 70 70 70 70 70 70 70 70 70 70 70 70 70 70 70 70 70 70 255 255 255 255 28 28 28 28 28 28 28 28 28 28 28 28 28 28 28 28 28 28 28 28 28 28 28 28 255 255 255 255 255 255 255 255 255 255 255 7 7 7 7 7 7 7 7 255 255 255 255 7 255 255 255 255 255 255 255 255 255 255 7 7 7 7 7 7 7 7 7 7 255 255 255 62 62 62 62 62 62 62 62 62 62 62 62 62 62 62 62 62 62 62 62 62 62 62 62 62 62 255 255 255 255 255 255 255 255 71 71 71 71 71 71 71 71 71 71 71 71 71 71 71 71 71 71 71 255 255 255 71 71 71 71 71 71 71 71 71 71 71 71 71 71 71 71 71 71 71 71 71 71 71 255 255 255 255 255 255 255 255 255 29 29 29 29 29 29 29 29 29 29 29 255 255 255 29 29 29 29 29 29 29 29 29 29 29 29 29 29 29 29 29 255 255 255 255 255 255 255 255 255 255 255 255 255 255 255 255 81 81 255 255 255 81 81 81 81 81 255 255 255 255 255 255 255 255 255 255 255 255 255 255 255 255 255 255 255 255 255 255 255 59 59 59 59 59 59 59 59 59 59 59 59 59 59 59 59 59 59 59 59 59 59 59 59 59 59 59 59 59 255 255 255 16 255 255 255 
255 1 1 1 1 1 1 1 1 1 1 1 1 1 1 1 1 1 1 1 1 1 1 1 1 1 255 255 255 255 255 255 255 255 70 70 70 70 70 70 70 70 70 255 255 255 255 255 70 70 70 70 70 70 70 70 70 70 70 70 70 70 70 70 70 70 70 70 70 70 70 70 70 70 70 70 255 255 255 255 70 70 70 70 70 70 70 70 70 70 70 255 255 255 255 255 255 255 255 255 255 255 255 255 255 255 255 255 255 255 255 255 255 255 255 255 255 255 70 70 255 255 255 255 255 255 255 255 70 255 255 255 40 255 255 255 80 255 255 255 255 255 255 255 255 255 255 255 255 255 255 255 255 255 70 70 70 70 70 70 70 70 70 70 70 70 70 70 70 70 70 70 70 70 70 70 70 70 70 70 70 70 70 70 70 70 70 70 70 70 70 70 70 70 70 70 70 70 70 70 70 70 70 70 70 70 70 70 70 70 70 70 70 70 70 70 70 70 70 70 70 70 70 70 70 70 70 70 70 70 70 70 70 255 255 255 255 28 28 28 28 28 28 28 28 28 28 28 28 28 28 28 28 28 28 28 28 28 28 28 255 255 255 255 255 255 255 255 255 255 255 255 7 7 7 7 7 7 7 7 255 255 255 255 7 255 255 255 255 255 255 255 255 7 7 7 7 7 7 7 7 7 7 7 255 255 255 255 62 62 62 62 62 62 62 62 62 62 62 62 62 62 62 62 62 62 62 62 62 62 62 62 62 62 62 62 255 255 255 255 255 255 255 71 71 71 71 71 71 71 71 71 71 71 71 71 71 71 71 71 71 255 255 255 71 71 71 71 71 71 71 71 71 71 71 71 71 71 71 71 71 71 71 71 71 71 71 255 255 255 255 255 255 255 255 255 29 255 255 255 29 29 29 29 29 29 29 255 255 255 29 29 29 29 29 29 29 29 29 29 29 29 29 29 29 29 29 29 255 255 255 255 255 255 255 255 255 255 255 255 255 81 81 81 81 81 81 81 81 81 81 81 81 255 255 255 255 255 255 255 255 255 255 255 255 255 255 83 83 83 255 255 255 255 255 255 59 59 59 59 59 59 59 59 59 59 59 59 59 59 59 59 59 59 59 59 59 59 59 59 59 59 255 255 255 255 255 255 255 255 255 255 
255 1 1 1 1 1 1 1 1 1 1 1 1 1 1 1 1 1 1 1 1 1 255 255 255 1 255 255 255 255 255 255 255 70 70 70 70 70 70 70 70 70 255 255 255 255 255 255 70 70 70 70 70 70 70 70 70 70 70 70 70 70 70 70 70 70 70 70 70 70 70 70 70 70 70 70 255 255 255 255 70 70 70 70 70 70 70 70 70 70 70 70 255 255 255 255 255 255 255 255 255 255 255 255 255 255 255 255 40 40 40 255 255 255 255 255 255 255 70 70 255 255 255 255 255 255 255 255 255 255 255 255 255 255 255 255 255 255 255 255 255 255 255 255 255 255 255 255 255 255 255 255 255 255 255 70 70 70 70 70 70 70 70 70 70 70 70 70 70 70 70 70 70 70 70 70 70 70 70 70 70 70 70 70 70 70 70 70 70 70 70 70 70 70 70 70 70 70 70 70 70 70 70 70 70 70 70 70 70 70 70 70 70 70 70 70 70 70 70 70 70 70 70 70 70 70 70 70 70 70 70 70 70 255 255 255 255 28 28 28 28 28 28 28 28 28 28 28 28 28 28 28 28 28 28 28 28 28 28 28 255 255 255 255 255 255 255 255 28 255 255 255 255 7 7 7 7 255 255 255 255 7 255 255 255 255 255 255 255 7 255 255 255 7 7 7 7 7 7 7 7 7 7 255 255 255 255 62 62 62 62 62 62 62 62 62 62 62 62 62 62 62 62 62 62 62 62 62 62 62 62 62 62 62 62 62 62 62 255 255 255 255 255 255 255 71 71 71 71 71 71 71 71 71 71 71 71 71 71 71 71 255 255 255 71 71 71 71 71 71 71 71 71 71 71 71 71 71 71 71 71 71 71 71 71 71 71 255 255 255 255 255 255 255 255 255 29 255 255 255 255 255 29 29 29 29 29 255 255 255 29 29 29 29 29 29 29 29 29 29 29 29 29 29 29 29 29 29 255 255 255 255 255 255 255 255 255 255 255 255 255 255 255 81 81 81 81 81 81 81 81 81 81 81 81 81 255 255 255 255 255 29 29 255 255 255 255 83 83 83 255 255 255 255 255 255 59 59 59 59 59 59 59 59 59 59 59 59 59 59 59 59 59 59 59 59 59 59 59 59 59 255 255 255 255 255 255 255 255 255 255 255 
255 1 1 1 1 1 1 1 1 1 1 1 1 1 1 1 1 1 1 1 255 255 255 255 255 255 1 255 255 255 255 255 255 70 70 70 70 70 255 255 255 255 255 255 255 255 255 70 70 70 70 70 70 70 70 70 70 70 70 70 70 70 70 70 70 70 70 70 70 70 70 70 70 70 70 70 255 255 255 255 70 70 70 70 70 70 70 70 70 70 70 70 255 255 255 255 255 255 255 255 255 70 255 255 255 255 255 255 255 255 255 255 255 255 255 255 255 255 255 70 255 255 255 70 255 255 255 255 255 255 255 255 255 255 255 255 255 255 255 255 255 255 255 255 255 255 255 255 82 255 255 255 255 255 255 255 70 70 70 70 70 70 70 70 70 70 70 70 70 70 70 70 70 70 70 70 70 70 70 70 70 70 70 70 70 70 70 70 70 70 70 70 70 70 70 70 70 70 70 70 70 70 70 70 70 70 70 70 70 70 70 70 70 70 70 70 70 70 70 70 70 70 70 70 70 70 70 70 70 70 70 70 70 255 255 255 255 255 28 28 28 28 28 28 28 28 28 28 28 28 28 28 28 28 28 28 28 28 28 28 255 255 255 255 28 255 255 255 255 255 255 255 255 255 255 255 255 255 255 255 255 255 255 255 255 255 7 7 7 7 255 255 255 7 7 7 7 7 7 7 7 7 7 255 255 255 255 62 62 62 62 62 62 62 62 62 62 62 62 62 62 62 62 62 62 62 62 62 62 62 62 62 62 62 62 62 62 62 62 62 255 255 255 255 255 255 255 71 71 71 71 71 71 71 71 71 71 71 71 71 71 255 255 255 71 71 71 71 71 71 71 71 71 71 71 71 71 71 71 71 71 71 71 71 71 71 71 255 255 255 255 255 255 255 255 255 255 255 255 255 255 255 29 29 29 29 29 29 255 255 255 255 29 29 29 29 29 29 29 29 29 29 29 29 29 29 29 29 255 255 255 255 255 255 255 255 255 255 255 255 255 255 255 81 81 81 81 81 81 81 81 81 81 81 81 81 255 255 255 29 29 29 29 29 29 255 255 83 83 83 83 255 255 255 255 255 59 59 59 59 59 59 59 59 59 59 59 59 59 59 59 59 59 59 59 59 59 59 59 59 255 255 255 255 16 16 255 255 255 255 255 255 
255 1 1 1 1 1 1 1 1 1 1 1 1 1 1 1 1 1 1 1 255 255 255 255 255 255 255 255 255 41 41 255 255 255 70 70 70 70 255 255 255 255 255 255 255 255 255 70 70 70 70 70 70 70 70 70 70 70 70 70 70 70 70 70 70 70 70 70 70 70 70 70 70 70 70 70 255 255 255 255 70 70 70 70 70 70 70 70 70 70 70 70 70 255 255 255 255 255 255 255 255 255 255 70 70 70 255 255 255 255 255 255 255 255 255 255 255 255 255 255 255 255 255 70 255 255 255 255 255 255 255 255 255 255 255 255 255 255 255 255 255 255 255 255 255 255 255 255 82 82 255 255 255 255 255 255 70 70 70 70 70 70 70 70 70 70 70 70 70 70 70 70 70 70 70 70 70 70 70 70 70 70 70 70 70 70 70 70 70 70 70 70 70 70 70 70 70 70 70 70 70 70 70 70 70 70 70 70 70 70 70 70 70 70 70 70 70 70 70 70 70 70 70 70 70 70 70 70 70 70 70 70 70 255 255 255 255 255 28 28 28 28 28 28 28 28 28 28 28 28 28 28 28 28 28 28 28 28 28 28 255 255 255 255 28 255 255 255 255 255 255 255 255 255 255 255 255 255 255 255 255 255 255 255 255 255 7 7 7 7 7 7 7 7 7 7 7 7 7 7 7 7 7 255 255 255 255 255 62 62 62 62 62 62 62 62 62 62 62 62 62 62 62 62 62 62 62 62 62 62 62 62 62 62 62 62 62 62 62 62 62 62 255 255 255 255 255 255 71 71 71 71 71 71 71 71 71 71 71 71 71 71 255 255 255 71 71 71 71 71 71 71 71 71 71 71 71 71 71 71 71 71 71 71 71 71 71 255 255 255 255 255 255 255 255 255 255 255 255 255 255 255 29 29 29 29 29 29 255 255 255 255 29 29 29 29 29 29 29 29 29 29 29 29 29 29 29 29 29 29 29 255 255 255 255 255 255 255 255 255 255 255 255 81 81 81 81 81 81 81 81 81 81 81 81 81 255 255 255 29 29 29 29 29 29 255 255 83 83 83 255 255 255 255 255 255 59 59 59 59 59 59 59 59 59 59 59 59 59 59 59 59 59 59 59 59 59 59 59 255 255 255 255 16 255 255 255 255 255 255 255 255 
255 1 1 1 1 1 1 1 1 1 1 1 1 1 1 1 1 1 1 1 255 255 255 255 255 255 255 255 255 41 41 255 255 255 70 70 70 255 255 255 255 255 255 255 255 255 70 70 70 70 70 70 70 70 70 70 70 70 70 70 70 70 70 70 255 255 255 255 70 70 70 70 70 70 70 70 255 255 255 255 255 70 70 70 70 70 70 70 70 70 70 70 70 70 255 255 255 255 255 255 255 255 255 255 255 70 255 255 255 70 255 255 255 255 255 70 255 255 255 255 255 255 255 255 255 255 255 255 255 255 255 255 255 255 255 255 255 255 255 255 255 255 255 255 255 255 255 255 255 82 255 255 255 255 255 255 255 70 70 70 70 70 70 70 70 70 70 70 70 70 70 70 70 70 70 70 70 70 70 70 70 70 70 70 70 70 70 70 70 70 70 70 70 70 70 70 70 70 70 70 70 70 70 70 70 70 70 70 70 70 70 70 70 70 70 70 70 70 70 70 70 70 70 70 70 70 70 70 70 70 70 70 70 255 255 255 255 255 28 28 28 28 28 28 28 28 28 28 28 28 28 28 28 28 28 255 255 255 28 28 28 255 255 255 255 255 255 255 255 255 255 255 255 255 255 255 255 255 255 255 255 255 255 255 255 7 7 7 7 7 7 7 7 7 7 7 7 7 7 7 7 7 7 255 255 255 255 255 62 62 62 62 62 62 62 62 62 62 62 62 62 62 62 62 62 62 62 62 62 62 62 62 62 62 62 62 62 62 62 62 62 62 62 255 255 255 255 255 255 255 71 71 71 71 71 71 71 71 71 71 71 255 255 255 255 71 71 71 71 71 71 71 71 71 71 71 71 71 71 71 71 71 71 71 71 71 71 255 255 255 255 255 255 255 255 29 255 255 255 29 255 255 255 29 29 29 29 29 255 255 255 255 29 29 29 29 29 29 29 29 29 29 29 29 29 29 29 29 29 29 29 29 29 29 29 29 29 29 29 255 255 255 255 81 81 81 81 81 81 81 81 81 81 81 255 255 255 255 29 29 29 29 29 29 29 255 255 83 83 83 255 255 255 255 255 59 59 59 59 59 59 59 59 59 59 59 59 59 59 59 59 59 59 59 59 59 59 59 59 255 255 255 255 255 255 255 255 255 255 255 255 255 
255 1 1 1 1 1 1 1 1 1 1 1 1 1 1 1 1 1 1 1 1 1 1 1 1 1 255 255 255 255 41 255 255 255 70 70 255 255 255 255 255 255 255 255 255 70 70 70 70 70 70 70 70 70 70 70 70 70 70 70 70 70 70 70 255 255 255 255 70 70 70 70 70 70 70 70 255 255 255 255 255 70 70 70 70 255 255 255 255 70 70 70 70 70 70 255 255 255 255 255 255 255 255 255 255 255 255 255 255 255 255 255 255 255 255 70 255 255 255 255 255 255 255 255 255 255 255 255 255 255 255 255 255 255 255 255 255 255 255 255 255 255 255 255 255 255 255 255 255 82 255 255 255 255 255 255 255 255 70 70 70 70 70 70 70 70 70 70 70 70 70 70 70 70 70 70 70 70 70 70 70 70 70 70 70 70 70 70 70 70 70 70 70 70 70 70 70 70 70 70 70 70 70 70 70 70 70 70 70 70 70 70 70 70 70 70 70 70 70 70 70 70 70 70 70 70 70 70 70 70 70 70 70 255 255 255 255 255 28 28 28 28 28 28 28 28 28 28 28 28 28 28 28 28 28 255 255 255 28 28 28 255 255 255 255 255 255 255 255 255 255 255 255 255 255 255 255 255 7 7 7 255 255 255 255 7 7 7 7 7 7 7 7 7 7 7 7 7 7 7 7 7 7 255 255 255 255 255 62 62 62 62 62 62 62 62 62 62 62 62 62 62 62 62 62 62 62 62 62 62 62 62 62 62 62 62 62 62 62 62 62 62 62 62 62 255 255 255 255 255 255 71 71 71 71 71 71 71 71 71 71 255 255 255 255 71 71 71 71 71 71 71 71 71 71 71 71 71 71 71 71 71 71 71 71 71 71 255 255 255 255 255 255 255 255 29 255 255 255 255 255 255 255 29 29 29 29 255 255 255 29 29 29 29 29 29 29 29 29 29 29 29 29 29 29 29 29 29 29 29 29 29 29 29 29 29 29 29 29 29 29 255 255 255 255 255 255 255 255 81 81 81 81 81 255 255 255 255 29 29 29 29 29 29 29 255 255 83 83 83 255 255 255 255 255 59 59 59 59 59 59 59 59 59 59 59 59 59 59 59 59 59 59 59 59 59 59 59 255 255 255 16 255 255 255 255 255 255 255 84 84 255 
255 1 1 1 1 1 1 1 1 1 1 1 1 1 1 1 1 1 1 1 1 1 1 1 1 1 1 255 255 255 41 255 255 255 70 255 255 255 255 255 255 255 255 255 70 70 70 70 70 70 70 70 70 70 70 70 70 70 70 70 70 70 70 70 255 255 255 255 70 70 70 70 70 70 70 70 70 255 255 255 255 70 70 70 70 255 255 255 255 70 70 70 70 70 70 70 255 255 255 255 255 255 255 255 255 255 255 255 255 255 255 255 255 255 70 70 255 255 255 255 255 255 255 255 255 255 255 255 255 255 255 255 255 255 255 255 255 255 40 255 255 255 255 255 255 255 255 255 255 82 255 255 255 255 255 255 255 255 70 70 70 70 70 70 70 70 70 70 70 70 70 70 70 70 70 70 70 70 70 70 70 70 70 70 70 70 70 70 70 70 70 70 70 70 70 70 70 70 70 70 70 70 70 70 70 70 70 70 70 70 70 70 70 70 70 70 70 70 70 70 70 70 70 70 70 70 70 70 70 70 70 70 70 255 255 255 255 255 28 28 28 28 28 28 28 28 28 28 28 28 28 28 28 28 28 255 255 255 28 28 28 255 255 255 255 255 255 255 255 255 255 255 255 7 255 255 255 255 255 255 255 255 255 255 255 7 7 7 7 7 7 7 7 7 7 7 7 7 7 7 7 7 7 255 255 255 255 255 62 62 62 62 62 62 62 62 62 62 62 62 62 62 62 62 62 62 62 62 62 62 62 62 62 62 62 62 62 62 62 62 62 62 62 62 62 62 62 255 255 255 255 255 71 71 71 71 71 71 71 71 71 255 255 255 255 71 71 71 71 71 71 71 71 71 71 71 71 71 71 71 71 71 71 71 71 71 71 255 255 5 5 255 255 255 255 29 255 255 255 255 255 255 255 29 29 29 255 255 255 255 29 29 29 29 29 29 29 29 29 29 29 29 29 29 29 29 29 29 29 29 29 29 29 29 29 29 29 29 29 29 29 255 255 255 255 255 255 255 255 255 255 255 255 81 255 255 255 255 29 29 29 29 29 29 255 255 255 255 83 83 255 255 255 255 255 59 59 59 59 59 59 59 59 59 59 59 59 59 59 59 59 59 59 59 59 59 59 59 255 255 255 255 255 255 255 255 255 255 255 84 84 255 
255 1 1 1 1 1 1 1 1 1 1 1 1 1 1 1 1 1 1 1 1 1 1 1 1 1 255 255 255 255 41 255 255 255 70 255 255 255 255 255 255 255 255 255 70 70 70 70 70 70 70 70 70 70 70 70 70 70 70 70 70 70 70 70 255 255 255 255 70 70 70 70 70 70 70 70 70 255 255 255 255 70 70 70 70 255 255 255 255 70 70 70 70 70 70 70 70 255 255 255 255 255 255 255 255 255 255 255 255 255 255 40 255 255 70 70 70 70 255 255 255 255 255 255 255 255 255 255 255 255 255 255 255 255 255 255 255 40 40 255 255 255 255 255 255 255 255 255 255 82 82 255 255 255 255 255 255 255 255 70 70 70 70 70 70 70 70 70 70 70 70 70 70 70 70 70 70 70 70 70 70 70 70 70 70 70 70 70 70 70 70 70 70 70 70 70 70 70 70 70 70 70 70 70 70 70 70 70 70 70 70 70 70 70 70 70 70 70 70 70 70 70 70 70 70 70 70 70 70 70 70 70 70 255 255 255 255 255 28 28 28 28 28 28 28 28 28 28 28 28 28 28 28 28 28 28 28 28 28 28 28 255 255 255 255 255 255 7 7 7 255 255 255 7 255 255 255 255 255 255 255 7 7 7 7 7 7 7 7 7 7 7 7 7 7 7 7 7 7 7 7 7 7 255 255 255 255 255 255 62 62 62 62 62 62 62 62 62 62 62 62 62 62 62 62 62 62 62 62 62 62 62 62 62 62 62 62 62 62 62 62 62 62 62 62 62 62 62 255 255 255 255 255 255 71 71 71 71 71 71 71 71 71 71 71 71 71 71 71 71 71 71 71 71 71 71 71 71 71 71 71 71 71 71 71 71 255 255 255 5 5 255 255 255 255 29 255 255 255 255 255 255 255 255 255 255 255 255 255 255 255 255 29 29 29 29 29 29 29 29 29 29 29 29 29 29 29 29 29 29 29 29 29 29 29 29 29 29 29 29 29 29 29 29 29 29 255 255 255 255 255 255 255 255 255 255 29 29 29 29 29 29 29 29 255 255 255 255 83 255 255 255 255 255 255 59 59 59 59 59 59 59 59 59 59 59 59 59 59 59 59 59 59 59 59 59 59 59 255 255 255 255 255 255 255 255 84 84 84 84 84 255 
255 1 1 1 1 1 1 1 1 1 1 1 1 1 1 1 1 1 1 1 1 1 1 1 1 1 255 255 255 41 41 255 255 255 255 255 255 255 255 255 255 255 255 255 70 70 70 70 70 70 70 70 70 70 70 70 70 70 70 70 255 255 255 70 255 255 255 255 70 70 70 70 70 70 70 70 255 255 255 255 255 70 70 70 70 255 255 255 255 70 70 70 70 70 70 255 255 255 255 255 255 255 255 255 255 255 255 255 255 255 255 255 255 255 70 70 70 70 70 255 255 255 255 255 255 255 255 255 255 255 255 255 255 255 255 255 255 255 40 255 255 255 255 255 255 255 255 255 255 255 82 255 255 255 255 255 255 255 255 70 70 70 70 70 70 70 70 70 70 70 70 70 70 70 70 70 70 70 70 70 70 70 70 70 70 70 70 70 70 70 70 70 70 70 70 70 70 70 70 70 70 70 70 70 70 70 70 70 70 70 70 70 70 70 70 70 70 70 70 70 70 70 70 70 70 70 70 70 70 70 70 70 70 70 70 255 255 255 28 28 28 28 28 28 28 28 28 28 28 28 28 28 28 28 28 28 28 28 28 28 28 28 255 255 255 255 255 7 7 7 255 255 255 7 255 255 255 255 255 255 255 7 7 7 7 7 7 7 7 7 7 7 7 7 7 7 7 7 7 7 7 7 7 255 255 255 255 255 255 62 62 62 62 62 62 62 62 62 62 62 62 62 62 62 62 62 62 62 62 62 62 62 62 62 62 62 62 62 62 62 62 62 62 62 62 62 62 62 62 255 255 255 255 255 255 71 71 71 71 71 71 71 71 71 71 71 71 71 71 71 71 71 71 71 71 71 71 71 71 71 71 71 71 71 71 71 255 255 255 5 5 255 255 255 255 29 255 255 255 255 255 255 255 255 255 255 255 255 255 255 255 255 29 29 29 29 29 29 29 29 29 29 29 29 29 29 29 29 29 29 29 29 29 29 29 29 29 29 29 29 29 29 29 29 29 29 255 255 255 255 255 255 255 255 255 255 29 29 29 29 29 29 29 29 255 255 255 255 255 255 255 255 255 255 255 59 59 59 59 59 59 59 59 59 59 59 59 59 59 59 59 59 59 59 59 59 59 255 255 255 255 255 255 255 255 84 84 84 84 84 84 255 
255 1 1 1 1 1 1 1 1 1 1 1 1 1 1 1 1 1 1 1 1 1 1 1 1 1 255 255 255 41 41 255 255 255 255 255 255 255 255 255 255 255 255 70 70 70 70 70 70 70 70 70 70 70 70 70 70 70 70 70 255 255 255 255 255 255 255 255 70 70 70 70 70 70 70 255 255 255 255 255 255 70 70 70 255 255 255 70 70 70 70 70 70 70 255 255 255 255 255 70 70 70 255 255 255 255 255 255 255 255 255 255 255 255 70 70 70 70 70 70 255 255 255 255 255 255 255 255 255 255 255 255 255 255 255 255 255 255 255 255 255 255 255 255 255 255 255 255 255 255 255 82 255 255 255 255 255 255 255 255 70 70 70 70 70 70 70 70 70 70 70 70 70 70 70 70 70 70 70 70 70 70 70 70 70 70 70 70 70 70 70 70 70 70 70 70 70 70 70 70 70 70 70 70 70 70 70 70 70 70 70 70 70 70 70 70 70 70 70 70 70 70 70 70 70 70 70 70 70 70 70 70 70 70 255 255 255 28 28 28 28 28 28 28 28 28 28 28 28 28 28 28 28 28 28 28 28 28 28 28 255 255 255 255 255 255 255 255 7 7 255 255 255 255 255 255 7 7 255 255 255 7 7 7 7 7 7 7 7 7 7 7 7 7 7 7 7 7 7 7 7 7 7 7 255 255 255 255 255 255 62 62 62 62 62 62 62 62 62 62 62 62 62 62 62 62 62 62 62 62 62 62 62 62 62 62 62 62 62 62 62 62 62 62 62 62 62 62 62 62 62 255 255 255 255 255 71 71 71 71 71 71 71 71 71 71 71 71 71 71 71 71 71 71 71 71 71 71 71 71 71 71 71 71 71 71 255 255 255 255 255 255 255 29 29 255 255 255 255 255 255 255 255 255 255 255 255 255 255 255 255 255 29 29 29 29 29 29 29 29 29 29 29 29 29 29 29 29 29 29 29 29 29 29 29 29 29 29 29 29 29 29 29 29 29 29 255 255 255 255 255 255 255 255 255 255 29 29 29 29 29 29 29 29 29 29 255 255 255 255 255 255 255 255 255 59 59 59 59 59 59 59 59 59 59 59 59 59 59 59 59 59 59 59 59 59 255 255 255 255 255 255 255 255 255 84 84 84 84 84 84 255 
255 1 1 1 1 1 1 1 1 1 1 1 1 1 1 1 1 1 1 1 1 1 1 1 1 1 1 255 255 41 41 255 255 255 255 255 255 255 255 255 255 255 255 70 70 70 70 70 70 70 70 70 70 70 70 70 70 70 70 70 255 255 255 255 255 255 255 255 255 255 255 255 255 255 255 255 255 255 255 255 255 70 70 70 255 255 255 70 70 70 70 70 70 255 255 255 255 255 255 70 70 70 70 255 255 255 255 255 255 255 255 70 70 70 70 70 70 255 255 255 70 255 255 255 255 255 255 255 255 255 255 255 255 255 255 255 255 255 255 255 255 255 255 255 255 255 255 255 255 255 255 82 82 255 255 255 255 255 255 255 70 70 70 70 70 70 70 70 70 70 70 70 70 70 70 70 70 70 70 70 70 70 70 70 70 70 70 70 70 70 70 70 70 70 70 70 70 70 70 70 70 70 70 70 70 70 70 70 70 70 70 70 70 70 70 70 70 70 70 70 70 255 255 255 70 70 70 70 70 70 70 70 70 70 255 255 255 28 28 28 28 28 28 28 28 28 28 28 28 28 28 28 255 255 255 28 28 28 28 255 255 255 255 255 255 255 255 255 7 7 255 255 255 255 255 255 255 255 255 255 255 7 7 7 7 7 7 7 7 7 7 7 7 7 7 7 7 7 7 7 7 7 7 7 255 255 255 255 255 255 62 62 62 62 62 62 62 62 255 255 255 62 62 62 62 62 62 62 62 62 62 62 62 62 62 62 62 62 62 62 62 62 62 62 62 62 62 62 62 62 62 62 255 255 255 255 255 71 71 71 71 71 71 71 71 71 71 71 71 71 71 71 71 71 71 71 71 71 71 71 71 71 71 71 71 71 255 255 255 255 255 255 255 255 29 255 255 255 255 255 255 255 255 255 255 255 255 255 255 255 29 255 255 255 255 29 29 29 29 29 29 29 29 29 29 29 29 29 29 29 29 29 29 29 29 29 29 29 29 29 29 29 29 29 29 29 29 29 29 255 255 255 255 255 255 29 29 29 29 29 29 29 29 29 29 29 255 255 255 255 255 255 255 255 59 59 59 59 59 59 59 59 59 59 59 59 59 59 59 59 59 59 59 59 255 255 255 255 255 255 255 255 255 255 84 84 84 84 84 84 84 255 
255 1 1 1 1 1 1 1 1 1 1 1 1 1 1 1 1 1 1 1 1 1 1 1 1 1 255 255 255 41 41 255 255 255 255 255 255 255 255 255 255 255 255 70 70 70 70 70 70 70 70 70 70 70 70 70 70 70 70 70 255 255 255 255 255 255 255 255 255 255 255 255 255 255 255 255 255 255 255 255 70 70 70 70 255 255 255 70 70 70 70 70 255 255 255 255 255 255 70 70 70 70 70 255 255 255 255 255 255 255 255 70 70 70 70 70 70 255 255 255 70 70 255 255 255 255 255 255 255 255 255 255 255 255 255 255 255 255 255 255 255 255 255 85 85 85 255 255 255 255 255 255 82 82 82 82 255 255 255 255 255 70 70 70 70 70 70 70 70 70 70 70 70 70 70 70 70 70 70 70 70 70 70 70 70 70 70 70 70 70 70 70 70 70 70 70 70 70 70 70 70 70 70 70 70 70 70 70 70 70 70 70 70 70 70 70 70 70 70 70 70 255 255 255 70 70 70 70 70 70 70 70 70 70 255 255 255 255 28 28 28 28 28 28 28 28 28 28 28 28 28 28 255 255 255 28 255 255 255 255 255 255 255 255 255 255 255 255 7 7 255 255 255 255 255 255 255 255 255 255 255 255 7 7 7 7 7 7 7 7 7 7 7 7 7 7 7 7 7 7 7 7 7 7 7 255 255 255 255 255 255 255 62 62 62 62 62 62 255 255 255 62 62 62 62 62 62 62 62 62 62 62 62 62 62 62 62 62 62 62 62 62 62 62 62 62 62 62 62 62 62 62 62 255 255 255 255 255 71 71 71 71 71 71 71 71 71 71 71 71 71 71 71 71 71 71 71 71 71 71 71 71 71 71 71 71 255 255 255 255 255 255 255 255 29 255 255 255 255 255 255 255 255 255 255 255 255 255 255 255 29 255 255 255 255 29 29 29 29 29 29 29 29 29 29 29 29 29 29 29 29 29 29 29 29 29 29 29 29 29 29 29 29 29 29 29 29 29 29 29 255 255 255 255 255 29 29 29 29 29 29 29 29 29 29 29 255 255 255 255 255 255 255 255 59 59 59 59 59 59 59 59 59 59 59 59 59 59 59 59 59 59 59 59 255 255 255 255 16 255 255 255 255 255 84 84 84 84 84 84 84 255 
255 1 1 1 1 1 1 1 1 1 1 1 1 1 1 1 1 1 1 1 1 1 1 1 1 1 255 255 255 41 255 255 255 255 255 255 255 255 255 255 255 255 70 70 70 70 70 70 70 70 70 70 70 70 70 70 70 70 70 70 70 255 255 255 255 255 255 255 255 255 255 255 255 255 255 255 255 255 255 70 70 70 70 70 70 70 70 70 70 70 70 70 255 255 255 255 255 255 70 70 70 70 255 255 255 255 255 255 70 70 70 70 70 70 70 70 70 255 255 255 255 255 255 255 255 255 255 255 40 40 255 255 255 40 40 40 255 255 255 255 255 255 255 255 85 85 85 255 255 255 255 255 255 82 82 82 255 255 255 255 255 255 70 70 70 70 70 70 70 70 70 70 70 70 70 70 70 70 70 70 70 70 70 70 70 70 70 70 70 70 70 70 70 70 70 70 70 70 70 70 70 70 70 70 70 70 70 70 70 70 70 70 70 70 70 70 70 70 70 255 255 255 255 255 255 70 70 70 70 70 70 70 70 70 70 255 255 255 28 28 28 28 28 28 28 28 28 28 28 28 28 28 255 255 255 28 255 255 255 255 255 255 255 255 255 255 255 7 7 7 255 255 255 255 255 7 255 255 255 255 255 255 7 7 7 7 7 7 7 7 7 7 7 7 7 7 7 7 7 7 7 7 7 7 7 255 255 255 255 255 255 255 255 255 255 255 255 62 255 255 255 62 62 62 62 62 62 62 62 62 62 62 62 62 62 62 62 62 62 62 62 62 62 62 62 62 62 62 62 62 62 62 62 62 255 255 255 255 255 71 71 71 71 71 71 71 71 71 71 71 71 71 71 71 71 71 71 71 71 71 71 71 71 71 71 71 255 255 255 255 255 255 255 255 29 255 255 255 255 255 255 255 255 255 255 255 255 255 29 29 29 255 255 255 255 29 29 29 29 29 29 29 29 29 29 29 29 29 29 29 29 29 29 29 29 29 29 29 29 29 29 29 29 29 29 29 29 29 29 29 29 255 255 255 29 29 29 29 29 29 29 29 29 29 29 29 29 29 29 255 255 255 255 59 59 59 59 59 59 59 59 59 59 59 59 59 59 59 59 59 59 59 59 59 255 255 255 255 255 255 255 255 255 84 84 84 84 84 84 84 84 255 
255 1 1 1 1 1 1 1 1 1 1 1 1 1 1 1 1 1 1 1 1 1 1 1 1 1 255 255 255 255 255 255 255 255 255 255 255 255 255 255 255 255 70 70 70 70 70 70 70 70 70 70 70 70 70 70 70 70 70 70 70 70 70 255 255 255 255 255 255 255 255 255 255 255 255 255 255 255 70 70 70 70 70 70 70 70 70 70 70 255 255 255 255 255 255 255 255 70 70 70 70 70 255 255 255 255 255 70 70 70 70 70 70 70 70 70 70 70 255 255 255 255 70 255 255 255 255 255 255 255 40 40 40 40 40 40 255 255 255 255 255 255 255 255 255 85 85 255 255 255 255 255 255 255 82 82 82 255 255 255 255 255 70 70 70 70 70 70 70 70 70 70 70 70 70 70 70 70 70 70 70 70 70 70 70 70 70 70 70 70 70 70 70 70 70 70 70 70 70 70 70 70 70 70 70 70 70 70 70 70 70 70 70 70 70 70 70 70 70 255 255 255 255 255 255 70 70 70 70 70 70 70 70 70 70 255 255 255 28 28 28 28 28 28 28 28 28 28 28 28 28 28 28 255 255 255 255 255 255 255 255 255 255 255 255 255 255 7 7 7 255 255 255 255 255 7 7 7 255 255 255 255 7 7 7 7 7 7 7 7 7 7 7 7 7 7 7 7 7 7 7 7 7 7 7 255 255 255 255 255 255 255 255 255 255 255 255 62 62 62 62 62 62 62 62 62 62 62 62 62 62 62 62 62 62 62 62 62 62 62 62 62 62 62 62 62 62 62 62 62 62 62 62 62 62 255 255 255 255 255 71 71 71 71 71 71 71 71 71 71 71 71 71 71 71 71 71 71 71 71 71 71 71 71 71 71 255 255 255 255 255 255 255 255 29 255 255 255 255 255 255 255 255 255 255 255 255 255 29 29 29 29 255 255 255 29 29 29 29 29 29 29 29 29 29 29 29 29 29 29 29 29 29 29 29 29 29 29 29 29 29 29 29 29 29 29 29 29 29 29 29 29 29 29 29 29 29 29 29 29 29 29 29 29 29 29 29 29 255 255 255 255 255 59 59 59 59 59 59 59 59 59 59 59 59 59 59 59 59 59 59 59 59 59 255 255 16 16 255 255 255 255 255 84 84 84 84 84 84 84 255 255 
255 1 1 1 1 1 1 1 1 1 1 1 1 1 1 1 1 1 1 1 1 1 1 1 1 1 255 255 255 255 255 255 255 255 255 255 255 70 70 255 255 255 70 70 70 70 70 70 70 70 70 70 70 70 70 70 70 70 70 70 70 70 70 70 70 70 70 255 255 255 255 255 255 255 255 255 255 70 70 70 70 70 70 70 70 70 255 255 255 255 255 255 255 255 255 255 70 70 70 70 70 255 255 255 255 255 70 70 70 70 70 70 70 70 70 70 70 70 255 255 255 255 70 70 255 255 255 255 255 255 255 40 40 40 40 40 255 255 255 255 255 255 255 255 255 85 85 255 255 255 255 255 255 255 255 255 255 255 255 255 255 255 70 70 70 70 70 70 70 70 70 70 70 70 70 70 70 70 70 70 70 70 70 70 70 70 70 70 70 70 70 70 70 70 70 70 70 70 70 70 70 70 70 70 70 70 70 70 70 70 70 70 70 70 70 70 70 70 70 255 255 255 255 255 255 255 70 70 70 70 70 70 70 70 70 255 255 28 28 28 28 28 28 28 28 28 28 28 28 255 255 255 28 255 255 255 255 255 255 255 255 255 255 255 255 255 255 255 255 255 255 255 255 255 255 255 255 255 7 7 7 7 7 7 7 7 7 7 7 7 7 7 7 7 7 7 7 7 7 7 7 7 7 7 7 255 255 255 255 255 255 255 255 255 255 255 255 62 62 62 62 62 62 62 62 62 62 62 62 62 62 62 62 62 62 62 62 62 62 62 62 62 62 62 62 62 62 62 62 62 62 62 62 62 62 62 255 255 255 255 255 71 71 71 71 71 71 71 71 71 71 71 71 71 71 71 71 71 71 71 71 71 71 71 71 71 255 255 255 255 255 255 255 255 29 255 255 255 255 255 255 255 255 255 255 255 255 255 255 29 29 29 255 255 255 255 255 255 29 29 29 29 29 29 29 29 29 29 29 29 29 29 29 29 29 29 29 29 29 29 29 29 29 29 29 29 29 29 29 29 29 29 29 29 29 29 29 29 29 29 29 29 29 29 29 29 29 29 255 255 255 255 255 59 59 59 59 59 59 59 59 59 59 59 59 59 59 59 59 59 59 59 59 255 255 255 16 16 255 255 255 255 255 84 84 84 84 84 84 84 255 255 
255 1 1 1 1 1 1 1 1 1 1 1 1 1 1 1 1 1 1 1 1 1 1 1 1 1 255 255 255 255 255 255 255 255 255 255 255 255 255 70 70 70 70 70 70 70 70 70 70 70 70 70 70 70 70 70 70 70 70 70 70 70 70 70 70 70 70 70 70 70 70 70 70 70 70 70 70 70 70 70 70 70 70 70 70 70 255 255 255 255 255 255 255 255 255 255 70 70 70 70 70 255 255 255 255 255 70 70 70 70 70 70 70 70 70 70 70 70 255 255 255 255 255 255 70 70 255 255 255 255 255 40 40 40 40 40 255 255 255 255 255 255 255 255 255 255 85 85 255 255 255 255 255 255 255 255 255 255 255 255 255 255 255 70 70 70 70 70 70 70 70 70 70 70 70 70 70 70 70 70 70 70 70 70 70 70 70 70 70 70 70 70 70 70 70 70 70 70 70 70 70 70 70 70 70 70 70 70 70 70 70 70 70 70 70 70 70 70 70 255 255 255 255 255 255 255 70 70 70 70 70 70 70 70 70 255 255 28 28 28 28 28 28 28 28 28 28 28 28 255 255 255 255 255 255 255 255 255 255 255 255 255 255 255 255 255 255 255 255 255 255 255 255 7 7 255 255 255 7 7 7 7 7 7 7 7 7 7 7 7 7 7 7 7 7 7 7 7 7 7 7 7 7 7 7 255 255 255 255 255 255 255 255 255 255 255 255 255 255 62 62 62 62 62 62 62 62 62 62 62 62 62 62 62 62 62 62 62 62 62 62 62 62 62 62 62 62 62 62 62 62 62 62 62 62 62 62 255 255 255 255 71 71 71 71 71 71 71 71 71 71 71 71 71 71 71 71 71 71 71 71 71 71 71 71 71 255 255 255 255 255 255 255 255 29 255 255 255 255 255 255 255 255 255 255 255 255 255 255 255 255 255 255 255 255 255 255 255 29 29 29 29 29 29 29 29 29 29 29 29 29 29 29 29 29 29 29 29 29 29 29 29 29 29 29 29 29 29 29 29 29 29 29 29 29 29 29 29 29 29 29 29 29 29 29 29 29 29 255 255 255 255 255 59 59 59 59 59 59 59 59 59 59 59 59 59 59 59 59 59 59 59 255 255 255 255 16 255 255 255 255 255 255 84 84 84 84 84 84 84 255 255 
255 1 1 1 1 1 1 1 1 1 1 1 1 1 1 1 1 1 1 1 1 1 1 1 1 1 255 255 255 255 255 255 255 255 255 255 255 255 255 255 255 70 70 70 70 70 70 70 70 70 70 70 70 70 70 70 70 70 70 70 70 70 70 70 70 70 70 70 70 70 70 70 70 70 70 70 70 70 70 70 70 70 70 70 70 70 255 255 255 255 255 255 255 255 70 70 70 70 70 70 70 255 255 255 255 255 70 70 70 70 70 70 70 70 70 70 70 70 70 255 255 255 255 255 70 70 70 255 255 255 255 40 255 255 255 40 40 255 255 255 255 255 255 255 255 255 255 85 255 255 255 255 255 255 255 255 255 255 255 255 255 255 255 70 70 70 70 70 70 70 70 70 70 70 70 70 70 70 70 70 70 70 70 70 70 70 70 70 70 70 70 70 70 70 70 70 70 70 70 70 70 70 70 70 70 70 70 70 70 70 70 70 70 70 70 70 70 70 70 255 255 255 255 255 255 255 70 70 70 70 70 70 70 70 70 255 255 28 28 28 28 28 28 28 28 28 28 28 28 255 255 255 255 255 255 255 28 28 255 255 255 255 255 255 255 255 255 255 255 255 255 255 255 255 255 255 255 255 7 7 7 7 7 7 7 7 7 7 7 7 7 7 7 7 7 7 7 7 7 7 7 7 7 7 7 7 255 255 255 255 255 255 255 255 255 255 255 255 255 62 62 62 62 62 62 62 62 62 62 62 62 62 62 62 62 62 62 62 62 62 62 62 62 62 62 62 62 62 62 62 62 62 62 62 62 62 62 62 255 255 255 255 71 71 71 71 71 71 71 71 71 71 71 71 71 71 71 71 71 71 71 71 71 71 71 71 255 255 255 255 255 255 255 255 29 255 255 255 255 255 255 255 255 255 255 255 255 255 255 255 255 255 255 255 255 255 255 255 29 29 29 29 29 29 29 29 29 29 29 29 29 29 29 29 29 29 29 29 29 29 29 29 29 29 29 29 29 29 29 29 29 29 29 29 29 29 29 29 29 29 29 29 29 29 29 29 29 29 255 255 255 255 59 59 59 59 59 59 59 59 59 59 59 59 59 59 59 59 59 59 59 59 255 255 255 16 255 255 255 255 255 255 84 84 84 84 84 84 84 84 84 255 
255 1 1 1 1 1 1 1 1 1 1 1 1 1 1 1 1 1 1 1 1 1 1 1 1 1 255 255 255 255 255 255 255 255 255 255 255 255 255 255 255 70 70 70 70 70 70 70 70 70 70 70 70 70 70 70 70 70 70 70 70 70 70 70 70 70 70 70 70 70 70 70 70 70 70 70 70 70 70 70 70 70 70 70 70 70 255 255 255 70 70 70 70 70 70 70 70 70 70 70 70 255 255 255 255 255 255 70 70 70 70 70 70 70 70 70 70 70 70 255 255 255 255 255 255 70 70 255 255 255 255 255 255 255 255 40 40 255 255 255 255 255 255 255 255 255 255 255 255 255 255 255 255 255 255 255 255 255 82 255 255 255 255 70 70 70 70 70 70 70 70 70 70 70 70 70 70 70 70 70 70 70 70 70 70 70 70 70 70 70 70 70 70 70 70 70 70 70 70 70 70 70 70 70 70 70 70 70 70 70 70 70 70 70 70 70 70 70 70 255 255 255 255 255 255 255 255 70 70 70 70 70 70 70 70 255 255 28 28 28 28 28 28 28 28 28 28 28 28 255 255 255 255 255 255 28 28 255 255 255 255 255 255 255 255 255 255 255 255 255 255 255 255 255 255 255 255 255 7 7 7 7 7 7 7 7 7 7 7 7 7 7 7 7 7 7 7 7 7 7 7 7 7 7 7 7 255 255 255 255 255 255 255 255 255 255 255 255 255 255 255 255 255 255 255 62 62 62 62 62 62 62 62 62 62 62 62 62 62 62 62 62 62 62 62 62 62 62 62 62 62 62 62 62 62 62 62 62 62 255 255 255 255 71 71 71 71 71 71 71 71 71 71 71 71 71 71 71 71 71 71 71 71 71 71 71 255 255 255 255 255 255 29 255 255 255 255 255 255 255 255 255 255 255 255 255 255 255 255 255 255 255 255 255 255 29 29 29 29 29 29 29 29 29 29 29 29 29 29 29 29 29 29 29 29 29 29 29 29 29 29 29 29 29 29 29 29 29 29 29 29 29 29 29 29 29 29 29 29 29 29 29 29 29 29 29 29 29 255 255 255 255 59 59 59 59 59 59 59 59 59 59 59 59 59 59 59 59 59 59 59 59 255 255 16 16 255 255 255 255 255 84 84 84 84 84 84 84 84 84 84 255 
255 1 1 1 1 1 1 1 1 1 1 1 1 1 1 1 1 1 1 1 1 1 1 1 1 1 255 255 255 255 255 255 255 255 255 255 255 255 255 255 255 70 70 70 70 70 70 70 70 70 70 70 70 70 70 70 70 70 70 70 70 70 70 70 70 70 70 70 70 70 70 70 70 70 70 70 70 70 70 70 70 70 70 70 70 70 70 70 70 70 70 70 70 70 70 70 70 70 70 70 70 255 255 255 255 255 255 70 70 70 70 70 70 70 70 70 70 70 70 70 70 255 255 255 255 255 70 70 70 255 255 255 255 255 255 40 40 40 255 255 255 255 255 255 40 255 255 255 255 255 255 255 255 255 255 255 255 255 82 255 255 255 255 255 70 70 70 70 70 70 70 70 70 70 70 70 70 70 70 70 70 70 70 70 70 70 70 70 70 70 70 70 70 70 70 70 70 70 70 70 70 70 70 70 70 70 70 70 70 70 70 70 70 70 70 70 70 70 255 255 255 255 255 255 255 255 255 70 70 70 70 70 70 70 70 255 255 28 28 28 28 28 28 28 28 28 28 28 28 255 255 255 255 255 255 255 255 255 255 255 255 255 255 255 255 255 255 255 255 255 255 255 255 255 255 7 7 7 7 7 7 7 7 7 7 7 7 7 7 7 7 7 7 7 7 7 7 7 7 7 7 7 7 7 7 7 255 255 255 255 255 255 255 255 255 255 255 255 255 255 255 255 255 255 255 62 62 62 62 62 62 62 62 62 62 62 62 62 62 62 62 62 62 62 62 62 62 62 62 62 62 62 62 62 62 62 62 62 62 255 255 255 255 255 71 71 71 71 71 71 71 71 71 71 71 71 71 71 71 71 71 71 71 71 71 255 255 255 255 255 255 255 29 255 255 255 255 255 255 255 255 255 255 255 255 255 255 255 255 255 255 255 255 255 255 255 255 255 29 29 255 255 255 255 255 29 255 255 255 29 29 29 29 29 29 29 29 29 29 29 29 29 29 29 29 29 29 29 29 29 29 29 29 29 29 29 29 29 29 29 29 29 29 29 29 29 29 255 255 255 255 255 59 59 59 59 59 59 59 59 59 59 59 59 59 59 59 59 59 59 59 59 255 255 16 255 255 255 42 255 255 84 84 84 84 84 84 84 84 84 84 255 
255 1 1 1 1 1 1 1 1 1 1 1 1 1 1 1 1 1 1 1 1 1 1 1 1 1 255 255 255 255 255 255 255 255 255 255 255 255 255 255 255 70 70 70 70 70 70 70 70 70 70 70 70 70 70 70 70 70 70 70 70 70 70 70 70 70 70 70 70 70 70 70 70 70 70 70 70 70 70 70 70 70 70 70 70 70 70 70 70 70 70 70 70 70 70 70 70 70 70 70 70 255 255 255 255 255 255 255 70 70 70 70 70 70 70 70 70 70 70 70 70 255 255 255 255 255 255 70 70 70 255 255 40 40 40 40 40 40 40 40 255 255 255 255 40 40 255 255 255 255 255 255 255 255 255 255 255 255 82 255 255 255 255 255 70 70 70 70 70 70 70 70 70 70 70 70 70 70 70 70 70 70 70 70 70 70 70 70 70 70 70 70 70 70 70 70 70 70 70 70 70 70 70 70 70 70 70 70 70 70 70 70 70 70 70 70 70 70 255 255 255 43 43 43 43 255 255 70 70 70 70 70 70 70 70 255 255 28 28 28 28 28 28 28 28 28 28 28 28 255 255 255 28 28 255 255 255 255 255 255 255 255 255 255 255 255 255 255 255 255 255 255 255 255 255 7 7 7 7 7 7 7 7 7 7 7 7 7 7 7 7 7 7 7 7 7 7 7 7 7 7 7 7 7 7 7 7 7 255 255 255 255 255 255 255 255 255 255 255 255 255 255 255 255 255 62 62 62 62 62 62 62 62 62 62 62 62 62 62 62 62 62 62 62 62 62 62 62 62 62 62 62 62 62 62 62 62 62 62 62 255 255 255 255 255 71 71 71 71 71 71 71 71 71 71 71 71 71 71 71 71 71 71 71 71 255 255 255 255 255 29 29 29 255 255 255 255 255 255 255 255 255 255 255 255 255 255 255 255 255 255 255 255 255 255 255 255 255 29 29 255 255 255 255 255 29 255 255 255 29 29 29 29 29 29 29 29 29 29 29 29 29 29 29 29 29 29 29 29 29 29 29 29 29 29 29 29 29 29 29 29 29 29 29 29 29 29 255 255 255 255 59 59 59 59 59 59 59 59 59 59 59 59 59 59 59 59 59 59 59 59 255 255 255 16 255 255 255 255 255 255 84 84 84 84 84 84 84 84 84 84 255 
255 1 1 1 1 1 1 1 1 1 1 1 1 1 1 1 1 1 1 1 1 1 1 1 1 1 255 255 255 255 255 255 255 255 255 255 255 255 255 255 255 70 70 70 70 70 70 70 70 70 70 70 70 70 70 70 70 70 70 70 70 70 70 70 70 70 70 70 70 70 70 70 70 70 70 70 70 70 70 255 255 255 70 70 70 70 70 70 70 70 70 70 70 70 255 255 255 70 70 70 70 70 70 70 255 255 255 255 70 70 70 70 70 70 70 70 70 70 70 70 70 70 255 255 255 255 255 255 255 70 255 255 40 40 40 40 40 40 40 40 255 255 255 255 255 255 255 255 255 255 255 255 85 255 255 255 255 255 82 82 255 255 255 255 255 70 70 70 70 70 70 70 70 70 70 70 70 70 70 70 70 70 70 70 70 70 70 70 70 70 70 70 70 70 70 70 70 70 70 70 70 70 70 70 70 70 70 70 70 70 70 70 70 70 70 70 70 70 255 255 255 43 43 43 43 255 255 255 70 70 70 70 70 70 70 255 255 28 28 28 28 28 28 28 28 255 255 255 255 28 28 28 28 28 255 255 255 255 255 255 255 255 255 255 255 255 255 7 255 255 255 255 7 7 7 7 7 7 7 7 7 7 7 7 7 7 7 7 7 7 7 7 7 7 7 7 7 7 7 7 7 7 7 7 7 7 7 7 255 255 255 255 255 255 255 255 255 255 255 255 255 255 255 255 62 62 62 62 62 62 62 62 62 62 62 62 62 62 62 62 62 62 62 62 62 62 62 62 62 62 62 62 62 62 62 62 62 62 62 62 62 255 255 255 255 71 71 71 71 71 71 71 71 71 71 71 71 71 71 71 71 71 71 71 71 255 255 255 255 255 29 29 29 29 255 255 255 255 255 255 255 255 255 255 255 255 255 255 255 255 255 255 255 255 255 255 255 255 29 29 255 255 255 255 255 29 255 255 255 29 29 29 29 29 29 29 29 29 29 29 29 29 29 29 29 29 29 29 29 29 29 29 29 29 29 29 29 29 29 29 29 29 29 29 29 29 29 255 255 255 255 59 59 59 59 59 59 59 59 59 59 59 59 59 59 59 59 59 59 59 59 255 255 255 255 255 255 255 255 255 255 84 84 84 84 84 84 84 84 84 84 255 
255 1 1 1 1 1 1 1 1 1 1 1 1 1 1 1 1 1 1 1 1 1 1 1 1 1 255 255 255 255 255 255 255 255 255 255 255 255 255 255 255 70 70 70 70 70 70 70 70 70 70 70 70 70 70 70 70 70 70 70 70 70 70 70 70 70 70 70 70 70 70 70 70 70 70 70 70 70 70 255 255 255 70 70 70 70 70 70 70 70 70 70 70 70 255 255 255 70 70 70 70 70 70 70 255 255 255 255 70 70 70 70 70 70 70 70 70 70 70 70 70 70 255 255 255 255 255 255 255 70 255 255 255 255 255 40 40 40 40 255 255 255 255 255 255 255 255 255 255 255 255 255 85 255 255 255 255 255 255 82 255 255 255 255 255 70 70 70 70 70 70 70 70 70 70 70 70 70 70 70 70 70 70 70 70 70 70 70 70 70 70 70 70 70 70 70 70 70 70 70 70 70 70 70 70 70 70 70 70 70 70 70 70 70 70 70 70 70 255 255 255 43 43 43 43 255 255 255 70 70 70 70 70 70 70 255 255 255 28 28 255 255 255 28 28 255 255 255 255 28 28 28 28 28 255 255 255 255 255 255 255 255 255 255 255 255 255 7 255 255 255 255 7 7 7 7 7 7 7 7 7 7 7 7 7 7 7 7 7 7 7 7 7 7 7 7 7 7 7 7 7 7 7 7 7 7 7 7 7 7 7 7 7 255 255 255 255 255 255 255 255 255 255 255 62 62 62 62 62 62 62 62 62 62 62 62 62 62 62 62 62 62 62 62 62 62 62 62 62 62 62 62 62 62 62 62 62 62 62 62 62 62 255 255 255 255 71 71 71 71 71 71 71 71 71 71 71 71 71 71 71 71 71 71 71 255 255 255 255 255 29 29 29 29 255 255 255 255 255 255 255 255 255 255 255 255 255 255 255 255 29 29 255 255 255 255 29 29 29 29 29 29 29 29 29 29 29 29 29 29 29 29 29 29 29 29 29 29 29 29 29 29 29 29 29 29 29 29 29 29 29 29 29 29 29 29 29 29 29 29 29 29 29 29 29 29 29 255 255 255 255 59 59 59 59 59 59 59 59 59 59 59 59 59 59 59 59 59 59 59 59 255 255 255 255 255 255 255 255 255 84 84 84 84 84 84 84 84 84 84 84 255 
255 1 1 1 1 1 1 1 1 1 1 1 1 1 1 1 1 1 1 1 1 1 1 1 1 1 255 255 255 255 255 1 255 255 255 255 255 255 255 255 255 70 70 70 70 70 70 70 70 70 70 70 70 70 70 70 70 70 70 70 70 70 70 70 70 70 70 70 70 70 70 70 70 70 70 70 70 70 70 255 255 255 70 70 70 70 70 70 70 70 70 70 70 70 255 255 255 70 70 70 70 70 70 70 70 70 70 70 255 255 255 70 70 70 70 70 70 70 70 70 70 70 70 255 255 255 255 255 255 70 255 255 255 255 255 255 255 255 255 255 255 255 255 255 255 255 255 255 255 255 255 255 85 255 255 255 255 255 255 82 255 255 255 255 255 70 70 70 70 70 70 70 70 70 70 70 70 70 70 70 70 70 70 70 70 70 70 70 70 70 70 70 70 70 70 70 70 70 70 70 70 70 70 70 70 70 70 70 70 70 70 70 70 70 70 70 70 255 255 255 43 43 43 43 43 43 255 255 70 70 70 70 70 70 70 255 255 255 255 255 255 255 255 28 28 255 255 255 255 28 28 28 28 28 255 255 255 255 255 255 255 255 255 255 255 255 7 7 255 255 255 255 7 7 7 7 7 7 7 7 7 7 7 7 7 7 7 7 7 7 7 7 7 7 7 7 7 7 7 7 7 7 7 7 7 7 7 7 7 7 7 7 7 255 255 255 255 255 255 255 255 255 255 255 255 62 62 62 62 62 62 62 62 62 62 62 62 62 62 62 62 62 62 62 62 62 62 62 62 62 62 62 62 62 62 62 62 62 62 62 62 62 62 255 255 255 71 71 71 71 71 71 71 71 71 71 71 71 71 71 71 71 71 71 71 255 255 255 255 255 255 29 29 29 29 29 29 255 255 255 255 255 255 255 255 255 255 255 255 255 29 29 255 255 255 255 29 29 29 29 29 29 29 29 29 29 29 29 29 29 29 29 29 29 29 29 29 29 29 29 29 29 29 29 29 29 29 29 29 29 29 29 29 29 29 29 29 29 29 29 255 255 255 255 255 29 255 255 255 255 255 59 59 59 59 59 59 59 59 59 59 59 59 59 59 59 59 59 59 59 59 255 255 255 255 255 255 255 255 84 84 84 84 84 84 84 84 84 84 84 84 255 
255 1 1 1 1 1 1 1 1 1 1 1 1 1 1 1 1 1 1 1 1 1 1 1 1 1 1 255 255 255 255 255 255 255 255 255 255 70 70 70 70 70 70 70 70 70 70 70 70 70 70 70 70 70 70 70 70 70 70 70 70 70 70 70 70 70 70 70 70 70 70 70 70 70 70 70 70 70 255 255 255 255 70 70 70 70 70 70 70 70 70 70 70 70 255 255 255 70 70 70 70 70 70 70 70 70 70 70 255 255 255 255 70 70 70 70 70 70 70 70 70 70 70 70 255 255 255 255 255 255 255 255 255 255 255 255 255 255 255 255 255 255 40 40 255 255 255 255 255 255 255 255 85 85 255 255 255 255 255 255 255 255 255 255 255 70 70 70 70 70 70 70 70 70 70 70 70 70 70 70 70 70 70 70 70 70 70 70 70 70 70 70 70 70 70 70 70 70 70 70 70 70 70 70 70 70 70 70 70 70 70 70 70 70 70 70 70 255 255 255 43 43 43 43 43 43 255 255 70 70 70 70 70 70 70 70 255 255 255 255 255 255 255 28 28 28 255 255 255 28 28 28 28 28 28 255 255 255 255 255 255 255 255 255 7 7 7 7 7 7 7 7 7 7 7 7 7 7 7 7 7 7 7 7 7 7 7 7 7 7 7 7 7 7 7 7 7 7 7 7 7 7 7 7 7 7 7 7 7 7 7 7 7 255 255 255 255 255 255 255 255 255 255 255 255 62 62 62 62 62 62 62 62 62 62 62 62 62 62 62 62 62 62 62 62 62 62 62 62 62 62 62 62 62 62 62 62 62 62 62 62 62 62 255 255 255 255 255 71 71 71 71 71 71 71 71 71 71 71 71 71 71 71 71 71 255 255 255 255 255 255 29 29 29 29 255 255 255 255 255 255 255 255 255 255 255 255 255 255 29 29 29 255 255 255 255 255 255 29 29 29 29 29 29 29 255 255 255 29 29 29 29 29 29 29 29 29 29 29 29 29 29 29 29 29 29 29 29 29 29 29 29 29 29 29 29 29 29 29 255 255 255 255 255 255 255 255 255 255 255 255 59 59 59 59 59 59 59 59 59 59 59 59 59 59 59 59 59 59 59 59 255 255 255 255 255 255 255 84 84 84 84 84 84 84 84 84 84 84 84 84 255 
255 1 1 1 1 1 1 1 1 1 1 1 1 1 1 1 1 1 1 1 1 1 1 1 1 1 1 255 255 255 255 255 255 255 255 255 255 255 70 70 70 70 70 70 70 70 70 70 70 70 70 70 70 70 70 70 70 70 70 70 70 70 70 70 70 70 70 70 70 70 70 70 70 70 70 70 70 70 255 255 255 70 70 70 70 70 70 70 70 70 70 70 70 70 70 70 70 70 70 70 70 70 70 70 70 70 70 70 255 255 255 255 70 70 70 70 70 70 70 70 70 70 70 70 70 255 255 255 255 255 255 255 255 255 255 255 255 255 255 40 40 40 40 255 255 255 255 255 40 255 255 255 85 85 255 255 255 255 255 255 255 255 255 255 255 255 70 70 70 70 70 70 70 70 70 70 70 70 70 70 70 70 70 70 70 70 70 70 70 70 70 70 70 70 70 70 70 70 70 70 70 70 70 70 70 70 70 70 70 70 70 70 70 70 70 70 70 255 255 43 43 43 43 43 43 43 255 255 70 70 70 70 70 70 70 70 255 255 255 255 28 28 28 28 28 28 255 255 255 28 28 28 255 255 255 255 28 28 255 255 255 255 255 255 255 255 7 7 7 7 7 7 7 7 7 7 7 7 7 7 7 7 7 7 7 7 7 7 7 7 7 7 7 7 7 7 7 7 7 7 7 7 7 7 7 7 7 7 7 7 7 7 7 7 7 255 255 255 255 255 255 255 255 255 255 255 255 255 62 62 62 62 62 62 62 62 62 62 62 62 62 62 62 62 62 62 62 62 62 62 62 62 62 62 62 62 62 62 62 62 62 62 62 62 255 255 255 255 71 71 71 71 71 71 71 71 71 71 71 71 71 71 71 71 71 255 255 255 255 255 255 29 29 29 29 255 255 255 255 255 255 255 255 255 255 255 255 255 255 255 255 255 255 255 255 255 255 255 29 29 29 29 29 29 29 255 255 255 29 29 29 29 29 29 29 29 29 29 29 29 29 29 29 29 29 29 29 29 29 29 29 29 29 29 29 29 29 29 29 255 255 255 255 255 255 255 255 255 255 255 59 59 59 59 59 59 59 59 59 59 59 59 59 59 59 59 59 59 59 59 255 255 255 255 255 255 255 255 255 84 84 84 84 84 84 84 84 84 84 84 84 255 
255 1 1 1 1 1 1 1 1 1 1 1 1 1 1 1 1 1 1 1 1 1 1 1 1 1 1 255 255 255 255 255 255 255 255 255 255 255 255 255 255 255 255 70 70 70 70 70 70 70 70 70 70 70 70 70 70 70 70 70 70 70 70 70 70 70 70 70 70 70 70 70 70 70 70 70 70 70 255 255 255 255 255 70 70 70 70 70 70 70 70 70 70 70 70 70 70 70 70 70 70 70 70 70 70 70 70 255 255 255 255 255 70 70 70 70 70 70 70 70 255 255 255 70 70 255 255 255 255 255 255 255 255 255 255 255 255 255 255 40 40 40 40 255 255 255 255 255 255 255 255 255 255 255 255 255 255 255 255 255 255 255 255 255 255 255 70 70 70 70 70 70 70 70 70 70 70 70 70 70 70 70 70 70 70 70 70 70 70 70 70 70 70 70 70 70 70 70 70 70 70 70 70 70 70 70 70 70 70 70 70 70 70 70 70 70 70 255 255 43 43 43 43 43 43 43 255 255 70 70 70 70 70 70 70 70 255 255 255 255 28 28 28 28 28 28 255 255 255 28 28 28 255 255 255 255 28 28 255 255 255 255 255 255 255 255 255 7 7 7 7 7 7 7 7 7 7 7 7 7 7 7 7 7 7 7 7 7 7 7 7 7 7 7 7 7 7 7 7 7 7 7 7 7 7 7 7 7 7 7 7 7 7 7 7 255 255 255 255 255 255 255 255 255 255 255 255 255 62 62 62 62 62 62 62 62 62 62 62 62 62 62 62 62 62 62 62 62 62 62 62 62 62 62 62 62 62 62 62 62 62 62 62 62 255 255 255 255 255 71 71 71 71 71 71 71 71 71 71 71 71 71 71 71 255 255 255 255 255 255 255 29 29 29 255 255 255 255 255 255 255 255 255 255 255 255 255 255 255 255 255 255 255 255 255 255 255 255 29 29 29 29 29 29 29 255 255 255 29 29 29 29 29 29 29 29 29 29 29 29 29 29 29 29 29 29 29 29 29 29 29 29 29 29 29 29 29 29 255 255 255 13 13 13 255 255 255 13 255 255 59 59 59 59 59 59 59 59 59 59 59 59 59 59 59 59 59 59 59 59 255 255 255 255 255 255 255 255 255 84 84 84 84 84 84 84 84 84 84 84 84 255 
255 1 1 1 1 1 1 1 1 1 1 1 1 1 1 1 1 1 1 1 1 1 1 1 1 1 1 1 255 255 255 255 255 255 255 255 255 255 255 255 255 255 255 70 70 70 70 70 70 70 70 70 70 70 70 70 70 70 70 70 70 70 70 70 70 70 70 70 70 70 70 70 70 70 70 70 70 70 255 255 255 255 255 70 70 70 70 70 70 70 70 70 70 70 70 70 70 70 70 70 70 70 70 70 70 70 70 255 255 255 255 255 70 255 255 255 70 70 70 255 255 255 255 70 70 255 255 255 70 255 255 255 255 255 255 255 255 255 255 40 40 40 40 255 255 255 255 255 255 255 255 255 255 255 255 255 255 255 255 255 255 255 255 255 255 255 70 70 70 70 70 70 70 70 70 70 70 70 70 70 70 70 70 70 70 70 70 70 70 70 70 70 70 70 70 70 70 70 70 70 70 70 70 70 70 70 70 70 70 70 70 70 70 70 70 70 70 255 255 43 43 43 43 43 43 43 255 255 255 70 70 70 70 70 70 255 255 255 255 255 28 28 28 28 28 255 255 255 255 28 28 28 255 255 255 255 28 28 255 255 255 255 255 255 255 255 255 7 7 7 7 7 7 7 7 7 7 255 255 255 7 7 7 7 7 7 7 7 7 7 7 7 7 7 7 7 7 7 7 7 7 7 7 7 7 7 7 7 7 7 7 7 7 7 7 255 255 255 255 255 255 255 255 255 255 255 255 255 62 62 62 62 62 62 62 62 62 62 62 62 62 62 62 62 62 62 62 62 62 62 62 62 62 62 62 62 62 62 62 62 62 62 62 62 62 255 255 255 255 255 71 71 71 71 71 71 71 71 71 71 71 71 71 71 255 255 255 255 255 255 255 29 29 255 255 255 255 255 255 255 255 255 255 255 255 255 255 255 255 255 255 255 255 255 255 255 255 255 29 29 29 29 255 255 255 29 29 29 29 29 29 29 29 29 29 29 29 29 29 29 29 29 29 29 29 29 29 29 29 29 29 29 29 29 29 29 29 255 255 255 255 13 13 13 13 13 255 255 255 255 59 59 59 59 59 59 59 59 59 59 59 59 59 59 59 59 59 59 59 255 255 255 16 255 255 255 255 255 255 84 84 84 84 84 255 255 255 84 84 84 84 255 
255 1 1 1 1 1 1 1 1 1 1 1 1 1 1 1 1 1 1 1 1 1 1 1 1 1 1 1 255 255 255 255 255 255 44 255 255 255 255 255 255 255 255 70 70 70 70 70 70 70 70 70 70 70 70 70 70 70 70 70 70 70 70 70 70 70 70 70 70 70 70 70 70 70 70 70 70 70 255 255 255 255 255 70 70 70 70 70 70 70 70 70 70 70 70 70 70 70 255 255 255 70 70 70 70 70 70 255 255 255 70 70 70 255 255 255 70 70 255 255 255 255 255 70 70 255 255 255 70 70 255 255 255 255 255 255 255 255 255 255 255 255 255 255 255 255 255 255 255 40 255 255 255 255 255 255 255 255 255 255 255 255 255 255 255 255 255 255 70 70 70 70 70 70 70 70 70 70 70 70 70 70 70 70 70 70 70 70 70 70 70 70 70 70 70 70 70 70 70 70 70 70 70 70 70 70 70 70 70 70 70 70 70 70 70 70 70 255 255 43 43 43 43 43 43 43 255 255 255 70 70 70 70 70 70 255 255 255 255 255 28 28 28 28 28 255 255 255 28 28 28 28 255 255 255 255 28 28 28 28 255 255 255 255 255 255 255 7 7 7 7 7 7 7 7 7 7 255 255 255 7 7 7 7 7 7 7 7 7 7 7 7 7 7 7 7 7 7 7 7 7 7 7 7 7 7 7 7 7 7 7 7 7 7 7 255 255 255 255 255 255 255 255 255 255 255 255 62 62 62 62 62 62 62 62 62 62 62 62 62 62 62 62 62 62 62 62 62 62 62 62 62 62 62 62 62 62 62 62 62 62 62 62 62 62 62 255 255 255 255 255 71 71 71 71 71 71 71 71 71 71 71 71 71 255 255 255 255 255 255 255 29 29 255 255 255 255 255 255 255 255 255 255 255 255 255 255 255 255 255 255 255 255 255 255 255 255 255 255 255 29 29 255 255 255 29 29 29 29 29 29 29 29 29 29 29 29 29 29 29 29 29 29 29 29 29 29 29 29 29 29 29 29 29 29 255 255 255 255 255 255 255 255 255 255 255 255 255 255 255 59 59 59 59 59 59 59 59 59 59 59 59 59 59 59 59 59 59 255 255 255 255 255 255 255 255 255 255 255 84 84 84 84 255 255 255 255 84 84 84 84 255 
255 1 1 1 1 1 1 1 1 1 1 1 1 1 1 1 1 1 1 1 1 1 1 1 1 1 1 1 255 255 255 255 255 255 255 255 255 255 255 255 255 255 70 70 70 70 70 70 70 70 70 70 70 70 70 70 70 70 70 70 70 70 70 70 70 70 70 70 70 70 70 70 70 70 70 70 70 70 255 255 255 255 70 70 70 70 70 70 70 70 70 70 70 70 70 70 70 70 255 255 255 255 70 70 70 70 70 70 70 70 70 70 255 255 255 255 70 70 255 255 255 255 255 255 255 255 255 70 70 70 255 255 255 255 255 255 255 255 255 255 255 255 255 40 40 255 255 255 255 255 255 255 85 85 85 85 255 255 255 255 255 255 255 255 255 255 255 255 70 70 70 70 70 70 70 70 70 70 70 70 70 70 70 70 70 70 70 70 70 70 70 70 70 70 70 70 70 70 70 70 70 70 70 70 70 70 70 70 70 70 70 70 70 70 70 255 255 255 255 43 43 43 43 43 43 43 255 255 255 70 70 70 70 70 70 255 255 28 28 28 28 28 28 28 28 255 255 255 28 28 28 28 255 255 255 255 28 28 28 28 255 255 255 255 255 255 255 255 255 255 255 7 255 255 255 7 7 255 255 255 7 7 7 7 7 7 7 7 7 7 7 7 7 7 7 7 7 7 7 7 7 7 7 7 7 7 7 7 7 7 7 7 7 7 7 7 7 7 255 255 255 255 255 255 255 255 62 62 62 62 62 62 62 62 62 62 62 62 62 62 62 62 62 62 62 62 62 62 62 62 62 62 62 62 62 62 62 62 62 62 62 62 62 62 62 62 62 255 255 255 255 71 71 71 71 71 71 71 71 71 71 71 71 71 255 255 255 5 5 255 255 29 255 255 255 255 255 255 255 255 255 255 255 255 255 255 255 255 255 255 255 255 255 255 255 255 255 255 255 255 29 29 255 255 255 29 29 29 29 29 29 29 29 29 29 29 29 29 29 29 29 29 29 29 29 29 29 29 29 29 29 29 29 29 29 255 255 255 255 13 255 255 255 255 255 255 255 255 255 59 59 59 59 59 59 59 59 59 59 59 59 59 59 59 59 59 59 59 255 255 255 16 255 255 255 255 84 84 84 84 84 84 84 255 255 255 255 84 84 255 255 255 
255 1 1 1 1 1 1 1 1 1 1 1 1 1 1 1 1 1 1 1 1 1 1 1 1 1 1 1 255 255 255 255 255 255 255 255 255 255 255 255 255 70 70 70 70 70 70 70 70 70 70 70 70 70 70 70 70 70 70 70 70 70 70 70 70 70 70 70 70 70 70 70 70 70 70 70 70 255 255 255 255 255 70 70 70 70 70 70 70 70 70 70 70 70 70 70 70 70 255 255 255 255 255 70 70 70 70 70 70 70 70 70 255 255 255 255 70 70 255 255 255 255 255 255 255 255 255 255 70 70 255 255 255 255 70 255 255 40 255 255 255 255 255 40 40 255 255 255 255 255 255 255 85 85 85 85 85 255 255 255 255 255 255 255 255 255 255 255 70 70 70 70 70 70 70 70 70 70 70 70 70 70 70 70 70 70 70 70 70 70 70 70 70 70 70 70 70 70 70 70 70 70 70 70 70 70 70 70 70 70 70 70 70 70 70 255 255 255 255 255 255 255 255 43 43 43 255 255 255 70 70 70 70 70 70 255 255 255 28 28 28 28 28 28 28 255 255 255 28 28 28 28 255 255 255 255 28 28 28 28 255 255 255 255 255 255 255 255 255 255 255 7 255 255 255 7 7 7 7 7 7 7 7 7 7 7 7 7 7 7 7 7 7 7 7 7 7 7 7 7 7 7 7 7 7 7 7 7 7 7 7 7 7 7 7 7 7 7 255 255 255 255 255 255 255 62 62 62 62 62 62 62 62 62 62 62 62 62 62 62 62 62 62 62 62 62 62 62 62 62 62 62 62 62 62 62 62 62 62 62 62 62 62 62 62 62 62 255 255 255 255 71 71 71 71 71 71 71 71 71 71 71 71 71 255 255 255 255 5 255 255 29 255 255 255 255 255 255 255 255 255 255 255 255 255 255 255 255 255 29 29 255 255 255 255 255 255 255 255 255 29 29 29 29 29 29 29 29 29 29 29 29 29 29 29 29 29 29 29 29 29 29 29 29 29 29 29 29 29 29 29 29 29 255 255 255 255 13 255 255 255 255 255 255 255 255 255 255 255 59 59 59 59 59 59 59 59 59 59 59 59 59 59 59 59 59 59 255 255 255 255 255 255 255 255 255 255 84 84 84 84 84 84 255 255 255 255 84 255 255 255 255 
255 1 1 1 1 1 1 1 1 1 1 1 1 1 1 1 1 1 1 1 1 1 1 1 1 1 1 1 255 255 255 255 255 255 255 255 255 255 255 255 70 70 70 70 70 70 70 70 70 70 70 70 70 70 70 70 70 70 70 70 70 70 70 70 70 70 70 70 70 70 70 70 70 70 70 70 70 255 255 255 255 255 70 70 70 70 255 255 255 70 70 70 70 70 70 70 70 70 70 255 255 255 255 255 255 70 70 70 70 70 70 70 255 255 255 255 255 255 255 255 255 255 255 255 255 255 255 255 70 70 70 255 255 255 70 255 255 255 255 255 255 255 255 255 255 255 255 255 255 255 255 85 85 85 85 85 85 255 255 255 255 255 255 255 255 255 255 70 70 70 70 70 70 70 70 70 70 70 70 70 70 70 70 70 70 70 70 70 70 70 70 70 70 70 70 70 70 70 70 70 70 70 70 70 70 70 70 70 70 70 70 70 70 70 70 255 255 255 255 255 255 255 255 255 255 255 255 255 255 70 70 70 70 70 255 255 255 255 255 28 28 28 28 28 28 28 28 28 28 28 28 28 28 255 255 255 255 255 28 28 255 255 7 255 255 255 255 255 255 255 255 7 255 255 255 7 7 7 7 7 7 7 7 7 7 7 7 7 7 7 7 7 7 7 7 7 7 7 7 7 7 7 7 7 7 7 7 7 7 7 7 7 7 7 7 7 7 7 255 255 255 255 255 255 255 62 62 62 62 62 62 62 62 62 62 62 62 62 62 62 62 62 62 62 62 62 62 62 62 62 62 62 62 62 62 62 62 62 62 62 62 62 62 62 62 62 62 255 255 255 255 71 71 71 71 71 71 71 71 71 71 71 71 71 255 255 255 255 5 255 255 29 255 255 255 255 255 255 255 255 255 255 255 255 255 255 255 255 255 255 255 255 255 255 255 255 255 255 29 29 29 29 29 29 29 29 29 29 29 29 29 29 29 29 29 29 29 29 29 29 29 29 29 29 29 29 29 29 29 29 29 29 29 255 255 255 255 255 255 255 255 255 255 255 255 59 59 59 59 59 59 59 59 59 59 59 59 59 59 59 59 59 59 59 59 59 59 255 255 255 255 255 255 255 255 255 255 84 84 84 255 255 255 255 84 84 84 84 255 255 255 255 
255 1 1 1 1 1 1 1 1 1 1 1 1 1 1 1 1 1 1 1 1 1 1 1 1 1 1 1 255 255 255 44 255 255 255 255 255 70 70 70 70 70 70 70 70 70 70 70 70 70 70 70 70 70 70 70 70 70 70 70 70 70 70 70 70 70 70 70 70 70 70 70 70 70 70 70 70 255 255 45 255 255 70 70 70 70 255 255 255 70 70 70 70 70 70 70 70 70 70 70 255 255 255 255 255 255 70 255 255 255 70 70 70 70 70 255 255 255 255 255 255 255 255 255 255 255 255 255 255 70 70 255 255 255 70 255 255 255 255 255 255 255 255 255 255 255 255 255 255 255 85 85 85 85 85 85 85 85 255 255 255 255 255 255 255 255 255 255 70 70 70 70 70 70 70 70 70 70 70 70 70 70 70 70 70 70 70 70 70 70 70 70 70 70 70 70 70 70 70 70 70 70 70 70 70 70 70 70 70 70 70 70 70 70 70 255 255 255 255 255 255 255 255 255 255 255 43 255 255 70 70 70 70 70 255 255 255 255 255 28 28 28 28 28 28 28 28 28 28 28 28 28 28 255 255 255 255 255 255 255 255 255 255 255 255 255 255 7 7 7 7 7 7 7 7 7 7 7 7 7 7 7 7 7 7 7 7 7 7 7 7 7 7 7 7 7 7 7 7 7 7 7 7 7 7 7 7 7 7 7 7 7 7 7 7 7 7 7 7 7 7 255 255 255 62 62 62 62 62 62 62 62 62 62 62 62 62 62 62 62 62 62 62 62 62 62 62 62 62 62 62 62 62 62 62 62 62 62 62 62 62 62 62 62 62 62 62 62 255 255 255 71 71 71 71 71 71 71 71 71 71 71 71 255 255 255 255 255 5 255 255 29 255 255 255 255 255 255 255 255 255 255 255 255 255 255 255 255 255 255 255 255 255 255 255 255 255 255 29 29 29 29 29 29 29 29 29 29 29 29 29 29 29 29 29 29 29 29 29 29 29 29 29 29 29 29 29 29 29 29 29 29 255 255 255 13 255 255 255 255 59 59 59 59 59 59 59 59 59 59 59 59 59 59 59 59 59 59 59 59 59 59 59 59 59 59 255 255 255 16 255 255 255 255 255 255 255 84 84 84 255 255 255 255 84 255 255 255 255 255 255 255 
255 1 1 1 1 1 1 1 1 1 1 1 1 1 1 1 1 1 1 1 1 1 1 1 1 1 1 1 255 255 44 44 255 255 255 255 255 255 255 255 70 70 70 70 70 70 70 70 70 70 70 70 70 70 70 70 70 70 70 70 70 70 70 70 70 70 70 70 70 70 70 70 70 70 70 70 70 255 255 255 255 255 70 70 70 70 255 255 255 70 70 70 70 70 70 70 70 70 70 70 70 70 255 255 255 255 255 255 255 255 70 70 70 70 70 255 255 255 255 255 255 255 255 255 255 255 255 255 255 70 70 70 70 70 70 70 255 255 255 255 255 255 255 255 255 255 255 255 255 255 85 85 85 85 85 85 85 85 255 255 255 255 255 255 255 255 255 255 70 70 70 70 70 70 70 70 70 70 70 70 70 255 255 255 70 70 70 70 70 70 70 70 70 70 70 70 70 70 70 70 70 70 70 70 70 70 70 70 70 70 70 70 70 70 70 255 255 255 43 43 255 255 255 255 255 255 43 255 255 255 70 70 70 70 255 255 255 255 255 28 28 28 28 28 28 28 28 28 28 28 28 28 255 255 255 255 255 255 255 255 255 255 255 255 255 255 255 255 7 7 7 7 255 255 255 7 7 7 7 7 7 7 7 7 7 7 7 7 7 7 7 7 7 7 7 7 7 7 7 7 7 7 7 7 7 7 7 7 7 7 7 7 7 7 7 7 7 7 7 7 7 255 255 255 255 255 255 62 62 62 62 62 62 62 62 62 62 62 62 62 62 62 62 62 62 62 62 62 62 62 62 62 62 62 62 62 62 62 62 62 62 62 62 62 62 62 62 62 255 255 255 255 71 71 71 71 71 71 71 71 71 71 71 255 255 255 255 255 5 255 255 29 255 255 5 255 255 255 255 255 255 255 255 255 255 255 255 255 255 255 255 255 255 255 29 255 255 255 29 29 29 29 29 29 29 29 29 29 29 29 29 29 29 29 29 29 29 29 29 29 29 29 29 29 29 29 29 29 29 29 29 29 255 255 255 255 255 255 255 59 59 59 59 59 59 59 59 59 59 59 59 59 59 59 59 59 59 59 59 59 59 59 59 59 59 59 255 255 255 255 255 255 255 255 255 255 84 84 84 84 255 255 255 255 84 255 255 255 255 255 255 255 
255 1 1 1 1 1 1 1 1 1 1 1 1 1 1 1 1 1 1 1 1 1 1 1 1 1 1 1 255 255 44 44 255 255 255 255 255 255 255 255 70 70 70 70 70 70 70 70 70 70 70 70 70 70 70 70 70 70 70 70 70 70 70 70 70 70 70 70 70 70 70 70 70 70 70 70 255 255 255 255 255 255 70 70 70 70 255 255 255 70 70 70 70 70 70 70 70 70 70 70 70 70 255 255 255 255 255 255 255 255 70 70 255 255 255 255 255 255 255 255 255 255 255 255 255 255 255 255 255 70 70 70 70 70 70 70 255 255 255 255 255 255 255 255 255 255 255 255 255 255 255 85 85 85 85 85 85 85 255 255 255 255 255 255 255 255 255 255 70 70 70 70 70 70 70 70 70 70 70 70 70 255 255 255 70 70 70 70 70 70 70 70 70 70 70 70 70 70 70 70 70 70 70 70 70 70 70 70 70 70 70 70 70 70 255 255 255 43 43 43 255 255 255 255 255 255 43 255 255 255 70 70 70 70 70 70 70 255 255 28 28 28 28 28 28 28 28 28 28 28 28 28 255 255 255 255 255 255 255 255 255 255 255 255 255 255 255 255 255 255 255 7 255 255 255 255 255 255 7 7 7 7 7 7 7 7 7 7 7 7 7 7 7 7 7 7 7 7 7 7 7 7 7 7 7 7 7 7 7 7 7 7 7 7 7 7 7 7 7 255 255 255 255 62 255 255 255 62 62 62 62 62 62 62 62 62 62 62 62 62 62 62 62 62 62 62 62 62 62 62 62 62 62 62 62 62 62 62 62 62 62 62 62 62 62 62 62 62 62 255 255 255 71 71 71 71 71 71 71 71 71 71 71 255 255 255 255 255 5 255 255 255 255 255 255 255 255 255 255 255 255 255 255 255 255 255 255 255 255 255 255 255 29 29 29 29 29 29 29 29 29 29 29 29 29 29 29 29 29 29 29 29 29 29 29 29 29 29 29 29 29 29 29 29 29 29 29 29 29 29 29 255 255 255 255 255 255 255 59 59 59 59 59 59 59 59 59 59 59 59 59 59 59 59 59 59 59 59 59 59 59 59 59 59 59 59 255 255 16 255 255 255 255 255 255 255 255 255 84 84 255 255 255 84 84 255 255 255 255 255 255 255 
255 1 1 1 1 1 1 1 1 1 1 1 1 1 1 1 1 1 1 1 1 1 1 1 1 1 1 1 255 255 44 44 255 255 255 255 255 255 255 255 70 70 70 70 70 70 70 70 70 70 70 70 70 70 70 70 70 70 70 70 70 70 70 70 70 70 70 70 70 70 70 70 70 70 70 70 255 255 255 255 255 70 70 70 70 70 255 255 255 70 70 70 70 70 70 70 70 70 70 70 70 70 70 70 255 255 255 255 255 70 70 70 255 255 255 70 255 255 255 255 255 255 255 255 255 70 70 70 70 255 255 255 255 70 70 70 255 255 40 40 255 255 255 255 255 255 255 255 255 255 255 85 85 85 85 85 85 85 255 255 255 255 255 255 255 255 70 70 70 70 70 70 70 70 70 70 70 70 70 70 70 255 255 255 70 70 70 70 70 70 70 70 70 70 70 70 70 70 70 70 70 70 70 70 70 70 70 70 70 70 70 70 70 70 255 255 255 43 43 255 255 255 255 255 255 255 43 255 255 255 70 70 70 70 255 255 255 255 255 28 28 28 28 28 28 28 28 28 28 28 255 255 255 255 255 255 255 255 255 255 255 255 255 255 255 28 255 255 255 255 255 7 255 255 255 255 255 255 7 7 7 7 7 7 7 7 7 7 7 7 7 7 7 7 7 7 7 7 7 7 7 7 7 7 7 7 7 7 7 7 7 7 7 7 7 7 7 7 7 255 255 255 255 255 255 255 255 62 62 62 62 62 62 62 62 62 62 62 62 62 62 62 62 62 62 62 62 62 62 62 62 62 62 62 62 62 62 62 62 62 62 62 62 62 62 62 62 62 62 255 255 255 255 71 71 71 71 71 71 71 71 71 71 255 255 255 255 255 255 255 255 255 255 255 255 255 255 255 255 255 255 255 255 255 255 255 255 255 255 255 255 29 29 29 255 255 255 29 29 29 29 29 29 29 29 29 29 29 29 29 29 29 29 29 29 29 29 29 29 29 29 29 29 29 29 29 29 29 29 29 29 255 255 255 255 255 59 59 59 59 59 59 59 59 59 59 59 59 59 59 59 59 59 59 59 59 59 59 59 59 59 59 59 59 59 255 255 255 16 255 255 255 255 255 255 255 255 255 84 84 255 255 255 84 255 255 255 255 255 255 255 255 
255 1 1 1 1 1 1 1 1 1 1 1 1 1 1 1 1 1 1 1 1 1 1 1 1 1 1 1 255 255 44 44 255 255 255 255 255 255 255 255 70 70 70 70 70 70 70 70 70 70 70 70 70 70 70 70 70 70 70 70 70 70 70 70 70 70 70 70 70 70 70 70 70 70 70 70 255 255 45 255 255 70 70 70 70 70 70 70 70 70 70 70 70 70 70 70 70 70 70 70 70 70 70 70 70 70 70 70 70 70 70 70 255 255 255 70 255 255 255 255 70 255 255 255 255 70 70 70 70 255 255 255 255 70 70 70 255 255 40 40 255 255 255 255 255 255 255 255 255 255 255 255 85 85 85 85 85 85 255 255 255 255 255 255 255 255 70 70 70 70 70 70 70 70 70 70 70 70 70 70 70 255 255 255 70 70 70 70 70 70 70 70 70 70 70 70 70 70 70 70 70 70 70 70 70 70 70 70 70 70 70 70 70 70 255 255 255 43 43 255 255 255 255 43 43 43 43 255 255 255 70 70 70 70 255 255 255 255 255 28 28 28 28 28 28 28 28 255 255 255 255 255 255 255 255 255 255 255 255 255 255 255 255 255 255 255 255 255 255 255 255 7 7 7 255 255 255 255 7 7 7 7 7 7 7 7 7 7 7 7 7 7 7 7 7 7 7 7 7 7 7 7 7 7 7 7 7 7 7 7 7 7 7 7 7 7 7 7 7 255 255 255 255 255 255 255 62 62 62 62 62 62 62 62 62 62 62 62 62 62 62 62 62 62 62 62 62 62 62 62 62 62 62 62 62 62 62 62 62 62 62 62 62 62 62 62 62 62 62 62 255 255 255 71 71 71 71 71 71 71 71 71 71 255 255 255 255 255 255 255 255 255 255 255 255 255 255 255 255 255 255 255 255 255 255 255 255 255 255 255 255 255 255 29 255 255 255 255 29 29 29 29 29 29 29 29 29 29 29 29 29 29 29 29 29 29 29 29 29 29 29 29 29 29 29 29 29 29 29 29 29 255 255 255 255 59 59 59 59 59 59 59 59 59 59 59 59 59 59 59 59 59 59 59 59 59 59 59 59 59 59 59 59 59 59 255 255 255 255 255 255 255 255 255 255 255 255 255 84 84 255 255 255 84 255 255 255 255 255 255 255 255 
255 1 1 1 1 1 1 255 255 255 1 1 1 1 1 1 1 1 1 1 1 1 1 1 1 1 1 1 255 255 44 255 255 255 255 255 255 255 255 70 70 70 70 70 70 70 70 70 70 70 70 70 70 70 70 70 70 70 70 70 70 70 70 70 70 70 70 70 70 70 70 70 70 70 70 255 255 255 45 255 255 70 70 70 70 70 70 70 70 70 70 70 70 70 70 70 70 70 70 70 70 70 70 70 70 70 70 70 70 70 70 70 70 70 70 70 255 255 255 255 255 70 255 255 255 255 255 255 255 255 255 255 255 70 255 255 255 255 40 40 255 255 255 255 255 255 255 255 255 255 255 255 85 85 85 85 85 85 255 255 255 255 255 255 255 255 70 70 70 70 70 70 70 70 70 70 70 70 70 70 70 70 70 70 70 70 70 70 70 70 70 70 70 70 70 70 70 70 70 70 70 70 70 70 70 70 70 70 70 70 70 70 70 255 255 255 255 43 43 255 255 255 255 43 43 43 43 255 255 255 70 70 70 70 255 255 255 255 255 28 28 28 28 28 28 28 28 255 255 255 255 255 255 255 255 255 255 255 255 255 255 255 255 255 255 255 255 255 255 255 255 255 255 255 255 255 255 255 7 7 7 7 7 7 7 7 7 7 7 7 7 7 7 7 7 7 7 7 7 7 7 7 7 7 7 7 7 7 7 7 7 7 7 7 7 7 7 7 7 255 255 255 255 255 255 255 62 62 62 62 62 62 62 62 62 62 62 62 62 62 62 62 62 62 62 62 62 62 62 62 62 62 62 62 62 62 62 62 62 62 62 62 62 62 62 62 62 62 62 62 255 255 255 255 71 71 71 71 71 71 71 71 71 255 255 255 255 255 255 255 255 255 255 255 255 255 255 255 255 255 255 255 255 255 255 255 255 255 255 255 255 255 255 29 255 255 255 255 29 29 29 29 29 29 29 29 29 29 29 29 29 29 29 29 29 29 29 29 29 29 29 29 29 29 29 29 29 29 29 29 255 255 255 255 255 59 59 59 59 59 59 59 59 59 59 59 59 59 59 59 59 59 59 59 59 59 59 59 59 59 59 59 59 59 255 255 255 255 255 255 255 42 255 255 84 255 255 255 84 84 84 84 84 255 255 255 255 255 255 42 42 255 
255 1 1 1 1 1 1 255 255 255 1 1 1 1 1 1 1 1 1 1 1 1 1 1 1 1 1 1 255 255 44 255 255 255 255 255 255 255 255 70 70 70 70 70 70 70 70 70 70 70 70 70 70 70 70 70 70 70 70 70 70 70 70 70 70 70 70 70 70 70 70 70 70 70 70 255 255 255 255 255 255 70 70 70 70 70 70 70 70 70 70 70 70 70 70 70 70 70 70 70 70 70 70 70 70 70 70 70 70 70 70 70 70 70 70 70 70 70 255 255 255 70 255 255 255 255 255 255 255 255 70 70 70 70 255 255 255 255 255 255 40 255 255 255 255 255 255 255 255 255 255 255 255 85 85 85 85 85 255 255 255 255 255 255 255 255 70 70 70 70 70 70 70 70 70 70 70 70 70 70 70 70 70 70 70 70 70 70 70 70 70 70 70 70 70 70 70 70 70 70 70 70 70 70 70 70 70 70 70 70 70 70 70 255 255 255 255 43 43 43 43 43 43 43 43 43 43 255 255 255 70 70 70 70 70 255 255 255 255 28 28 28 28 28 28 255 255 255 255 255 255 255 255 255 255 255 255 255 255 255 255 255 255 255 255 255 255 255 255 255 255 255 255 255 255 255 255 255 7 7 7 7 7 7 7 7 7 7 7 7 7 7 7 7 7 7 7 7 7 7 7 7 7 7 7 7 7 7 7 7 7 7 7 7 7 7 7 7 7 255 255 255 255 255 255 255 255 255 62 62 62 62 62 62 62 62 62 62 62 62 62 62 62 62 62 62 62 62 62 62 62 62 62 62 62 62 62 62 62 62 62 62 62 62 62 62 62 62 62 62 62 255 255 255 71 71 71 71 71 71 71 71 71 255 255 255 255 255 255 255 255 255 255 255 255 255 255 255 255 255 255 255 255 255 255 255 255 255 255 255 255 255 255 29 29 255 255 255 29 29 29 29 29 29 29 29 29 29 29 29 29 29 29 29 29 29 29 29 29 29 29 29 29 29 29 29 29 29 29 29 255 255 255 255 59 59 59 59 59 59 59 59 59 59 59 59 59 59 59 59 59 59 59 59 59 59 59 59 59 59 59 59 59 255 255 255 255 255 255 255 42 255 255 255 255 255 255 255 84 84 84 84 84 255 255 255 255 255 255 42 42 255 
255 1 1 1 1 1 1 255 255 255 1 1 1 1 1 1 1 1 1 1 1 1 1 1 1 1 1 1 255 255 44 255 255 255 255 255 255 255 70 70 70 70 70 70 70 70 70 70 70 70 70 70 70 70 70 70 70 70 70 70 70 70 70 70 70 70 70 70 70 70 70 70 70 70 70 255 255 45 255 255 255 70 70 70 70 70 70 70 70 70 70 70 70 70 70 70 70 70 70 70 70 70 70 70 70 70 70 70 70 70 70 70 70 70 70 70 70 70 255 255 255 70 255 255 255 255 255 255 255 255 70 70 70 70 255 255 255 255 255 255 40 255 255 255 255 255 255 255 255 255 255 255 255 255 85 85 85 85 255 255 255 255 255 255 255 255 255 255 70 70 70 70 70 70 70 70 70 70 70 70 70 70 70 70 70 70 70 70 70 70 70 70 70 70 70 70 70 70 70 70 70 70 70 70 70 70 70 70 70 70 70 70 70 255 255 255 255 43 43 43 43 43 43 43 43 43 43 255 255 70 70 70 70 70 70 255 255 255 28 28 28 28 28 28 28 255 255 255 255 255 255 255 255 255 255 255 255 255 255 255 255 255 255 255 255 255 255 255 255 255 255 255 255 255 255 255 255 255 7 7 7 7 7 7 7 7 7 7 7 7 7 7 7 7 7 7 7 7 7 7 7 7 7 7 7 7 7 7 7 7 7 7 7 7 7 7 7 7 7 255 255 255 255 255 255 255 255 255 62 62 62 62 62 62 62 62 62 62 62 62 62 62 62 62 62 62 62 62 62 62 62 62 62 62 62 62 62 62 62 62 62 62 62 62 62 62 62 62 62 62 62 255 255 255 71 71 71 71 71 71 71 71 71 255 255 255 255 255 255 255 255 255 255 255 255 255 255 255 255 255 255 255 255 255 255 29 29 29 255 255 255 255 255 255 29 29 29 29 29 29 29 29 29 29 29 29 29 29 29 29 29 29 29 29 29 29 29 29 29 29 29 29 29 29 29 29 29 29 29 29 255 255 255 255 59 59 59 59 59 59 59 59 59 59 59 59 59 59 59 59 59 59 59 59 59 59 59 59 59 59 59 59 59 255 255 255 16 255 255 255 255 255 255 255 255 255 255 255 84 84 84 84 255 255 255 255 255 255 255 42 42 255 
255 1 1 1 1 1 1 255 255 255 1 1 1 1 1 1 1 1 1 1 1 1 1 1 1 1 1 1 255 255 44 255 255 255 255 255 255 255 70 70 70 70 70 70 70 70 70 70 70 70 70 70 70 70 70 70 70 70 70 70 70 70 70 70 70 70 70 70 70 70 70 70 70 70 255 255 255 45 255 255 70 70 70 70 70 70 70 70 70 70 70 70 70 70 70 70 70 70 70 70 70 70 70 70 70 70 70 70 70 70 70 70 70 70 70 70 70 70 255 255 255 70 255 255 255 255 255 255 70 70 70 70 70 70 70 70 255 255 255 255 40 255 255 255 255 255 255 255 255 255 255 255 255 255 255 255 255 255 255 255 255 255 255 255 255 255 255 255 255 70 70 70 70 70 70 70 70 70 70 70 70 70 70 70 70 70 70 70 70 70 70 70 70 70 70 70 70 70 70 70 70 70 70 70 70 70 70 70 70 70 70 70 70 70 255 255 255 43 43 43 43 43 43 43 43 43 43 255 255 255 70 70 70 70 70 255 255 255 28 28 28 28 28 28 28 255 255 255 255 255 255 255 255 255 255 255 255 255 255 255 255 255 255 255 255 255 255 255 255 255 255 7 255 255 255 255 255 255 7 7 7 7 7 7 7 7 7 7 7 7 7 7 7 7 7 7 7 7 7 7 7 7 7 7 7 7 7 7 7 7 7 7 7 7 7 7 7 7 7 7 7 255 255 255 255 255 255 255 62 62 62 62 62 62 62 62 62 62 62 62 62 62 62 62 62 62 62 62 62 62 62 62 62 62 62 62 62 62 62 62 62 62 62 62 62 62 62 62 62 62 62 255 255 255 255 71 71 71 71 71 71 71 255 255 255 255 255 255 255 255 255 255 255 255 255 5 255 255 255 255 255 255 255 255 255 29 29 29 29 29 255 255 255 255 29 29 29 29 29 29 29 29 29 29 29 29 29 29 29 29 29 29 29 29 29 29 29 29 29 29 29 29 29 29 29 29 29 29 29 29 255 255 255 255 59 59 59 59 59 59 59 59 59 59 59 59 59 59 59 59 59 59 59 59 59 59 59 59 59 59 59 59 59 255 255 16 255 255 255 255 255 255 255 255 255 255 255 255 84 84 84 84 255 255 255 255 255 255 255 42 42 255 
255 1 1 1 1 1 1 1 1 1 1 1 1 1 1 1 1 1 1 1 1 1 1 1 1 1 1 1 255 255 44 255 255 255 255 255 255 255 70 70 70 70 70 70 70 70 70 70 70 70 70 70 70 70 70 70 70 70 70 70 70 70 70 70 70 70 70 70 70 70 70 70 70 255 255 255 255 45 255 255 70 70 70 70 70 70 70 70 70 70 70 70 70 70 70 70 70 70 70 70 70 70 70 70 70 70 70 70 70 70 70 70 70 70 70 70 70 70 255 255 255 70 255 255 255 255 255 255 70 70 70 70 70 70 70 70 255 255 255 255 40 255 255 255 255 255 255 255 255 255 255 255 255 255 255 255 255 255 255 255 255 255 255 255 255 255 255 255 255 70 70 70 70 70 70 70 70 70 70 70 70 70 70 70 70 70 70 70 70 70 70 70 70 70 70 70 70 70 70 70 70 70 70 70 70 70 70 70 70 70 70 255 255 255 255 255 255 43 43 43 43 43 43 43 43 43 43 255 255 255 70 70 70 70 70 255 255 255 28 28 28 28 28 28 28 28 255 255 255 255 255 255 255 255 255 255 255 255 255 255 255 255 255 255 255 255 255 255 255 7 7 255 255 255 255 255 255 255 7 7 7 7 7 7 7 7 7 7 7 7 7 7 7 7 7 7 7 7 7 7 7 7 7 7 7 7 7 7 7 7 7 7 7 7 7 7 7 7 7 7 7 7 7 255 255 255 255 255 62 62 62 62 62 62 62 62 62 62 62 62 62 62 62 62 62 62 62 62 62 62 62 62 62 62 62 62 62 62 62 62 62 62 62 62 62 62 62 62 62 62 62 62 255 255 255 71 71 71 71 71 71 71 255 255 255 255 255 255 255 255 255 255 255 5 255 255 255 255 255 255 255 255 255 255 255 255 255 29 29 29 255 255 255 255 29 29 29 29 29 29 29 29 29 29 29 29 29 29 29 29 29 29 29 29 29 29 29 29 29 29 29 29 29 29 29 29 29 29 29 255 255 255 255 59 59 59 59 59 59 59 59 59 59 59 59 59 59 59 59 59 59 59 59 59 59 59 59 59 59 59 59 59 255 255 255 16 255 255 255 42 255 255 255 255 255 255 255 84 84 84 84 84 255 255 255 255 255 255 42 42 42 255 
255 1 1 1 1 1 1 1 1 1 1 1 1 1 1 1 1 1 1 1 1 1 1 1 1 1 1 1 255 255 44 255 255 255 255 255 255 255 70 70 70 70 70 70 70 70 70 70 70 70 70 70 70 70 70 70 70 70 70 70 70 70 70 70 70 70 70 70 70 70 70 70 70 255 255 255 255 255 255 255 70 70 70 70 70 70 70 70 70 70 70 70 70 70 70 70 70 70 70 70 70 70 70 70 70 70 70 70 70 70 70 70 70 70 70 70 70 70 255 255 255 70 255 255 255 40 255 255 255 70 70 70 70 70 70 255 255 255 255 255 40 40 40 255 255 255 255 255 255 255 255 255 255 255 255 255 255 255 255 255 255 255 255 255 255 255 255 255 255 70 70 70 70 70 70 70 70 70 70 70 70 70 70 70 70 70 70 70 70 70 70 70 70 70 70 70 70 70 70 70 70 70 70 70 70 70 70 70 70 70 70 255 255 255 255 255 43 43 43 43 43 43 43 43 43 43 43 255 255 255 70 70 70 70 70 255 255 255 28 28 28 28 28 28 28 28 255 255 255 255 255 255 255 255 255 255 255 255 255 255 255 255 255 255 255 255 255 255 255 255 255 255 255 255 255 255 255 255 7 7 7 7 7 7 7 7 7 7 7 7 7 7 7 7 7 7 7 7 7 7 7 7 7 7 7 7 7 7 7 7 7 7 7 7 7 7 7 7 7 7 7 7 255 255 255 255 255 255 255 255 255 62 62 62 62 62 62 62 62 62 62 62 62 62 62 62 62 62 62 62 62 62 62 62 62 62 62 62 62 62 62 62 62 62 62 62 62 62 62 62 62 62 255 255 255 71 71 71 71 71 71 71 255 255 255 255 255 255 255 255 255 255 255 5 255 255 255 255 255 255 255 255 29 29 255 255 255 29 29 255 255 255 255 255 29 29 29 29 29 29 29 29 29 29 29 29 29 29 29 29 29 29 29 29 29 29 29 29 29 29 29 29 29 29 29 29 29 29 29 255 255 255 255 59 59 59 59 59 59 59 59 59 59 59 59 59 59 59 59 59 59 59 59 59 59 59 59 59 59 59 59 59 255 255 255 255 255 255 42 42 42 255 255 255 255 255 255 255 255 255 255 255 255 255 255 255 255 255 42 42 42 255 
255 1 1 1 1 1 1 1 1 1 1 1 1 1 1 1 1 1 1 1 1 1 1 1 1 1 1 1 255 255 44 255 255 255 255 255 70 70 70 70 70 70 70 70 70 70 70 70 70 70 70 70 70 70 70 70 70 70 70 70 70 70 70 70 70 70 70 70 70 70 70 70 255 255 255 255 255 255 255 255 70 70 70 70 70 70 70 70 70 70 70 70 70 70 70 70 70 70 70 70 70 70 70 70 70 70 70 70 70 70 70 70 70 70 70 70 70 70 70 70 70 70 255 255 255 40 255 255 255 70 70 70 70 70 70 255 255 255 255 255 40 40 40 40 255 255 255 255 255 255 255 255 255 255 255 255 255 255 255 255 255 255 255 255 255 255 255 255 255 70 70 70 70 70 70 70 70 70 70 70 70 70 70 70 70 70 70 70 70 70 70 70 70 70 70 70 70 70 70 70 70 70 70 70 70 70 70 70 70 70 70 255 255 255 255 43 43 43 43 43 43 43 43 43 43 43 43 255 255 255 70 70 255 255 255 255 255 28 28 28 28 28 28 28 28 28 255 255 255 255 255 255 255 255 255 255 255 255 255 255 255 255 255 255 255 255 255 255 255 255 255 255 255 255 255 255 255 255 7 7 7 7 7 7 7 7 7 7 7 7 7 7 7 7 7 7 7 7 7 7 7 7 7 7 7 7 7 7 7 7 7 7 7 7 7 7 7 7 7 7 7 7 255 255 255 255 255 255 255 255 255 62 62 62 62 62 62 62 62 62 62 62 62 62 62 62 62 62 62 62 62 62 62 62 62 62 62 62 62 62 62 62 62 62 62 62 62 62 62 62 62 62 255 255 255 255 71 71 71 71 71 71 255 255 255 255 255 255 255 255 255 255 255 255 255 255 255 255 255 255 255 255 29 255 255 255 255 255 255 255 255 255 255 255 29 29 255 255 255 29 29 29 29 29 29 29 29 29 29 29 29 29 29 29 29 29 29 29 29 29 29 29 29 29 29 29 29 29 29 255 255 255 255 59 59 59 59 59 59 59 59 59 59 59 59 59 59 59 59 59 59 59 59 59 59 59 59 59 59 59 59 255 255 255 16 255 255 255 42 42 42 42 42 42 255 255 255 255 255 255 255 255 255 255 255 255 255 42 42 42 42 255 
255 1 1 1 1 1 1 1 1 1 1 1 1 1 1 1 1 1 1 1 1 1 1 1 1 1 1 1 255 255 44 44 255 255 255 255 70 70 70 70 70 70 70 70 70 70 70 70 70 70 70 70 70 70 70 70 70 70 70 70 70 70 70 70 70 70 70 70 70 70 70 255 255 255 255 255 255 255 255 255 70 70 70 70 70 70 70 70 70 70 70 70 70 70 70 70 70 70 70 70 70 70 70 70 70 70 70 70 70 70 70 70 70 70 70 70 70 70 70 70 70 70 70 255 255 255 40 255 255 255 70 70 70 70 70 255 255 255 40 40 40 255 255 255 255 255 255 255 255 255 255 255 255 255 255 255 255 255 255 255 255 255 255 255 255 255 255 255 70 70 70 70 70 70 70 70 70 70 70 70 70 70 70 70 70 70 70 70 70 70 70 70 70 70 70 70 70 70 70 70 70 70 70 70 70 70 70 70 70 70 70 255 255 255 255 43 43 43 43 43 43 43 43 43 43 43 43 255 255 70 70 70 255 255 255 255 255 255 28 28 28 28 28 28 28 28 28 255 255 255 255 255 255 255 255 255 255 255 255 255 255 255 255 255 255 255 255 255 255 255 255 255 255 255 255 255 255 255 7 7 7 7 7 7 7 7 7 7 7 7 7 7 7 7 7 7 7 7 7 7 7 7 7 7 7 7 7 7 7 7 7 7 7 7 7 7 7 7 7 7 7 7 255 255 255 255 255 255 255 255 255 62 62 62 62 62 62 62 62 62 62 62 62 62 62 62 62 62 62 62 62 62 62 62 62 62 62 62 62 62 62 62 62 62 62 62 62 62 62 62 62 62 62 255 255 255 71 71 71 71 71 71 255 255 29 29 255 255 255 255 255 255 255 255 255 255 255 255 255 255 255 255 255 255 255 255 255 255 255 255 255 255 255 255 29 29 255 255 255 29 29 29 29 29 29 29 29 29 29 29 29 29 29 29 29 29 29 29 29 29 29 29 29 29 29 29 29 29 29 255 255 255 255 59 59 59 59 59 59 59 59 59 59 59 59 59 59 59 59 59 59 59 59 59 59 59 59 59 59 59 59 255 255 255 16 255 255 42 42 42 42 42 42 42 255 255 255 255 255 255 255 255 255 255 255 255 255 42 42 42 42 255 
255 1 1 1 1 1 1 1 1 1 1 1 1 1 1 1 1 1 1 1 1 1 1 1 1 1 1 1 255 255 44 44 255 255 255 255 70 70 70 70 70 70 70 70 70 70 70 70 70 70 70 70 70 70 70 70 70 70 70 70 70 70 70 70 70 70 70 70 70 70 255 255 255 255 255 255 255 255 255 255 70 70 70 70 70 70 70 70 70 70 70 70 70 70 70 70 70 70 70 70 70 70 70 70 70 70 70 70 70 70 70 70 70 70 70 70 70 70 70 70 70 70 70 255 255 255 255 255 255 255 70 70 70 70 70 255 255 255 40 40 40 255 255 255 255 255 255 255 255 255 255 255 255 255 255 255 255 255 255 255 255 255 255 255 255 255 255 255 70 70 70 70 70 70 70 70 70 70 70 70 70 70 70 70 70 70 70 70 70 70 70 70 70 70 70 70 70 70 70 70 70 70 70 70 70 70 70 70 70 70 255 255 255 43 43 43 43 43 43 43 43 43 43 43 43 43 43 255 255 70 70 70 255 255 255 255 255 255 28 28 28 28 28 28 28 255 255 255 255 255 255 255 255 255 255 255 255 255 255 255 255 255 255 255 255 255 7 7 255 255 255 255 255 255 255 255 7 7 255 255 255 7 7 7 7 7 7 7 7 7 7 7 7 7 7 7 7 7 7 7 7 7 7 7 7 7 7 7 7 7 7 7 7 7 7 7 7 7 7 7 7 7 255 255 255 255 255 255 255 255 62 62 62 62 62 62 62 62 62 62 62 62 62 62 62 62 62 62 62 62 62 62 62 62 62 62 62 62 62 62 62 62 62 62 62 62 62 62 62 62 62 62 62 255 255 255 71 71 71 71 71 71 255 255 255 255 255 255 255 255 255 255 255 255 255 255 255 255 255 255 255 255 255 255 255 255 255 255 255 255 29 29 29 29 29 29 255 255 255 29 29 29 29 29 29 29 29 29 29 29 29 29 29 29 29 29 29 29 29 29 29 29 29 29 29 29 29 29 29 255 255 255 255 59 59 59 59 59 59 59 59 59 59 59 59 59 59 59 59 59 59 59 59 59 59 59 59 59 59 59 59 255 255 16 255 255 255 42 42 42 42 42 42 42 255 255 255 255 255 255 255 255 255 255 255 255 255 42 42 42 42 255 
255 1 1 1 1 1 1 1 1 1 1 1 1 1 1 1 1 1 1 1 1 1 1 1 1 1 1 1 255 255 44 44 255 255 255 255 70 70 70 70 70 70 70 70 70 70 70 70 70 70 70 70 70 70 70 70 70 70 70 70 70 70 70 70 70 70 70 70 255 255 255 255 255 255 255 255 255 255 255 70 70 70 70 70 70 70 70 70 70 70 70 70 70 70 70 70 70 70 70 70 70 70 70 70 70 70 70 70 70 70 70 70 70 70 70 70 70 70 70 70 70 70 255 255 255 255 255 255 255 255 255 255 70 255 255 255 255 40 40 40 40 255 255 255 255 255 255 255 40 255 255 255 255 255 255 255 255 255 255 255 255 255 70 70 70 70 70 70 70 255 255 255 70 70 70 70 70 70 70 70 70 70 70 70 70 70 70 70 70 70 70 70 70 70 70 70 70 70 70 70 70 70 70 70 70 70 70 70 70 70 255 255 255 43 43 43 43 43 43 43 43 43 43 43 43 43 43 255 255 70 70 70 70 255 255 255 255 255 28 28 28 28 28 28 28 255 255 255 255 255 255 255 255 255 255 255 255 255 255 7 7 7 255 255 255 255 255 255 7 7 255 255 255 255 255 255 7 7 255 255 255 7 7 7 7 7 7 7 7 7 7 7 7 7 7 7 7 7 7 7 7 7 7 7 7 7 7 7 7 7 7 7 7 7 7 7 7 7 7 7 7 7 7 7 255 255 255 255 255 62 62 62 62 62 62 62 62 62 62 62 62 62 62 62 62 62 62 62 62 62 62 62 62 62 62 62 62 62 62 62 62 62 62 62 62 62 62 62 62 62 62 62 62 255 255 255 255 71 71 71 71 71 255 255 255 255 255 255 255 255 255 255 255 255 255 255 255 255 29 255 255 255 255 255 255 255 255 255 255 255 29 29 29 29 29 29 255 255 255 29 29 29 29 29 29 29 29 29 29 29 29 29 29 29 29 29 29 29 29 29 29 29 29 29 29 29 29 29 255 255 255 255 255 59 59 59 59 59 59 59 59 59 59 59 59 59 59 59 59 59 59 59 59 59 59 59 59 59 59 59 255 255 255 255 255 255 255 42 42 42 42 42 42 42 42 42 42 255 255 255 255 255 255 255 255 255 255 255 42 255 255 255 
255 1 1 1 1 1 1 1 1 1 1 1 1 1 1 1 1 1 1 1 1 1 1 1 1 1 1 1 255 255 255 44 44 44 255 255 70 70 70 70 70 70 70 70 70 70 70 70 70 70 70 70 70 70 70 70 70 70 70 70 70 70 70 70 70 70 70 70 255 255 255 255 255 255 255 70 255 255 255 70 70 70 70 70 70 70 70 70 70 70 70 70 70 70 70 70 70 70 70 70 70 70 70 70 70 70 70 70 70 70 70 70 70 70 70 70 70 70 70 70 70 70 255 255 255 255 255 255 255 255 255 255 255 255 255 255 255 40 40 40 255 255 255 255 255 255 255 255 255 255 255 255 255 255 255 255 255 255 255 255 255 255 70 70 70 70 70 70 255 255 255 255 70 70 70 70 70 70 70 70 70 70 70 70 70 70 70 70 70 70 70 70 70 70 70 70 70 70 70 70 70 70 70 70 70 70 70 70 70 70 255 255 43 43 43 43 43 43 43 43 43 43 43 43 43 43 255 255 255 70 70 70 70 255 255 255 255 28 28 28 28 28 28 28 28 255 255 255 255 255 255 255 255 255 255 255 255 255 255 7 7 7 255 255 255 255 255 255 7 255 255 255 255 255 255 255 7 7 255 255 255 7 7 7 7 7 7 7 7 255 255 255 7 7 7 7 7 7 7 7 7 7 7 7 7 7 7 7 7 7 7 7 7 7 7 7 7 7 7 7 7 7 7 7 7 7 255 255 255 62 62 62 62 62 62 62 62 62 62 62 62 62 62 62 62 62 62 62 62 62 62 62 62 62 62 62 62 62 62 62 62 62 62 62 62 62 62 62 62 62 62 62 62 62 255 255 255 71 71 71 71 71 255 255 255 255 255 255 255 255 255 255 255 255 255 255 255 255 255 29 255 255 255 255 255 255 255 255 255 255 29 29 29 29 29 29 29 29 29 29 29 29 29 29 29 29 29 29 29 29 29 29 29 29 29 29 29 29 29 29 29 29 29 29 29 29 29 29 255 255 255 255 59 59 59 59 59 59 59 59 59 59 59 59 59 59 59 59 59 59 59 59 59 59 59 59 59 59 59 255 255 255 255 255 255 255 42 42 42 42 42 42 42 42 42 255 255 255 255 255 255 255 255 255 255 255 255 255 42 255 255 255 
255 1 1 1 1 1 1 1 1 1 1 1 1 1 1 1 1 1 1 1 1 1 1 1 1 1 1 1 255 255 255 44 44 44 255 255 70 70 70 70 70 70 70 70 70 70 70 70 70 70 70 70 70 70 70 70 70 70 70 70 70 70 70 70 70 70 70 70 255 255 255 255 255 70 70 255 255 255 255 70 70 70 70 70 70 70 70 70 70 70 70 70 70 70 70 70 70 70 70 70 70 70 70 70 70 70 70 70 70 70 70 70 70 70 70 70 70 70 70 70 70 70 255 255 255 255 255 255 255 40 255 255 255 255 255 255 255 40 40 40 255 255 255 255 255 70 255 255 255 40 255 255 255 255 255 255 255 255 255 255 255 255 255 255 70 70 70 255 255 255 255 255 70 70 70 70 70 70 70 70 70 70 70 70 70 70 70 70 70 70 70 70 70 70 70 70 70 70 70 70 70 70 70 70 70 70 70 70 70 255 255 255 43 43 43 43 43 43 43 43 43 43 43 43 43 43 255 255 255 70 70 70 70 70 255 255 255 28 28 28 28 28 28 28 28 255 255 255 255 255 255 255 255 255 255 255 255 255 7 7 255 255 255 255 255 255 255 255 255 255 255 255 255 255 255 255 255 255 255 255 255 255 255 7 7 7 7 7 7 255 255 255 7 7 7 7 7 7 7 7 7 7 7 7 7 7 7 7 7 7 7 7 7 7 7 7 7 7 7 7 7 7 7 7 7 7 255 255 255 62 62 62 62 62 62 62 62 62 62 62 62 62 62 62 62 62 62 62 62 62 62 62 62 62 62 62 62 62 62 62 62 62 62 62 62 62 62 62 62 62 62 62 62 62 255 255 255 71 71 71 71 255 255 255 255 29 255 255 255 255 255 255 255 255 255 255 255 255 255 29 255 255 255 255 255 255 255 29 29 29 29 29 29 29 29 29 29 29 29 29 29 29 29 29 29 29 29 29 29 29 29 29 29 29 29 29 29 29 29 29 29 29 29 29 29 29 29 29 255 255 255 255 59 59 59 59 59 59 59 59 59 59 59 59 59 59 59 59 59 59 59 59 59 59 59 59 59 59 59 255 255 255 255 255 255 42 42 42 42 42 42 42 42 42 42 255 255 255 255 255 255 255 255 255 255 255 255 255 42 255 255 255 
255 1 1 1 1 1 1 1 1 1 1 1 1 1 1 1 1 1 1 1 1 1 1 1 1 1 1 1 255 255 255 44 44 44 255 255 70 70 70 70 70 70 70 70 70 70 70 70 70 70 70 70 70 70 70 70 70 70 70 70 70 70 70 70 70 70 70 70 255 255 255 255 70 70 70 255 255 255 255 70 70 70 70 70 70 70 70 70 70 70 70 70 70 70 70 70 70 70 70 70 70 70 70 70 70 70 70 70 70 70 70 70 70 70 70 70 70 70 70 70 70 70 70 255 255 255 255 255 255 255 255 255 40 40 40 40 40 40 40 40 255 255 255 255 255 255 255 255 255 255 255 255 255 255 255 255 255 255 255 255 255 255 255 255 255 255 255 255 255 255 255 70 70 70 70 70 70 70 70 70 70 70 70 70 70 70 70 70 70 70 70 70 70 70 70 70 70 70 70 70 70 70 70 70 70 70 70 70 70 255 255 255 43 43 43 43 43 43 43 43 43 43 43 43 43 43 255 255 70 70 70 70 70 70 255 255 255 28 28 28 28 28 28 28 255 255 255 255 255 255 255 255 255 255 255 255 255 255 7 7 255 255 255 255 255 255 255 7 255 255 255 28 255 255 255 255 255 255 255 255 255 255 255 7 7 7 7 7 7 255 255 255 7 7 7 7 7 7 7 7 7 7 7 7 7 7 7 7 7 7 7 7 7 7 7 7 7 7 7 7 7 7 7 7 7 7 255 255 62 62 62 62 62 62 62 62 62 62 62 62 62 62 62 62 62 62 62 62 62 62 62 62 62 62 62 62 62 62 62 62 62 62 62 62 62 62 62 62 62 62 62 62 62 62 255 255 255 255 71 71 71 255 255 255 29 29 255 255 255 255 255 255 255 255 5 255 255 255 255 255 255 255 255 255 29 29 255 255 255 29 29 29 29 29 29 29 29 29 29 29 29 29 29 29 29 29 29 29 29 29 29 29 29 29 29 29 29 29 29 29 29 29 29 29 29 29 29 29 255 255 255 255 59 59 59 59 59 59 59 59 59 59 59 59 59 59 59 59 59 59 59 59 59 59 59 59 59 59 255 255 255 16 255 255 255 42 42 42 42 42 42 42 42 42 42 255 255 255 255 42 255 255 255 255 255 42 42 42 255 255 255 255 
255 1 1 1 1 1 1 1 1 1 1 1 1 1 1 1 1 1 1 1 1 1 1 1 1 1 1 255 255 255 255 44 44 44 255 255 255 70 70 70 70 70 70 70 70 70 70 70 70 70 70 70 70 70 70 70 70 70 70 70 70 70 70 70 70 70 70 70 70 70 70 70 70 70 70 255 255 255 255 70 70 70 70 70 70 70 70 70 70 70 70 70 70 70 70 70 70 70 70 70 70 70 70 70 70 70 70 70 70 70 70 70 70 70 70 70 70 70 70 70 70 70 70 70 70 70 70 255 255 255 255 255 40 40 40 40 40 40 40 40 255 255 255 255 255 255 255 255 255 255 255 255 255 255 255 255 255 255 255 255 255 255 255 255 255 255 255 255 255 255 70 70 70 70 70 70 70 70 70 70 70 70 70 70 70 70 70 70 70 70 70 70 70 70 70 70 70 70 70 70 70 70 70 70 70 70 70 255 255 255 255 255 43 43 43 43 43 43 43 43 43 43 43 43 43 43 255 255 70 70 70 70 255 255 255 255 28 28 28 28 28 28 28 28 255 255 255 255 255 255 255 255 255 255 255 255 255 7 7 7 255 255 255 255 255 255 7 255 255 255 255 255 255 255 255 255 255 255 255 255 255 255 255 7 7 7 7 7 7 255 255 255 255 7 7 7 7 7 7 7 7 7 7 7 7 7 7 7 7 7 7 7 7 7 7 7 7 7 7 7 7 7 7 7 7 7 255 255 255 62 62 62 62 62 62 62 62 62 62 62 62 62 62 62 62 62 62 62 62 62 62 62 62 62 62 62 62 62 62 62 62 62 62 62 62 62 62 62 62 62 62 62 62 62 62 255 255 255 71 71 71 255 255 29 255 255 255 255 255 255 255 255 255 255 255 255 255 255 255 255 255 29 29 29 29 29 255 255 255 29 29 29 29 29 29 29 29 29 29 29 29 29 29 29 29 29 29 29 29 29 29 29 29 29 29 29 29 29 29 29 29 29 29 29 29 29 29 29 255 255 255 255 59 59 59 59 59 59 59 59 59 59 59 59 59 59 59 59 59 59 59 59 59 59 59 59 59 59 255 255 255 16 255 255 42 42 42 42 42 42 42 42 42 42 255 255 255 255 255 255 255 255 255 255 42 42 42 42 255 255 255 255 
255 1 1 1 1 1 1 1 1 1 1 1 1 1 1 1 1 1 1 1 1 1 1 1 1 1 1 255 255 255 44 44 44 44 255 255 255 70 70 70 70 70 70 70 70 70 70 70 70 70 70 70 70 70 70 70 70 70 70 70 70 70 70 70 70 70 70 70 70 70 70 70 70 70 70 255 255 255 255 70 70 70 70 70 70 70 70 70 70 70 70 70 70 70 70 70 70 70 70 70 70 70 70 70 70 70 70 70 70 70 70 70 70 70 70 70 70 70 70 70 70 70 70 70 70 70 70 70 70 255 255 255 40 40 40 40 40 255 255 255 255 255 255 255 255 255 255 255 255 255 255 255 255 255 255 255 255 255 255 255 255 255 255 255 255 255 255 255 255 255 255 255 255 255 255 255 70 70 70 70 70 70 70 70 70 70 70 70 70 70 70 70 70 70 70 70 70 70 70 70 70 70 70 70 70 70 70 255 255 255 255 255 43 43 43 43 43 43 43 43 43 43 43 43 43 43 255 255 70 70 70 70 255 255 255 255 28 28 28 28 28 28 28 28 255 255 255 255 255 255 255 255 255 255 255 255 255 7 7 7 255 255 255 255 255 255 255 255 255 255 255 255 255 255 255 255 255 255 255 255 255 255 7 7 7 7 7 7 255 255 255 255 255 7 7 7 7 7 7 7 7 7 7 7 7 7 7 7 7 7 7 7 7 7 7 7 7 7 7 7 7 7 7 7 7 255 255 255 255 255 62 62 62 62 62 62 62 62 62 62 62 62 62 62 62 62 62 62 62 62 62 62 62 62 62 62 62 62 62 62 62 62 62 62 62 62 62 62 62 62 62 62 62 62 62 255 255 255 71 71 71 255 255 29 255 255 255 255 255 255 255 255 255 255 255 255 255 255 255 255 255 29 29 255 255 255 255 255 255 29 29 29 29 29 29 29 29 29 29 29 29 29 29 29 29 29 29 29 29 29 29 29 29 29 29 29 29 29 29 29 29 29 29 29 29 29 29 29 255 255 255 255 59 59 59 59 59 59 59 59 59 59 59 59 59 59 59 59 59 59 59 59 59 59 59 59 59 59 255 255 255 255 255 255 42 42 42 42 42 42 42 42 42 42 255 255 255 255 255 255 255 255 255 255 42 42 42 42 255 255 255 255 
255 1 1 1 1 1 1 1 1 1 1 1 1 1 1 1 1 1 1 1 1 1 1 1 1 1 1 255 255 255 255 44 44 44 44 255 255 70 70 70 70 70 70 70 70 70 70 70 70 70 70 70 70 70 70 70 70 70 70 70 70 70 70 70 70 70 70 70 70 70 70 70 70 70 70 255 255 255 70 70 70 70 70 70 70 70 70 70 70 70 70 70 70 70 70 70 70 70 70 70 70 70 70 70 70 70 70 70 70 70 70 70 70 70 70 70 70 70 70 70 70 70 70 70 70 70 70 70 70 255 255 255 40 255 255 255 255 255 255 255 40 40 40 255 255 255 255 255 255 70 70 70 255 255 255 255 255 255 255 255 255 255 255 255 255 255 255 255 255 255 255 255 255 255 255 255 255 255 255 255 255 255 255 255 255 70 70 70 70 70 70 70 70 70 70 70 70 70 70 70 70 70 70 70 70 70 70 255 255 255 255 43 43 43 43 43 43 43 43 43 43 43 43 43 43 43 255 255 70 70 70 70 255 255 255 255 255 28 28 28 28 28 28 28 255 255 255 255 255 28 28 255 255 255 255 255 255 7 7 7 255 255 255 255 255 255 255 255 255 255 255 255 255 255 255 255 255 255 255 255 255 255 7 7 7 7 7 7 255 255 255 255 255 7 7 7 7 7 7 7 7 7 7 7 7 7 7 7 7 7 7 7 7 7 7 7 7 7 7 7 7 7 7 7 7 255 255 255 255 255 255 62 62 62 62 62 62 62 62 62 62 62 62 62 62 62 62 62 62 62 62 62 62 62 62 62 62 62 62 62 62 62 62 62 62 62 62 62 62 62 62 62 62 62 62 255 255 255 255 71 71 255 255 29 255 255 255 255 255 255 255 255 255 255 255 255 255 255 255 255 255 255 255 255 255 255 255 29 29 29 29 29 29 29 29 29 29 29 29 29 29 29 29 29 29 29 29 29 29 29 29 29 29 29 29 29 29 29 29 29 29 29 29 29 29 29 29 29 255 255 255 255 59 59 59 59 59 59 59 59 59 59 59 59 59 59 59 59 59 59 59 59 59 59 59 59 59 255 255 255 255 255 255 255 42 42 42 42 42 42 42 42 42 42 255 255 255 255 255 86 255 255 255 255 255 255 255 42 42 255 255 255 
255 1 1 1 1 1 1 1 1 1 1 1 1 1 1 1 1 1 1 1 1 1 1 1 1 1 1 255 255 255 255 255 255 255 44 255 255 70 70 70 70 70 70 70 70 70 70 70 70 70 70 70 70 70 70 70 70 70 70 70 70 70 70 70 70 70 70 70 70 70 70 70 70 70 70 70 70 70 70 70 70 70 70 70 70 70 70 70 70 70 70 70 70 70 70 70 70 70 70 70 70 70 70 70 70 70 70 70 70 70 70 70 70 70 70 70 255 255 255 70 70 70 70 70 70 70 70 70 70 255 255 255 255 255 255 255 255 255 255 255 255 255 255 255 255 255 255 255 255 255 70 70 70 70 70 255 255 255 70 255 255 255 255 255 255 255 255 255 255 255 255 255 255 255 255 255 255 255 255 255 255 255 255 255 255 70 70 70 70 70 70 70 70 70 70 70 70 70 70 70 70 70 70 70 70 70 255 255 255 255 255 43 43 43 43 43 43 43 43 43 43 43 43 43 43 255 255 255 70 70 70 70 255 255 255 255 255 28 28 28 28 28 28 28 28 28 255 255 255 28 28 255 255 255 7 7 7 7 7 7 255 255 255 255 255 255 255 255 255 255 255 255 255 255 255 255 255 255 255 255 255 255 7 7 7 7 7 7 255 255 255 7 7 7 7 7 7 7 7 7 7 7 7 7 7 7 7 7 7 7 7 7 7 7 7 7 7 7 7 7 7 7 7 7 7 255 255 255 255 255 255 62 62 62 62 62 62 62 62 62 62 62 62 62 62 62 62 62 62 62 62 62 62 62 62 62 62 62 62 62 62 62 62 62 62 62 62 62 62 62 62 62 62 62 62 62 255 255 255 71 71 255 255 29 255 255 255 255 255 255 255 255 255 255 255 255 255 255 255 255 255 255 255 255 255 255 255 255 255 29 29 29 29 29 29 29 29 29 29 29 29 29 29 29 29 29 29 29 29 29 29 29 29 29 29 29 29 29 29 29 29 29 29 29 29 29 29 29 255 255 255 255 59 59 59 59 59 59 59 59 59 59 59 59 59 59 59 59 59 59 59 59 59 59 59 59 59 255 255 255 255 255 42 42 42 42 42 42 42 42 42 42 42 42 42 255 255 255 255 86 255 255 255 255 255 255 255 255 255 255 255 255 
255 1 1 1 1 1 1 1 1 1 1 1 1 1 1 1 1 1 1 1 1 1 1 1 1 1 1 255 255 255 255 255 255 255 44 255 255 70 70 70 70 70 70 70 70 70 70 70 70 70 70 70 70 70 70 70 70 70 70 70 70 70 70 70 70 70 70 70 70 70 70 70 70 70 70 70 70 70 70 70 70 70 70 70 70 70 70 70 70 70 70 70 70 70 70 70 70 70 70 70 70 70 70 70 70 70 70 70 70 70 70 70 70 70 70 255 255 255 255 70 70 70 70 70 70 70 70 70 70 70 255 255 255 255 255 255 255 255 255 255 255 255 255 255 255 255 255 255 255 255 255 70 70 70 70 255 255 255 70 70 70 70 70 70 255 255 255 255 255 255 255 255 255 255 255 255 255 255 255 255 255 255 255 255 255 255 70 70 70 70 70 70 70 70 70 70 70 70 70 70 70 70 70 70 70 70 255 255 255 255 43 43 43 43 43 43 43 43 43 43 43 43 43 43 43 255 255 255 70 70 70 70 255 255 255 255 255 28 28 28 28 28 28 28 28 28 28 255 255 255 255 255 255 255 255 255 7 7 7 255 255 255 255 255 255 255 255 255 255 255 255 255 255 255 255 255 255 255 255 255 255 255 7 7 7 7 7 7 7 7 7 7 7 7 7 7 7 7 7 7 7 7 7 7 7 7 7 7 7 7 7 7 7 7 7 7 7 7 7 7 7 7 7 7 7 7 7 7 7 255 255 62 62 62 62 62 62 62 62 62 62 62 62 62 62 62 62 62 62 62 62 62 62 62 62 62 62 62 62 62 62 62 62 62 62 62 62 62 62 62 62 62 62 62 62 62 255 255 255 71 71 255 255 29 255 255 255 255 255 255 255 255 255 255 255 255 255 255 255 255 255 255 255 255 29 255 255 255 255 255 255 29 29 29 29 29 29 29 29 29 29 29 29 255 255 255 29 29 29 29 29 29 29 29 29 29 29 29 29 29 29 29 29 29 29 29 29 29 255 255 255 255 255 59 59 59 59 59 59 59 59 59 59 59 59 59 59 59 59 59 59 59 59 59 59 59 255 255 255 16 255 255 42 42 42 42 42 42 42 42 42 42 42 42 42 255 255 255 86 86 255 255 255 255 255 255 255 255 255 255 255 255 
255 1 1 1 1 1 1 1 1 1 1 1 1 1 1 1 1 1 1 1 1 1 1 1 1 1 1 255 255 255 255 255 255 255 255 255 255 70 70 70 70 70 70 70 70 70 70 70 70 70 70 70 70 70 70 70 70 70 70 70 70 70 70 70 70 70 70 70 70 70 70 70 70 70 70 70 70 70 70 70 70 70 70 70 70 70 70 70 70 70 70 70 70 70 70 70 70 70 70 70 70 70 70 70 70 70 70 70 70 70 70 70 70 70 70 255 255 255 255 70 70 70 70 70 70 70 70 70 70 70 70 255 255 40 255 255 255 255 255 255 255 255 255 255 255 255 255 255 255 255 255 70 70 70 70 255 255 255 70 70 70 70 70 70 70 70 70 70 70 70 70 255 255 255 255 255 255 255 255 255 255 255 255 255 255 255 255 255 70 70 70 70 70 70 70 70 70 70 70 70 70 70 70 70 70 70 255 255 255 255 43 43 43 43 43 43 43 43 43 43 43 43 43 43 43 255 255 70 70 70 70 70 255 255 255 255 255 28 28 28 28 28 28 28 28 28 28 255 255 255 255 255 255 255 255 255 255 255 255 255 255 255 7 7 255 255 255 255 255 255 255 255 255 255 255 255 255 255 255 255 255 7 7 7 7 7 7 7 7 7 7 7 7 7 7 7 7 7 7 7 7 7 7 7 7 7 7 7 7 7 7 7 7 7 7 7 7 7 7 7 7 7 7 7 7 7 7 7 7 255 255 62 62 62 62 62 62 62 62 62 62 62 62 62 62 62 62 62 62 62 62 62 62 62 62 62 62 62 62 62 62 62 62 62 62 62 62 62 62 62 62 62 62 62 62 62 255 255 255 71 71 255 255 29 255 255 255 255 255 255 255 255 255 255 255 255 255 255 255 255 29 29 29 29 29 255 255 255 255 255 255 29 29 29 29 29 29 29 29 29 29 29 29 255 255 255 29 29 29 29 29 29 29 29 29 29 29 29 29 29 29 29 29 29 29 29 29 29 255 255 255 255 255 255 59 59 59 59 59 59 59 59 59 59 59 59 59 59 59 59 59 59 59 59 59 59 255 255 255 16 255 255 42 42 42 42 42 42 42 42 42 42 42 42 42 255 255 255 86 86 255 255 255 255 255 255 255 255 255 255 255 255 
255 1 1 1 1 1 1 1 1 1 1 1 1 1 1 1 1 1 1 1 1 1 1 1 1 1 1 255 255 255 255 255 255 255 255 255 255 70 70 70 70 70 70 70 70 70 70 70 70 70 70 70 70 70 70 70 70 70 70 70 70 70 70 70 70 70 70 70 70 70 70 70 70 70 70 70 70 70 70 70 70 70 70 70 70 70 70 70 70 70 70 70 70 70 70 70 70 70 70 70 70 70 70 70 70 70 70 70 70 70 70 70 70 70 70 255 255 255 255 70 70 70 70 70 70 70 70 70 70 70 70 255 255 255 255 255 255 255 255 255 255 255 255 255 255 255 255 255 255 255 255 255 70 70 70 255 255 255 70 70 70 70 70 70 70 70 70 70 70 70 70 70 70 70 70 70 70 255 255 255 255 255 255 255 255 255 255 255 255 70 70 70 70 70 70 70 70 70 70 70 70 70 70 70 255 255 255 255 255 43 43 43 43 43 43 43 43 43 43 43 43 43 43 43 43 255 255 70 70 70 255 255 255 255 28 28 28 28 28 28 28 28 28 28 255 255 255 255 255 255 255 255 255 255 255 255 255 255 255 255 255 255 7 7 255 255 255 255 255 255 255 255 255 255 255 255 255 255 255 255 255 255 7 7 7 255 255 255 7 7 7 7 7 7 7 7 7 7 7 7 7 7 7 7 7 7 7 7 7 7 7 7 7 7 7 7 7 7 7 7 7 7 7 7 7 7 7 7 7 255 255 62 62 62 62 62 62 62 62 62 62 62 62 62 62 62 62 62 62 62 62 62 62 62 62 62 62 62 62 62 62 62 62 62 62 62 62 62 62 62 62 62 62 62 62 62 62 255 255 255 71 255 255 29 255 255 255 255 255 255 255 255 255 255 255 255 255 255 255 255 29 29 29 29 29 29 255 255 255 255 255 29 29 29 29 29 29 29 29 29 29 29 29 255 255 255 29 29 29 29 29 29 29 29 29 29 29 29 29 29 29 29 29 29 29 29 29 29 255 255 255 255 255 255 255 59 59 59 59 59 59 59 59 59 59 59 59 59 59 59 59 59 59 59 59 59 255 255 16 16 255 255 42 42 42 42 42 42 42 42 42 42 42 42 42 255 255 255 86 86 255 255 255 255 255 255 255 255 86 86 86 255 
255 1 1 1 1 1 1 1 1 1 1 1 1 1 1 1 1 1 1 1 1 1 1 1 1 1 1 1 255 255 255 255 255 255 255 70 70 70 70 70 70 70 70 70 70 70 70 70 70 70 70 70 70 70 70 70 70 70 70 70 70 70 70 70 70 70 70 70 70 70 70 70 70 70 70 70 70 70 70 70 70 70 70 70 70 70 70 70 70 70 70 70 70 70 70 70 70 70 70 70 70 70 70 70 70 70 70 70 70 70 70 70 70 70 70 255 255 255 255 70 70 70 70 255 255 255 70 70 70 70 70 255 255 255 255 255 255 255 255 255 255 255 255 255 255 255 255 255 255 255 255 255 70 70 70 255 255 255 255 70 70 70 70 70 70 70 70 70 70 70 70 70 70 70 70 70 70 70 70 70 70 70 255 255 255 255 255 255 255 70 70 70 70 70 70 70 70 70 70 70 70 70 70 70 255 255 255 255 255 43 43 43 43 43 43 43 43 43 43 43 43 43 43 43 43 255 255 70 70 70 255 255 255 255 28 28 28 28 28 28 28 28 28 28 255 255 255 255 255 255 255 255 255 255 255 255 255 255 255 255 255 255 7 7 7 7 7 255 255 255 255 255 255 255 255 255 255 255 255 255 255 255 7 7 7 255 255 255 7 7 7 7 7 7 7 7 7 7 7 7 7 7 7 7 7 7 7 7 7 7 7 7 7 7 7 7 7 7 7 7 7 7 7 7 7 7 7 7 7 255 255 62 62 62 62 62 62 62 62 62 62 62 62 62 62 62 62 62 62 62 62 62 62 62 62 62 62 62 62 62 62 62 62 62 62 62 62 62 62 62 62 62 62 62 62 62 62 255 255 255 71 255 255 29 255 255 255 255 255 255 255 255 255 255 255 255 255 255 255 255 255 29 29 29 29 29 29 29 255 255 255 29 29 29 29 29 29 29 29 29 29 29 29 29 29 29 29 29 29 29 29 29 29 29 29 29 29 29 29 29 29 29 29 29 29 29 255 255 255 255 255 255 255 255 255 255 255 255 59 59 59 59 59 59 59 59 59 59 59 59 59 59 59 59 59 59 255 255 16 255 255 255 42 42 42 42 42 42 42 42 42 42 255 255 255 255 255 255 86 86 86 86 255 255 255 255 255 255 86 86 86 255 
255 1 1 1 1 1 1 1 1 1 1 1 1 1 1 1 1 1 1 1 1 1 1 1 1 1 1 255 255 255 44 255 255 255 255 255 70 70 70 70 70 70 70 70 70 70 70 70 70 70 70 70 70 70 70 70 70 70 70 70 70 70 70 70 70 70 70 70 70 70 70 70 70 70 70 70 70 70 70 70 70 70 70 70 70 70 70 70 70 70 70 70 70 70 70 70 70 70 70 70 70 70 70 70 70 70 70 70 70 70 70 70 70 70 70 255 255 255 255 255 255 70 70 255 255 255 255 70 70 70 70 70 255 255 40 255 255 255 255 255 255 255 255 255 255 255 255 255 255 255 255 255 255 70 70 70 255 255 255 70 70 70 70 70 70 70 70 70 70 70 70 70 70 70 70 70 70 70 70 70 70 70 70 70 255 255 255 255 255 70 70 70 70 70 70 70 70 70 70 70 70 70 70 70 255 255 255 255 255 43 43 43 43 43 43 43 43 43 43 43 43 43 43 43 255 255 255 70 70 70 255 255 255 255 28 28 28 28 28 28 28 28 28 255 255 255 255 255 255 255 255 255 255 255 255 255 255 255 7 7 255 255 255 255 7 7 7 255 255 255 255 255 255 255 255 255 255 255 255 255 255 255 7 7 7 255 255 255 255 255 7 7 7 7 7 7 7 7 7 7 7 7 7 7 7 7 7 7 7 7 7 7 7 7 7 7 7 7 7 7 7 7 7 7 7 7 7 7 7 255 255 255 62 62 62 62 62 62 62 62 62 62 62 62 62 62 62 62 62 62 62 62 62 62 62 62 62 62 62 62 62 62 62 62 62 62 62 62 62 62 62 62 62 62 62 62 62 255 255 255 71 255 255 255 255 255 255 255 255 255 255 255 255 255 255 255 255 255 255 255 255 29 29 29 29 29 29 29 255 255 255 255 255 255 255 29 29 29 29 29 29 29 29 29 29 29 29 29 29 29 29 29 29 29 29 29 29 29 29 29 29 29 29 29 29 29 255 255 255 255 255 255 255 255 255 255 255 255 255 255 255 255 255 59 59 59 59 59 59 59 59 59 59 59 59 59 255 255 16 255 255 255 42 42 42 42 42 42 42 42 42 42 255 255 255 255 255 255 86 86 86 86 255 255 255 255 255 255 86 86 86 255 
255 1 1 1 1 1 1 1 1 1 1 1 1 1 1 1 1 1 1 1 1 1 1 1 1 1 1 255 255 255 255 255 255 255 255 255 255 70 70 70 70 70 70 70 70 70 70 70 70 70 70 70 70 70 70 70 70 70 70 70 70 70 70 70 70 70 70 70 70 70 70 70 70 70 70 70 70 70 70 70 70 70 70 70 70 70 70 70 70 70 70 70 70 70 70 70 70 70 70 70 70 70 70 70 70 70 70 70 70 70 70 70 70 70 70 70 70 70 255 255 255 70 70 255 255 255 255 255 70 70 255 255 255 255 255 255 255 255 255 255 255 255 255 255 255 255 255 255 255 255 255 255 255 255 70 70 255 255 255 70 70 70 70 70 70 70 70 70 70 70 70 70 70 70 70 70 70 70 70 70 70 70 70 70 70 255 255 255 255 70 70 70 70 70 70 70 70 70 70 70 70 70 70 70 255 255 255 255 255 43 43 43 43 43 43 43 43 43 43 43 43 43 43 43 255 255 255 70 70 70 255 255 255 255 255 28 28 28 28 28 28 28 28 255 255 255 255 255 255 255 255 255 255 255 255 255 255 255 255 7 255 255 255 255 255 255 255 255 255 255 255 255 255 255 255 255 255 255 255 255 255 255 255 7 7 7 255 255 255 255 7 7 7 7 7 7 7 7 7 7 7 7 7 7 7 7 7 7 7 7 7 7 7 7 7 7 7 7 7 7 7 7 7 7 7 7 7 7 7 255 255 255 255 255 62 62 62 62 62 62 62 62 62 62 62 62 62 62 62 62 62 62 62 62 62 62 62 62 62 62 62 62 62 62 62 62 62 62 62 62 62 62 62 62 62 62 62 255 255 255 255 255 255 255 255 255 255 255 255 255 255 255 255 255 255 255 255 255 255 255 255 255 255 255 29 29 29 29 255 255 255 255 255 255 255 29 29 29 29 29 29 29 29 29 29 29 29 29 29 29 29 29 29 29 29 29 29 29 29 29 29 29 29 29 29 29 255 255 255 255 255 255 255 255 255 255 255 255 255 255 255 255 255 59 59 59 59 59 59 59 59 59 59 59 59 59 255 255 16 255 255 255 42 42 42 42 42 42 42 42 42 42 255 255 255 255 255 255 255 255 86 86 255 255 255 255 255 86 86 86 86 255 
255 1 1 1 1 1 1 1 1 1 1 1 1 1 1 1 1 1 1 1 1 1 1 1 1 1 1 255 255 255 255 255 255 255 255 255 255 70 70 70 70 70 70 70 70 70 70 70 70 70 70 70 70 70 70 70 70 70 70 70 70 70 70 70 70 70 70 70 70 70 70 70 70 70 70 70 70 70 70 70 70 70 70 70 70 70 70 70 70 70 70 70 70 70 70 70 70 70 70 70 70 70 70 70 70 70 70 70 70 70 70 70 70 255 255 255 70 70 255 255 255 255 70 255 255 255 255 255 255 255 255 255 255 255 255 255 255 255 255 255 255 255 255 255 255 255 255 255 255 255 255 255 255 255 255 70 255 255 255 70 70 70 70 70 70 70 70 70 70 70 70 70 70 70 70 70 70 70 70 70 70 70 70 70 70 70 70 70 70 70 70 70 70 70 70 70 70 70 70 70 70 70 70 255 255 255 255 255 43 43 43 43 43 43 43 43 43 43 43 43 43 43 43 43 255 255 70 70 70 70 255 255 255 255 255 28 28 28 28 28 28 28 28 255 255 255 255 255 255 255 255 255 255 255 255 255 255 255 255 7 255 255 255 255 255 255 255 255 255 255 255 255 255 255 255 255 255 255 255 255 255 255 255 7 255 255 255 255 255 255 7 7 7 7 7 7 7 7 7 7 7 7 7 7 7 7 7 7 7 7 7 7 7 7 7 7 7 7 7 7 7 7 7 7 7 7 7 7 7 255 255 255 255 255 62 62 62 62 62 62 62 62 62 62 62 62 62 62 62 62 62 62 62 62 62 62 62 62 62 62 62 62 62 62 62 62 62 62 62 62 62 62 62 62 62 62 62 62 255 255 255 255 255 255 255 255 255 255 255 255 255 255 255 255 255 29 255 255 255 255 255 255 255 255 29 29 255 255 255 255 255 255 255 255 255 29 29 29 29 29 29 29 29 29 29 29 29 29 29 29 29 29 29 29 29 29 29 29 29 29 29 29 29 29 29 29 29 29 255 255 255 255 255 255 255 255 13 255 255 255 13 255 255 59 59 59 59 59 59 59 59 59 59 59 59 59 255 255 16 255 255 255 42 42 42 42 42 42 42 42 42 42 255 255 255 255 255 255 255 255 255 255 255 255 255 255 255 86 86 86 86 255 
255 1 1 1 1 1 1 1 1 1 1 1 1 1 1 1 1 1 1 1 1 1 1 1 1 1 255 255 255 255 255 255 255 255 255 255 255 70 70 70 70 70 70 70 70 70 70 70 70 70 70 70 70 70 70 70 70 70 70 70 70 70 70 70 70 70 70 70 70 70 70 70 70 70 70 70 70 70 70 70 70 70 70 70 70 70 70 70 70 70 70 70 70 70 70 70 70 70 70 70 70 70 70 70 70 70 70 70 70 70 70 70 255 255 255 255 70 70 255 255 255 255 255 70 70 255 255 255 255 255 255 255 255 255 255 255 255 255 255 255 255 255 255 255 255 255 255 255 255 255 255 255 255 255 255 70 255 255 255 70 70 70 70 70 70 70 70 70 70 70 70 70 70 70 70 70 70 70 70 70 70 70 70 70 70 70 70 70 70 70 70 70 70 70 70 70 70 70 70 70 70 70 70 255 255 255 255 43 43 43 43 43 43 43 43 43 43 43 43 43 43 43 43 43 255 255 70 70 70 70 255 255 255 255 255 28 28 28 28 28 28 28 255 255 255 255 255 255 255 255 7 255 255 255 255 255 255 255 255 255 255 7 255 255 255 255 255 255 255 255 255 255 255 255 255 255 255 255 255 255 255 255 255 255 255 255 255 255 255 255 7 7 7 7 7 7 7 7 7 7 7 7 7 7 7 7 7 7 7 7 7 7 7 7 7 7 7 7 7 7 7 7 7 7 7 7 7 7 7 255 255 255 255 255 255 62 62 62 62 62 62 62 62 62 62 62 62 62 62 62 62 62 62 62 62 62 62 62 62 62 62 62 62 62 62 62 62 62 62 62 62 62 62 62 62 62 62 62 255 255 255 255 255 255 255 255 255 255 255 255 29 29 29 29 29 29 255 255 255 255 255 255 255 255 29 255 255 255 255 255 255 255 255 255 255 255 255 29 29 29 29 29 29 29 29 29 29 29 29 29 29 29 29 29 29 29 29 29 29 29 29 29 29 29 29 29 29 29 29 29 29 29 29 255 255 255 255 255 13 13 13 255 255 59 59 59 59 59 59 59 59 59 59 59 59 59 255 255 16 255 255 255 42 42 42 42 42 42 42 255 255 255 255 255 255 86 86 255 255 255 255 255 255 255 255 255 86 86 86 86 86 255 
255 1 1 1 1 1 1 1 1 1 1 1 1 1 1 1 1 1 1 1 1 1 1 1 1 1 255 255 255 255 255 255 255 255 44 255 255 255 70 70 70 70 70 70 70 70 70 70 70 70 70 70 70 70 70 70 70 70 70 70 70 70 255 255 255 70 70 70 70 70 70 70 70 70 70 70 70 70 70 70 70 70 70 70 70 70 70 70 70 70 70 70 70 70 70 70 70 70 70 70 70 70 70 70 70 70 70 70 70 70 70 70 255 255 255 255 70 70 70 255 255 255 255 255 70 255 255 255 255 255 255 255 255 255 255 255 255 255 255 255 255 255 255 255 70 70 255 255 255 255 255 255 255 255 255 255 255 255 255 70 255 255 255 70 70 70 70 70 70 70 70 70 70 70 70 70 70 70 70 70 70 70 70 70 70 70 70 70 70 70 70 70 70 70 70 70 70 70 70 70 70 70 70 255 255 255 255 43 43 43 43 43 43 43 43 43 43 43 43 43 43 43 43 255 255 255 70 70 70 70 255 255 255 255 255 28 28 28 28 28 28 28 255 255 255 255 255 255 255 255 255 255 255 255 255 255 7 7 255 255 255 255 255 255 255 255 255 255 255 255 255 255 255 255 255 255 255 255 255 255 255 255 255 255 255 255 255 255 255 255 7 7 7 7 7 7 7 7 7 7 7 7 7 7 7 7 7 7 7 7 7 7 7 7 7 7 7 7 7 7 7 7 7 7 7 7 7 7 7 7 7 255 255 255 255 62 62 62 62 62 62 62 62 62 62 62 62 62 62 62 62 62 62 62 62 62 62 62 62 62 62 62 62 62 62 62 62 62 62 62 62 62 62 62 62 62 62 62 255 255 255 255 255 255 255 255 255 255 29 29 29 29 29 29 29 29 29 29 29 29 255 255 255 255 29 255 255 255 255 255 255 255 255 255 255 255 255 29 29 29 29 29 29 29 29 29 29 29 29 29 29 29 29 29 29 29 29 29 29 29 29 29 29 29 29 29 29 29 29 255 255 255 29 29 255 255 255 255 255 255 255 255 255 59 59 59 59 59 59 59 59 59 59 59 59 255 255 255 255 255 255 42 42 42 42 42 42 42 42 255 255 255 255 255 86 255 255 255 255 255 255 255 255 86 86 86 86 86 86 86 86 255 
255 255 1 1 1 1 1 1 1 1 1 1 1 1 1 1 1 1 1 1 1 1 1 1 1 1 255 255 255 255 255 255 255 255 255 255 255 255 70 70 70 70 70 70 70 70 70 70 70 70 70 70 70 70 70 70 70 70 70 70 70 70 255 255 255 70 70 70 70 70 70 70 70 70 70 70 70 70 70 70 70 70 70 70 70 70 70 70 70 70 70 70 70 70 70 70 70 70 70 70 70 70 70 70 70 70 70 70 70 70 70 70 255 255 255 255 70 70 70 255 255 255 255 255 70 70 255 255 255 255 255 255 255 255 255 255 255 255 255 255 255 255 255 255 70 70 70 70 255 255 255 255 255 255 255 255 255 255 255 255 255 255 255 255 70 70 70 70 70 70 70 70 70 70 70 70 70 70 70 70 70 70 70 70 70 70 70 70 70 70 70 70 70 70 70 70 70 70 70 70 70 70 70 255 255 255 255 43 43 43 43 43 43 43 43 43 43 43 43 43 43 43 43 255 255 255 70 70 70 70 255 255 255 28 28 28 28 28 28 28 28 255 255 255 255 255 255 255 255 255 255 255 255 255 255 255 7 7 255 255 255 255 255 255 255 255 255 255 255 255 255 255 255 255 255 255 255 255 255 255 255 255 255 255 255 255 255 255 7 7 7 7 7 7 7 7 7 7 7 7 7 7 7 7 7 7 7 7 7 7 7 7 7 7 7 7 7 7 7 7 7 7 7 7 7 7 7 7 7 7 7 255 255 255 255 62 62 62 62 62 62 62 62 62 62 62 62 62 62 62 62 62 62 62 62 62 62 62 62 62 62 62 62 62 62 62 62 62 62 62 62 62 62 62 62 62 62 62 255 255 255 255 255 255 255 255 255 29 255 255 255 29 29 29 29 29 29 29 29 29 29 29 29 29 29 255 255 255 255 255 255 255 255 255 255 255 255 255 255 255 29 29 29 29 29 29 29 29 29 29 29 29 29 29 29 29 29 29 29 29 29 29 29 29 255 255 255 255 255 255 255 255 29 29 29 29 255 255 255 255 255 255 255 59 59 59 59 59 59 59 59 59 59 59 255 255 255 255 255 255 255 42 42 42 42 42 42 255 255 255 255 86 86 86 86 255 255 255 86 86 255 255 255 255 255 86 86 86 86 86 86 255 
255 255 1 1 1 1 1 1 1 1 1 1 1 1 1 1 1 1 1 1 1 1 1 1 1 1 1 1 255 255 255 255 255 255 255 255 255 255 70 70 70 70 70 70 70 70 70 70 70 70 70 70 70 70 70 70 70 70 70 70 70 70 255 255 255 70 70 70 70 70 70 70 70 70 70 70 70 70 70 70 70 70 70 70 70 70 70 70 70 70 70 70 70 70 70 70 70 70 70 70 70 70 70 70 70 70 70 70 70 70 70 70 70 70 70 70 70 70 70 70 255 255 255 255 255 70 70 255 255 255 255 255 255 255 255 255 255 255 255 255 255 255 255 255 70 70 70 70 255 255 255 255 255 255 255 255 255 255 255 255 255 255 255 255 70 70 70 70 70 70 70 70 70 70 70 70 70 70 70 70 70 70 70 70 70 70 70 70 70 70 70 70 70 70 70 70 70 70 70 70 70 70 70 255 255 255 255 43 43 43 43 43 43 43 43 43 43 43 43 43 43 43 255 255 255 70 70 70 70 70 255 255 255 28 28 28 28 28 28 255 255 255 255 255 255 255 7 7 7 255 255 255 255 255 255 255 7 7 255 255 255 255 255 255 255 255 255 255 255 255 255 255 255 255 255 255 255 255 255 255 255 255 255 255 255 255 255 255 7 7 7 7 7 7 7 7 7 7 7 7 7 7 7 7 7 7 7 7 7 7 7 7 7 7 7 7 7 7 7 7 7 7 7 7 7 7 7 7 7 7 7 255 255 255 255 255 62 62 62 62 62 62 62 62 62 62 62 62 62 62 62 62 62 62 62 62 62 62 62 62 62 62 62 62 62 62 62 62 62 62 62 62 62 62 62 62 62 62 62 255 255 255 255 255 255 255 255 29 255 255 255 255 29 29 255 255 255 29 29 29 29 29 29 29 29 29 29 29 29 255 255 255 255 255 255 255 255 255 255 255 255 29 29 29 29 29 255 255 255 29 29 29 29 29 29 29 29 255 255 255 29 29 29 255 255 255 255 255 255 255 255 255 29 29 29 29 255 255 255 255 255 255 255 59 59 59 59 59 59 59 59 59 59 59 255 255 255 255 255 255 42 42 42 42 42 42 42 255 255 255 255 86 86 86 86 255 255 255 86 86 86 86 255 255 255 86 86 86 86 86 86 255 
255 255 1 1 1 1 1 1 1 1 1 1 1 1 1 1 1 1 1 1 1 1 1 1 1 1 1 1 255 255 255 255 255 255 255 255 255 70 70 70 70 70 70 70 70 70 70 70 70 70 70 70 70 70 70 70 70 70 70 70 70 70 70 70 70 70 70 70 70 70 70 70 70 70 70 70 70 70 70 70 70 70 70 70 70 70 70 70 70 70 70 70 70 70 70 70 70 70 70 70 70 70 70 70 70 70 70 70 70 70 70 70 70 70 70 70 70 70 70 70 255 255 255 255 255 70 70 70 255 255 255 255 255 255 255 255 255 255 255 255 255 255 255 255 70 70 70 70 70 255 255 255 255 255 255 255 255 255 255 255 255 255 255 255 70 70 70 70 70 70 70 70 70 70 70 70 70 70 70 70 70 70 70 70 70 70 70 70 70 70 70 70 70 70 70 70 70 70 70 70 70 70 255 255 255 255 43 43 43 43 43 43 43 43 43 43 43 43 43 43 43 43 255 255 255 70 70 70 70 70 255 255 255 28 28 28 28 28 28 255 255 255 255 255 255 255 255 255 7 255 255 255 7 255 255 255 7 7 255 255 255 255 255 255 255 255 255 255 7 255 255 255 255 255 255 255 255 255 255 255 255 255 255 7 255 255 255 255 7 7 7 7 7 7 7 7 7 7 7 7 7 7 7 7 7 7 7 7 7 7 7 7 7 7 7 7 7 7 7 7 7 7 7 7 7 7 7 7 7 7 7 255 255 255 255 255 255 255 255 255 62 62 62 62 62 62 62 62 62 62 62 62 62 62 62 62 62 62 62 62 62 62 62 62 62 62 62 62 62 62 62 62 62 62 62 62 62 62 62 255 255 255 255 255 255 255 255 29 255 255 255 255 255 255 255 255 255 29 29 29 29 29 29 29 29 29 29 29 29 29 29 29 29 29 29 29 255 255 255 255 255 29 255 255 255 29 255 255 255 29 29 29 29 29 29 29 29 255 255 255 255 255 255 255 255 255 255 255 255 255 255 255 255 29 29 29 255 255 255 255 255 255 255 59 59 59 59 59 59 59 59 59 59 59 255 255 16 255 255 255 42 42 42 255 255 255 255 255 255 255 86 86 86 86 86 255 255 255 255 255 255 255 255 255 255 86 86 86 86 86 86 255 
255 1 1 1 1 1 1 1 1 1 1 1 1 1 1 1 1 1 1 1 1 1 1 1 1 1 1 1 255 255 255 255 255 255 255 255 255 70 70 70 70 70 70 70 70 70 70 70 70 70 70 70 70 70 70 70 70 70 70 70 70 70 70 70 70 70 70 70 70 70 70 70 70 70 70 70 70 70 70 70 70 70 70 70 70 70 70 70 70 70 70 70 70 70 70 70 70 70 70 70 70 70 70 70 70 70 70 70 70 70 70 70 70 70 70 70 70 70 70 70 70 255 255 255 255 70 70 70 70 255 255 255 255 255 255 255 255 255 255 255 255 255 255 70 70 70 70 70 70 255 255 255 255 255 255 255 255 255 255 255 255 255 255 70 70 70 70 70 70 70 70 70 70 70 70 70 70 70 70 70 70 70 70 70 70 70 70 70 70 70 70 70 70 70 70 70 70 70 70 70 70 70 255 255 255 43 43 43 43 43 43 43 43 43 43 43 43 43 43 43 43 43 255 255 70 70 70 70 255 255 255 255 255 28 28 28 28 28 28 255 255 255 255 255 255 255 255 255 255 255 7 255 255 255 255 255 7 7 255 255 255 255 255 255 255 255 255 255 7 7 7 255 255 255 255 255 255 255 255 255 255 255 255 255 255 255 255 255 7 7 7 7 7 7 7 7 7 7 7 7 7 7 7 7 7 7 7 7 7 7 7 7 7 7 7 7 7 7 7 7 7 7 7 7 7 7 7 7 7 7 7 255 255 255 255 255 255 255 255 255 62 62 62 62 62 62 62 62 62 62 62 62 62 62 62 62 62 62 62 62 62 62 62 62 62 62 62 62 62 62 62 62 62 62 62 62 62 62 62 62 255 255 255 255 255 255 29 29 255 255 255 255 255 255 255 255 255 29 255 255 255 29 29 29 29 29 29 29 29 29 29 29 29 29 29 29 255 255 255 255 255 29 255 255 255 29 255 255 255 29 29 29 29 29 29 29 29 255 255 255 255 255 255 255 255 13 255 255 255 255 255 255 255 29 29 29 255 255 255 255 255 255 255 59 59 59 59 59 59 59 59 59 59 255 255 255 16 255 255 42 42 42 42 255 255 255 255 255 255 255 86 86 86 86 86 255 255 255 255 255 255 255 86 86 86 86 86 86 86 86 255 255 
255 1 1 1 1 1 1 1 1 1 1 1 1 1 1 1 1 1 1 1 1 1 1 1 1 1 1 1 255 255 44 255 255 255 255 255 255 70 70 70 70 70 70 70 70 70 70 70 70 70 70 70 70 70 70 70 70 70 70 70 70 70 70 70 70 70 70 70 70 70 70 70 70 70 70 70 70 70 70 70 70 70 70 70 70 70 70 70 70 70 70 70 70 70 70 70 70 70 70 70 70 70 70 70 70 70 70 70 70 255 255 255 70 70 70 70 70 70 70 70 70 255 255 255 255 70 70 70 70 70 70 70 70 70 255 255 255 255 255 255 255 255 255 255 70 70 70 70 70 70 255 255 255 255 255 255 255 255 255 255 255 255 255 70 70 70 70 70 70 70 70 70 70 70 70 70 70 70 70 70 70 70 70 70 70 70 70 70 70 70 70 70 70 70 70 70 70 70 70 70 70 70 255 255 43 43 43 43 43 43 43 43 43 43 43 43 43 43 43 43 43 43 255 255 70 70 70 70 255 255 255 255 28 28 28 28 255 255 255 255 255 255 255 255 255 255 255 255 255 255 7 255 255 255 255 255 7 7 255 255 255 255 255 255 7 255 255 255 7 7 7 7 7 255 255 255 255 255 255 255 255 255 255 255 255 255 255 255 7 7 7 7 7 7 7 7 7 7 7 7 7 7 7 7 7 7 7 7 7 7 7 7 7 7 7 7 7 7 7 7 7 7 7 7 7 7 7 7 7 7 7 255 255 255 255 255 255 255 255 255 62 62 62 62 62 62 62 62 62 62 62 62 62 62 62 62 62 62 62 62 62 62 62 62 62 62 62 62 62 62 62 62 62 62 62 62 62 62 62 62 255 255 255 29 29 255 255 255 255 255 87 87 255 255 255 255 255 255 255 255 255 255 255 29 29 29 29 29 29 29 29 29 29 29 29 29 29 29 29 29 29 29 255 255 255 29 29 29 29 29 29 255 255 255 29 29 29 255 255 255 255 255 13 13 13 13 13 13 255 255 255 255 255 29 29 29 255 255 255 255 255 255 255 59 59 59 59 59 59 59 59 59 59 255 255 255 255 255 255 42 42 42 42 255 255 255 255 255 255 255 86 86 86 86 86 86 255 255 255 255 255 255 86 86 86 86 86 86 86 86 255 255 
255 1 1 1 1 1 1 1 1 1 1 1 1 1 1 1 1 1 1 1 1 1 1 1 1 1 1 1 255 255 44 255 255 255 255 255 255 70 70 70 70 70 70 70 70 70 70 70 70 70 70 70 70 70 70 70 70 70 70 70 70 70 70 70 70 70 70 70 70 70 70 70 70 70 70 70 70 70 70 70 70 70 70 70 70 70 70 70 70 70 70 70 70 70 70 70 70 70 70 70 70 70 70 70 70 70 70 70 70 255 255 255 70 70 70 70 70 70 70 70 70 255 255 255 255 255 70 255 255 255 70 70 70 70 70 70 70 255 255 255 255 255 255 255 70 70 70 70 70 70 70 255 255 255 255 255 255 255 255 255 255 255 255 70 70 70 70 70 70 70 70 70 70 70 70 70 70 70 70 70 70 70 70 70 70 70 70 70 70 70 70 70 70 70 70 70 70 70 70 70 70 70 255 255 43 43 43 43 43 43 43 43 43 43 43 43 43 43 43 43 43 255 255 255 70 70 70 70 255 255 255 28 28 28 28 28 255 255 255 255 255 255 255 255 255 255 255 255 255 255 7 255 255 255 255 255 7 7 7 7 7 7 7 7 7 255 255 255 7 7 7 7 255 255 255 255 255 255 255 255 255 255 255 255 255 255 255 7 7 7 7 7 7 7 7 7 7 7 7 7 7 7 7 7 7 7 7 7 7 7 7 7 7 7 7 7 7 7 7 7 7 7 7 7 7 7 7 7 7 7 7 255 255 255 255 255 255 255 62 62 62 62 62 62 62 62 62 62 62 62 62 62 62 62 62 62 62 62 62 62 62 62 62 62 62 62 62 62 62 62 62 62 62 62 62 62 62 62 62 62 255 255 255 29 29 255 255 255 255 255 87 87 255 255 255 255 255 255 255 255 255 255 255 255 255 255 255 29 29 29 29 29 29 29 29 29 29 29 29 29 29 29 29 29 29 29 29 29 29 29 29 255 255 255 29 29 255 255 255 255 255 13 13 13 13 13 255 255 255 255 255 255 255 29 29 29 255 255 255 255 255 255 59 59 59 59 59 59 59 59 59 59 255 255 255 16 255 255 255 42 42 42 255 255 255 255 255 255 255 86 86 86 86 86 86 86 255 255 255 255 86 86 86 86 86 86 86 86 86 255 255 255 
255 1 1 1 1 1 1 1 1 1 1 1 1 1 1 1 1 1 1 1 1 1 1 1 1 1 1 1 255 255 255 255 255 255 255 255 255 70 70 70 70 70 70 70 70 70 70 70 70 70 70 70 70 70 70 70 70 70 70 70 70 70 70 70 70 70 70 70 70 70 70 70 70 70 70 70 70 70 70 70 70 70 70 70 70 70 70 70 70 70 70 70 70 70 70 70 70 70 70 70 70 70 70 70 70 70 70 70 70 255 255 255 70 70 70 70 70 70 70 70 255 255 255 255 255 255 255 255 255 255 255 70 70 70 70 70 70 255 255 255 255 255 255 255 255 70 70 70 70 70 70 70 255 255 255 255 255 255 255 255 255 255 70 70 70 70 70 70 70 70 70 70 70 70 70 70 70 70 70 70 70 70 70 70 70 70 70 70 70 70 70 70 70 70 70 70 70 70 70 255 255 255 255 255 43 43 43 43 43 43 43 43 43 43 43 43 43 43 43 43 43 255 255 255 70 70 70 70 255 255 255 28 28 28 28 28 255 255 255 255 255 255 255 255 255 255 255 255 255 7 7 7 7 255 255 255 7 7 7 7 7 7 7 7 7 7 7 7 7 7 7 255 255 255 255 255 255 255 255 255 255 255 255 7 255 255 255 255 7 7 7 7 7 7 7 7 7 7 7 7 7 7 7 7 7 7 7 7 7 7 7 7 7 7 7 7 7 7 7 7 7 7 7 7 7 7 7 7 7 7 7 7 7 7 255 255 255 255 62 62 62 62 62 62 62 62 62 62 62 62 62 62 62 62 62 62 62 62 62 62 62 62 62 62 62 62 62 62 62 62 62 62 62 62 62 62 62 62 62 62 62 255 255 255 29 255 255 87 87 87 87 87 255 255 255 87 87 87 87 255 255 255 255 255 255 255 255 255 255 29 29 255 255 255 255 29 29 29 29 29 29 29 29 29 29 29 29 29 29 29 29 255 255 255 255 255 255 255 255 255 255 13 13 13 13 255 255 255 255 255 255 255 29 29 29 255 255 255 255 255 255 255 59 59 59 59 59 59 59 59 59 59 255 255 255 255 255 255 42 42 42 42 255 255 255 255 255 255 255 86 86 86 86 86 86 86 255 255 255 255 86 86 86 86 86 86 86 86 86 255 255 255 
255 1 1 1 1 1 1 1 1 1 1 1 1 1 1 1 1 1 1 1 1 1 1 1 1 1 1 1 255 255 255 44 255 255 255 255 255 70 70 70 70 70 70 70 70 70 70 70 70 70 70 70 70 70 70 70 70 70 70 70 70 70 70 70 70 70 70 70 70 70 70 70 70 70 70 70 70 70 70 70 70 70 70 70 70 70 70 70 70 70 70 70 70 70 70 70 70 70 70 70 70 70 70 70 70 70 70 70 70 70 70 70 70 70 70 70 70 70 70 70 255 255 255 255 255 255 255 255 255 255 255 70 70 70 70 70 70 70 70 70 255 255 255 255 255 70 70 70 70 255 255 255 255 255 255 255 255 255 255 255 255 70 70 70 70 70 70 70 70 70 70 70 70 70 70 70 70 70 70 70 70 70 70 70 70 70 70 70 70 70 70 70 70 70 70 70 70 70 70 255 255 255 255 255 43 43 43 43 43 43 43 43 43 43 43 43 43 43 43 43 255 255 255 70 70 70 70 70 255 255 28 28 28 28 28 28 255 255 255 255 255 255 255 255 255 255 255 255 255 7 7 7 7 7 7 7 7 7 7 7 7 7 7 7 7 7 7 7 7 7 7 255 255 255 255 255 255 255 255 255 255 255 255 7 255 255 255 255 7 7 7 7 7 7 7 7 7 7 7 7 7 7 7 7 7 7 7 7 7 7 7 7 7 7 7 7 7 7 7 7 7 7 7 7 7 7 7 7 7 7 7 7 7 7 255 255 255 255 62 62 62 62 62 62 62 62 62 62 62 62 62 62 62 62 62 62 62 62 62 62 62 62 62 62 62 62 62 62 62 62 62 62 62 62 62 62 62 62 62 62 62 255 255 255 255 255 255 87 87 87 87 87 255 255 255 87 87 87 87 87 87 255 255 255 87 255 255 255 255 255 255 255 255 255 255 29 29 29 29 29 29 29 29 29 29 29 29 29 29 29 29 29 29 255 255 255 255 255 255 255 13 13 13 13 13 255 255 255 255 255 255 255 29 29 29 255 255 255 13 255 255 255 59 59 59 59 59 59 59 59 59 59 255 255 16 255 255 255 42 42 42 255 255 255 255 255 255 86 86 86 86 86 86 86 86 255 255 255 86 86 86 86 86 86 86 86 86 86 255 255 255 255 
255 1 1 1 1 1 1 1 1 1 1 1 1 1 1 1 1 1 1 1 1 1 1 1 1 1 1 1 1 255 255 44 255 255 255 255 255 70 70 70 70 70 70 70 70 70 70 70 70 70 70 70 70 70 70 70 70 70 70 70 70 70 70 70 70 70 70 70 70 70 70 70 70 70 70 70 70 70 70 70 70 70 70 70 70 70 70 70 70 70 70 70 70 70 70 70 70 70 70 70 70 70 70 70 70 70 70 70 70 70 70 70 70 70 70 70 70 70 70 70 255 255 46 255 255 255 255 255 255 255 255 70 70 70 70 70 70 70 70 70 255 255 255 255 255 255 70 70 70 255 255 255 255 255 255 70 255 255 255 255 70 70 70 70 70 70 70 70 70 70 70 70 70 70 70 70 70 70 70 70 70 70 70 70 70 70 70 70 70 70 70 70 70 70 70 70 70 70 70 255 255 255 255 43 43 43 43 43 43 43 43 43 43 43 43 43 43 43 43 43 255 255 255 70 70 70 70 70 255 255 255 255 255 28 28 28 255 255 255 255 255 255 255 255 255 255 255 7 7 7 7 7 7 7 7 7 7 7 7 7 7 7 7 7 7 255 255 255 255 255 255 255 255 255 255 255 255 255 255 255 255 255 255 7 255 255 255 255 7 7 7 7 7 7 7 7 7 7 7 7 7 7 7 7 7 7 7 7 7 7 7 7 7 7 7 7 7 7 7 7 7 7 7 7 7 7 7 7 7 7 7 7 7 7 255 255 255 255 255 62 62 62 62 62 62 62 62 62 62 62 62 62 62 62 62 62 62 62 62 62 62 62 62 62 62 62 62 62 62 62 62 62 62 62 62 62 62 62 62 62 62 255 255 255 255 255 255 87 87 87 87 87 255 255 255 87 87 87 87 87 87 87 87 87 87 255 255 255 255 255 255 255 255 255 255 255 255 255 255 255 255 255 29 29 29 29 29 29 29 29 29 29 29 255 255 255 255 255 255 13 13 13 13 13 13 255 255 255 255 255 29 29 29 29 29 255 255 255 13 255 255 59 59 59 59 59 59 59 59 59 59 255 255 255 16 255 255 42 42 42 42 255 255 255 255 86 86 86 86 86 86 86 86 86 86 255 255 255 86 86 86 86 86 86 86 86 86 86 255 255 255 255 
255 1 1 1 1 1 1 1 1 1 1 1 1 1 1 1 1 1 1 1 1 1 1 1 1 1 1 1 1 255 255 44 44 255 255 255 255 70 70 70 70 70 70 70 70 70 70 70 70 70 70 70 70 70 70 70 70 70 70 70 70 70 70 70 70 70 70 70 70 70 70 70 70 70 70 70 70 70 70 70 70 70 70 70 70 70 70 70 70 70 70 70 70 70 70 70 70 70 70 70 70 70 70 70 70 70 70 70 70 70 70 70 70 70 70 70 70 70 70 70 255 255 255 255 255 255 255 255 255 70 70 70 70 70 70 70 70 70 70 70 70 255 255 255 255 255 70 70 70 255 255 255 255 255 255 255 255 255 255 255 70 70 70 70 70 70 70 70 70 70 70 70 70 70 70 70 70 70 70 70 70 70 70 70 70 70 70 70 70 70 70 70 70 70 70 70 70 70 70 70 255 255 255 43 43 43 43 43 43 43 43 43 43 43 43 43 43 43 43 255 255 255 70 70 70 70 70 70 255 255 255 255 255 28 28 28 28 255 255 255 255 255 255 255 255 255 255 7 7 7 7 7 7 7 7 7 7 7 7 7 7 7 7 7 7 255 255 255 255 255 255 255 255 255 255 255 255 255 255 255 7 7 255 255 255 255 255 255 7 7 7 255 255 255 7 7 7 7 7 7 7 7 7 7 7 7 7 7 7 7 7 7 7 7 7 7 7 7 7 7 7 7 7 7 7 7 7 7 7 7 7 7 7 7 7 7 255 255 255 255 62 62 62 62 62 62 62 62 62 62 62 62 62 62 62 62 62 62 62 62 62 62 62 62 62 62 62 62 62 62 62 62 62 62 62 62 62 62 62 62 62 255 255 255 255 255 87 87 87 87 87 87 87 87 87 87 87 87 87 87 87 87 87 87 87 87 87 87 87 87 255 255 255 255 255 255 255 255 255 255 255 255 255 255 255 255 255 29 29 29 29 29 29 29 29 29 255 255 255 13 13 13 13 13 13 255 255 255 255 255 255 255 255 29 29 255 255 255 255 255 255 59 59 59 59 59 59 59 59 59 255 255 255 255 255 255 255 42 42 255 255 255 255 255 255 86 86 86 86 86 86 86 86 86 86 255 255 255 86 86 86 86 86 86 86 86 86 86 255 255 255 255 
255 1 1 1 1 1 1 1 1 1 1 1 1 1 1 1 1 1 1 1 1 1 1 1 1 1 1 1 1 255 255 44 44 255 255 255 255 70 70 70 70 70 70 70 70 70 70 70 70 70 70 70 70 70 70 70 70 70 70 70 70 70 70 70 70 70 70 70 70 70 70 70 70 70 70 70 70 70 70 70 70 70 70 70 70 70 70 70 70 70 70 70 70 70 70 70 70 70 70 70 70 70 70 70 70 70 70 70 70 70 70 70 70 70 70 70 70 70 70 70 255 255 255 255 255 255 255 255 255 70 70 70 70 70 70 70 70 70 70 70 70 70 70 255 255 255 70 70 70 255 255 255 255 255 255 255 255 255 255 255 70 70 70 70 70 70 70 70 70 70 70 70 70 70 70 70 70 70 70 70 70 70 70 70 70 70 70 70 70 70 70 70 70 70 70 70 70 70 70 255 255 255 255 43 43 43 43 43 43 43 43 43 43 43 43 43 43 43 43 255 255 255 70 70 70 70 255 255 255 255 255 255 255 28 28 28 28 255 255 255 255 255 255 255 255 255 255 7 7 7 7 7 7 7 7 7 7 7 7 7 7 7 7 7 7 255 255 255 255 255 255 255 255 255 255 255 255 255 255 255 7 255 255 255 255 7 7 7 7 7 255 255 255 255 255 7 7 7 7 7 7 7 7 7 7 7 7 7 7 7 7 7 7 7 7 7 7 7 7 7 7 7 7 7 7 7 7 7 7 7 7 7 7 7 7 255 255 255 255 255 62 62 255 255 255 62 62 62 62 62 62 62 62 62 62 62 62 62 62 62 62 62 62 62 62 62 62 62 62 62 62 62 62 62 62 62 62 62 62 62 62 62 255 255 255 255 87 87 87 87 87 87 87 87 87 87 87 87 87 87 87 87 87 87 87 87 87 87 87 87 87 87 87 87 87 255 255 255 87 255 255 255 255 255 255 255 255 255 29 29 29 29 29 29 29 29 255 255 255 255 255 13 13 13 13 255 255 255 255 255 255 255 255 255 255 255 255 255 255 255 255 59 59 59 59 59 59 59 59 59 255 255 255 255 255 255 255 42 42 255 255 255 255 86 86 86 86 86 86 86 86 86 86 86 86 255 255 255 86 86 86 86 86 86 86 86 86 255 255 255 255 255 
255 1 1 1 1 1 1 1 1 1 1 1 1 1 1 1 1 1 1 1 1 1 1 1 1 1 1 1 1 255 255 44 44 44 255 255 255 70 70 70 70 70 70 70 70 70 70 70 70 70 70 70 70 70 70 70 70 70 70 70 70 70 70 70 70 70 70 70 70 70 70 70 70 70 70 70 70 70 70 70 70 70 70 70 70 70 70 70 70 70 70 70 70 70 70 70 70 70 70 70 70 70 70 70 70 70 70 70 70 70 70 70 70 70 70 255 255 255 255 255 255 255 255 255 255 255 255 255 255 255 70 70 70 70 255 255 255 70 70 70 70 70 70 70 70 70 70 70 70 255 255 255 255 255 255 255 255 255 255 255 70 70 70 70 70 70 70 70 70 70 70 70 70 70 70 70 70 70 70 70 70 70 70 70 70 70 70 70 70 70 70 70 70 70 70 70 70 70 70 255 255 255 43 43 43 43 43 43 43 43 43 43 43 43 43 43 43 43 255 255 255 70 70 70 70 70 255 255 255 255 255 255 255 255 255 28 28 255 255 255 28 28 255 255 255 255 255 7 7 7 7 7 7 7 7 7 7 7 7 7 7 7 7 7 7 7 7 7 7 7 255 255 255 255 255 255 255 255 255 255 255 255 255 255 255 7 7 255 255 255 255 255 255 255 255 7 7 7 7 7 7 7 7 7 7 7 7 7 7 7 7 7 7 7 7 7 7 7 7 7 7 7 7 7 7 7 7 7 7 7 7 7 7 7 7 255 255 255 255 255 62 62 255 255 255 62 62 62 62 62 62 62 62 62 62 62 62 62 62 62 62 62 62 62 62 62 62 62 62 62 62 62 62 62 62 62 62 62 62 62 62 62 255 255 255 255 87 87 87 87 87 87 87 87 87 87 87 87 87 87 87 87 87 87 87 87 87 87 87 87 87 87 87 87 87 87 87 87 87 255 255 255 255 87 87 255 255 255 255 255 255 255 255 255 29 29 255 255 255 255 255 255 13 13 255 255 255 255 255 255 255 255 255 255 255 255 255 255 255 255 255 59 59 59 59 59 59 59 59 255 255 255 16 255 255 255 42 255 255 255 255 86 86 86 86 86 86 86 86 86 86 86 86 86 86 86 86 86 86 86 86 86 86 86 86 86 255 255 255 255 255 255 
255 255 1 1 1 1 1 1 1 1 1 1 1 1 1 1 1 1 1 1 1 1 1 1 1 1 1 1 1 255 255 44 44 44 255 255 255 70 70 70 70 70 70 70 70 70 70 70 70 70 70 70 70 70 70 70 70 70 70 70 70 70 70 70 70 70 70 70 70 70 70 70 70 70 70 70 70 70 70 70 70 70 70 70 70 70 70 70 70 70 70 70 70 70 70 70 70 70 70 70 70 70 70 70 70 70 70 70 70 70 70 70 70 70 70 255 255 255 255 255 255 255 255 255 255 255 255 255 255 255 255 70 70 70 255 255 255 255 70 70 70 70 70 70 70 70 70 70 255 255 255 255 255 70 70 255 255 255 255 255 70 70 70 70 70 70 70 70 70 70 70 70 70 70 70 70 70 70 70 70 70 70 70 70 70 70 70 70 70 70 70 70 70 70 70 70 70 70 255 255 255 255 255 43 43 43 43 43 43 43 43 43 43 43 43 43 43 255 255 255 255 70 70 70 70 70 255 255 28 28 255 255 255 255 255 28 255 255 255 255 28 28 255 255 255 255 255 7 7 7 7 7 7 7 7 7 7 7 7 7 7 7 7 7 7 7 7 7 7 7 255 255 255 255 255 255 255 255 255 255 255 255 255 255 255 255 255 255 255 255 255 255 255 255 255 7 7 7 7 7 7 7 7 7 7 7 7 7 7 7 7 7 7 7 7 7 7 7 7 7 7 7 7 7 7 7 7 7 7 7 7 7 7 7 7 255 255 255 255 255 255 255 255 255 255 62 62 62 62 62 62 62 62 62 62 62 62 62 62 62 62 62 62 62 62 62 62 62 62 62 62 62 62 62 62 62 62 62 62 62 62 62 255 255 255 255 87 87 87 87 87 87 87 87 87 87 87 87 87 87 87 87 87 87 87 87 87 87 87 87 87 87 87 87 87 87 87 87 87 255 255 255 255 87 87 87 255 255 255 255 255 255 255 255 255 255 29 255 255 255 255 255 255 255 255 255 255 255 255 13 13 13 13 13 13 255 255 255 255 255 59 59 59 59 59 59 59 59 59 255 255 255 255 255 255 255 42 255 255 255 255 86 86 86 86 86 86 86 86 86 86 86 86 86 86 86 86 86 86 86 86 86 86 86 86 255 255 255 255 255 255 255 
255 255 1 1 1 1 1 1 1 1 1 1 1 1 1 1 1 1 1 1 1 1 1 1 1 1 1 1 255 255 255 44 44 44 255 255 255 70 70 70 70 70 70 70 70 70 70 70 70 70 70 70 70 70 70 70 70 70 70 70 70 70 70 70 70 70 70 70 70 70 70 70 70 70 70 70 70 70 70 70 70 70 70 70 70 70 70 70 70 70 70 70 70 70 70 70 70 70 70 70 70 70 70 70 70 70 70 70 70 70 70 70 255 255 255 255 255 255 255 255 255 255 255 255 255 255 255 255 255 255 255 255 70 70 255 255 255 255 255 70 70 70 70 70 70 70 70 70 255 255 255 255 255 70 70 255 255 255 255 255 70 70 70 70 70 70 70 70 70 70 70 70 70 70 70 70 70 70 70 70 70 70 70 70 70 70 70 70 70 70 70 70 70 70 70 70 70 70 255 255 255 255 255 43 43 43 43 43 43 43 43 43 43 43 43 43 43 255 255 255 70 70 70 70 70 70 255 255 28 28 28 255 255 255 255 28 255 255 255 255 28 28 28 28 255 255 255 255 255 255 255 7 7 7 7 7 7 7 7 7 7 7 7 7 7 7 7 7 255 255 255 255 255 255 255 255 255 255 7 255 255 255 255 255 255 255 255 255 255 255 255 255 255 255 7 7 7 7 7 7 7 7 7 7 7 7 7 7 7 7 7 7 7 7 7 7 7 7 7 7 7 7 7 7 7 7 7 7 7 7 7 7 7 7 7 7 255 255 255 255 255 255 255 255 62 62 62 62 62 62 62 62 62 62 62 62 62 62 62 62 62 62 62 62 62 62 62 62 62 62 62 62 62 62 62 62 62 62 62 62 62 62 62 255 255 255 87 87 87 87 87 87 87 87 87 87 87 87 87 87 87 87 87 87 87 87 87 87 87 87 87 87 87 87 87 87 87 87 87 87 87 87 87 87 87 87 87 87 87 87 87 87 255 255 255 255 255 255 255 255 255 255 255 255 255 255 255 255 13 13 13 13 13 255 255 255 13 255 255 255 59 59 59 59 59 59 59 59 59 255 255 16 255 255 255 42 255 255 255 86 86 86 86 86 86 86 86 86 86 86 86 86 86 86 86 86 86 86 86 86 86 86 86 255 255 255 255 255 255 255 255 255 
255 255 1 1 1 1 1 1 1 1 1 1 1 1 1 1 1 1 1 1 1 1 1 1 1 1 1 1 255 255 255 44 44 44 255 255 255 70 70 70 70 70 70 70 70 70 70 70 70 70 70 70 70 70 70 70 70 70 70 70 70 70 70 70 70 70 70 70 70 70 70 70 70 70 70 70 70 70 70 70 70 70 70 70 70 70 70 70 70 70 70 70 70 70 70 70 70 70 70 70 70 70 70 70 70 70 70 70 70 70 255 255 255 255 255 70 255 255 255 255 255 255 255 255 255 255 255 255 255 255 255 255 255 70 70 255 255 255 255 255 255 255 255 255 255 70 70 70 255 255 255 255 255 70 70 70 255 255 255 70 70 70 70 70 70 70 70 70 70 70 70 70 70 70 70 70 70 70 70 70 70 70 70 70 70 70 70 70 70 70 70 70 70 70 70 70 70 255 255 255 255 255 255 43 43 43 43 43 43 43 43 43 43 43 43 43 255 255 255 70 70 70 70 70 70 255 255 255 28 28 255 255 255 255 28 28 255 255 255 255 28 28 28 28 255 255 255 255 255 255 255 7 7 7 7 7 7 7 7 7 7 7 7 7 7 7 7 7 255 255 255 255 255 255 7 255 255 255 255 255 255 255 255 255 255 255 255 255 255 255 255 255 7 7 7 7 7 7 7 7 7 7 7 7 7 7 7 7 7 7 7 7 7 7 7 7 7 7 7 7 7 7 7 7 7 7 7 7 7 7 7 7 7 7 7 7 255 255 255 255 255 255 255 255 62 62 62 62 62 62 62 62 62 62 62 62 62 62 62 62 62 62 62 62 62 62 62 62 62 62 62 62 62 62 62 62 62 62 62 62 62 62 62 255 255 255 87 87 87 87 255 255 255 87 255 255 255 87 255 255 255 87 87 87 87 87 87 87 87 87 87 87 87 87 87 87 87 87 87 87 87 87 87 87 87 87 87 87 87 87 87 87 87 87 255 255 255 255 255 29 29 255 255 255 255 255 255 255 255 255 255 13 13 255 255 255 13 255 255 59 59 59 59 59 59 59 59 59 255 255 255 16 255 255 42 255 255 255 255 86 86 86 86 86 86 86 86 86 86 86 86 86 86 86 86 86 86 86 86 86 86 86 86 255 255 255 255 255 255 255 86 255 
255 255 1 1 1 1 1 1 1 1 1 1 1 1 1 1 1 1 1 1 1 1 1 1 1 1 1 1 255 255 255 44 44 255 255 255 255 255 70 70 70 70 70 70 70 70 70 70 70 70 70 70 70 70 70 70 70 70 70 70 70 70 70 70 70 70 70 70 70 70 70 70 70 70 70 70 70 70 70 70 70 70 70 70 70 70 70 70 70 70 70 70 70 70 70 70 70 70 70 70 70 70 70 70 70 70 70 70 70 70 255 255 255 255 255 70 70 70 255 255 255 255 70 70 255 255 255 255 255 255 255 255 255 255 255 70 255 255 255 255 255 255 255 255 255 255 255 70 255 255 255 255 255 70 70 70 70 70 70 70 70 70 70 70 70 70 70 70 70 70 70 70 70 70 70 70 70 70 70 70 70 70 70 70 70 70 70 70 70 70 70 70 70 70 70 70 70 255 255 255 43 43 43 43 43 43 43 43 43 43 43 43 43 43 43 255 255 255 255 70 70 70 70 70 255 255 255 255 28 28 255 255 255 255 28 28 28 28 28 28 28 28 255 255 255 255 255 255 255 255 255 7 7 7 7 7 7 7 7 7 7 7 7 7 7 7 7 7 255 255 255 255 255 255 255 255 255 255 255 255 255 255 255 255 255 255 255 255 255 255 255 255 255 7 7 7 7 7 7 7 7 7 7 7 7 7 7 7 7 7 7 7 7 7 7 7 7 7 7 7 7 7 7 7 7 7 7 7 7 7 7 7 7 7 7 7 255 255 255 255 255 255 255 255 62 62 62 62 62 62 62 62 62 62 62 62 62 62 62 62 62 62 62 62 62 62 62 62 62 62 62 62 62 62 62 62 62 62 62 62 62 62 62 255 255 255 255 87 87 87 255 255 255 87 255 255 255 87 255 255 255 87 87 87 87 87 87 87 87 87 87 87 87 87 87 87 87 87 87 87 87 87 87 87 87 87 87 87 87 87 87 87 87 87 87 255 255 255 255 255 255 255 255 255 255 255 255 255 255 255 255 255 13 255 255 255 13 255 255 59 59 59 59 59 59 59 59 59 255 255 255 255 255 255 42 255 255 255 86 86 86 86 86 86 86 86 86 86 86 86 86 86 86 86 86 86 86 86 86 86 86 86 255 255 255 255 255 255 255 255 86 255 
255 1 1 1 1 1 1 1 1 1 1 1 1 1 1 1 1 1 1 1 1 1 1 1 1 1 1 1 255 255 255 44 255 255 255 255 255 255 70 70 70 70 70 70 70 70 70 70 70 70 70 70 70 70 70 70 70 70 70 70 70 70 70 70 70 70 70 70 70 70 70 70 70 70 70 70 70 70 70 70 70 70 70 70 70 70 70 70 70 70 70 70 70 70 70 70 70 70 70 70 70 70 70 70 70 70 70 70 70 70 255 255 255 70 70 70 70 70 255 255 255 255 255 255 255 255 255 255 255 255 255 255 255 255 255 255 70 70 255 255 255 255 255 255 255 255 255 255 255 255 255 255 70 70 70 70 70 70 70 70 70 70 70 70 70 70 70 70 70 70 70 70 70 70 70 70 70 70 70 70 70 70 70 70 70 70 70 70 70 70 70 70 70 255 255 255 255 255 255 43 43 43 43 43 43 43 43 43 43 43 43 43 43 43 43 255 255 255 70 70 70 70 70 255 255 255 255 28 28 28 255 255 255 255 255 28 255 255 255 255 28 28 255 255 255 255 255 255 255 255 7 7 7 7 7 7 7 7 7 7 7 7 7 7 7 7 7 7 7 7 7 255 255 255 255 255 255 255 255 255 255 255 255 255 255 255 255 255 255 255 255 255 255 255 255 255 255 255 255 255 7 7 7 7 7 7 7 7 7 7 7 7 7 7 7 7 7 7 7 7 7 7 7 7 7 7 7 7 7 7 7 7 7 7 7 7 255 255 255 255 255 255 62 62 62 62 62 62 62 62 62 62 62 62 62 62 62 62 62 62 62 62 62 62 62 62 62 62 62 62 62 62 62 62 62 62 62 62 62 62 62 62 62 62 255 255 255 87 87 87 255 255 255 87 255 255 255 87 255 255 255 87 87 87 87 87 87 87 87 87 87 87 87 87 87 87 87 87 87 87 87 87 87 87 87 87 87 87 87 87 87 87 87 87 87 87 87 255 255 255 255 255 255 255 255 255 255 255 59 255 255 255 13 255 255 255 13 255 255 59 59 59 59 59 59 59 59 255 255 255 16 255 255 255 255 255 255 86 86 86 86 86 86 86 86 86 86 86 86 86 86 86 86 86 86 86 86 86 86 86 86 86 255 255 255 255 255 86 86 86 86 255 
255 255 1 1 1 1 1 1 1 1 1 1 1 1 1 1 1 1 1 1 1 1 1 1 1 1 1 1 255 255 255 44 255 255 255 255 255 255 70 70 70 70 70 70 70 70 70 70 70 70 70 70 70 70 70 70 70 70 70 70 70 70 70 70 70 70 70 70 70 70 70 70 70 70 70 70 70 70 70 70 70 70 70 70 70 70 70 70 70 70 70 70 70 70 70 70 70 70 70 70 70 70 70 70 70 70 70 70 70 70 70 70 70 70 70 70 70 70 70 255 255 255 255 255 255 255 255 255 255 255 255 255 255 255 255 255 255 255 255 255 255 255 255 255 255 255 255 255 70 70 70 70 70 70 70 70 70 70 70 70 70 70 70 70 70 70 70 70 70 70 70 70 70 70 70 70 70 70 70 70 70 70 70 70 70 70 70 70 70 70 70 70 70 255 255 255 255 255 255 43 43 43 43 43 43 43 43 43 43 43 43 43 43 43 255 255 255 70 70 70 70 70 255 255 255 255 28 28 255 255 255 255 255 255 255 255 255 255 255 255 255 28 255 255 255 255 255 255 255 255 7 7 7 7 7 7 7 7 7 7 7 7 7 7 7 7 7 7 7 7 7 255 255 255 255 255 255 255 255 255 255 255 255 255 255 255 255 255 255 255 255 255 255 255 255 255 255 255 255 255 7 7 7 7 7 7 7 7 7 7 7 7 7 7 7 7 7 7 7 7 7 7 7 7 7 7 7 7 7 7 7 7 7 7 7 7 255 255 255 255 255 255 62 62 62 62 62 62 62 62 62 62 62 62 62 62 62 62 62 62 62 62 62 62 62 62 62 62 62 62 62 62 62 62 62 62 62 62 62 62 62 62 62 62 255 255 255 255 87 87 87 87 87 87 87 255 255 255 255 255 255 255 87 87 87 87 87 87 87 87 87 87 87 87 87 87 87 87 87 87 87 87 87 87 87 87 87 87 87 87 87 87 87 87 87 87 87 87 87 87 255 255 255 255 255 255 59 59 59 255 255 255 13 13 13 13 255 255 255 59 59 59 59 59 59 59 59 255 255 255 255 255 255 255 255 255 255 86 86 86 86 86 86 86 86 86 86 86 86 86 86 86 86 86 86 86 86 86 86 86 86 86 255 255 255 255 255 86 86 86 86 255 
255 255 1 1 1 1 1 1 1 1 1 1 1 1 1 1 1 1 1 1 1 1 1 1 1 1 1 1 255 255 255 255 255 255 255 255 255 255 70 70 70 70 70 70 70 70 70 70 70 70 70 70 70 70 70 70 70 70 70 70 70 70 70 70 70 70 70 70 70 70 70 70 70 70 70 70 70 70 70 70 70 70 70 70 70 70 70 70 70 70 70 70 70 70 70 70 70 70 70 70 70 70 70 70 70 70 70 70 70 70 70 70 70 70 70 70 70 70 70 70 255 255 255 255 255 255 255 255 255 255 255 255 255 255 255 255 255 255 255 255 255 255 255 255 255 255 255 255 255 255 70 70 70 70 70 70 70 70 70 70 70 70 70 70 70 70 70 70 70 70 70 70 70 70 70 70 70 70 70 70 70 70 70 70 70 70 70 70 70 70 70 70 70 255 255 255 255 255 43 43 43 43 43 43 43 43 43 43 43 43 43 43 43 255 255 255 255 70 70 70 70 70 255 255 255 255 255 255 255 255 255 255 255 255 255 255 255 255 255 255 255 28 255 255 255 255 255 255 255 255 7 7 7 7 255 255 255 7 7 7 7 7 7 7 7 7 7 7 7 7 255 255 255 7 7 255 255 255 255 255 255 255 255 255 255 255 255 255 255 255 255 255 255 255 255 255 255 255 255 255 7 7 7 7 7 7 7 7 7 7 7 7 7 7 7 7 7 7 7 7 7 7 7 7 7 7 7 7 7 7 7 7 7 7 7 7 255 255 255 255 255 255 255 255 255 255 255 62 62 62 62 62 62 62 62 62 62 62 62 62 62 62 62 62 62 62 62 62 62 62 62 62 62 62 62 62 62 62 62 62 62 62 62 62 255 255 255 255 87 87 255 255 255 87 255 255 255 255 255 255 255 255 255 255 87 87 87 87 87 87 87 87 87 87 87 87 87 87 87 87 87 87 87 87 87 87 87 87 87 87 87 87 87 87 87 87 87 87 87 255 255 255 255 255 255 59 59 59 59 255 255 255 13 13 13 13 255 255 255 59 59 59 59 59 59 59 59 255 255 255 255 255 255 255 255 86 86 86 86 86 86 86 86 86 86 86 86 86 86 86 86 86 86 86 86 86 86 86 86 86 86 86 255 255 255 86 86 86 86 86 86 255 
255 255 1 1 1 1 1 1 1 1 1 1 1 1 1 1 1 1 1 1 1 1 1 1 1 1 1 1 1 255 255 255 255 255 255 255 255 255 70 70 70 70 70 70 70 70 70 70 70 70 70 70 70 70 70 70 70 70 70 70 70 70 70 70 70 70 70 70 70 70 70 70 70 70 70 70 70 70 70 70 70 70 70 70 70 70 70 70 70 70 70 70 70 70 70 70 70 70 70 70 70 70 70 70 70 70 70 70 70 70 70 70 70 70 70 70 70 70 70 70 70 255 255 255 255 255 255 255 255 255 255 255 255 255 255 255 255 255 255 255 255 255 255 255 255 255 255 255 255 255 255 70 70 70 70 70 70 70 70 70 70 70 70 70 70 70 70 70 70 70 70 70 70 70 70 70 70 70 70 70 70 70 70 70 70 70 70 70 70 70 70 70 70 255 255 255 43 43 43 43 43 43 43 43 43 43 43 43 43 43 43 43 43 255 255 255 70 70 70 70 70 255 255 255 28 255 255 255 255 255 255 255 255 255 255 255 255 255 255 255 255 28 255 255 255 255 255 255 255 255 255 255 255 7 255 255 255 7 7 7 7 7 7 7 7 7 7 7 7 7 255 255 255 255 255 255 255 255 255 255 255 255 255 255 255 255 255 255 255 255 255 255 7 255 255 255 255 255 7 7 7 255 255 255 7 7 7 7 7 7 7 7 7 7 7 7 7 7 7 7 7 7 7 7 7 7 7 7 7 7 7 7 7 7 7 7 255 255 255 255 255 255 255 255 255 255 255 62 62 62 62 62 62 62 62 62 62 62 62 62 62 62 62 62 62 62 62 62 62 62 62 62 62 62 62 62 62 62 62 62 62 62 62 62 62 255 255 255 87 87 255 255 255 87 255 255 255 255 255 255 255 255 255 255 255 255 255 87 87 87 87 87 87 87 87 87 87 87 87 87 87 87 87 87 87 87 87 87 87 87 87 87 87 87 87 87 87 87 87 255 255 255 255 255 255 59 59 59 59 255 255 13 13 13 13 255 255 255 59 59 59 59 59 59 59 59 255 255 255 255 255 255 255 255 255 86 86 86 86 86 86 86 86 86 86 86 86 86 86 86 86 86 86 86 86 86 86 86 86 255 255 255 255 255 255 86 86 86 86 86 86 255 
255 255 1 1 1 1 1 1 1 1 1 1 1 1 1 1 1 1 1 1 1 1 1 1 1 1 1 1 1 255 255 255 255 70 255 255 255 255 70 70 70 70 70 70 70 70 70 70 70 70 70 70 70 70 70 70 70 70 70 70 70 70 70 70 70 70 70 70 70 70 70 70 70 70 70 70 70 70 70 70 70 70 70 70 70 70 70 70 70 70 70 70 70 70 70 70 70 70 70 70 70 70 70 70 70 70 70 70 70 70 70 70 70 70 70 70 70 70 70 70 70 70 255 255 255 255 255 255 255 255 255 255 255 255 255 255 255 255 255 255 255 255 255 255 255 255 255 255 255 255 255 70 70 70 70 70 70 70 70 70 70 70 70 70 70 70 70 70 70 70 70 70 70 70 70 70 70 70 70 70 70 70 70 70 70 70 70 70 70 70 70 70 255 255 255 255 43 43 43 43 43 43 43 43 43 43 43 43 43 43 43 43 255 255 255 70 70 70 70 70 255 255 255 255 28 255 255 255 255 255 255 255 255 255 255 255 255 255 28 255 255 255 255 255 255 255 255 255 255 255 255 255 255 7 255 255 255 255 255 7 7 7 7 7 7 7 7 7 7 7 255 255 255 255 255 255 255 255 255 255 255 255 255 255 255 255 255 255 255 255 255 255 255 255 255 255 255 255 7 7 7 255 255 255 255 7 7 7 7 7 7 7 7 7 7 7 7 7 7 7 7 7 7 7 7 7 7 7 7 7 7 7 7 7 7 255 255 255 255 255 7 255 255 255 255 255 255 62 62 62 62 62 62 62 62 62 62 62 62 62 62 62 62 62 62 62 62 62 62 62 62 62 62 62 62 62 62 62 62 62 62 62 62 62 62 255 255 255 87 87 255 255 255 255 255 255 255 255 255 255 255 255 255 255 255 255 255 87 87 87 87 87 87 87 87 87 87 87 87 87 87 87 87 87 87 87 87 87 87 87 87 87 87 87 87 87 87 87 87 255 255 255 255 255 59 59 59 59 59 255 255 13 13 13 13 255 255 255 59 59 59 59 59 59 59 59 255 255 255 255 255 255 255 255 255 86 86 86 86 86 86 86 86 86 86 86 86 86 86 86 86 86 86 86 86 86 86 86 86 255 255 255 255 255 255 86 86 86 86 86 86 255 
255 255 1 1 1 1 1 1 1 1 1 1 1 1 1 1 1 1 1 1 1 1 1 1 1 1 1 1 1 255 255 255 255 70 255 255 255 255 70 70 70 70 70 70 70 70 70 70 70 70 70 70 70 70 70 70 70 70 70 70 70 70 70 70 70 70 70 70 70 70 70 70 70 70 70 70 70 70 70 70 70 70 70 70 70 70 70 70 70 70 70 70 70 70 70 70 70 70 70 70 70 70 70 70 70 70 70 70 70 70 70 70 70 70 70 70 70 70 70 70 70 70 70 255 255 255 255 255 255 255 255 255 255 255 255 255 255 255 255 255 255 255 255 255 255 255 255 255 255 255 255 70 70 70 70 70 70 70 70 70 70 70 70 70 70 70 70 70 70 70 70 70 70 70 70 70 70 70 70 70 70 70 70 70 70 70 70 70 70 70 70 70 255 255 255 255 43 43 43 43 43 43 43 43 43 43 43 43 43 43 43 255 255 255 255 70 70 70 70 70 255 255 255 28 28 28 28 28 255 255 255 255 255 255 255 255 255 255 28 255 255 255 255 255 255 255 255 255 255 255 255 255 255 7 255 255 255 255 255 7 7 7 7 7 7 7 7 7 7 7 7 7 255 255 255 255 255 255 255 255 255 255 255 255 7 255 255 255 255 255 255 255 255 255 255 255 255 255 255 255 255 255 255 255 255 7 7 7 7 7 7 7 7 7 7 7 7 7 7 7 7 7 7 7 7 7 7 7 7 7 7 7 7 7 7 255 255 255 255 7 255 255 255 255 255 255 62 62 62 62 62 62 62 62 62 62 62 62 62 62 62 62 62 62 62 62 62 62 62 62 62 62 62 62 62 62 62 62 62 62 62 62 62 62 62 255 255 255 255 87 87 87 87 255 255 255 255 255 255 255 255 255 255 255 255 255 255 87 87 87 87 87 87 87 87 87 87 87 87 87 87 87 87 87 87 87 87 87 87 87 87 87 87 87 87 87 87 87 87 255 255 255 255 255 59 59 59 59 59 255 255 13 13 13 255 255 255 59 59 59 59 59 59 59 255 255 255 255 255 255 255 255 255 255 86 86 86 86 86 86 86 86 86 86 86 86 86 86 86 86 86 86 86 86 86 86 86 86 86 255 255 255 255 255 255 86 86 86 86 86 86 255 
255 255 1 1 1 1 1 1 1 1 1 1 1 1 1 1 1 1 1 1 1 1 1 1 1 1 1 1 1 255 255 255 255 70 255 255 255 255 255 70 70 70 70 70 70 70 70 70 70 70 70 70 70 70 70 70 70 70 70 70 70 70 70 70 70 70 70 70 70 70 70 70 70 70 70 70 70 70 70 70 70 70 70 70 70 70 70 70 70 70 70 70 70 70 70 70 70 70 70 70 70 70 70 70 70 70 70 70 70 70 70 70 70 70 70 70 70 70 70 70 70 70 70 70 255 255 255 255 255 255 255 255 255 255 255 255 255 255 255 255 255 255 255 255 255 255 255 255 255 255 255 70 70 70 70 70 70 70 70 70 70 70 70 70 70 70 70 70 70 70 70 70 70 70 70 70 70 70 70 70 70 70 70 70 70 70 70 70 70 70 70 70 255 255 255 255 43 43 43 43 43 43 43 43 43 43 43 43 43 43 255 255 255 255 70 70 70 70 70 255 255 255 28 28 28 28 28 28 255 255 255 255 255 255 255 255 255 255 255 255 255 255 255 255 255 255 255 255 255 255 255 255 255 255 255 255 255 255 255 7 7 7 7 7 7 7 7 7 7 7 7 7 7 7 255 255 255 255 255 255 255 255 255 255 7 255 255 255 255 255 255 255 255 255 255 255 255 255 255 255 255 7 255 255 255 255 255 7 7 7 7 7 7 7 7 7 7 7 7 7 7 7 7 7 7 7 7 7 7 7 7 7 7 7 7 255 255 255 7 7 255 255 255 255 255 255 62 62 62 62 62 62 62 62 62 62 62 62 62 62 62 62 62 62 62 62 62 62 62 62 62 62 62 62 62 62 62 62 62 62 62 62 62 62 62 62 255 255 255 87 87 87 87 255 255 255 255 255 255 255 255 255 255 255 255 255 87 87 87 87 87 87 87 87 87 87 87 87 87 87 87 87 87 87 87 87 87 87 87 87 87 87 87 87 87 87 87 87 87 255 255 255 255 255 59 59 59 59 255 255 255 13 13 13 255 255 255 59 59 59 59 59 59 59 255 255 255 255 255 255 255 255 86 86 86 86 86 86 86 86 86 86 86 86 86 86 86 86 86 86 86 86 86 86 86 86 86 86 86 255 255 255 255 86 86 86 86 86 86 86 86 255 
255 255 1 1 1 1 1 1 1 1 1 1 1 1 1 1 1 1 1 1 1 1 1 1 1 1 1 1 1 255 255 255 70 70 255 255 255 255 255 70 70 70 70 70 70 70 70 70 70 70 70 70 70 70 70 70 70 70 70 70 70 70 70 70 70 70 70 70 70 70 70 70 70 70 70 70 70 70 70 70 70 70 70 70 70 70 70 70 70 70 70 70 70 70 70 70 70 70 70 70 70 70 70 70 70 70 70 70 70 70 70 70 70 70 70 70 70 70 70 70 70 70 70 70 70 70 255 255 255 255 255 255 255 255 255 255 255 255 46 255 255 255 255 255 255 255 255 255 255 255 255 255 70 70 70 70 70 70 70 70 70 70 70 70 70 70 70 70 70 70 70 70 70 70 70 70 70 70 70 70 70 70 70 70 70 70 70 70 70 70 70 70 255 255 255 255 43 43 43 43 43 43 43 43 43 43 43 43 43 255 255 255 255 70 70 70 70 70 70 255 255 255 28 28 28 28 28 28 255 255 255 255 255 255 255 255 255 255 255 255 255 255 255 255 255 255 255 255 255 255 255 255 255 255 255 255 255 255 255 7 7 7 7 7 7 7 7 7 7 7 7 7 7 7 7 7 7 7 7 255 255 255 255 7 7 255 255 255 255 255 255 255 255 7 255 255 255 255 255 255 255 255 7 7 255 255 255 7 7 7 7 7 7 7 7 7 7 7 7 7 7 7 7 7 7 7 7 7 7 7 7 7 7 7 7 7 7 7 7 7 255 255 255 255 255 255 62 62 62 62 62 62 62 62 62 62 62 62 62 62 62 62 62 62 62 62 62 62 62 62 62 62 62 62 62 62 62 62 62 62 62 62 62 62 62 62 255 255 255 255 255 255 87 87 255 255 255 255 255 255 255 255 255 255 255 255 87 87 87 87 87 87 87 87 87 87 87 87 87 87 87 87 87 87 87 87 87 87 87 87 87 87 87 87 87 87 87 87 87 255 255 255 255 255 59 59 59 59 255 255 255 13 13 13 255 255 255 59 59 59 59 59 59 255 255 255 255 255 255 255 255 255 86 86 86 86 86 86 86 86 86 86 86 86 86 86 86 86 86 86 86 86 86 86 86 86 86 255 255 255 255 255 255 86 86 86 86 86 86 86 86 255 
255 255 1 1 1 1 1 1 1 1 1 1 1 1 1 1 1 1 1 1 1 1 1 1 1 1 1 1 255 255 255 255 255 255 255 255 255 255 255 70 70 70 70 70 70 70 70 70 70 70 70 70 70 70 70 70 70 70 70 70 70 70 70 70 70 70 70 70 70 70 70 70 70 70 70 70 70 70 70 70 70 70 70 70 70 70 70 70 70 70 70 70 70 70 70 70 70 70 70 70 70 70 70 70 70 70 70 70 70 70 70 70 70 70 70 70 70 70 70 70 70 70 70 70 70 70 70 255 255 255 255 255 255 255 255 255 46 46 46 255 255 255 255 255 255 255 255 255 255 255 255 255 70 70 70 70 70 70 70 70 70 70 70 70 70 70 70 70 70 70 70 70 70 70 70 70 70 70 70 70 70 70 70 70 70 70 70 70 70 70 70 255 255 255 43 43 43 43 43 43 43 43 43 43 43 43 43 43 255 255 255 255 70 70 70 70 70 70 70 255 255 28 28 28 28 28 28 255 255 255 255 255 255 28 28 255 255 255 255 255 255 255 255 255 255 255 255 255 255 255 255 255 255 255 255 255 255 255 255 7 7 7 7 7 7 7 7 7 7 7 7 7 7 7 255 255 255 255 255 255 255 255 255 7 255 255 255 255 255 255 255 255 255 255 255 255 255 255 255 255 255 255 255 255 255 255 255 7 7 7 7 7 7 7 7 7 7 7 7 7 7 7 7 7 7 7 7 7 7 7 7 7 7 7 7 7 7 7 7 7 255 255 255 255 255 255 62 62 62 62 62 62 62 62 62 62 62 62 62 62 62 62 62 62 62 62 62 62 62 62 62 62 62 62 62 62 62 62 62 62 62 62 62 62 62 62 255 255 255 255 255 255 255 255 255 255 255 255 255 255 255 255 255 255 255 255 255 255 87 87 87 87 87 87 87 87 87 87 87 87 87 87 87 87 87 87 87 87 87 87 87 87 87 87 87 87 87 87 87 255 255 255 255 255 255 59 59 59 255 255 255 255 13 13 255 255 255 59 59 59 59 255 255 255 255 255 255 255 255 255 255 86 86 86 86 86 86 86 86 86 86 86 86 86 86 86 86 86 86 86 86 86 86 86 86 86 86 255 255 255 255 86 86 86 86 86 86 86 86 86 86 255 
255 255 1 1 1 1 1 1 1 1 1 1 1 1 1 1 1 1 1 1 1 1 1 1 1 1 1 1 255 255 255 255 255 255 255 255 255 255 255 70 70 70 70 70 70 70 70 70 70 70 70 70 70 70 70 70 70 70 70 70 70 70 70 70 70 70 70 70 70 70 70 70 70 70 70 70 70 70 70 70 70 70 70 70 70 70 70 70 70 70 70 70 70 70 70 70 70 70 70 70 70 70 70 70 70 70 70 70 70 70 70 70 70 70 70 70 70 70 70 70 70 70 70 70 70 70 70 70 70 255 255 255 255 255 255 255 255 255 255 255 255 255 255 255 255 255 255 255 255 255 255 255 70 70 70 70 70 70 70 70 70 70 70 70 70 70 70 70 70 70 70 70 70 70 70 70 70 70 70 70 70 70 70 70 70 70 70 70 70 70 255 255 255 255 43 43 43 43 43 43 43 43 43 43 43 43 43 255 255 255 255 70 70 70 70 70 255 255 255 255 255 28 28 28 28 28 28 255 255 255 255 255 255 28 28 255 255 255 255 255 255 255 255 255 255 255 255 255 255 255 7 255 255 255 255 255 255 255 255 7 7 7 7 7 7 7 7 7 7 7 7 7 7 7 255 255 255 255 255 255 255 255 255 7 255 255 255 255 255 255 255 255 255 255 255 255 255 255 255 255 255 255 255 255 255 255 255 255 7 7 7 7 7 7 7 7 7 7 7 7 7 7 7 7 7 7 7 7 7 7 7 7 7 7 7 7 7 7 7 7 7 7 255 255 255 255 62 62 62 62 62 62 62 62 62 62 62 62 62 62 62 62 62 62 62 62 62 62 62 62 62 62 62 62 62 62 62 62 62 62 62 62 62 62 62 62 255 255 255 255 255 255 255 255 255 255 255 255 255 255 255 255 255 255 255 255 255 255 87 87 87 87 87 87 87 87 87 87 87 87 87 87 87 87 87 87 87 87 87 87 87 87 87 87 87 87 87 87 87 255 255 255 255 255 255 59 59 59 255 255 255 255 255 255 255 255 255 255 255 255 255 255 255 255 255 255 255 255 255 255 86 86 86 86 86 86 86 86 86 86 86 86 86 86 86 86 86 86 86 86 86 86 86 86 255 255 255 255 255 255 255 86 86 86 86 86 86 86 86 86 86 255 
255 255 1 1 1 1 1 1 1 1 1 1 1 1 1 1 1 1 1 1 1 1 1 1 1 1 1 1 255 255 255 255 255 255 255 44 255 255 255 70 70 70 70 70 70 70 70 70 70 70 70 70 70 70 70 70 70 70 70 70 70 70 70 70 70 70 70 70 70 70 70 70 70 70 70 70 70 70 70 70 70 70 70 70 70 70 70 70 70 70 70 70 70 70 70 70 70 70 70 70 70 70 70 70 70 70 70 70 70 70 70 70 70 70 70 70 70 70 70 70 70 70 70 70 70 70 70 70 70 70 255 255 255 255 255 255 255 255 255 255 255 255 255 255 255 255 255 255 255 255 255 255 70 70 70 70 70 70 70 70 70 70 70 70 70 70 70 70 70 70 70 70 70 70 70 70 70 70 70 70 70 70 70 70 70 70 70 70 70 70 255 255 255 255 43 43 43 43 43 43 43 43 43 43 43 43 43 255 255 255 70 70 70 70 70 255 255 255 255 255 255 28 28 28 28 28 28 255 255 255 255 255 255 255 255 255 255 255 255 255 255 255 255 255 255 255 255 255 255 255 255 7 7 7 7 7 255 255 255 7 7 7 7 7 7 7 7 7 7 7 7 7 7 7 255 255 255 255 255 7 255 255 255 7 255 255 255 255 255 255 255 255 255 255 255 255 255 255 7 255 255 255 255 255 255 255 255 255 7 7 7 7 7 7 7 7 7 7 7 7 7 7 7 7 7 7 7 7 7 7 7 7 7 7 7 7 7 7 7 7 255 255 255 255 255 255 62 62 62 62 62 62 62 62 62 62 62 62 62 62 62 62 62 62 62 62 62 62 62 62 62 62 62 62 62 62 62 62 62 62 62 62 62 62 62 62 62 255 255 255 255 255 255 255 255 255 255 255 255 255 255 255 47 47 255 255 255 255 87 87 87 87 87 87 87 87 87 87 87 87 87 87 87 87 87 87 87 87 87 87 87 87 87 87 87 87 87 87 87 255 255 255 255 255 255 59 59 59 59 59 255 255 255 255 255 255 255 255 255 255 255 255 255 255 255 255 255 255 255 86 86 86 86 86 86 86 86 86 86 86 86 86 86 86 86 86 86 86 86 86 86 86 86 86 255 255 255 255 86 86 86 86 86 86 86 86 86 86 86 86 86 255 
255 255 1 1 1 1 1 1 1 1 1 1 1 1 1 1 1 1 1 1 1 1 1 1 1 1 1 1 255 255 44 255 255 255 255 44 255 255 70 70 70 70 70 70 70 70 70 70 70 70 70 70 70 70 70 70 70 70 70 70 70 70 70 70 70 70 70 70 70 70 70 70 70 70 70 70 70 70 70 70 70 70 70 70 70 70 70 70 70 70 70 70 255 255 255 70 70 70 70 70 70 70 70 70 70 70 70 70 70 70 70 70 70 70 70 70 70 70 70 70 70 70 70 70 70 70 70 70 70 70 70 255 255 255 255 255 255 255 255 255 255 255 255 255 255 255 255 255 255 255 255 255 70 70 70 70 70 70 70 70 70 70 70 70 70 70 70 70 70 70 70 70 70 70 70 70 70 70 70 70 70 70 70 70 70 70 70 70 70 70 255 255 255 255 43 43 43 43 43 43 43 43 43 43 43 43 255 255 255 70 70 70 70 70 255 255 255 255 28 28 28 28 28 28 28 28 28 28 28 255 255 255 255 255 255 255 255 255 255 255 255 255 255 255 255 255 255 255 255 255 255 7 7 7 7 7 255 255 255 7 7 7 7 7 7 7 7 7 7 7 7 7 7 7 7 7 7 7 7 7 255 255 255 255 255 255 255 255 255 255 255 255 255 255 255 255 255 255 7 255 255 255 255 255 255 255 255 255 7 7 7 7 7 7 7 7 7 7 7 7 7 7 7 7 7 7 7 7 7 7 7 7 7 7 7 7 7 7 7 7 255 255 255 255 255 255 255 255 62 62 62 62 62 62 62 62 62 62 62 62 62 62 62 62 62 62 62 62 62 62 62 62 62 62 62 62 62 62 62 62 62 62 62 62 62 62 62 255 255 255 255 87 87 87 87 255 255 255 255 255 255 255 47 255 255 255 255 255 255 87 87 87 87 87 87 87 87 87 87 87 87 87 87 87 87 87 87 87 87 87 87 87 87 87 87 87 87 87 87 255 255 255 255 255 255 59 59 59 59 59 59 59 59 59 255 255 255 255 255 255 255 255 255 255 255 255 255 255 86 86 86 86 86 86 86 86 86 86 86 86 86 86 86 86 86 86 86 86 86 86 86 86 86 86 255 255 255 255 86 86 86 86 86 86 86 86 86 86 86 86 86 255 
255 255 1 1 1 1 1 1 1 1 1 1 1 1 1 1 1 1 1 1 1 1 1 1 1 1 1 1 255 255 44 255 255 255 255 44 255 255 70 70 70 70 70 70 70 70 70 70 70 70 70 70 70 70 70 70 70 70 70 70 70 70 70 70 70 70 70 70 70 70 70 70 70 70 70 70 70 70 70 70 70 70 70 70 70 70 70 70 70 70 70 70 255 255 255 70 70 70 70 70 70 70 70 70 70 70 70 70 70 70 70 70 70 70 70 70 70 70 70 70 70 70 70 70 70 70 70 70 70 70 70 70 255 255 255 255 255 255 255 255 255 255 255 255 255 255 255 255 255 255 255 255 70 70 70 70 70 70 70 70 70 70 70 70 70 70 70 70 70 70 70 70 70 70 70 70 70 70 70 70 70 70 70 70 70 70 70 255 255 255 255 255 255 255 43 43 43 43 43 43 43 43 43 43 255 255 255 255 255 70 70 70 70 255 255 255 255 28 28 28 28 28 28 28 28 28 28 28 28 255 255 255 255 255 255 255 255 255 255 255 255 255 255 255 255 255 255 255 255 255 255 7 7 7 7 7 255 255 255 255 255 7 7 7 7 7 7 7 7 7 7 7 7 7 7 7 7 7 7 7 255 255 255 255 7 255 255 255 255 255 255 255 255 255 255 255 255 255 7 255 255 255 255 255 255 255 255 255 7 7 7 7 7 7 7 7 7 7 7 7 7 7 7 7 7 7 7 7 7 7 7 7 7 7 7 7 7 7 7 7 255 255 255 255 255 255 255 255 62 62 62 62 62 62 62 62 62 62 62 62 62 62 62 62 62 62 62 62 62 62 62 62 62 62 62 62 62 62 62 62 62 62 62 62 62 62 62 62 255 255 255 87 87 87 87 255 255 255 255 255 255 255 255 255 255 255 255 255 255 87 87 87 87 87 87 87 87 87 87 87 87 87 87 87 87 87 87 87 87 87 87 87 87 87 87 87 87 87 87 255 255 255 255 255 255 59 59 59 59 59 59 59 59 59 255 255 255 255 16 255 255 255 255 255 255 255 255 86 86 86 86 86 86 86 86 86 86 86 86 86 86 86 86 86 86 86 86 86 86 86 255 255 255 86 255 255 255 255 255 86 86 86 86 86 86 86 86 86 86 86 86 255 
255 255 1 1 1 1 1 1 1 1 1 1 1 1 1 1 1 1 1 1 1 1 1 1 1 1 1 1 255 255 255 255 255 255 255 44 255 255 70 70 70 70 70 70 70 70 70 70 70 70 70 70 70 70 70 70 70 70 70 70 70 70 70 70 70 70 70 70 70 70 70 70 70 70 70 70 70 70 70 70 70 70 70 70 70 70 70 70 70 70 70 70 255 255 255 70 70 70 70 70 70 70 70 70 70 70 70 70 70 70 70 70 70 70 70 70 70 70 70 70 70 70 70 70 70 70 70 70 70 70 70 70 70 70 255 255 255 255 255 255 255 255 255 255 255 255 255 255 255 255 255 70 70 70 70 70 70 70 70 70 70 70 70 70 70 70 70 70 70 70 70 70 70 70 70 70 70 70 70 70 70 70 70 70 70 70 70 255 255 255 255 255 255 43 43 43 43 43 43 43 43 43 43 255 255 255 255 255 70 70 70 70 70 255 255 255 28 28 28 28 28 28 28 28 255 255 255 28 28 255 255 255 255 255 255 255 255 255 255 255 255 255 255 255 255 255 255 255 255 255 255 255 7 7 255 255 255 7 255 255 255 7 7 7 7 7 7 7 7 7 7 7 7 7 7 7 7 7 7 7 255 255 255 255 7 255 255 255 255 255 255 255 255 255 255 255 255 255 255 255 255 7 7 7 7 255 255 255 7 7 7 7 7 7 7 7 7 7 7 7 7 7 7 7 7 7 7 7 7 7 7 7 7 7 7 7 7 7 7 7 255 255 255 255 7 7 255 255 255 255 62 62 62 62 62 62 62 62 62 62 62 62 62 62 62 62 62 62 62 62 62 62 62 62 62 62 62 62 62 62 62 62 62 62 62 62 62 62 255 255 255 87 87 87 87 255 255 255 255 255 255 255 255 255 255 255 255 255 255 87 87 87 87 87 87 87 87 87 87 87 87 87 87 87 87 87 87 87 87 87 87 87 87 87 87 87 87 87 87 255 255 255 255 255 255 59 59 59 59 59 59 59 59 255 255 255 255 255 255 255 255 255 255 255 255 255 86 86 86 86 86 86 86 86 86 86 86 86 86 86 86 86 86 86 86 86 86 86 86 86 255 255 255 86 255 255 255 255 255 86 86 86 86 86 86 86 86 86 86 86 86 255 
255 255 1 1 1 1 1 1 1 1 1 1 1 1 1 1 1 1 1 1 1 1 1 1 1 1 1 1 255 255 255 255 255 255 255 255 255 255 70 70 70 70 70 70 70 70 70 70 70 70 70 70 70 70 70 70 70 70 70 70 70 70 70 70 70 70 70 70 70 70 70 70 70 70 70 70 70 70 70 70 70 70 70 70 70 70 70 70 70 70 70 70 70 70 70 70 70 70 70 70 70 70 70 70 70 70 70 70 70 70 70 70 70 70 70 70 70 70 70 70 70 70 70 70 70 70 70 255 255 255 70 70 70 255 255 255 70 255 255 255 255 255 255 255 255 255 255 255 70 70 70 70 70 70 70 70 70 70 70 70 70 70 70 70 70 70 70 70 70 70 70 70 70 70 70 70 70 70 70 70 70 70 70 70 70 70 70 255 255 255 255 255 43 43 43 43 43 43 43 43 43 255 255 255 255 255 70 70 70 70 70 255 255 255 255 28 28 28 28 28 28 28 28 28 255 255 255 28 28 255 255 255 28 28 28 255 255 255 255 255 255 255 255 255 255 255 255 255 255 255 255 255 7 7 255 255 255 7 255 255 255 7 7 7 7 7 7 7 7 7 7 7 7 7 7 7 7 7 7 7 7 7 7 7 7 7 255 255 255 255 255 255 255 255 255 255 255 255 255 255 255 255 7 255 255 255 255 255 7 7 7 7 7 7 7 7 7 7 7 7 7 7 7 7 7 7 7 7 7 7 7 7 7 7 7 7 7 7 7 7 7 255 255 255 7 7 255 255 255 255 62 62 62 62 62 62 62 62 62 62 62 62 62 62 62 62 62 62 62 62 62 62 62 62 62 62 62 62 62 62 62 62 62 62 62 62 62 62 255 255 255 255 87 87 87 87 87 255 255 255 255 255 255 255 255 255 255 255 255 87 87 87 87 87 87 87 87 87 87 87 87 87 87 87 87 87 87 87 87 87 87 87 87 87 87 87 87 87 255 255 255 255 255 255 255 59 59 59 59 59 59 59 59 255 255 255 255 255 255 255 255 255 255 255 255 86 86 86 86 86 86 86 86 86 86 86 86 86 86 86 86 86 86 86 86 86 86 86 86 86 255 255 255 255 255 255 255 255 255 86 86 86 86 86 86 86 86 86 86 86 86 255 
255 255 1 1 1 1 1 1 1 1 1 1 1 1 1 1 1 1 1 1 1 1 1 1 1 1 1 1 255 255 255 255 255 255 255 255 255 255 70 70 70 70 70 70 70 70 70 70 70 70 70 70 70 70 70 70 70 70 70 70 70 70 70 70 70 70 70 70 70 70 70 70 70 70 70 70 70 70 70 70 70 70 70 70 70 70 70 70 70 70 70 70 70 70 70 70 70 70 70 70 70 70 70 70 70 70 70 70 70 70 70 70 70 70 70 70 70 70 70 70 70 70 70 70 70 70 70 255 255 255 255 70 70 255 255 255 255 255 255 255 255 255 255 255 255 255 255 255 255 70 70 70 70 70 70 70 70 70 70 70 70 70 70 70 70 70 70 70 70 70 70 70 70 70 70 70 70 70 70 70 70 70 70 70 70 70 70 255 255 255 255 255 43 43 43 43 43 43 43 43 255 255 255 255 255 70 70 70 70 70 70 255 255 255 255 28 28 28 28 28 28 28 28 28 255 255 255 255 255 255 255 255 255 255 28 255 255 255 255 255 255 255 255 255 255 255 255 255 255 255 255 255 255 7 255 255 255 255 255 7 7 7 7 7 7 7 7 7 7 7 7 7 7 7 7 7 7 7 7 7 7 7 7 7 7 7 255 255 255 7 7 7 255 255 255 255 255 255 255 255 255 255 255 255 255 255 7 7 7 7 7 7 7 7 7 7 7 7 7 7 7 7 7 7 7 7 7 7 7 7 7 7 7 7 7 7 7 7 7 7 7 7 7 7 7 7 255 255 255 255 62 62 62 62 62 62 62 62 62 62 62 62 62 62 62 62 62 62 62 62 62 62 62 62 62 62 62 62 62 62 62 62 62 62 62 62 62 62 255 255 255 255 87 87 87 87 87 87 87 87 255 255 255 255 255 255 255 255 255 255 255 87 87 87 87 87 87 87 87 87 87 87 87 87 87 87 87 87 87 87 87 87 87 87 87 87 87 87 255 255 255 255 255 255 255 59 59 59 59 59 59 59 255 255 255 255 255 255 255 255 255 255 255 255 86 86 86 86 86 86 86 86 86 86 86 86 86 86 86 86 86 86 86 86 86 86 86 86 86 255 255 255 86 255 255 255 86 86 86 86 86 86 86 86 86 86 86 86 86 86 86 255 
255 255 1 1 1 1 1 1 1 1 1 1 1 1 1 1 1 1 1 1 1 1 1 1 1 1 1 1 255 255 255 255 255 255 255 255 255 70 70 70 70 70 70 70 70 70 70 70 70 70 70 70 70 70 70 70 70 70 70 70 70 70 70 70 70 70 70 70 70 70 70 70 70 70 70 70 70 70 70 70 70 70 70 70 70 70 70 70 70 70 70 70 70 70 70 70 70 70 70 70 70 70 70 70 70 70 70 70 70 70 255 255 255 70 70 70 70 70 70 255 255 255 70 70 70 70 70 255 255 255 255 70 70 255 255 255 255 255 255 255 70 70 255 255 255 255 255 255 255 70 70 70 70 70 70 70 70 70 70 70 70 70 70 70 70 70 70 70 70 70 70 70 70 70 70 70 70 70 70 70 70 70 70 70 70 255 255 255 255 255 255 255 255 43 43 43 43 255 255 255 255 255 255 70 70 70 70 70 70 255 255 255 255 28 28 28 28 28 28 28 28 28 28 28 28 28 28 255 255 255 255 255 255 255 255 255 255 255 255 255 255 255 255 255 255 255 255 255 255 255 255 255 255 255 255 255 255 255 255 255 255 255 7 7 7 7 7 7 7 7 7 7 7 7 7 7 7 7 7 7 7 7 7 7 7 7 255 255 255 255 255 255 255 255 255 255 255 7 255 255 255 255 255 255 255 255 7 7 7 7 7 7 7 7 7 7 7 7 7 7 7 7 7 7 7 7 7 7 7 7 7 7 7 7 7 7 7 7 7 7 7 7 7 7 7 7 255 255 255 255 255 255 62 62 62 62 62 62 62 62 62 62 62 62 62 62 62 62 62 62 62 62 62 62 62 62 62 62 62 62 62 62 62 62 62 62 62 62 62 255 255 255 87 87 87 87 87 87 87 87 87 255 255 255 255 255 255 255 255 255 255 87 87 87 87 255 255 255 87 87 87 87 87 87 87 87 87 87 87 87 87 87 87 87 87 87 87 87 255 255 255 255 255 255 255 59 59 59 59 59 59 255 255 255 255 255 255 255 255 255 255 255 86 86 86 86 86 86 86 86 86 86 86 86 86 86 86 86 86 86 86 86 86 86 86 86 86 255 255 255 255 255 86 255 255 255 86 86 86 86 86 86 86 86 86 86 86 86 86 86 86 255 
255 255 255 1 1 1 1 1 1 1 1 1 1 1 1 1 1 1 1 1 1 1 1 1 1 1 1 1 255 255 255 255 255 255 44 255 255 70 70 70 70 70 70 70 70 70 70 70 70 70 70 70 70 70 70 70 70 70 70 70 70 70 70 70 70 70 70 70 70 70 70 70 70 70 70 70 70 70 70 70 70 70 70 70 70 70 70 70 70 70 70 70 70 70 70 70 70 70 70 70 70 70 70 70 70 70 70 70 70 70 255 255 255 255 70 70 70 70 70 255 255 255 255 70 70 70 70 255 255 255 255 255 70 70 255 255 255 255 255 255 255 70 70 255 255 255 255 255 255 70 70 70 70 70 70 70 70 70 70 70 70 70 70 70 70 70 70 70 70 70 70 70 70 70 70 70 70 70 70 70 70 70 70 70 70 255 255 255 255 255 255 255 255 43 43 43 255 255 255 255 255 255 70 70 70 70 70 255 255 255 255 255 255 28 28 28 28 28 28 28 28 28 28 28 28 28 28 255 255 255 255 255 255 255 255 255 255 255 255 255 255 255 255 255 28 255 255 255 255 255 255 255 255 255 255 255 255 255 255 255 255 255 7 7 7 7 7 7 7 7 7 7 7 7 7 7 7 7 7 7 7 7 7 7 7 7 7 255 255 255 255 255 255 255 255 255 255 7 7 255 255 255 255 255 255 7 7 7 7 7 7 7 7 7 7 7 7 7 7 7 7 7 7 7 7 7 7 7 7 7 7 7 7 7 7 7 7 7 7 7 7 7 7 7 7 7 255 255 255 255 255 255 62 62 62 62 62 62 62 62 62 62 62 62 62 62 62 62 62 62 62 62 62 62 62 62 62 62 62 62 62 62 62 62 62 62 62 62 62 255 255 255 87 87 87 87 87 87 87 87 87 255 255 255 255 255 255 255 255 255 255 255 255 255 87 255 255 255 87 87 87 87 87 87 87 87 87 87 87 87 87 87 87 87 87 87 87 87 255 255 255 255 13 255 255 59 59 59 59 59 255 255 255 255 255 255 255 255 255 255 86 86 86 86 86 86 86 86 86 86 86 86 86 86 86 86 86 86 86 86 86 86 86 86 86 86 86 255 255 255 255 255 86 86 86 86 86 86 86 86 86 86 86 86 86 86 86 86 86 86 86 255 
255 255 255 255 255 255 255 255 255 255 255 255 255 255 255 255 255 255 255 255 255 255 255 255 255 255 255 255 255 255 255 255 255 255 255 255 255 255 255 255 255 255 255 255 255 255 255 255 255 255 255 255 255 255 255 255 255 255 255 255 255 255 255 255 255 255 255 255 255 255 255 255 255 255 255 255 255 255 255 255 255 255 255 255 255 255 255 255 255 255 255 255 255 255 255 255 255 255 255 255 255 255 255 255 255 255 255 255 255 255 255 255 255 255 255 255 255 255 255 255 255 255 255 255 255 255 255 255 255 255 255 255 255 255 255 255 255 255 255 255 255 255 255 255 255 255 255 255 255 255 255 255 255 255 255 255 255 255 255 255 255 255 255 255 255 255 255 255 255 255 255 255 255 255 255 255 255 255 255 255 255 255 255 255 255 255 255 255 255 255 255 255 255 255 255 255 255 255 255 255 255 255 255 255 255 255 255 255 255 255 255 255 255 255 255 255 255 255 255 255 255 255 255 255 255 255 255 255 255 255 255 255 255 255 255 255 255 255 255 255 255 255 255 255 255 255 255 255 255 255 255 255 255 255 255 255 255 255 255 255 255 255 255 255 255 255 255 255 255 255 255 255 255 255 255 255 255 255 255 255 255 255 255 255 255 255 255 255 255 255 255 255 255 255 255 255 255 255 255 255 255 255 255 255 255 255 255 255 255 255 255 255 255 255 255 255 255 255 255 255 255 255 255 255 255 255 255 255 255 255 255 255 255 255 255 255 255 255 255 255 255 255 255 255 255 255 255 255 255 255 255 255 255 255 255 255 255 255 255 255 255 255 255 255 255 255 255 255 255 255 255 255 255 255 255 255 255 255 255 255 255 255 255 255 255 255 255 255 255 255 255 255 255 255 255 255 255 255 255 255 255 255 255 255 255 255 255 255 255 255 255 255 255 255 255 255 255 255 255 255 255 255 255 255 255 255 255 255 255 255 255 255 255 255 255 255 255 255 255 255 255 255 255 255 255 255 255 255 255 255 255 255 255 255 255 255 255 255 255 255 255 255 255 255 255 255 255 255 255 255 255 255 255 255 255 255 255 255 255 255 255 255 255 255 255 255 255 255 255 255 255 255 255 255 255 255 255 255 255 255 255 255 255 255 255 255 255 255 255 255 255 255 
