P2
512 512
255
0 0 0 0 0 0 0 0 0 0 0 0 0 0 0 0 0 0 0 0 0 0 0 0 0 0 0 0 0 0 0 0 0 0 0 0 0 0 0 0 0 0 0 0 0 0 0 0 0 0 0 0 0 0 0 0 0 0 0 0 0 0 0 0 0 0 0 0 0 0 0 0 0 0 0 0 0 0 0 0 0 0 0 0 0 0 0 0 0 0 0 0 0 0 0 0 0 0 0 0 0 0 0 0 0 0 0 0 0 0 0 0 0 0 0 0 0 0 0 0 0 0 0 0 0 0 0 0 0 0 0 0 0 0 0 0 0 0 0 0 0 0 0 0 0 0 0 0 0 0 0 0 0 0 0 0 0 0 0 0 0 0 0 0 0 0 0 0 0 0 0 0 0 0 0 0 0 0 0 0 0 0 0 0 0 0 0 0 0 0 0 0 0 0 0 0 0 0 0 0 0 0 0 0 0 0 0 0 0 0 0 0 0 0 0 0 0 0 0 0 0 0 0 0 0 0 0 0 0 0 0 0 0 0 0 0 0 0 0 0 0 0 0 0 0 0 0 0 0 0 0 0 0 0 0 0 0 0 0 0 0 0 0 0 0 0 0 0 0 0 0 0 0 0 0 0 0 0 0 0 0 0 0 0 0 0 0 0 0 0 0 0 0 0 0 0 0 0 0 0 0 0 0 0 0 0 0 0 0 0 0 0 0 0 0 0 0 0 0 0 0 0 0 0 0 0 0 0 0 0 0 0 0 0 0 0 0 0 0 0 0 0 0 0 0 0 0 0 0 0 0 0 0 0 0 0 0 0 0 0 0 0 0 0 0 0 0 0 0 0 0 0 0 0 0 0 0 0 0 0 0 0 0 0 0 0 0 0 0 0 0 0 0 0 0 0 0 0 0 0 0 0 0 0 0 0 0 0 0 0 0 0 0 0 0 0 0 0 0 0 0 0 0 0 0 0 0 0 0 0 0 0 0 0 0 0 0 0 0 0 0 0 0 0 0 0 0 0 0 0 0 0 0 0 0 0 0 0 0 0 0 0 0 0 0 0 0 0 0 0 0 0 0 0 0 0 0 0 0 0 0 0 0 0 0 0 0 0 0 0 0 0 0 0 0 0 0 0 0 0 0 0 0 0 0 0 0 0 0 0 0 0 
0 0 0 0 0 0 0 106 0 106 0 0 0 0 0 0 0 0 0 0 0 0 0 169 0 0 76 0 0 0 113 113 113 0 0 0 0 0 0 0 0 0 0 0 0 0 0 0 0 0 0 0 0 0 0 0 0 0 0 0 0 0 0 0 0 0 0 0 0 0 0 0 0 0 0 0 0 0 0 76 0 0 0 76 76 107 0 0 107 120 0 0 107 0 76 0 0 0 0 0 0 0 76 0 76 0 76 0 0 0 0 0 0 0 0 0 0 0 0 0 0 0 0 0 0 0 0 0 0 0 0 0 0 0 0 0 0 0 0 0 0 0 0 0 0 0 0 0 0 0 0 0 0 0 0 0 0 0 0 0 0 0 0 0 0 0 0 0 0 0 0 0 0 0 0 0 0 0 0 0 0 0 0 0 0 0 0 0 0 0 0 0 0 0 0 0 0 0 0 0 0 0 0 0 0 0 0 0 0 0 0 0 0 0 0 0 0 0 0 0 0 0 0 0 0 0 0 0 0 0 0 0 0 0 0 0 0 0 0 0 0 0 0 0 0 0 0 0 0 0 0 0 0 0 0 0 0 0 0 0 0 0 0 0 0 0 0 0 0 0 0 0 0 0 0 0 0 0 0 0 0 0 0 0 0 0 0 0 0 0 0 0 0 0 76 0 120 120 0 0 0 0 76 0 0 161 120 0 0 120 120 0 76 0 120 120 120 0 0 0 0 0 0 0 0 0 0 0 0 0 0 0 0 76 152 76 0 0 0 0 0 0 0 0 0 0 0 0 0 0 0 0 0 0 0 0 0 0 74 106 74 0 0 0 0 0 0 106 0 106 0 0 0 0 0 0 0 0 0 0 0 0 0 0 0 0 0 0 0 0 0 0 0 0 0 0 0 0 0 0 0 0 0 0 0 0 0 0 0 0 0 0 0 0 0 0 0 0 0 0 0 0 0 0 0 0 74 237 167 0 0 0 0 0 0 0 0 0 0 0 0 0 0 0 0 0 0 74 224 224 211 152 0 0 0 0 0 0 0 0 0 0 0 0 0 0 0 76 0 76 76 76 76 76 0 0 76 0 107 0 120 120 0 0 0 120 120 0 0 120 120 161 0 0 76 152 0 76 0 120 161 120 76 0 76 0 0 0 0 0 0 0 
0 0 0 0 0 0 0 74 106 74 0 0 0 0 0 0 0 0 0 0 0 0 76 120 0 0 0 0 0 0 113 101 0 0 72 0 0 72 0 0 0 0 0 0 0 0 0 0 0 0 0 0 0 0 0 0 0 0 0 0 0 0 0 0 0 0 0 0 0 0 0 0 0 0 0 0 0 0 0 0 0 0 76 0 0 76 0 0 107 120 0 161 76 76 76 120 76 76 0 0 0 0 0 0 0 76 0 0 0 0 0 0 0 0 0 0 0 0 0 0 0 0 0 0 0 0 0 0 0 0 0 0 0 0 0 0 0 0 0 0 0 0 0 0 0 0 0 0 0 0 0 0 0 0 0 0 0 0 0 0 0 0 0 0 0 0 0 0 0 0 0 0 0 0 0 0 0 0 0 0 0 0 0 0 0 0 0 0 0 0 0 0 0 0 0 0 0 0 0 0 0 0 0 0 0 0 0 0 0 0 0 0 0 0 0 0 0 0 0 0 0 0 0 0 0 0 0 0 0 0 0 0 0 0 0 0 0 0 0 0 0 0 0 0 0 0 0 0 0 0 0 0 0 0 0 0 0 0 0 0 0 0 0 0 0 0 0 0 0 0 0 0 0 0 0 0 0 0 0 0 0 0 0 0 0 0 0 0 0 0 0 0 0 0 0 107 0 76 76 0 0 0 0 76 0 120 120 120 76 0 107 120 0 76 0 76 76 76 0 0 0 0 0 0 0 0 0 0 0 0 0 0 0 76 120 107 0 0 0 0 0 0 0 0 0 0 0 0 74 167 212 212 212 212 167 74 0 0 106 0 106 0 0 0 0 0 0 74 106 74 0 0 0 0 0 0 0 0 0 0 0 0 0 0 0 0 0 0 0 0 0 0 0 0 0 0 0 0 0 0 0 0 0 0 0 0 0 0 0 0 0 0 0 0 0 0 0 0 0 0 0 0 0 0 0 0 0 167 237 74 0 0 0 0 0 0 0 0 0 0 0 0 0 0 0 0 0 0 74 237 0 169 0 0 0 0 0 0 0 0 0 0 0 0 0 0 0 0 76 0 0 120 120 0 76 0 76 76 76 76 0 0 0 0 0 0 0 0 0 0 0 0 0 0 0 120 76 107 76 120 120 0 76 0 76 0 0 0 0 0 0 0 
0 0 0 0 0 0 0 0 0 0 0 0 0 0 0 0 0 0 0 0 0 0 0 120 161 120 0 0 0 0 0 101 0 0 101 72 72 0 0 0 0 0 0 0 0 0 0 0 0 0 0 0 0 0 0 0 0 0 0 0 0 0 0 0 0 0 0 0 0 0 0 0 0 0 0 0 0 0 0 0 0 0 0 0 0 0 0 0 0 120 169 107 120 0 76 0 76 0 76 0 0 0 0 0 0 0 0 0 0 0 0 0 0 0 0 0 0 0 0 0 0 0 0 0 0 0 0 0 0 0 0 0 0 0 0 0 0 0 0 0 0 0 0 0 0 0 0 0 0 0 0 0 0 0 0 0 0 0 0 0 0 0 0 0 0 0 0 0 0 0 0 0 0 0 0 0 0 0 0 0 0 0 0 0 0 0 0 0 0 0 0 0 0 0 0 0 0 0 0 0 0 0 0 0 0 0 0 0 0 0 0 0 0 0 0 0 0 0 0 0 0 0 0 0 0 0 0 0 0 0 0 0 0 0 0 0 0 0 0 0 0 0 0 0 0 0 0 0 0 0 0 0 0 0 0 0 0 0 0 0 0 0 0 0 0 0 0 0 0 0 0 0 0 0 0 0 0 0 0 76 0 0 0 0 0 0 0 0 0 0 0 0 0 0 0 0 120 76 0 0 0 0 0 0 0 120 76 107 107 107 161 120 76 0 0 120 120 0 0 0 76 0 0 0 0 0 0 0 0 0 0 0 0 0 120 161 120 0 0 0 0 0 0 0 0 0 0 0 106 106 0 0 0 0 106 106 0 0 74 106 74 0 0 0 0 0 0 0 0 0 0 0 0 0 0 0 0 0 0 0 0 0 0 0 0 0 0 0 0 0 0 0 0 0 0 0 0 0 0 0 0 0 0 0 0 0 0 0 0 0 0 0 0 0 0 0 0 0 0 0 0 0 0 0 0 0 0 74 224 224 74 0 0 0 0 0 0 0 0 0 0 0 0 0 0 0 0 0 0 167 0 236 161 0 0 0 0 0 0 0 0 0 0 0 0 0 0 0 0 0 0 0 0 76 0 76 0 120 120 0 0 0 0 0 0 76 0 0 120 76 120 0 120 169 120 0 76 0 169 0 120 120 0 0 76 0 0 0 0 0 0 0 
0 0 0 0 0 0 0 0 0 0 0 0 0 0 0 0 0 0 0 0 0 0 0 0 152 152 0 0 0 0 0 113 152 152 113 0 72 0 0 0 0 0 0 0 0 0 0 0 0 0 0 0 0 0 0 0 0 0 0 0 0 0 0 0 0 0 0 0 0 0 0 0 0 0 0 0 0 0 0 0 0 0 0 120 161 120 0 0 0 0 76 0 169 76 120 120 76 107 0 0 76 0 0 0 0 0 0 0 0 0 0 0 0 0 0 0 0 0 0 0 0 0 0 0 0 0 0 0 0 0 0 0 0 0 0 0 0 0 0 0 0 0 0 0 0 0 0 0 0 0 0 0 0 0 0 0 0 0 0 0 0 0 0 0 0 0 0 0 76 0 0 0 0 0 0 0 0 0 0 0 0 0 0 0 0 0 0 0 0 0 0 0 0 0 0 0 0 0 0 0 0 0 0 0 0 0 0 0 0 0 0 0 0 0 0 0 0 0 0 0 0 0 0 0 0 0 0 0 0 0 0 0 0 0 0 0 0 0 0 0 0 0 0 0 0 0 0 0 0 0 0 0 0 0 0 0 0 0 0 0 0 0 0 0 0 0 0 0 0 0 0 0 0 0 0 0 0 0 120 76 120 0 0 0 0 0 0 0 0 0 0 0 0 0 0 0 0 76 0 76 0 0 0 0 0 76 0 152 0 152 76 152 76 0 76 0 0 0 0 76 0 76 0 0 0 0 0 0 0 0 0 0 0 0 0 152 152 0 0 0 0 0 0 0 0 0 0 0 74 167 212 212 212 212 167 74 0 0 0 0 0 0 0 0 0 0 0 0 0 0 0 0 0 0 0 0 0 0 0 0 0 0 0 0 0 0 0 0 0 0 0 0 0 0 0 0 0 0 0 0 0 0 0 0 0 0 0 0 0 0 0 0 0 0 0 0 0 0 0 0 0 0 0 0 0 0 0 0 74 237 167 0 0 0 0 0 0 0 0 0 0 0 0 0 0 0 0 0 0 74 237 217 169 120 0 0 0 0 0 0 0 0 0 0 0 0 0 0 0 0 0 0 76 0 76 0 120 120 0 0 0 76 76 76 0 0 76 0 120 76 120 76 76 0 107 0 0 0 169 107 161 169 152 120 120 0 0 0 0 0 0 0 
0 0 0 0 0 0 0 0 0 0 0 0 0 0 0 0 0 0 0 0 0 0 0 0 169 120 0 0 0 0 0 113 152 152 113 72 0 72 0 0 0 0 0 0 0 0 0 0 0 0 0 0 0 0 0 0 0 0 0 0 0 0 0 0 0 0 0 0 0 0 0 0 0 0 0 0 0 0 0 0 0 0 0 120 161 169 169 120 76 120 169 120 120 0 0 0 76 0 0 76 0 76 0 0 0 0 0 0 0 0 0 0 0 0 0 0 0 0 0 0 0 0 0 0 0 0 0 0 0 0 0 0 0 0 0 0 0 0 0 0 0 0 0 0 0 0 0 0 0 0 0 0 0 0 0 0 0 0 0 0 0 0 0 0 0 0 0 76 0 76 0 0 0 0 0 0 0 0 0 0 0 0 0 0 0 0 0 0 0 0 0 0 0 0 0 0 0 0 0 0 0 0 0 0 0 0 0 0 0 0 0 0 0 0 0 0 0 0 0 0 0 0 0 0 0 0 0 0 0 0 0 0 0 0 0 0 0 0 0 0 0 0 0 0 0 0 0 0 0 0 0 0 0 0 0 0 0 0 0 0 0 0 0 0 0 0 0 0 0 0 0 0 0 0 0 0 0 0 120 76 120 0 0 0 0 0 0 0 0 0 0 0 0 0 0 0 0 0 76 0 0 0 0 0 76 0 0 161 107 107 161 120 120 76 0 0 0 0 0 0 76 0 0 0 0 0 0 0 0 0 0 0 0 0 0 120 169 0 0 0 0 0 0 0 0 0 0 0 0 0 0 0 0 0 0 0 0 0 0 0 0 0 0 0 0 0 0 0 0 0 0 0 0 0 0 0 0 0 0 0 0 0 0 0 0 0 0 0 0 0 0 0 0 0 0 0 0 0 0 0 0 0 0 0 0 0 0 0 0 0 0 0 0 0 0 0 0 0 0 0 0 0 0 0 0 0 0 0 0 167 237 74 0 0 0 0 0 0 0 0 0 0 0 0 0 0 0 0 0 0 167 237 190 169 0 0 0 0 0 0 0 0 0 0 0 0 0 0 0 0 0 120 76 120 0 120 107 120 0 76 0 0 0 0 76 0 76 0 0 76 0 0 120 152 76 107 120 76 169 0 161 120 76 107 120 0 0 0 0 0 0 0 
0 0 0 0 0 0 0 0 0 0 0 0 0 0 0 0 0 0 0 0 0 0 0 120 169 0 0 0 0 0 0 0 113 113 0 0 72 0 0 0 0 0 0 0 0 0 0 0 0 0 0 0 0 0 0 0 0 0 0 0 0 0 0 0 0 0 0 0 0 0 0 0 0 0 0 0 0 0 0 0 0 0 120 76 76 76 76 76 120 120 0 76 0 0 0 0 76 0 0 0 76 0 0 0 0 0 0 0 0 0 0 76 0 0 0 0 0 0 0 0 0 0 0 0 0 0 0 0 0 0 0 0 0 0 0 0 0 0 0 0 0 0 0 0 0 0 0 0 0 0 0 0 0 0 0 0 0 0 0 0 0 0 0 0 0 0 0 0 76 0 0 0 0 0 0 0 0 0 0 0 0 0 0 0 0 0 0 0 0 0 0 0 0 0 0 0 0 0 0 0 0 0 0 0 0 0 0 0 0 0 0 0 0 0 0 0 0 0 0 0 0 0 0 0 0 0 0 0 0 0 0 0 0 0 0 0 0 0 0 0 0 0 0 0 0 0 0 0 0 0 0 0 0 0 0 0 0 0 0 0 0 0 0 0 0 0 0 0 0 0 0 0 0 0 0 0 0 0 0 76 0 0 0 0 0 0 0 0 0 0 0 0 0 0 0 120 152 120 0 0 0 120 120 0 0 76 0 76 152 0 169 0 152 0 0 0 0 0 0 0 0 0 0 0 0 0 0 0 0 0 0 0 0 0 0 0 169 120 0 0 0 0 0 0 0 0 0 0 0 0 0 0 0 0 0 0 0 0 0 0 0 0 0 0 0 0 0 0 0 0 0 0 0 0 0 0 0 0 0 0 0 0 0 0 0 0 0 0 0 0 0 0 0 0 0 0 0 0 0 0 0 0 0 0 0 0 0 0 0 0 0 0 0 0 0 0 0 0 0 0 0 0 0 0 0 0 0 0 0 74 237 167 0 0 0 0 0 0 0 0 0 0 0 0 0 0 0 0 0 0 74 224 0 236 161 0 0 0 0 0 0 0 0 0 0 0 0 0 0 76 0 120 76 76 120 107 76 161 76 76 76 76 0 120 76 120 76 0 0 0 0 0 120 120 107 169 120 152 152 120 120 152 152 120 0 0 0 0 0 0 120 0 
0 0 0 0 0 0 0 0 0 0 0 0 0 0 0 0 0 0 0 0 0 0 0 120 169 0 0 0 0 0 0 0 0 72 72 72 0 0 0 0 0 0 0 0 0 0 0 0 0 0 0 0 0 0 0 0 0 0 0 0 0 0 0 0 0 0 0 0 0 0 0 0 0 0 0 0 0 0 0 0 0 76 76 76 76 76 76 76 0 161 152 152 120 0 0 120 76 120 0 0 0 0 0 0 0 0 0 0 0 0 76 0 76 0 0 0 0 0 0 0 0 0 0 0 0 0 0 0 0 0 0 0 0 0 0 0 0 0 0 0 0 0 0 0 0 0 0 0 0 0 0 0 0 0 0 0 0 0 0 0 0 0 0 0 0 0 0 0 0 0 0 0 0 0 0 0 0 0 0 0 0 0 0 0 0 0 0 0 0 0 0 0 0 0 0 0 0 0 0 0 0 0 0 0 0 0 0 0 0 0 0 0 0 0 0 0 0 0 0 0 0 0 0 0 0 0 0 0 0 0 0 0 0 0 0 0 0 0 0 0 0 0 0 0 0 0 0 0 0 0 0 0 0 0 0 0 0 0 0 0 0 0 0 0 0 0 0 0 0 0 0 0 0 0 0 0 0 0 0 0 0 0 0 0 0 0 0 0 0 0 0 0 0 0 76 120 76 120 76 0 76 76 76 76 0 0 0 161 161 0 120 0 120 76 120 120 0 0 0 0 0 0 0 0 0 0 0 0 0 0 0 0 0 0 0 0 169 120 0 0 0 0 0 0 0 0 0 0 0 0 0 0 0 0 0 0 0 0 0 0 0 0 0 0 0 0 0 0 0 0 0 0 0 0 0 0 0 0 0 0 0 0 0 0 0 0 0 0 0 0 0 0 0 0 0 0 0 0 0 0 0 0 0 0 0 0 0 0 0 0 0 0 0 0 0 0 0 0 0 0 0 0 0 0 0 0 0 0 0 0 167 237 74 0 0 0 0 0 0 0 0 0 0 0 0 0 0 0 0 0 0 74 224 0 242 120 0 0 0 0 0 0 0 0 0 0 0 0 120 76 120 0 76 0 120 0 120 0 120 76 120 0 76 120 120 161 0 0 76 0 0 76 76 76 0 161 161 120 120 161 152 120 0 0 0 0 0 0 0 120 161 0 
0 0 0 0 0 0 0 0 0 0 0 0 0 0 0 0 0 0 0 0 0 0 0 76 152 76 0 0 0 0 0 0 113 72 72 72 113 0 0 0 0 0 0 0 0 0 0 0 0 0 0 0 0 0 0 0 0 0 0 0 0 0 0 0 0 0 0 0 0 0 0 0 0 0 0 0 0 0 0 0 0 0 120 120 0 107 0 0 0 0 120 152 161 120 0 120 0 120 0 0 0 0 0 0 0 0 0 0 0 0 0 76 0 0 0 0 0 0 0 0 0 0 0 0 0 0 0 0 76 0 0 0 0 0 0 76 0 0 0 0 0 0 0 0 0 0 0 0 0 0 0 0 0 0 0 0 0 0 0 0 0 0 0 0 0 0 0 0 0 0 0 0 0 0 0 0 0 0 0 0 0 0 0 0 0 0 0 0 0 0 0 0 0 0 0 0 0 0 0 0 0 0 0 0 0 0 0 0 0 0 0 0 76 0 0 0 0 0 0 0 0 0 0 0 0 0 0 120 120 0 0 0 0 0 0 0 0 0 0 0 0 0 0 0 0 0 0 0 0 0 0 0 0 0 0 0 0 0 0 0 0 0 0 0 0 0 0 0 0 0 0 0 0 0 0 0 0 0 0 0 0 0 0 0 0 0 0 0 0 0 0 0 76 0 76 120 120 107 0 0 0 120 120 0 76 0 76 120 120 152 76 76 0 76 107 120 76 0 0 0 0 0 0 0 0 0 0 0 0 0 0 0 0 0 0 76 120 107 0 0 0 0 0 0 0 0 0 0 0 0 0 0 0 0 0 0 0 0 0 0 0 0 0 0 0 0 0 0 0 0 0 0 0 0 0 0 0 0 0 0 0 0 0 0 0 0 0 0 0 0 0 0 0 0 0 0 0 0 0 0 0 0 0 0 0 0 0 0 0 0 0 0 0 0 0 0 0 0 0 0 0 0 0 0 0 0 0 0 0 0 74 224 224 74 0 0 0 0 0 0 0 0 0 0 0 0 0 0 0 0 0 0 74 237 0 169 0 0 0 0 0 0 0 0 0 0 0 0 120 76 120 0 0 0 161 120 120 0 0 0 0 0 0 120 120 0 0 76 0 0 76 0 120 120 76 120 120 0 0 120 152 161 120 0 0 0 0 0 120 161 120 0 
0 0 0 0 0 0 0 0 0 0 0 0 0 0 0 0 0 0 0 0 0 0 0 120 169 0 0 0 0 0 113 113 72 72 72 72 113 0 0 0 0 0 0 0 0 0 0 0 0 0 0 0 0 0 0 0 0 0 0 0 0 0 0 0 0 0 0 0 0 0 0 0 0 0 0 0 0 0 0 0 0 0 0 0 76 76 76 0 107 107 120 120 120 152 120 0 120 0 0 0 0 0 0 76 0 0 76 0 0 0 0 0 0 0 0 0 0 0 0 0 0 0 76 0 0 0 0 76 0 76 0 0 0 0 76 0 76 0 0 0 0 0 0 0 0 0 0 0 0 0 0 0 0 0 0 0 0 0 0 0 0 0 0 0 0 0 0 0 0 0 0 0 0 0 0 0 0 0 0 0 0 0 0 0 0 0 0 0 0 0 0 76 76 120 120 0 0 0 0 0 0 0 0 0 0 0 0 0 0 0 0 76 0 76 0 0 76 0 0 0 76 0 0 0 0 0 76 76 0 107 0 0 0 0 0 0 0 0 0 0 0 0 0 0 0 0 0 0 0 0 0 0 0 0 0 0 0 0 0 0 0 76 0 0 0 0 0 0 0 0 0 0 0 0 0 0 0 0 0 0 0 0 0 0 0 120 120 76 76 0 0 76 0 107 0 76 0 76 0 0 76 0 0 76 0 120 76 76 120 0 0 0 0 76 120 161 0 0 0 0 0 0 0 0 0 0 0 0 0 0 0 0 0 0 0 0 120 161 120 0 0 0 0 0 0 0 0 0 0 0 0 0 0 0 0 0 0 0 0 0 0 0 0 0 0 0 0 0 0 0 0 0 0 0 0 0 0 0 0 0 0 0 0 0 0 0 0 0 0 0 0 0 0 0 0 0 0 0 0 0 0 0 0 0 0 0 0 0 0 0 0 0 0 0 0 0 0 0 0 0 0 0 0 0 0 0 0 0 0 0 0 74 237 167 0 0 0 0 0 0 0 0 0 0 0 0 0 0 0 0 0 0 0 167 0 236 161 0 0 0 0 0 0 0 0 0 0 0 0 76 0 0 0 0 0 0 76 120 0 76 0 107 0 0 0 0 76 0 76 0 0 0 76 0 0 0 0 0 76 0 0 169 120 0 0 0 120 169 169 120 0 0 
0 0 0 0 0 0 0 0 0 0 0 0 0 0 0 0 0 0 0 0 0 0 0 120 120 0 0 0 0 72 72 0 0 0 72 72 0 0 0 0 0 0 0 0 0 0 0 0 0 0 0 0 0 0 0 0 0 0 0 0 0 0 0 0 0 0 0 0 0 0 0 0 0 0 0 0 0 0 0 0 0 0 0 0 0 107 0 76 0 107 0 76 0 161 161 76 161 120 0 0 0 120 120 0 76 76 0 76 0 0 0 0 0 0 120 120 0 0 120 120 76 161 120 120 0 0 0 0 76 0 0 0 0 0 0 76 0 0 0 0 0 0 0 0 0 0 0 0 0 0 0 0 0 0 0 0 0 0 0 0 0 0 0 0 0 0 0 0 0 0 0 0 0 0 0 0 0 0 0 0 0 0 0 0 0 0 0 0 0 0 120 76 0 76 76 76 0 0 0 0 0 0 0 0 0 0 0 0 76 0 0 0 76 0 0 76 0 76 0 76 0 76 0 0 120 152 76 0 76 107 120 0 0 0 0 0 0 0 0 0 0 0 0 0 0 0 0 0 0 0 0 0 0 0 0 0 0 0 0 0 76 0 76 0 0 0 0 0 0 0 0 0 0 0 0 0 0 0 0 0 0 0 0 0 76 76 76 0 0 76 0 0 107 0 0 107 0 0 107 76 76 120 0 0 107 76 120 169 169 169 107 0 107 76 0 76 0 0 0 0 0 0 0 0 0 0 0 0 0 0 0 0 0 0 0 0 0 152 152 0 0 0 0 0 0 0 0 0 0 0 0 0 0 0 0 0 0 0 0 0 0 0 0 0 0 0 0 0 0 0 0 0 0 0 0 0 0 0 0 0 0 0 0 0 0 0 0 0 0 0 0 0 0 0 0 0 0 0 0 0 0 0 0 0 0 0 0 0 0 0 0 0 0 0 0 0 0 0 0 0 0 0 0 0 0 0 0 0 0 0 0 0 167 237 74 0 0 0 0 0 0 0 0 0 0 0 0 0 0 0 0 0 0 74 237 217 169 120 0 0 0 0 0 0 0 0 0 0 0 0 0 0 0 0 0 120 161 169 169 76 0 0 76 0 0 76 0 76 0 0 76 76 76 120 0 76 0 120 76 120 120 169 0 0 76 107 161 120 0 0 113 0 
0 0 0 0 0 0 0 0 0 0 0 0 0 0 0 0 0 0 0 0 0 0 76 0 107 120 0 0 0 0 113 101 0 113 0 0 0 0 0 0 0 0 0 0 0 0 0 0 0 0 0 0 0 0 0 0 0 0 0 0 0 0 0 0 0 0 0 0 0 0 0 0 0 0 0 0 0 0 0 0 0 0 0 0 0 76 0 0 76 107 120 76 0 0 107 76 107 120 76 0 107 0 0 107 0 0 76 0 0 0 0 0 0 76 76 76 76 76 76 76 0 120 107 120 0 76 0 0 0 0 0 0 0 0 0 0 0 0 0 0 0 0 0 0 0 0 0 0 0 0 0 0 0 0 0 0 0 0 0 0 0 0 0 0 0 0 0 0 0 0 0 0 0 0 0 0 0 0 0 0 0 0 0 0 0 0 0 0 0 0 120 0 76 76 76 0 76 76 0 0 120 152 152 120 0 0 0 76 0 76 0 0 0 0 0 0 0 76 152 76 0 0 0 76 76 0 76 0 169 120 120 76 0 0 0 0 0 0 0 0 0 0 0 0 0 0 0 0 0 0 0 0 0 0 0 0 0 76 0 0 0 76 0 0 0 0 0 0 0 0 0 0 0 76 0 0 0 0 0 0 0 0 120 120 0 107 0 0 76 0 76 0 0 76 0 0 76 120 0 120 76 120 0 0 0 169 76 120 120 0 152 120 120 120 120 76 0 0 0 0 0 0 0 0 0 0 0 0 0 0 0 0 0 0 0 0 0 152 152 0 0 0 0 0 0 0 0 0 0 0 0 0 0 0 0 0 0 0 0 0 0 0 0 0 0 0 0 0 0 0 0 0 0 0 0 0 0 0 0 0 0 0 0 0 0 0 0 0 0 0 0 0 0 0 0 0 0 0 0 0 0 0 0 0 0 0 0 0 0 0 0 0 0 0 0 0 0 0 0 0 0 0 0 0 0 0 0 0 0 0 0 0 74 224 224 74 0 0 0 0 0 0 0 0 0 0 0 0 0 0 0 0 0 0 167 237 190 169 0 0 0 0 0 0 0 0 0 0 0 0 0 0 0 0 0 120 161 76 76 161 76 76 0 0 0 0 76 0 0 0 0 120 76 120 120 76 120 120 76 120 152 152 0 107 0 76 152 0 0 152 160 0 
0 0 0 0 0 0 0 0 0 0 0 0 0 0 0 0 0 0 0 0 0 0 0 76 120 152 0 0 0 0 0 144 0 144 0 0 72 0 0 0 0 0 0 0 0 0 0 0 0 0 0 0 0 0 0 0 0 0 0 0 0 0 0 0 0 0 0 0 0 0 0 0 0 0 0 0 0 0 0 0 0 0 0 0 0 76 0 0 0 0 0 120 161 169 169 120 0 120 120 169 76 107 76 76 120 0 0 0 0 0 0 0 0 0 120 120 0 0 120 76 0 0 107 0 76 0 76 0 0 0 0 0 0 0 0 0 0 0 0 0 0 0 0 0 0 0 0 0 0 76 0 0 0 0 0 0 0 0 0 0 0 0 0 0 0 0 0 0 0 0 0 0 0 0 0 0 0 0 0 0 0 0 0 0 0 0 0 0 0 0 0 120 0 107 107 76 120 152 161 107 107 0 0 76 76 0 0 0 76 0 0 0 0 76 0 0 0 107 0 76 76 0 76 0 120 152 120 107 161 161 0 0 76 0 0 0 0 0 0 0 0 0 0 0 0 0 0 0 0 0 0 0 0 0 0 0 76 0 76 0 0 0 0 0 0 0 0 0 0 0 0 0 120 76 120 0 0 0 0 0 0 120 107 120 76 76 0 76 0 120 120 161 0 0 120 120 161 0 0 0 0 0 0 0 0 152 152 0 0 0 169 76 120 169 161 0 0 0 0 0 0 0 0 0 0 0 0 0 0 0 0 0 0 0 0 0 0 120 169 0 0 0 0 0 0 0 0 0 0 0 0 0 0 0 0 0 0 0 0 0 0 0 0 0 0 0 0 0 0 0 0 0 0 0 0 0 0 0 0 0 0 0 0 0 0 0 0 0 0 0 0 0 0 0 0 0 0 0 0 0 0 0 0 0 0 0 0 0 0 0 0 0 0 0 0 0 0 0 0 0 0 0 0 0 0 0 0 0 0 0 0 0 0 74 237 167 0 0 0 0 0 0 0 0 0 0 0 0 0 0 0 0 0 0 74 224 0 242 120 0 0 0 0 0 0 0 0 0 0 0 0 0 0 0 0 0 120 169 169 161 120 0 0 0 0 0 0 0 0 0 0 0 76 0 120 0 120 0 76 0 169 120 120 107 107 107 167 72 101 160 0 0 
0 0 0 0 0 0 0 0 0 0 0 0 0 0 0 0 0 0 0 0 0 0 0 0 169 120 0 0 0 0 0 113 72 113 0 113 113 152 0 0 0 0 0 0 0 0 0 0 0 0 0 0 0 0 0 0 0 0 0 0 0 0 0 0 0 0 0 0 0 0 0 0 0 0 0 0 0 0 0 0 0 0 0 0 0 76 76 76 0 0 76 120 161 120 0 120 107 76 120 0 107 120 76 76 76 0 120 120 0 0 0 0 76 76 76 0 0 0 0 76 120 120 161 76 0 0 0 0 0 0 0 0 0 0 0 0 0 0 0 0 0 0 0 0 0 0 0 0 120 76 120 0 76 0 0 0 0 0 0 0 0 0 0 0 0 0 0 0 76 0 0 0 0 0 0 0 0 0 0 0 0 0 0 0 0 0 0 0 120 120 0 120 76 0 0 0 120 76 169 0 0 161 152 120 0 0 0 0 0 76 76 76 107 76 76 76 107 120 169 120 0 161 120 120 0 120 120 0 120 120 76 0 0 0 0 76 0 0 0 0 0 0 0 0 0 0 0 0 0 0 0 0 0 0 0 0 0 76 0 0 0 0 0 0 0 0 0 0 0 0 0 0 152 0 152 0 0 0 0 0 0 120 120 161 0 0 76 0 0 152 120 161 169 152 107 76 120 120 120 76 120 0 76 0 0 120 161 152 152 120 76 120 169 120 0 0 0 0 0 0 0 0 0 0 0 0 0 0 0 0 0 0 0 0 0 0 0 76 152 76 0 0 0 0 0 0 0 0 0 0 0 0 0 0 0 0 0 0 0 0 0 0 0 0 0 0 0 0 0 0 0 0 0 0 0 0 0 0 0 0 0 0 0 0 0 0 0 0 0 0 0 0 0 0 0 0 0 0 0 0 0 0 0 0 0 0 0 0 0 0 0 0 0 0 0 0 0 0 0 0 0 0 0 0 0 0 0 0 0 0 0 0 0 0 167 237 74 0 0 0 0 0 0 0 0 0 0 0 0 0 0 0 0 0 0 74 224 80 242 0 0 0 0 0 0 0 0 0 0 0 0 0 0 0 0 0 0 76 0 0 0 0 0 0 0 0 0 0 0 0 0 0 0 0 0 120 0 120 0 161 161 0 152 120 120 120 163 113 113 113 0 0 
0 0 0 0 0 0 0 0 0 0 0 0 0 0 0 0 0 0 0 0 0 0 0 120 169 0 0 0 0 0 0 72 0 101 0 113 101 113 72 0 0 0 0 0 0 0 0 0 0 0 0 0 0 0 0 0 0 0 0 0 0 0 0 0 0 0 0 0 0 0 0 0 0 0 0 0 0 0 0 0 0 0 0 76 76 0 76 120 76 76 0 76 76 0 120 107 107 169 169 169 120 0 0 120 120 76 161 169 161 0 0 76 0 0 0 76 0 0 0 0 161 120 120 0 0 76 0 0 0 0 0 0 0 0 0 0 0 0 0 0 0 0 0 0 0 0 0 0 120 76 120 76 0 76 0 0 0 0 0 0 0 0 0 0 0 0 0 76 0 76 0 0 0 0 0 0 0 0 0 0 0 0 0 0 0 0 0 76 120 120 161 0 76 107 0 0 120 0 169 0 0 161 152 152 152 152 152 120 0 0 0 0 0 76 120 0 0 76 0 0 76 152 76 152 120 161 161 120 0 76 0 76 0 76 76 0 76 0 0 0 0 0 0 0 0 0 76 0 0 0 0 0 0 0 0 0 0 0 0 0 0 0 0 0 0 0 0 0 0 0 0 0 152 0 152 0 0 0 0 0 76 0 76 0 0 0 0 0 120 107 120 0 120 152 107 76 120 120 120 76 120 120 76 120 0 0 120 152 120 76 120 120 0 0 0 0 0 0 0 0 0 0 0 0 0 0 0 0 0 0 0 0 0 0 0 0 0 161 161 0 0 0 0 0 0 0 0 0 0 0 0 0 0 0 0 0 0 0 0 0 0 0 0 0 0 0 0 0 0 0 0 0 0 0 0 0 0 0 0 0 0 0 0 0 0 0 0 0 0 0 0 0 0 0 0 0 0 0 0 0 0 0 0 0 0 0 0 0 0 0 0 0 0 0 0 0 0 0 0 0 0 0 0 0 0 0 0 0 0 0 0 0 0 0 74 224 224 74 0 0 0 0 0 0 0 0 0 0 0 0 0 0 0 0 0 0 74 0 0 161 0 0 0 0 0 0 0 0 0 0 0 0 0 0 0 0 0 76 0 0 0 76 0 0 0 0 0 0 0 0 0 0 0 0 0 120 0 120 120 120 76 152 161 120 0 113 152 101 72 0 0 0 
0 0 0 0 0 0 0 0 0 0 0 0 0 0 0 0 0 0 0 0 0 0 0 120 169 0 0 0 0 0 0 72 113 113 152 0 113 113 0 0 0 0 0 0 0 0 0 0 0 0 0 0 0 0 0 0 0 0 0 0 0 0 0 0 0 0 0 0 0 0 0 0 0 0 0 0 0 0 0 0 0 0 76 0 0 0 76 0 76 0 0 76 120 120 120 76 0 76 76 76 120 0 0 76 0 152 120 0 107 161 0 0 76 76 0 76 120 0 0 0 0 120 120 76 76 0 0 0 0 0 0 0 0 0 0 0 0 0 0 0 0 0 0 0 0 0 0 0 0 76 0 0 76 0 0 76 0 0 0 0 0 0 0 0 0 0 0 0 76 0 0 0 0 0 0 0 0 0 0 0 0 0 0 0 0 0 0 0 169 0 152 76 0 0 76 76 0 107 120 76 76 0 0 0 120 120 0 76 0 76 76 76 76 76 0 0 0 76 76 120 76 120 0 169 76 161 161 120 120 120 169 76 0 0 0 76 0 0 76 76 76 0 0 76 0 76 0 76 0 0 0 0 0 0 0 0 0 0 0 0 0 0 0 0 0 0 0 0 0 0 0 0 120 76 120 0 0 0 76 107 76 120 0 0 0 0 0 120 161 107 76 161 0 0 169 107 0 0 0 76 0 120 76 120 0 0 0 120 120 120 76 0 0 0 0 0 0 0 0 0 0 0 0 0 0 0 0 0 0 0 0 0 0 0 0 0 161 161 0 0 0 0 0 0 0 0 0 0 0 0 0 0 0 0 0 0 0 0 0 0 0 0 0 0 0 0 0 0 0 0 0 0 0 0 0 0 0 0 0 0 0 0 0 0 0 0 0 0 0 0 0 0 0 0 0 0 0 0 0 0 0 0 0 0 0 0 0 0 0 0 0 0 0 0 0 0 0 0 0 0 0 0 0 0 0 0 0 0 0 0 0 0 0 0 0 74 237 167 0 0 0 0 0 0 0 0 0 0 0 0 0 0 0 0 0 0 0 167 0 242 120 0 0 0 0 0 0 0 0 0 0 0 0 0 0 0 0 0 76 76 76 0 0 0 0 0 0 0 0 0 0 0 0 0 161 76 120 0 152 0 161 152 120 0 113 152 113 0 0 0 0 0 
0 0 0 0 0 0 0 0 0 0 0 0 0 0 0 0 0 0 0 0 0 0 0 0 169 120 0 0 0 0 0 0 160 72 160 113 0 0 0 0 0 0 0 0 0 0 0 0 0 0 0 0 0 0 0 0 0 0 0 0 0 0 0 0 0 0 0 0 0 0 0 0 0 0 0 0 0 0 0 0 0 0 0 76 76 76 0 76 0 76 0 0 161 120 0 0 0 120 120 0 0 120 120 76 120 107 76 152 107 120 120 0 0 0 76 76 76 76 0 0 0 76 76 76 76 76 0 0 0 0 0 0 0 0 76 0 0 0 0 0 0 0 0 0 0 0 0 0 0 0 0 0 0 0 76 0 76 0 0 0 0 0 0 0 0 0 0 0 0 0 0 0 0 0 0 0 0 0 0 0 0 0 0 0 0 0 0 0 152 76 120 107 0 0 0 0 76 0 76 120 0 0 161 161 120 120 161 76 0 0 0 0 0 0 0 0 161 120 76 161 161 0 107 120 0 76 0 120 107 0 0 107 76 76 120 0 76 0 0 0 0 76 76 0 107 0 0 76 0 0 0 0 0 0 0 0 0 0 0 0 0 0 0 0 0 0 0 0 0 0 0 0 0 76 0 0 0 120 76 0 0 152 0 0 0 120 152 161 120 152 120 161 169 169 161 0 120 76 120 0 76 0 0 0 0 0 161 169 107 76 161 0 0 0 0 0 0 0 0 0 0 0 0 0 0 0 0 0 0 0 0 0 0 0 0 76 120 107 0 0 0 0 0 0 0 0 0 0 0 0 0 0 0 0 0 0 0 0 0 0 0 0 0 0 0 0 0 0 0 0 0 0 0 0 0 0 0 0 0 0 0 0 0 0 0 0 0 0 0 0 0 0 0 0 0 0 0 0 0 0 0 0 0 0 0 0 0 0 0 0 0 0 0 0 0 0 0 0 0 0 0 0 0 0 0 0 0 0 0 0 0 0 0 0 0 0 212 212 0 0 0 0 0 0 0 0 0 0 0 0 0 0 0 0 0 0 0 74 237 0 169 0 0 0 0 0 0 0 0 0 0 0 0 0 0 0 0 0 0 0 0 0 0 0 0 0 0 0 0 0 0 0 0 161 107 120 76 76 120 0 152 0 0 0 160 113 0 0 0 0 0 0 
0 0 0 0 0 0 0 0 0 0 0 0 0 0 0 0 0 0 0 0 0 0 0 0 152 152 0 0 0 0 0 0 113 101 101 113 0 0 113 144 113 0 0 0 0 0 0 0 0 0 0 0 0 0 0 0 0 0 0 0 0 0 0 0 0 0 0 0 0 0 0 0 0 0 0 0 0 0 0 0 0 0 0 0 76 0 0 0 76 0 0 0 0 120 152 120 0 0 0 107 107 0 76 76 76 0 120 0 152 76 152 0 0 0 0 120 120 0 0 120 120 0 0 120 120 0 76 0 0 0 0 0 0 76 0 76 0 0 0 0 0 0 0 0 0 0 0 0 0 0 0 0 0 0 0 76 0 0 0 0 0 0 0 0 0 0 0 76 0 0 0 0 0 0 76 0 0 0 0 0 0 0 0 76 0 0 0 0 120 107 0 0 76 107 0 0 0 76 107 76 76 107 169 76 169 76 161 120 76 120 120 76 76 0 0 76 152 0 76 120 120 120 76 76 0 107 76 76 76 76 120 76 0 0 120 76 0 0 76 0 0 76 0 107 0 76 0 76 0 0 0 0 0 0 0 0 0 0 0 0 0 0 0 0 0 0 120 120 0 0 0 0 0 0 0 0 0 120 76 76 0 120 76 120 120 0 0 107 0 120 161 76 0 0 107 76 120 0 120 76 0 0 161 120 107 107 76 107 76 107 76 107 0 0 0 0 0 0 0 0 0 0 0 0 0 0 0 0 0 0 0 0 0 76 0 76 0 107 120 0 0 0 0 0 0 0 0 0 0 0 0 0 0 0 0 0 0 0 0 0 0 0 0 0 0 0 0 0 0 0 0 0 0 0 0 0 0 0 0 0 0 0 0 0 0 0 0 0 0 0 0 0 0 0 0 0 0 0 0 0 0 0 0 0 0 0 0 0 0 0 0 0 0 0 0 0 0 0 0 0 0 0 0 0 0 0 0 0 0 0 0 0 0 0 0 0 167 237 74 0 0 0 0 0 0 0 0 0 0 0 0 0 0 0 0 0 0 0 167 0 236 161 0 0 0 0 0 0 0 0 0 0 0 0 0 0 0 0 0 0 0 0 0 0 0 0 0 0 0 0 0 76 0 120 76 76 120 120 0 76 120 0 0 152 152 0 0 0 0 0 0 0 
0 0 0 0 0 0 0 0 0 0 0 0 0 0 0 0 0 0 0 0 0 0 0 0 152 152 0 0 0 0 0 113 101 72 72 0 72 72 72 0 72 72 0 0 0 0 0 0 0 0 0 0 0 0 0 0 0 0 0 0 0 0 0 0 0 0 0 0 0 0 0 0 0 0 0 0 0 0 0 0 0 0 0 76 0 76 0 76 0 0 0 0 0 120 152 76 0 0 76 152 152 0 120 0 120 0 152 120 120 120 120 0 0 120 152 120 0 0 76 76 0 107 120 120 120 120 0 0 0 0 0 0 0 0 76 0 0 0 0 0 0 0 0 0 0 0 0 0 0 0 0 0 0 0 0 0 76 0 0 0 0 0 0 0 76 0 76 0 76 0 0 0 0 120 76 107 76 0 0 0 0 76 107 76 120 0 0 0 76 0 120 120 76 107 107 76 107 76 0 76 0 0 161 120 120 0 107 76 0 107 161 76 76 120 0 0 169 76 0 0 0 169 120 120 0 76 152 152 107 120 0 120 0 120 0 0 76 0 0 120 76 120 0 0 107 76 107 0 76 0 0 0 0 0 0 0 0 0 0 0 0 0 0 0 0 76 76 76 76 0 0 0 120 120 0 0 0 0 0 0 76 0 0 120 0 107 169 161 0 0 107 120 0 120 107 0 0 0 76 76 0 0 120 107 0 0 120 169 107 76 120 0 76 0 0 0 0 0 0 0 0 0 0 0 0 0 0 0 0 0 0 0 76 0 76 120 76 0 152 0 0 0 0 0 0 0 0 0 0 0 0 0 0 0 0 0 0 0 0 0 0 0 0 0 0 0 0 0 0 0 0 0 0 0 0 0 0 0 0 0 0 0 0 0 0 0 0 0 0 0 0 0 0 0 0 0 0 0 0 0 0 0 0 0 0 0 0 0 0 0 0 0 0 0 0 0 0 0 0 0 0 0 0 0 0 0 0 0 0 0 0 0 0 0 0 0 74 224 224 74 0 0 0 0 0 0 0 0 0 0 0 0 0 0 0 0 0 0 74 224 0 242 120 0 0 0 0 0 0 0 0 0 0 0 0 0 0 0 0 0 0 0 0 0 0 0 0 0 0 0 120 120 107 0 76 76 0 107 107 76 0 0 152 152 0 0 0 0 0 0 0 0 
0 0 0 0 0 0 0 0 0 0 0 0 0 0 0 0 0 0 0 0 0 0 0 0 152 152 0 0 0 0 72 72 101 113 0 72 0 0 113 144 113 0 0 0 0 0 0 0 0 0 0 0 0 0 0 0 0 0 0 0 0 0 0 0 0 0 0 0 0 0 0 0 0 0 0 0 0 0 0 0 0 0 0 0 76 0 76 0 76 0 0 0 161 169 120 107 0 0 120 152 152 0 0 76 0 0 120 76 120 161 0 0 76 76 0 76 76 0 0 120 120 0 120 161 161 120 0 76 0 0 0 0 0 0 0 0 0 0 0 0 0 0 0 0 0 0 0 0 0 0 0 0 0 0 0 120 76 120 0 0 76 0 0 76 0 76 0 0 76 120 0 0 0 120 76 0 0 76 0 0 76 0 0 76 120 0 0 0 120 120 169 76 107 169 120 76 107 0 76 0 76 0 0 120 120 0 161 107 120 120 120 76 0 152 0 76 76 161 169 152 161 76 161 107 0 107 76 76 161 120 0 152 0 169 76 76 0 0 0 120 76 120 0 0 0 76 0 76 0 76 0 0 0 0 0 0 0 0 0 0 76 0 0 0 0 0 120 120 0 0 0 107 0 76 76 0 0 0 120 76 0 0 120 169 0 161 76 107 169 120 0 120 76 76 107 107 76 76 161 161 120 0 120 120 0 0 120 76 107 169 76 0 0 0 0 0 0 0 0 0 0 0 0 0 0 0 0 0 0 0 0 0 0 76 0 152 0 0 152 0 0 0 0 0 0 0 0 0 0 0 0 0 0 0 0 0 0 0 0 0 0 0 0 0 0 0 0 0 0 0 0 0 0 0 0 0 0 0 0 0 0 0 0 0 0 0 0 0 0 0 0 0 0 0 0 0 0 0 0 0 0 0 0 0 0 0 0 0 0 0 0 0 0 0 0 0 0 0 0 0 0 0 0 0 0 0 0 0 0 0 0 0 0 0 0 0 0 74 224 224 74 0 0 0 0 0 0 0 0 0 0 0 0 0 0 0 0 0 0 74 237 0 169 0 0 0 0 0 0 0 0 0 0 0 0 0 0 0 0 0 0 0 0 0 0 0 0 0 76 0 152 120 169 0 120 120 169 120 0 0 0 152 152 0 0 0 0 0 0 0 0 0 
0 0 0 0 0 0 0 0 0 0 0 0 0 0 0 0 0 0 0 0 0 0 0 0 152 152 0 0 0 72 0 0 72 72 72 0 0 0 0 0 0 0 0 0 0 0 0 0 0 0 0 0 0 0 0 0 0 0 0 0 0 0 0 0 0 0 0 0 0 0 0 0 0 0 0 0 0 0 0 0 0 0 0 0 0 0 0 76 0 0 0 76 120 120 169 76 0 120 152 120 169 0 0 0 120 107 0 0 76 0 0 76 0 120 152 120 0 0 0 0 0 0 0 76 120 0 161 120 120 0 0 0 0 0 0 0 0 0 0 0 0 0 0 0 0 0 0 0 0 0 0 0 0 0 0 120 0 120 0 120 76 120 0 0 76 0 0 76 76 76 76 0 0 0 76 0 0 76 0 0 0 76 76 76 0 120 120 0 120 107 0 76 0 107 0 0 76 76 76 0 107 0 0 0 0 76 120 76 76 120 120 0 76 152 76 0 0 0 107 0 152 0 120 107 76 76 120 0 76 0 0 120 76 169 76 76 120 0 0 0 76 0 0 0 0 0 0 0 0 0 0 0 0 76 0 0 0 0 0 120 76 107 120 120 0 0 0 0 0 0 120 0 107 120 0 0 0 0 152 0 0 0 152 152 120 120 161 76 107 120 0 120 152 107 120 0 0 120 161 161 76 120 120 76 107 0 0 120 120 0 120 161 0 0 0 0 0 0 0 0 0 0 0 0 0 0 0 0 0 0 0 0 0 0 0 120 76 0 152 0 0 0 0 0 0 0 0 0 0 0 0 0 0 0 0 0 0 0 0 0 0 0 0 0 0 0 0 0 0 0 0 0 0 0 0 0 0 0 0 0 0 0 0 0 0 0 0 0 0 0 0 0 0 0 0 0 0 0 0 0 0 0 0 0 0 0 0 0 0 0 0 0 0 0 0 0 0 0 0 0 0 0 0 0 0 0 0 0 0 0 0 0 0 0 0 0 0 0 74 237 167 0 0 0 0 0 0 0 0 0 0 0 0 0 0 0 0 0 0 0 167 0 236 161 0 0 0 0 0 0 0 0 0 0 0 0 0 0 0 0 0 0 0 0 0 0 0 76 0 76 120 161 161 107 120 120 0 0 0 0 152 152 0 0 0 0 0 0 0 0 0 0 
0 0 0 0 0 0 0 0 0 0 0 0 0 0 0 0 0 0 0 0 0 0 0 0 152 152 0 0 0 0 72 72 152 152 113 0 0 72 0 0 0 0 0 0 0 0 0 0 0 0 0 0 0 0 0 0 0 0 0 0 0 0 0 0 0 0 0 0 0 0 0 0 0 0 0 0 0 0 0 0 0 0 0 0 0 0 0 76 0 0 0 0 120 152 120 120 0 169 120 0 169 120 0 76 120 0 76 0 0 0 120 76 120 0 0 0 0 0 0 0 0 161 152 161 0 76 120 107 120 0 0 0 0 0 0 0 0 0 0 0 0 0 0 0 0 0 0 0 0 0 0 0 0 76 107 0 120 0 0 120 76 120 0 0 0 0 0 76 0 107 0 0 120 120 76 161 120 120 0 0 0 0 0 120 169 120 120 76 0 120 152 76 76 169 169 152 120 0 161 169 169 169 152 152 120 0 120 107 107 152 152 169 120 120 0 0 107 152 169 169 161 0 0 120 120 169 161 120 120 161 169 76 120 120 0 0 152 0 0 0 76 76 76 0 0 0 76 0 76 0 0 0 120 76 120 0 0 0 0 120 76 0 76 0 107 0 0 0 0 0 120 76 120 0 0 120 152 120 76 76 0 0 120 169 76 120 107 107 120 76 120 152 120 76 161 152 152 120 0 107 76 161 161 0 0 120 161 76 120 169 120 120 76 0 0 0 0 0 0 0 0 0 0 0 0 0 0 0 0 0 0 0 0 0 0 0 0 120 152 0 0 0 0 0 0 0 0 0 0 0 0 0 0 0 0 0 0 0 0 0 0 0 0 0 0 0 0 0 0 0 0 0 0 0 0 0 0 0 0 0 0 0 0 0 0 0 0 0 0 0 0 0 0 0 0 0 0 0 0 0 0 0 0 0 0 0 0 0 0 0 0 0 0 0 0 0 0 0 0 0 0 0 0 0 0 0 0 0 0 0 0 0 0 0 0 0 0 0 0 167 237 74 0 0 0 0 0 0 0 0 0 0 0 0 0 0 0 0 0 0 74 224 0 242 120 0 0 0 0 0 0 0 0 0 0 0 0 0 0 0 0 0 0 0 0 0 0 0 0 0 0 120 76 76 120 0 0 0 0 152 152 0 0 0 0 0 0 0 0 0 0 0 
0 0 0 0 0 0 0 0 0 0 0 0 0 0 0 0 0 0 0 0 0 0 0 0 169 120 0 0 0 0 0 113 152 101 113 0 113 113 160 113 0 0 0 0 0 0 0 0 0 0 0 0 0 0 0 0 0 0 0 0 0 0 0 0 0 0 0 0 0 0 0 0 0 0 0 0 0 0 0 0 0 0 0 0 0 0 76 0 76 0 76 0 0 0 0 152 76 120 107 76 169 120 76 0 107 0 0 0 0 0 120 76 120 0 0 0 0 0 0 0 76 152 0 152 0 0 76 120 0 0 0 0 0 0 0 0 0 0 0 0 0 0 0 0 0 0 0 0 0 0 0 0 76 0 0 0 120 0 0 0 76 0 0 0 0 0 0 76 0 107 0 76 76 76 0 120 107 120 0 120 120 0 76 76 76 0 169 0 0 120 152 169 169 120 0 120 120 0 120 120 120 0 120 152 169 161 0 120 169 0 0 107 0 0 120 169 107 0 76 120 0 0 0 0 0 0 120 161 107 120 0 120 120 76 0 76 169 0 0 120 76 76 120 169 152 152 76 0 0 0 0 0 152 0 152 0 0 0 0 0 0 0 0 0 0 120 0 0 0 0 0 76 0 0 76 120 120 161 76 76 120 0 0 169 76 161 107 107 107 107 152 152 169 107 76 120 0 0 120 161 76 169 120 76 0 0 169 120 0 0 120 120 0 0 0 0 0 0 0 0 0 0 0 0 0 0 0 0 0 0 0 0 0 0 76 0 76 152 152 0 0 0 0 0 0 0 0 0 0 0 0 0 0 0 0 0 0 0 0 0 0 0 0 0 0 0 0 0 0 0 0 0 0 0 0 0 0 0 0 0 0 0 0 0 0 0 0 0 0 0 0 0 0 0 0 0 0 0 0 0 0 0 0 0 0 0 0 0 0 0 0 0 0 0 0 0 0 0 0 0 0 0 0 0 0 0 0 0 0 0 0 0 0 0 0 0 0 0 0 74 237 167 0 0 0 0 0 0 0 0 0 0 0 0 0 0 0 0 0 0 0 74 237 0 169 0 0 0 0 0 0 0 0 0 0 0 0 0 0 0 0 0 0 0 0 0 0 0 76 0 76 0 120 107 120 76 0 0 152 152 0 0 0 0 0 0 0 0 0 0 0 0 
0 0 0 0 0 0 0 0 0 0 0 0 0 0 0 0 0 0 0 0 0 0 0 76 152 76 0 0 0 0 0 72 0 0 0 113 113 101 0 72 72 0 0 0 0 0 0 0 0 0 0 0 0 0 0 0 0 0 0 0 0 0 0 0 0 0 0 0 0 0 0 0 0 0 0 0 0 0 0 0 0 0 0 0 0 0 0 76 0 76 0 76 0 0 0 120 120 120 107 76 120 0 120 169 161 120 0 0 0 76 0 0 76 152 152 152 120 0 0 76 0 161 152 161 76 76 107 76 0 0 0 0 0 0 0 0 0 0 0 0 0 0 0 0 0 0 0 0 0 0 0 0 0 107 76 76 0 76 0 0 0 0 0 0 0 0 0 0 120 0 120 76 76 76 0 120 76 76 169 120 120 0 107 0 120 76 120 0 76 120 120 76 76 120 0 76 76 0 120 152 120 120 76 0 107 76 120 76 120 120 76 76 76 0 76 76 0 0 76 0 0 0 76 0 0 120 76 76 120 0 0 120 76 107 107 76 169 120 0 120 76 0 120 120 152 152 169 161 76 76 0 0 152 0 152 0 0 0 76 0 76 76 0 0 0 120 0 0 0 0 0 0 0 0 0 161 169 161 120 0 152 0 0 169 120 152 120 169 120 152 0 76 0 161 169 169 169 161 0 152 0 161 120 0 0 120 161 0 76 0 0 0 0 0 0 0 0 0 0 0 0 0 0 0 0 0 0 0 0 0 0 0 0 0 0 76 0 169 120 0 0 0 0 0 0 0 0 0 0 0 0 0 0 0 0 0 0 0 0 0 0 0 0 0 0 0 0 0 0 0 0 0 0 0 0 0 0 0 0 0 0 0 0 0 0 0 0 0 0 0 0 0 0 0 0 0 0 0 0 0 0 0 0 0 0 0 0 0 0 0 0 0 0 0 0 0 0 0 0 0 0 0 0 0 0 0 0 0 0 0 0 0 0 0 0 0 0 0 0 0 167 237 74 0 0 0 0 0 0 0 0 0 0 0 0 0 0 0 0 0 0 0 167 0 242 120 0 0 0 0 0 0 0 0 0 0 0 0 0 0 0 0 0 0 0 0 0 0 76 0 76 0 120 120 161 0 0 152 152 0 0 0 0 0 0 0 0 0 0 0 0 0 
0 0 0 0 0 0 0 0 0 0 0 0 0 0 0 0 0 0 0 0 0 0 0 0 169 120 0 0 0 0 0 72 0 72 0 160 0 113 144 113 0 0 0 0 0 0 0 0 0 0 0 0 0 0 0 0 0 0 0 0 0 0 0 0 0 0 0 0 0 0 0 0 0 0 0 0 0 0 0 0 0 0 0 0 0 0 0 0 0 0 76 0 0 0 0 76 0 0 0 0 76 0 0 120 161 76 120 152 120 0 76 120 161 152 120 0 76 76 120 120 161 0 0 107 76 76 0 0 76 0 0 0 76 0 0 0 0 0 0 0 0 0 0 0 0 0 0 76 0 0 76 0 0 0 0 0 0 0 0 0 0 0 0 0 120 120 0 0 120 76 76 161 120 120 76 0 76 120 0 107 161 0 76 76 0 107 0 76 76 120 120 120 0 76 0 76 0 107 0 0 120 169 0 161 169 107 107 169 120 120 0 120 76 0 0 107 0 0 107 76 120 120 0 76 0 120 107 120 76 0 0 120 152 120 0 0 152 120 120 76 0 120 120 120 152 152 120 120 0 76 120 0 120 0 120 76 76 0 0 0 76 76 0 76 107 0 0 76 0 0 0 0 0 0 76 0 120 120 0 76 120 0 120 169 0 169 0 169 0 169 0 0 120 76 76 76 0 76 120 161 0 76 0 0 0 107 107 0 0 76 0 76 0 0 0 0 0 0 0 0 0 0 0 0 0 0 0 0 0 0 0 0 0 0 0 0 120 169 0 0 0 0 0 0 0 0 0 0 0 0 0 0 0 0 0 0 0 0 0 0 0 0 0 0 0 0 0 0 0 0 0 0 0 0 0 0 0 0 0 0 0 0 0 0 0 0 0 0 0 0 0 0 0 0 0 0 0 0 0 0 0 0 0 0 0 0 0 0 0 0 0 0 0 0 0 0 0 0 0 0 0 0 0 0 0 0 0 0 0 0 0 0 0 0 0 0 0 0 0 0 74 224 224 74 0 0 0 0 0 0 0 0 0 0 0 0 0 0 0 0 0 0 74 224 80 242 0 0 0 0 0 0 0 0 0 0 0 0 0 0 0 0 0 0 0 0 0 0 120 76 120 0 0 76 104 113 160 152 0 0 0 0 0 0 0 0 0 0 0 0 0 0 
0 0 0 0 0 0 0 0 0 0 0 0 0 0 0 0 0 0 0 0 0 0 0 76 120 152 0 0 0 0 0 0 72 101 101 72 113 113 0 0 0 0 0 0 0 0 0 0 0 0 0 0 0 0 0 0 0 0 0 0 0 0 0 0 0 0 0 0 0 0 0 0 0 0 0 0 0 0 0 0 0 0 0 0 0 0 0 0 0 0 0 0 0 76 0 76 76 76 0 76 76 0 76 0 0 120 169 120 76 107 0 120 120 76 161 169 120 0 152 76 152 0 76 76 0 76 0 0 76 0 0 76 0 76 0 0 0 0 0 0 0 0 0 0 120 120 0 0 76 120 76 120 120 76 0 0 0 0 107 0 0 0 0 76 76 76 0 76 0 76 0 120 120 161 0 0 0 161 152 107 0 0 120 76 76 76 0 0 107 0 107 107 107 120 0 76 0 76 76 0 120 169 0 120 107 120 120 107 76 107 0 0 76 120 120 76 0 0 76 0 76 0 120 120 0 161 120 120 76 0 0 76 0 0 0 0 169 0 161 161 120 120 107 107 76 0 0 0 107 76 169 0 0 76 0 0 0 76 0 76 76 76 0 0 107 76 107 0 76 0 0 120 120 0 0 76 0 0 161 120 0 0 120 120 76 120 120 120 107 120 0 107 0 76 76 76 0 76 0 0 76 0 76 0 0 0 120 0 0 0 0 0 76 0 0 0 0 0 0 0 0 0 0 0 0 0 0 0 0 0 0 0 0 0 0 0 120 107 120 0 0 0 0 0 0 0 0 0 0 0 0 0 0 0 0 0 0 0 0 0 0 0 0 0 0 0 0 0 0 0 0 0 0 0 0 0 0 0 0 0 0 0 0 0 0 0 0 0 0 0 0 0 0 0 0 0 0 0 0 0 0 0 0 0 0 0 0 0 0 0 0 0 0 0 0 0 0 0 0 0 0 0 0 0 0 0 0 0 0 0 0 0 0 0 0 0 0 0 0 0 0 74 237 167 0 0 0 0 0 0 0 0 0 0 0 0 0 0 0 0 0 0 0 74 0 0 161 0 0 0 0 0 0 0 0 0 0 0 0 0 0 0 0 0 0 0 0 0 152 0 152 0 0 0 152 160 113 0 0 0 0 0 0 0 0 0 0 0 0 0 0 0 
0 0 0 0 0 0 0 0 0 0 0 0 0 0 0 0 0 0 0 0 0 0 76 0 76 152 0 0 0 0 0 0 113 72 72 101 0 113 72 0 0 0 0 0 0 0 0 0 0 0 0 0 0 0 0 0 0 0 0 0 0 0 0 0 0 0 0 0 0 0 0 0 0 0 0 0 0 0 0 0 0 0 0 0 0 0 0 0 0 76 0 0 76 0 76 0 120 120 76 120 120 0 76 0 120 76 76 169 161 0 76 0 120 120 120 76 0 0 120 107 120 0 0 107 0 0 120 76 120 0 120 120 76 107 0 0 0 0 0 0 0 0 0 76 76 76 0 76 0 120 76 120 120 76 107 76 76 107 0 0 76 0 0 0 120 120 0 0 76 0 0 120 120 0 0 76 0 0 76 0 0 76 0 76 76 76 0 0 0 76 120 120 161 152 120 0 76 0 120 152 76 107 107 76 161 0 0 161 152 169 169 152 76 107 120 0 0 120 76 0 76 120 0 0 120 76 0 0 0 76 0 0 76 0 0 76 120 0 107 107 107 76 76 0 0 76 0 0 0 0 120 76 76 76 76 76 0 0 76 0 76 76 107 120 120 0 0 107 0 0 76 76 76 0 76 0 0 107 76 107 76 0 0 0 120 76 107 76 76 120 0 0 120 120 0 76 120 76 120 0 0 0 76 0 76 0 169 0 76 0 0 76 0 0 0 0 0 0 0 0 0 0 0 0 0 0 0 0 0 0 0 0 0 0 0 76 76 0 76 76 0 0 0 0 0 0 0 0 0 0 0 0 0 0 0 0 0 0 0 0 0 0 0 0 0 0 0 0 0 0 0 0 0 0 0 0 0 0 0 0 0 0 0 0 0 0 0 0 0 0 0 0 0 0 0 0 0 0 0 0 0 0 0 0 0 0 0 0 0 0 0 0 0 0 0 0 0 0 0 0 0 0 0 0 0 0 0 0 0 0 0 0 0 0 0 0 0 0 0 0 0 0 167 237 74 0 0 0 0 0 0 0 0 0 0 0 0 0 0 0 0 0 0 0 212 252 169 120 0 0 0 0 0 0 0 0 0 0 0 0 0 0 0 0 0 0 0 76 76 76 120 0 0 113 160 0 0 0 0 0 0 0 0 0 0 0 0 0 0 0 0 0 
0 0 0 0 0 0 0 0 0 0 0 0 0 0 0 0 0 0 0 0 0 0 0 0 120 120 0 0 0 0 0 113 152 160 152 72 113 152 0 0 0 0 0 0 0 0 0 0 0 0 0 0 0 0 0 0 0 0 0 0 0 0 0 0 0 0 0 0 0 0 0 0 0 0 0 0 0 0 0 0 0 0 0 0 0 0 0 0 76 0 76 0 76 0 76 0 76 0 0 0 0 76 76 76 76 120 107 0 120 152 76 0 76 107 0 120 152 120 0 76 76 0 0 76 0 0 152 0 152 76 76 0 0 76 76 0 76 0 0 0 0 76 0 0 120 120 0 0 0 0 76 0 0 76 0 0 0 0 76 0 0 76 0 0 0 0 0 76 0 76 0 0 0 0 120 76 120 0 0 0 76 0 0 0 76 120 76 76 76 76 0 0 76 152 152 169 152 169 152 120 120 0 152 0 169 0 0 161 120 0 120 152 169 120 0 0 120 0 120 76 120 0 120 120 76 107 120 0 0 0 0 76 0 0 76 0 120 120 0 0 120 161 0 0 76 0 120 120 0 0 107 120 0 0 120 120 107 120 152 120 120 120 120 107 161 76 76 0 0 76 0 120 76 0 0 0 76 76 0 107 76 120 0 120 76 120 0 120 76 0 0 120 152 152 152 120 120 0 169 0 0 76 107 0 76 120 120 0 0 76 0 0 0 0 0 0 0 0 0 0 0 0 0 0 0 0 0 0 0 0 0 0 0 0 0 0 107 76 107 0 0 0 0 0 0 0 0 0 0 0 0 0 0 0 0 0 0 0 0 0 0 0 0 0 0 0 0 0 0 0 0 0 0 0 0 0 0 0 0 0 0 0 0 0 0 0 0 0 0 0 0 0 0 0 0 0 0 0 0 0 0 0 0 0 0 0 0 0 0 0 0 0 0 0 0 0 0 0 0 0 0 0 0 0 0 0 0 0 0 0 0 0 0 0 0 0 0 0 0 0 0 0 74 237 167 0 0 0 0 0 0 0 0 0 0 0 0 0 0 0 0 0 0 0 167 237 190 169 0 0 0 0 0 0 0 0 0 0 0 0 0 0 0 0 0 0 76 0 0 76 0 0 0 160 113 0 0 0 0 0 0 0 0 0 0 0 0 0 0 0 0 0 
0 0 0 0 0 0 0 0 0 0 0 0 0 0 0 0 0 0 0 0 0 0 0 120 169 0 0 0 0 0 0 144 144 0 160 72 72 0 72 0 0 0 0 0 0 0 0 0 0 0 0 0 0 0 0 0 0 0 0 0 0 0 0 0 0 0 0 0 0 0 0 0 0 0 0 0 0 0 0 0 0 0 0 0 0 120 120 0 0 76 0 0 76 0 0 161 120 120 0 0 120 76 76 76 76 161 0 120 120 120 107 107 0 0 120 107 152 161 76 0 120 76 0 0 0 0 120 0 120 0 120 152 152 120 0 76 0 76 0 0 76 0 76 0 0 0 0 0 0 76 0 0 0 0 0 0 0 0 0 0 76 0 0 0 0 0 0 0 107 0 76 0 76 0 152 0 169 0 0 0 0 0 76 0 0 76 0 0 76 0 120 76 120 0 0 0 76 0 0 107 120 0 120 120 161 120 120 120 161 120 0 120 76 76 161 0 152 0 120 76 120 0 0 0 169 0 152 0 0 0 0 0 0 76 0 76 0 0 120 76 76 161 0 0 120 152 169 169 169 120 107 107 0 76 76 76 76 120 0 120 120 120 120 161 0 0 0 0 120 76 120 0 120 120 161 76 107 107 107 120 0 120 0 120 76 120 76 161 0 0 120 161 152 152 152 107 0 0 169 0 76 0 120 120 0 169 0 0 0 0 0 0 0 0 0 0 0 0 0 0 0 0 0 0 0 0 0 0 0 0 0 0 0 0 0 0 0 169 120 0 0 0 0 0 0 0 0 0 0 0 0 0 0 0 0 0 0 0 0 0 0 0 0 0 0 0 0 0 0 0 0 0 0 0 0 0 0 0 0 0 0 0 0 0 0 0 0 0 0 0 0 0 0 0 0 0 0 0 0 0 0 0 0 0 0 0 0 0 0 0 0 0 0 0 0 0 0 0 0 0 0 0 0 0 0 0 0 0 0 0 0 0 0 0 0 0 0 0 0 0 0 0 0 167 237 74 0 0 0 0 0 0 0 0 0 0 0 0 0 0 0 0 0 0 74 224 0 242 120 0 0 0 0 0 0 0 0 0 0 0 0 0 0 0 0 0 0 76 0 0 0 113 160 152 0 0 0 0 0 0 0 0 0 0 0 0 0 0 0 0 0 0 
0 0 0 0 0 0 0 0 0 0 0 0 0 0 0 0 0 0 0 0 0 0 0 152 152 0 0 0 0 0 0 113 152 144 152 113 0 72 0 72 0 0 0 0 0 0 0 0 0 0 0 0 0 0 0 0 0 0 0 0 0 0 0 0 0 0 0 0 0 0 0 0 0 0 0 0 0 0 0 0 0 0 0 0 120 161 161 120 0 0 0 76 0 76 0 120 107 120 0 120 161 169 161 0 76 0 0 107 169 169 120 0 76 0 120 161 152 161 76 0 107 120 107 120 161 107 0 120 0 0 0 0 0 0 0 0 0 0 0 0 0 76 0 0 0 0 0 0 76 0 76 0 0 0 0 0 0 0 0 0 0 76 0 0 0 0 0 76 0 107 0 76 0 76 120 107 120 76 0 120 120 76 107 0 0 76 120 120 76 120 120 76 120 0 0 0 120 120 107 107 0 0 120 120 0 152 120 120 161 76 161 169 161 120 120 0 120 0 0 0 0 0 0 0 120 76 120 0 0 0 0 0 0 0 76 0 0 120 152 120 0 0 107 107 76 76 107 0 76 0 120 169 169 76 76 120 120 120 161 161 0 0 76 0 0 0 0 0 120 76 120 0 120 107 120 0 120 0 120 76 161 76 0 0 0 0 107 0 0 0 120 161 120 0 0 152 0 120 169 76 120 120 76 0 120 120 0 120 120 0 0 0 0 0 0 0 0 0 0 0 0 0 0 0 0 0 0 0 0 0 0 0 0 0 0 0 0 120 161 152 120 0 0 0 0 0 0 0 0 0 0 0 0 0 0 0 0 0 0 0 0 0 0 0 0 0 0 0 0 0 0 0 0 0 0 0 0 0 0 0 0 0 0 0 0 0 0 0 0 0 0 0 0 0 0 0 0 0 0 0 0 0 0 0 0 0 0 0 0 0 0 0 0 0 0 0 0 0 0 0 0 0 0 0 0 0 0 0 0 0 0 0 0 0 0 0 0 0 0 0 0 0 0 74 237 167 0 0 0 0 0 0 0 0 0 0 0 0 0 0 0 0 0 0 0 74 224 80 242 0 0 0 0 0 0 0 0 0 0 0 0 0 0 0 0 0 0 0 0 0 152 160 113 0 0 0 0 0 0 0 0 0 0 0 0 0 0 0 0 0 0 0 
0 0 0 0 0 0 0 0 0 0 0 0 0 0 0 0 0 0 0 0 0 0 0 120 169 0 0 0 0 0 0 72 0 113 72 72 113 0 72 0 0 0 0 0 0 0 0 0 0 0 0 0 0 0 0 0 0 0 0 0 0 0 0 0 0 0 0 0 0 0 0 0 0 0 0 0 0 0 0 0 0 0 0 0 120 161 161 120 0 0 76 0 0 76 0 107 0 76 0 120 169 0 161 120 0 120 161 76 107 0 76 76 107 0 0 120 152 120 76 107 0 76 76 120 169 0 76 120 0 0 0 0 0 0 0 0 76 0 76 0 0 0 0 0 120 120 0 0 0 76 0 76 0 0 0 0 0 0 0 0 120 76 120 0 0 0 0 0 76 0 0 0 0 0 0 107 0 76 76 120 107 0 76 76 0 76 120 152 0 152 76 0 0 76 76 161 169 161 0 120 0 0 120 120 76 169 0 76 0 120 161 0 120 161 120 107 120 169 152 169 152 161 0 0 0 0 0 0 0 0 0 0 0 0 0 0 76 76 0 0 120 152 120 0 0 0 120 76 120 0 0 107 0 120 169 120 120 0 169 0 0 0 76 0 0 76 0 0 0 76 0 0 107 0 107 0 120 76 76 120 161 107 120 0 76 76 0 0 0 0 0 120 169 169 152 161 0 120 169 76 120 120 76 161 161 0 120 161 161 120 0 0 0 0 0 0 0 0 0 0 0 0 0 0 0 0 0 0 0 0 0 0 0 0 0 0 0 76 76 0 76 76 0 0 0 0 0 0 0 0 0 0 0 0 0 0 0 0 0 0 0 0 0 0 0 0 0 0 0 0 0 0 0 0 0 0 0 0 0 0 0 0 0 0 0 0 0 0 0 0 0 0 0 0 0 0 0 0 0 0 0 0 0 0 0 0 0 0 0 0 0 0 0 0 0 0 0 0 0 0 0 0 0 0 0 0 0 0 0 0 0 0 0 0 0 0 0 0 0 0 0 0 0 0 167 237 74 0 0 0 0 0 0 0 0 0 0 0 0 0 0 0 0 0 0 0 74 0 80 120 0 0 0 0 0 0 0 0 0 0 0 0 0 0 0 0 0 0 0 113 160 0 0 0 0 0 0 0 0 0 0 0 0 0 0 0 0 0 0 0 0 0 
0 0 0 0 0 0 0 0 0 0 0 0 0 0 0 0 0 0 0 0 0 0 0 0 169 120 0 0 0 0 0 152 144 160 160 113 113 72 0 0 0 0 0 0 0 0 0 0 0 0 0 0 0 0 0 0 0 0 0 0 0 0 0 0 0 0 0 0 0 0 0 0 0 0 0 0 0 0 0 0 0 0 0 0 0 120 120 0 76 0 0 0 107 120 120 120 120 161 0 0 161 169 120 0 120 169 161 120 120 161 120 76 107 120 0 76 76 120 152 76 76 120 107 169 120 120 76 0 0 0 0 0 0 0 0 0 76 0 107 0 0 120 120 0 76 0 120 152 120 0 76 0 76 0 0 0 0 0 0 0 120 76 120 0 0 0 0 76 0 0 120 76 120 0 76 0 0 76 0 161 120 107 120 76 0 0 0 120 0 152 120 76 0 0 0 120 120 161 107 161 169 169 169 169 152 161 76 120 152 190 148 74 0 120 211 223 139 120 152 120 76 161 169 242 0 242 152 152 152 120 0 0 0 0 0 0 0 120 152 120 0 0 0 0 0 0 120 0 120 0 76 76 76 0 107 107 107 0 120 120 120 107 76 120 120 76 120 0 0 0 0 120 107 107 107 0 76 0 0 0 120 76 120 107 76 0 0 0 76 0 0 0 0 120 152 76 120 0 169 0 76 0 120 161 0 0 120 161 107 120 0 0 0 0 0 0 0 0 0 0 0 0 0 0 0 0 0 0 0 0 0 0 0 0 0 0 0 76 120 120 120 0 0 0 0 0 0 0 0 0 0 0 0 0 0 0 0 0 0 0 0 0 0 0 0 0 0 0 0 0 0 0 0 0 0 0 0 0 0 0 0 0 0 0 0 0 0 0 0 0 0 0 0 0 0 0 0 0 0 0 0 0 0 0 0 0 0 0 0 0 0 0 0 0 0 0 0 0 0 0 0 0 0 0 0 0 0 0 0 0 0 0 0 0 0 0 0 0 0 0 0 0 0 0 74 224 224 74 0 0 0 0 0 0 0 0 0 0 0 0 0 0 0 0 0 0 0 212 72 169 0 0 0 0 0 0 0 0 0 0 0 0 0 0 0 0 0 0 113 152 113 0 0 0 0 0 0 0 0 0 0 0 0 0 0 0 0 0 0 0 0 0 
0 0 0 0 0 0 0 0 0 0 0 0 0 0 0 0 0 0 0 0 0 0 0 0 152 152 0 0 0 0 113 160 0 0 101 72 160 0 72 0 0 0 0 0 0 0 0 0 0 0 0 0 0 0 0 0 0 0 0 0 0 0 0 0 0 0 0 0 0 0 0 0 0 0 0 0 0 0 0 0 0 0 0 0 0 0 0 76 0 76 0 107 76 107 76 120 0 76 120 152 76 76 152 169 120 0 0 107 76 161 169 152 120 76 107 76 120 169 120 107 120 120 0 169 0 152 0 0 0 76 0 0 0 0 76 0 76 76 76 76 76 76 76 0 120 120 0 0 76 76 0 76 0 0 0 0 0 0 0 0 107 0 76 0 0 0 76 0 76 0 120 76 120 120 76 76 76 0 0 0 76 0 0 161 120 0 0 0 76 120 120 76 107 76 76 120 152 120 0 0 120 120 0 0 76 0 0 0 0 106 0 106 74 167 167 74 74 106 74 0 74 197 72 0 139 190 0 108 108 115 80 211 152 120 0 0 0 0 0 0 0 0 0 0 0 0 0 107 0 76 0 120 120 0 120 0 120 120 0 161 161 0 76 120 152 0 120 120 120 76 76 76 107 0 76 0 107 76 120 152 120 107 107 0 0 120 152 169 152 169 120 0 0 0 0 76 152 0 169 0 0 76 107 107 76 76 0 120 107 76 161 0 0 0 0 0 0 0 0 0 0 0 0 0 0 0 0 0 0 0 0 0 0 0 0 0 76 0 161 161 0 0 0 0 0 0 0 0 0 0 0 0 0 0 0 0 0 0 0 0 0 0 0 0 0 0 0 0 0 0 0 0 0 0 0 0 0 0 0 0 0 0 0 0 0 0 0 0 0 0 0 0 0 0 0 0 0 0 0 0 0 0 0 0 0 0 0 0 0 0 0 0 0 0 0 0 0 0 0 0 0 0 0 0 0 0 0 0 0 0 0 0 0 0 0 0 0 0 0 0 0 0 0 0 0 74 237 167 0 0 0 0 0 0 0 0 0 0 0 0 0 0 0 0 0 0 0 167 0 236 161 0 0 0 0 0 0 0 0 0 0 0 0 0 0 0 0 152 160 113 0 0 0 0 0 0 0 0 0 0 0 0 0 0 0 0 0 0 0 0 0 0 
0 0 0 0 0 0 0 0 0 0 0 0 0 0 0 0 0 0 0 0 0 0 0 0 169 120 0 0 0 113 152 113 113 113 152 113 113 101 0 72 0 0 0 0 0 0 0 0 0 0 0 0 0 0 0 0 0 0 0 0 0 0 0 0 0 0 0 0 0 0 0 0 0 0 0 0 0 0 0 0 0 0 0 0 0 0 0 0 76 0 120 107 76 107 0 76 0 76 0 0 107 120 0 0 76 120 0 0 76 0 107 76 76 76 0 0 107 120 169 120 76 107 120 120 76 120 0 0 76 0 76 0 0 76 0 107 0 120 120 0 0 120 120 0 76 0 120 152 76 0 0 0 0 0 0 0 0 0 0 76 76 76 76 0 0 0 0 76 0 120 120 0 76 152 0 152 0 0 0 0 0 120 120 76 107 107 0 0 0 76 0 76 0 0 0 0 0 0 0 0 0 0 0 0 0 0 0 0 0 74 106 0 149 74 74 149 74 0 106 74 224 237 212 167 149 167 237 212 212 252 100 123 108 80 242 152 152 152 120 0 0 0 0 0 0 0 0 0 76 0 0 0 0 0 120 76 76 169 76 169 76 107 0 76 120 76 0 76 76 0 120 120 107 76 107 120 120 76 120 152 169 120 107 76 107 76 76 107 0 76 76 0 76 0 0 76 120 76 76 120 152 120 0 120 152 120 107 76 76 107 120 76 0 0 0 76 0 0 0 0 0 0 0 0 0 0 0 0 0 0 0 0 0 0 0 76 0 76 0 169 120 0 0 0 0 0 0 0 0 0 0 0 0 0 0 0 0 0 0 0 0 0 0 0 0 0 0 0 0 0 0 0 0 0 0 0 0 0 0 0 0 0 0 0 0 0 0 0 0 0 0 0 0 0 0 0 0 0 0 0 0 0 0 0 0 0 0 0 0 0 0 0 0 0 0 0 0 0 0 0 0 0 0 0 0 0 0 0 0 0 0 0 0 0 0 0 0 0 0 0 0 0 0 0 0 0 167 237 74 0 0 0 0 0 0 0 0 0 0 0 0 0 0 0 0 0 0 74 224 0 236 161 0 0 0 0 0 0 0 0 0 76 0 0 0 0 152 152 0 0 0 0 0 0 0 0 0 0 0 0 0 0 0 0 0 0 0 0 0 0 0 0 
0 0 0 0 0 0 0 0 0 0 0 0 0 0 0 0 0 0 0 0 0 0 0 76 152 76 0 0 113 101 0 101 72 113 113 0 0 0 113 0 0 0 0 0 0 0 0 0 0 0 0 0 0 0 0 0 0 0 0 0 0 0 0 0 0 0 0 0 0 0 0 0 0 0 0 0 0 0 0 0 0 0 0 0 0 0 0 0 0 0 120 107 120 76 0 120 0 76 120 161 0 152 76 0 107 0 76 0 76 120 0 76 0 152 0 120 120 152 76 0 120 0 169 0 76 0 0 0 0 0 0 76 76 0 120 0 120 0 0 0 0 0 0 76 0 76 0 0 76 0 0 76 76 76 0 0 120 120 0 0 120 120 0 0 0 0 0 0 76 76 0 76 76 152 0 120 76 0 0 0 76 76 0 76 0 76 120 107 120 76 0 0 0 0 0 0 0 0 0 0 0 0 0 74 106 74 0 74 106 74 0 167 74 149 167 0 74 74 0 224 224 74 0 74 167 106 74 74 0 0 74 167 212 0 100 108 108 0 242 169 152 152 120 0 0 0 0 0 0 0 0 0 0 0 0 0 0 76 76 76 76 0 120 169 120 0 0 120 120 107 107 0 107 76 120 152 120 0 0 0 0 0 76 120 0 120 152 161 107 161 120 0 0 76 0 120 0 107 107 120 0 0 107 0 0 76 76 0 0 76 120 0 0 0 76 0 76 0 0 0 0 0 0 0 0 0 0 0 0 0 0 0 0 0 0 0 0 0 76 120 107 120 0 0 0 0 0 0 0 0 0 0 0 0 0 0 0 0 0 0 0 0 0 0 0 0 0 0 0 0 0 0 0 0 0 0 0 0 0 0 0 0 0 0 0 0 0 0 0 0 0 0 0 0 0 0 0 0 0 0 0 0 0 0 0 0 0 0 0 0 0 0 0 0 0 0 0 0 0 0 0 0 0 0 0 0 0 0 0 0 0 0 0 0 0 0 0 0 0 0 0 0 0 0 0 0 74 224 224 74 0 0 0 0 0 0 0 0 0 0 0 0 0 0 0 0 0 0 74 224 0 236 161 0 0 0 0 0 0 0 120 76 120 0 0 152 152 0 0 0 0 0 0 0 0 0 0 0 0 0 0 0 0 0 0 0 0 0 0 0 0 0 
0 0 0 0 0 0 0 0 0 0 0 0 0 0 0 0 0 0 0 0 0 0 0 0 169 120 0 0 113 113 160 152 0 144 0 72 0 0 144 0 0 0 0 0 0 0 0 0 0 0 0 0 0 0 0 0 0 0 0 0 0 0 0 0 0 0 0 0 0 0 0 0 0 0 0 0 0 0 0 0 0 0 0 0 0 0 120 120 0 0 76 0 107 0 76 76 76 76 76 120 0 161 76 76 76 107 76 76 107 161 76 120 161 120 0 169 0 0 76 0 0 107 120 76 0 0 0 0 0 120 76 0 0 76 120 76 120 0 0 0 0 0 0 0 76 0 0 0 0 76 76 76 76 76 120 76 76 76 0 76 0 0 0 0 0 0 0 0 0 120 152 120 0 120 0 0 0 76 0 0 0 120 120 0 0 76 120 120 161 0 0 0 0 0 0 0 0 0 0 0 0 0 0 167 106 167 0 106 0 74 106 167 74 224 167 149 106 167 167 237 0 167 167 74 0 106 0 106 0 0 74 167 212 106 106 212 212 237 0 72 0 211 169 161 0 0 0 0 0 0 0 0 0 0 0 76 0 120 152 120 0 76 0 107 76 107 120 0 76 0 120 169 161 0 0 120 169 169 152 120 76 107 120 120 161 120 76 161 120 120 0 0 0 76 152 107 0 120 152 120 161 120 0 120 120 0 120 120 0 120 0 76 0 0 76 0 76 0 0 0 0 0 0 0 0 0 0 0 0 0 0 0 0 0 0 0 120 120 152 120 0 76 76 0 0 0 0 0 0 0 0 0 0 0 0 0 0 0 0 0 0 0 0 0 0 0 0 0 0 0 0 0 0 0 0 0 0 0 0 0 0 0 0 0 0 0 0 0 0 0 0 0 0 0 0 0 0 0 0 0 0 0 0 0 0 0 0 0 0 0 0 0 0 0 0 0 0 0 0 0 0 0 0 0 0 0 0 0 0 0 0 0 0 0 0 0 0 0 0 0 0 0 0 0 0 0 0 74 237 167 0 0 0 0 0 0 0 0 0 0 0 0 0 0 0 0 0 0 0 74 237 217 169 120 0 0 0 0 0 0 120 76 120 0 152 152 0 0 0 0 0 0 0 0 0 0 0 0 0 0 0 0 0 0 0 0 0 0 0 0 0 0 
0 0 0 0 0 0 0 0 0 0 0 0 0 0 0 0 0 0 0 0 0 0 0 0 152 152 0 0 0 72 0 160 0 144 0 0 72 0 144 0 0 0 0 0 0 0 0 0 0 0 0 0 0 0 0 0 0 0 0 0 0 0 0 0 0 0 0 0 0 0 0 0 0 0 0 0 0 0 0 0 0 0 0 0 0 120 107 120 76 0 76 0 76 76 0 0 76 76 76 0 76 0 107 0 120 161 161 107 169 0 120 120 120 0 76 152 76 0 0 76 76 120 120 0 0 0 0 0 0 120 76 107 76 0 0 76 0 0 0 0 0 0 0 76 0 0 0 0 0 0 169 0 0 0 120 0 120 120 0 0 76 0 0 0 0 0 0 0 76 0 0 0 0 0 120 0 120 0 0 0 0 0 0 0 76 0 0 76 0 0 0 0 0 0 0 0 0 0 0 0 74 167 167 106 106 167 0 74 106 74 0 106 167 167 237 106 74 106 237 106 224 237 224 167 0 106 74 167 167 74 167 224 167 167 106 0 0 74 167 212 237 237 252 0 242 152 120 0 0 0 0 0 0 0 0 0 76 0 0 0 120 120 0 120 76 0 169 0 0 76 0 0 120 120 120 161 76 76 152 169 120 0 152 120 161 120 76 0 0 0 76 0 76 76 0 0 76 0 169 0 169 107 107 0 76 0 152 120 76 120 76 0 76 0 76 0 76 0 0 0 0 0 0 0 0 0 0 0 0 0 0 0 0 0 0 0 152 76 0 0 120 120 0 0 0 0 0 0 0 0 0 0 0 0 0 0 0 0 0 0 0 0 0 0 0 0 0 0 0 0 0 0 0 0 0 0 0 0 0 0 0 0 0 0 0 0 0 0 0 0 0 0 0 0 0 0 0 0 0 0 0 0 0 0 0 0 0 0 0 0 0 0 0 0 0 0 0 0 0 0 0 0 0 0 0 0 0 0 0 0 0 0 0 0 0 0 0 0 0 0 0 0 0 0 0 0 0 0 167 237 74 0 0 0 0 0 0 0 0 0 0 0 0 0 0 0 0 0 0 0 167 237 190 169 0 0 0 0 0 0 0 76 104 152 152 0 0 0 0 0 0 0 0 0 0 0 0 0 0 0 0 0 0 0 0 0 0 0 0 0 0 0 
0 0 0 0 0 0 0 0 0 0 0 0 0 0 0 0 0 0 0 0 0 0 0 0 169 120 0 0 0 0 113 113 0 113 0 0 0 72 113 0 0 0 0 0 0 0 0 0 0 0 0 0 0 0 0 0 0 0 0 0 0 0 0 0 0 0 0 0 0 0 0 0 0 0 0 0 0 0 0 0 0 0 0 0 0 120 120 107 76 120 0 76 0 107 76 120 120 120 0 0 0 76 0 0 120 0 169 0 120 120 76 120 0 0 0 169 0 0 0 0 0 0 0 0 0 0 76 0 0 0 76 0 0 0 0 0 0 0 0 0 0 0 120 76 120 0 0 0 0 76 152 76 120 107 0 107 0 0 0 76 0 0 0 0 0 0 0 120 120 161 0 0 76 0 120 76 120 0 0 0 0 0 0 0 0 0 0 0 0 0 0 0 0 0 0 0 0 0 74 106 74 106 74 74 74 74 74 106 74 74 74 106 167 74 74 149 149 167 149 149 224 0 237 106 167 237 237 212 237 237 224 106 224 224 0 167 167 74 0 0 74 167 212 0 100 108 80 242 152 120 0 0 0 0 0 0 0 0 0 0 0 0 0 152 0 120 169 76 76 0 120 76 0 152 120 169 107 161 152 76 120 76 161 120 0 107 76 120 169 169 152 161 0 120 152 107 76 152 161 120 152 0 120 161 0 76 120 0 76 0 0 0 0 0 0 76 0 0 0 0 0 0 0 0 0 0 0 0 0 0 0 0 0 0 0 0 120 120 120 120 0 0 0 0 0 0 0 0 0 0 0 0 0 0 0 0 0 0 0 0 0 0 0 0 0 0 0 0 0 0 0 0 0 0 0 0 0 0 0 0 0 0 0 0 0 0 0 0 0 0 0 0 0 0 0 0 0 0 0 0 0 0 0 0 0 0 0 0 0 0 0 0 0 0 0 0 0 0 0 0 0 0 0 0 0 0 0 0 0 0 0 0 0 0 0 0 0 0 0 0 0 0 0 0 0 0 0 0 74 224 224 74 0 0 0 0 0 0 0 0 0 0 0 0 0 0 0 0 0 0 74 224 0 242 120 0 0 0 0 0 0 0 152 152 0 0 0 0 0 0 0 0 0 0 0 0 0 0 0 0 0 0 0 0 0 0 0 0 0 0 0 0 
0 0 0 0 0 0 0 0 0 0 0 0 0 0 0 0 0 0 0 0 0 0 0 120 169 0 0 0 0 0 113 101 0 0 72 0 0 0 72 0 0 0 0 0 0 0 0 0 0 0 0 0 0 0 0 0 0 0 0 0 0 0 0 0 0 0 0 0 0 0 0 0 0 0 0 0 0 0 0 0 0 0 0 0 0 0 0 0 0 76 76 0 76 120 76 76 120 120 76 76 0 0 120 107 0 76 152 0 76 120 120 120 0 0 0 152 0 76 0 0 0 0 76 0 0 76 0 76 0 0 0 0 0 0 0 0 0 0 0 0 0 0 120 76 120 0 0 76 0 0 169 0 169 0 107 0 76 0 0 76 0 0 0 0 0 0 0 120 107 120 76 76 0 76 0 76 0 0 0 0 0 0 0 0 0 0 0 76 0 0 0 0 0 0 0 0 0 0 167 106 106 149 74 106 106 0 106 0 106 0 167 74 74 167 74 74 74 0 167 224 0 224 149 149 237 167 74 0 74 167 106 74 167 74 224 237 224 167 0 0 0 0 0 74 167 212 0 100 108 80 242 152 120 0 0 0 0 0 0 0 0 0 0 152 0 120 169 76 120 120 76 76 0 152 76 152 76 152 0 161 161 76 107 0 76 76 0 76 0 107 76 161 169 152 152 161 0 0 120 161 76 120 152 107 76 0 0 0 0 0 0 76 0 76 0 0 0 0 0 0 0 0 0 0 0 0 0 0 0 0 0 0 0 0 0 0 0 76 120 152 0 0 0 0 0 0 0 0 0 0 0 0 0 0 0 0 0 0 0 0 0 0 0 0 0 0 0 0 0 0 0 0 0 0 0 0 0 0 0 0 0 0 0 0 0 0 0 0 0 0 0 0 0 0 0 0 0 0 0 0 0 0 0 0 0 0 0 0 0 0 0 0 0 0 0 0 0 0 0 0 0 0 0 0 0 0 0 0 0 0 0 0 0 0 0 0 0 0 0 0 0 0 0 0 0 0 0 0 0 74 237 167 0 0 0 0 0 0 0 0 0 0 0 0 0 0 0 0 0 0 0 74 237 0 169 0 0 0 0 0 0 152 152 0 0 0 0 0 0 0 0 0 0 0 0 0 0 0 0 0 0 0 0 0 0 0 0 0 0 0 0 0 
0 0 0 0 0 0 0 0 0 0 0 0 0 0 0 0 0 0 0 0 0 0 0 120 169 0 0 0 0 0 0 113 0 72 113 152 0 0 72 0 0 0 0 0 0 0 0 0 0 0 0 0 0 0 0 0 0 0 0 0 0 0 0 0 0 0 0 0 0 0 0 0 0 0 0 0 0 0 0 0 120 120 0 0 0 0 76 0 120 76 76 120 0 169 76 120 120 0 0 0 76 0 152 0 76 0 152 0 120 161 107 0 120 0 0 152 120 76 107 76 76 161 120 120 0 0 76 0 0 76 0 0 0 0 0 0 0 0 0 0 0 0 0 76 0 0 76 0 76 0 152 76 152 76 0 76 0 0 76 0 76 0 0 0 0 0 0 0 120 120 0 0 76 0 0 0 0 0 0 0 0 0 0 0 0 0 76 0 76 0 0 0 0 0 0 0 0 0 167 74 167 74 74 149 74 0 74 106 0 106 106 106 74 212 167 167 212 167 0 149 74 212 74 237 74 0 0 74 106 74 106 74 167 212 224 0 237 167 74 167 167 74 0 0 0 0 74 167 212 0 100 108 80 242 120 0 0 0 0 0 0 0 0 120 76 0 169 76 161 169 120 76 107 76 107 76 107 76 161 107 0 76 161 169 120 107 76 0 120 161 0 0 120 152 152 76 107 120 0 76 0 161 152 107 76 169 120 76 76 0 0 0 0 0 0 0 0 0 0 0 0 0 0 0 0 0 0 0 0 0 0 0 0 0 0 0 0 0 169 120 0 0 0 0 0 0 0 0 0 0 0 0 0 0 0 0 0 0 0 0 0 0 0 0 0 0 0 0 0 0 0 0 0 0 0 0 0 0 0 0 0 0 0 0 0 0 0 0 0 0 0 0 0 0 0 0 0 0 0 0 0 0 0 0 0 0 0 0 0 0 0 0 0 0 0 0 0 0 0 0 0 0 0 0 0 0 0 0 0 0 0 0 0 0 0 0 0 0 0 0 0 0 0 0 0 0 0 0 0 0 167 237 74 0 0 0 0 0 0 0 0 0 0 0 0 0 0 0 0 0 0 0 167 0 236 161 0 0 0 0 152 152 0 0 0 0 0 0 0 0 0 0 0 0 0 0 0 0 0 0 0 0 0 0 0 0 0 0 0 0 0 0 
0 0 0 0 0 0 0 0 0 0 0 0 0 0 0 0 0 0 0 0 0 0 0 0 161 161 0 0 0 0 0 160 0 0 72 144 72 0 72 0 0 0 0 0 0 0 0 0 0 0 0 0 0 0 0 0 0 0 0 0 0 0 0 0 0 0 0 0 0 0 0 0 0 0 0 0 0 0 0 76 76 76 76 0 0 0 0 76 0 76 76 76 76 120 76 107 120 161 76 76 0 76 76 76 0 0 169 0 152 0 169 120 152 0 76 120 152 0 0 76 0 120 107 120 0 0 0 0 76 0 0 76 0 0 0 0 0 0 76 0 0 0 0 0 76 0 0 0 0 0 120 107 120 76 0 0 0 0 0 76 0 0 0 0 0 0 0 0 0 0 0 0 0 0 0 0 0 0 0 0 0 0 0 0 0 0 0 76 0 0 0 0 0 0 0 0 0 0 74 149 74 74 106 74 0 74 106 74 106 0 0 0 106 167 237 74 74 167 237 237 149 167 74 212 0 0 0 167 106 167 74 74 74 106 167 167 167 106 106 167 149 167 0 0 0 0 0 0 0 74 167 212 0 100 80 236 0 0 0 0 0 0 0 0 76 107 169 76 161 76 76 152 120 76 107 76 107 0 120 120 120 76 169 0 0 76 0 0 76 107 161 0 0 120 152 120 76 120 169 161 0 169 0 120 107 0 76 0 0 76 76 0 76 0 0 0 0 0 0 0 0 0 0 0 0 0 0 0 0 0 0 0 0 0 0 0 0 120 169 0 0 0 0 0 0 0 0 0 0 0 0 0 0 0 0 0 0 0 0 0 0 0 0 0 0 0 0 0 0 0 0 0 0 0 0 0 0 0 0 0 0 0 0 0 0 0 0 0 0 0 0 0 0 0 0 0 0 0 0 0 0 0 0 0 0 0 0 0 0 0 0 0 0 0 0 0 0 0 0 0 0 0 0 0 0 0 0 0 0 0 0 0 0 0 0 0 0 0 0 0 0 0 0 0 0 0 0 0 0 0 74 237 167 0 0 0 0 0 0 0 0 0 0 0 0 0 0 0 0 0 0 0 74 224 0 242 120 0 0 113 160 0 0 0 0 0 0 0 0 0 0 0 0 0 0 0 0 0 0 0 0 0 0 0 0 0 0 0 0 0 0 0 
0 0 0 0 0 0 0 0 0 0 0 0 0 0 0 0 0 0 0 0 0 0 0 0 76 152 76 0 0 0 101 113 0 72 0 113 72 113 101 72 0 0 0 0 0 0 0 0 0 0 0 0 0 0 0 0 0 0 0 0 0 0 0 0 0 0 0 0 0 0 0 0 0 0 0 0 0 0 0 76 0 107 0 0 0 0 0 0 120 76 76 76 0 0 76 0 0 152 0 0 0 0 0 0 0 107 76 0 120 0 120 161 161 107 76 0 120 0 0 0 120 120 76 76 120 0 0 0 0 76 0 0 76 0 0 0 0 76 0 76 0 0 0 76 0 76 0 76 0 76 0 107 0 76 0 0 0 76 0 0 76 0 0 0 0 0 0 0 0 0 76 0 0 0 0 0 0 0 0 0 0 0 0 0 0 0 0 0 0 0 0 0 0 0 0 0 0 0 0 74 106 74 0 0 0 106 0 106 74 74 149 167 0 167 149 149 237 106 74 0 237 0 74 149 212 212 167 106 106 106 106 149 224 212 167 74 106 106 74 224 167 167 0 0 0 0 0 0 0 0 0 0 74 167 0 137 80 211 120 0 0 0 0 0 0 0 161 120 0 76 76 0 0 120 120 107 169 76 76 120 107 0 107 152 152 120 0 0 120 120 120 76 76 76 0 0 120 120 0 169 0 152 0 0 76 152 120 0 0 120 76 0 0 0 0 0 0 0 0 0 0 0 0 0 0 0 0 0 0 0 0 0 0 0 0 0 0 169 120 0 0 0 0 0 0 0 0 0 0 0 0 0 0 0 0 0 0 0 0 0 0 0 0 0 0 0 0 0 0 0 0 0 0 0 0 0 0 0 0 0 0 0 0 0 0 0 0 0 0 0 0 0 0 0 0 0 0 0 0 0 0 0 0 0 0 0 0 0 0 0 0 0 0 0 0 0 0 0 0 0 0 0 0 0 0 0 0 0 0 0 0 0 0 0 0 0 0 0 0 0 0 0 0 0 0 0 0 0 0 0 0 167 237 74 0 0 0 0 0 0 0 0 0 0 0 0 0 0 0 0 0 0 0 74 237 0 152 0 0 160 113 0 0 0 0 0 0 0 0 0 0 0 0 0 0 0 0 0 0 0 0 0 0 0 0 0 0 0 0 0 0 0 
0 0 0 0 0 0 0 0 0 0 0 0 0 0 0 0 0 0 0 0 0 0 0 0 161 161 0 0 0 113 0 72 152 0 113 101 101 101 0 0 72 0 0 0 0 0 0 0 0 0 0 0 0 0 0 0 0 0 0 0 0 0 0 0 0 0 0 0 0 0 0 0 0 0 0 0 0 0 0 120 76 120 0 0 0 0 76 0 76 76 76 120 120 161 0 0 120 161 107 120 107 161 76 76 0 0 76 76 107 107 0 0 0 120 152 120 0 107 107 0 120 0 76 76 76 76 0 0 0 0 0 76 0 0 0 0 0 0 76 0 0 0 0 0 76 0 0 0 0 0 0 0 76 0 0 0 76 0 76 76 0 76 0 0 0 0 0 76 0 76 0 76 0 0 0 0 76 0 0 0 0 0 0 0 0 0 0 0 0 0 0 76 0 0 0 0 0 0 0 0 0 0 0 0 0 74 106 74 0 106 167 149 149 106 106 237 74 167 106 167 212 106 167 106 106 106 167 74 106 106 167 106 167 106 224 106 167 74 74 149 106 149 74 0 0 0 0 0 0 0 0 0 0 0 74 217 100 123 80 236 0 0 0 0 0 0 76 0 120 120 0 0 0 0 161 120 0 76 0 120 76 76 0 0 0 0 107 76 0 76 120 0 76 76 0 76 76 0 107 76 120 161 76 120 161 0 0 76 76 0 76 76 0 0 0 0 0 0 0 0 0 0 0 0 0 0 0 0 0 0 0 0 0 0 0 0 76 120 107 76 76 0 0 0 0 0 0 0 0 0 0 0 0 0 0 0 0 0 0 0 0 0 0 0 0 0 0 0 0 0 0 0 0 0 0 0 0 0 0 0 0 0 0 0 0 0 0 0 0 0 0 0 0 0 0 0 0 0 0 0 0 0 0 0 0 0 0 0 0 0 0 0 0 0 0 0 0 0 0 0 0 0 0 0 0 0 0 0 0 0 0 0 0 0 0 0 0 0 0 0 0 0 0 0 0 0 0 0 0 0 0 74 224 224 74 0 0 0 0 0 0 0 0 0 0 0 0 0 0 0 0 0 0 0 167 100 242 0 113 160 0 0 0 0 0 0 0 0 0 0 0 0 0 0 0 0 0 0 0 0 0 0 0 0 0 0 0 0 0 0 0 0 
0 0 0 0 0 0 0 0 0 0 0 0 0 0 0 0 0 0 0 0 0 0 0 120 169 0 0 0 0 144 0 101 113 72 144 113 101 0 0 72 0 0 0 0 0 0 0 0 0 0 0 0 0 0 0 0 0 0 0 0 0 0 0 0 0 0 0 0 0 0 0 0 0 0 0 0 0 0 0 120 76 120 0 0 0 76 0 0 107 0 76 120 107 120 0 161 169 120 0 152 152 120 161 120 0 0 107 161 120 0 76 76 107 0 0 120 161 0 120 107 0 120 0 120 120 0 0 0 76 0 0 0 0 0 0 0 0 0 0 0 0 0 0 0 0 0 76 0 76 0 0 0 120 120 0 0 0 76 0 0 76 0 0 0 0 0 161 152 161 0 76 0 0 0 0 76 0 76 0 0 0 0 0 0 0 0 0 0 0 0 76 0 76 0 0 0 0 0 0 0 0 0 0 0 0 0 0 0 0 74 167 167 74 0 167 237 74 167 106 167 212 106 212 74 167 167 106 149 106 167 106 106 74 74 167 149 167 0 106 106 0 106 106 0 0 0 0 0 0 0 0 0 0 0 0 0 74 167 0 130 242 120 0 0 0 0 76 0 76 0 0 0 0 0 0 76 152 120 0 120 107 0 120 169 169 120 76 107 0 76 0 0 76 76 0 76 76 76 0 120 120 0 152 76 152 76 0 0 120 152 120 0 0 0 0 0 0 0 0 0 0 0 0 0 0 0 0 0 0 0 0 0 0 0 0 0 0 107 120 0 0 76 0 0 0 0 0 0 0 0 0 0 0 0 0 0 0 0 0 0 0 0 0 0 0 0 0 0 0 0 0 0 0 0 0 0 0 0 0 0 0 0 0 0 0 0 0 0 0 0 0 0 0 0 0 0 0 0 0 0 0 0 0 0 0 0 0 0 0 0 0 0 0 0 0 0 0 0 0 0 0 0 0 0 0 0 0 0 0 0 0 0 0 0 0 0 0 0 0 0 0 0 0 0 0 0 0 0 0 0 0 0 74 224 224 74 0 0 0 0 0 0 0 0 0 0 0 0 0 0 0 0 0 0 74 0 80 150 160 113 0 0 0 0 0 0 0 0 0 0 0 0 0 0 0 0 0 0 0 0 0 0 0 0 0 0 0 0 0 0 0 0 
0 0 0 0 0 0 0 0 0 0 0 0 0 0 0 0 0 0 0 0 0 0 0 120 161 120 0 0 0 144 113 113 113 0 113 152 160 144 160 113 0 0 0 0 0 0 0 0 0 0 0 0 0 0 0 0 0 0 0 0 0 0 0 0 0 0 0 0 0 0 0 0 0 0 0 0 0 0 76 0 76 0 0 0 0 0 76 0 76 0 76 0 120 120 76 120 76 120 0 120 161 120 0 76 76 120 169 0 169 76 76 76 120 169 169 107 120 120 0 120 76 120 0 0 0 0 0 76 0 76 0 0 0 0 0 0 0 0 0 0 0 0 0 0 76 0 0 76 0 0 120 120 0 76 76 0 0 0 0 0 0 0 0 120 152 169 107 0 120 76 0 0 0 0 0 0 0 0 0 0 0 0 0 0 0 0 0 0 0 0 0 76 0 0 0 0 0 0 0 0 0 0 0 0 0 0 0 0 0 0 0 0 0 0 74 224 224 0 106 0 237 149 224 106 106 106 149 237 167 0 167 167 74 167 167 106 74 74 74 167 212 167 74 0 0 0 0 0 0 0 0 0 0 0 0 0 0 0 74 0 100 80 236 0 0 0 0 76 0 0 0 0 0 76 0 76 0 76 0 161 120 107 76 0 0 76 0 76 76 0 120 120 0 120 152 120 0 0 76 0 0 76 76 107 120 76 0 0 0 0 76 0 0 0 0 0 0 0 0 0 0 0 0 0 0 0 0 0 0 0 0 0 0 0 0 0 0 76 152 0 76 0 0 0 0 0 0 0 0 0 0 0 0 0 0 0 0 0 0 0 0 0 0 0 0 0 0 0 0 0 0 0 0 0 0 0 0 0 0 0 0 0 0 0 0 0 0 0 0 0 0 0 0 0 0 0 0 0 0 0 0 0 0 0 0 0 0 0 0 0 0 0 0 0 0 0 0 0 0 0 0 0 0 0 0 0 0 0 0 0 0 0 0 0 0 0 0 0 0 0 0 0 0 0 0 0 0 0 0 0 0 0 0 74 237 167 0 0 0 0 0 0 0 0 0 0 0 0 0 0 0 0 0 0 0 212 108 0 160 0 0 0 0 0 0 0 0 0 0 0 0 0 0 0 0 0 0 0 0 0 0 0 0 0 0 0 0 0 0 0 0 0 
0 0 0 0 0 0 0 0 0 0 0 0 0 0 0 0 0 0 0 0 0 0 0 0 107 120 76 0 0 113 152 113 0 0 0 113 72 0 0 101 113 0 0 0 0 0 0 0 0 0 0 0 0 0 0 0 0 0 0 0 0 0 0 0 0 0 0 0 0 0 0 0 0 0 0 0 0 76 0 76 0 0 0 0 0 0 0 0 0 76 0 0 0 0 152 76 76 76 76 0 120 120 0 76 0 169 120 76 120 76 76 0 0 0 0 161 120 120 0 76 0 76 0 0 0 0 0 0 76 0 0 0 0 0 0 0 0 0 76 0 0 0 120 169 120 107 120 152 120 0 76 0 120 120 0 0 0 0 0 0 0 120 169 169 152 120 76 161 120 0 0 0 0 0 0 76 0 0 76 0 0 0 0 0 0 0 0 0 0 0 0 0 0 0 0 0 0 0 0 0 0 0 0 0 0 0 0 74 106 74 0 0 0 0 0 74 237 149 167 237 224 74 74 167 74 0 237 0 167 106 74 106 74 149 167 74 0 106 0 0 0 0 0 0 0 0 0 0 0 0 0 0 0 0 0 0 0 0 0 74 167 0 130 242 120 0 0 0 0 76 0 0 0 0 76 0 107 0 76 0 76 0 0 0 0 0 0 107 0 0 120 107 120 0 0 0 0 120 120 0 76 0 0 107 0 76 0 0 0 76 0 76 0 0 0 0 0 0 0 0 0 0 0 0 0 0 0 0 0 0 0 0 0 0 0 0 0 0 169 107 76 0 0 0 0 0 0 0 0 0 0 0 0 0 0 0 0 0 0 0 0 0 0 0 0 0 0 0 0 0 0 0 0 0 0 0 0 0 0 0 0 0 0 0 0 0 0 0 0 0 0 0 0 0 0 0 0 0 0 0 0 0 0 0 0 0 0 0 0 0 0 0 0 0 0 0 0 0 0 0 0 0 0 0 0 0 0 0 0 0 0 0 0 0 0 0 0 0 0 0 0 0 0 0 0 0 0 0 0 0 0 0 0 0 167 237 74 0 0 0 0 0 0 0 0 0 0 0 0 0 0 0 0 0 0 212 108 0 144 0 0 0 0 0 0 0 0 0 0 0 0 0 0 0 0 0 0 0 0 0 0 0 0 0 0 0 0 0 0 0 0 0 
0 0 0 0 0 0 0 0 0 0 0 0 0 0 0 0 0 0 0 0 0 0 0 0 161 161 0 0 0 0 113 152 113 0 0 0 113 152 152 0 144 0 0 0 0 0 0 0 0 0 0 0 0 0 0 0 0 0 0 0 0 0 0 0 0 0 0 0 0 0 0 0 0 0 0 0 0 0 76 0 0 0 0 0 0 0 0 0 0 120 120 0 0 0 120 120 0 0 120 152 152 169 169 169 152 161 0 0 120 152 152 161 107 76 0 0 0 76 152 120 0 76 0 0 0 0 0 0 0 0 0 0 0 0 0 0 0 120 120 161 0 76 76 0 107 0 76 0 76 0 120 120 0 0 0 0 0 0 120 120 107 161 120 0 0 0 152 152 0 76 0 0 0 0 76 0 0 76 0 0 0 0 0 0 76 0 0 0 0 0 0 0 0 0 0 0 0 0 0 0 0 0 0 0 0 0 0 167 106 149 106 74 0 0 0 74 237 0 224 167 74 0 0 212 74 167 167 167 212 106 167 167 167 74 106 74 106 74 0 0 0 0 0 0 0 0 0 0 0 0 0 0 0 0 0 0 0 0 0 0 0 74 0 100 80 236 0 0 76 0 76 0 0 0 0 76 0 107 0 0 0 0 0 0 0 0 0 0 76 76 161 120 120 0 0 0 120 107 120 76 0 76 0 0 76 0 0 0 0 0 76 0 0 0 0 0 0 0 0 0 0 0 0 0 0 0 0 0 0 0 0 0 0 0 0 0 0 0 152 76 0 76 0 0 0 0 0 0 0 0 0 0 0 0 0 0 0 0 0 0 0 0 0 0 0 0 0 0 0 0 0 0 0 0 0 0 0 0 0 0 0 0 0 0 0 0 0 0 0 0 0 0 0 0 0 0 0 0 0 0 0 0 0 0 0 0 0 0 0 0 0 0 0 0 0 0 0 0 0 0 0 0 0 0 0 0 0 0 0 0 0 0 0 0 0 0 0 0 0 0 0 0 0 0 0 0 0 0 0 0 0 0 0 0 74 237 167 0 0 0 0 0 0 0 0 0 0 0 0 0 0 0 0 0 74 0 128 0 113 0 0 0 0 0 0 0 0 0 0 0 0 0 0 0 0 0 0 0 0 0 0 0 0 0 0 0 0 0 0 0 0 0 
0 0 0 0 0 0 0 0 0 0 0 0 0 0 0 0 0 0 0 0 0 0 0 76 152 76 0 0 0 0 0 160 113 0 0 0 144 144 144 0 160 0 0 0 0 0 0 0 0 0 0 0 0 0 0 0 0 0 0 0 0 0 0 0 0 0 0 0 0 0 0 0 0 0 0 0 0 0 0 0 0 0 0 0 0 0 0 0 76 76 76 76 0 0 0 169 76 161 152 152 152 120 0 0 76 0 0 120 152 152 152 161 0 0 120 152 169 169 152 107 120 0 0 0 0 0 0 0 0 0 0 0 0 76 0 0 0 120 107 120 76 0 120 211 223 139 120 152 120 0 0 0 0 0 0 0 0 120 161 169 120 120 0 120 120 0 152 120 161 120 120 0 0 0 0 76 0 0 0 0 0 0 76 107 76 120 0 0 0 0 0 0 0 0 0 0 0 0 0 0 0 0 0 0 0 0 0 167 106 74 0 106 74 167 167 74 167 149 167 0 0 74 106 167 167 224 167 167 212 167 224 224 0 167 167 74 0 74 106 74 0 0 0 0 0 0 0 0 0 0 0 0 0 0 0 0 0 0 0 0 0 0 74 167 0 130 242 120 0 76 0 0 0 0 0 0 76 0 0 0 0 0 0 0 0 0 0 76 0 0 76 0 76 0 0 0 120 120 161 0 76 0 0 0 76 0 0 0 0 0 0 0 0 0 0 0 0 0 0 0 0 0 0 0 0 0 0 0 0 0 0 0 0 0 0 0 120 120 120 120 76 0 0 0 0 0 0 0 0 0 0 0 0 0 0 0 0 0 0 0 0 0 0 0 0 0 0 0 0 0 0 0 0 0 0 0 0 0 0 0 0 0 0 0 0 0 0 0 0 0 0 0 0 0 0 0 0 0 0 0 0 0 0 0 0 0 0 0 0 0 0 0 0 0 0 0 0 0 0 0 0 0 0 0 0 0 0 0 0 0 0 0 0 0 0 0 0 0 0 0 0 0 0 0 0 0 0 0 0 0 0 0 0 0 0 167 237 74 0 0 0 0 0 0 0 0 0 0 0 0 0 0 0 74 224 80 97 212 0 0 0 0 0 0 0 0 0 0 0 0 0 0 0 0 0 0 0 0 0 0 0 0 0 0 0 0 0 0 0 0 0 0 
0 0 0 0 0 0 0 0 0 0 0 0 0 0 0 0 0 0 0 0 0 0 0 0 169 120 0 0 0 0 113 113 0 0 0 0 144 144 144 113 160 113 0 0 0 0 0 0 0 0 0 0 0 0 0 0 0 0 0 0 0 0 0 0 0 0 0 0 0 0 0 0 0 0 0 0 0 0 0 0 0 0 0 0 0 0 0 0 0 120 120 0 0 0 0 120 76 120 0 120 152 152 120 0 0 76 0 76 0 0 0 0 76 107 120 152 76 76 152 107 120 0 0 120 152 120 0 0 120 120 0 0 76 0 107 76 76 0 120 76 76 120 0 167 167 224 74 0 0 0 0 0 0 0 0 0 0 120 120 0 0 107 107 161 169 161 76 107 120 76 152 0 0 76 0 0 0 0 120 152 152 120 0 0 76 120 0 0 76 0 0 76 0 0 0 0 0 0 0 0 0 0 0 0 0 0 0 74 106 106 106 74 167 224 224 106 167 167 74 0 0 106 0 106 212 74 74 106 224 167 74 237 167 0 74 106 74 106 0 106 74 106 74 0 0 0 0 0 0 0 0 0 0 0 0 0 0 0 0 0 0 0 0 0 74 0 100 80 236 0 0 0 0 0 0 0 0 0 0 0 0 0 0 0 0 0 107 76 107 0 76 0 76 0 0 0 0 76 0 76 0 76 0 107 0 76 0 0 0 0 76 0 0 0 0 0 0 0 0 0 0 0 0 0 0 0 0 0 0 0 0 0 0 0 0 76 76 76 76 152 0 0 0 0 0 0 0 0 0 0 0 0 0 0 0 0 0 0 0 0 0 0 0 0 0 0 0 0 0 0 0 0 0 0 0 0 0 0 0 0 0 0 0 0 0 0 0 0 0 0 0 0 0 0 0 0 0 0 0 0 0 0 0 0 0 0 0 0 0 0 0 0 0 0 0 0 0 0 0 0 0 0 0 0 0 0 0 0 0 0 0 0 0 0 0 0 0 0 0 0 0 0 0 0 0 0 0 0 0 0 0 0 0 0 0 74 224 224 74 0 0 0 0 0 0 0 0 0 0 0 0 0 0 167 0 0 0 113 0 0 0 0 0 0 0 0 0 0 0 0 0 0 0 0 0 0 0 0 0 0 0 0 0 0 0 0 0 0 0 0 0 0 
0 0 0 0 0 0 0 0 0 0 0 0 0 0 0 0 0 0 0 0 0 0 0 0 120 169 0 0 0 0 113 101 0 72 0 0 113 152 152 72 160 113 0 0 0 0 0 0 0 0 0 0 0 0 0 0 0 0 0 0 0 0 0 0 0 0 0 0 0 0 0 0 0 0 0 0 0 0 0 0 0 0 0 0 0 0 0 0 0 0 0 0 0 0 0 0 76 0 76 76 0 76 120 0 161 120 0 76 0 0 0 0 0 0 107 0 76 76 0 76 0 76 76 76 0 76 76 76 120 107 107 120 120 107 107 76 120 169 120 107 107 120 76 167 149 167 106 0 0 0 0 76 76 120 152 152 169 120 0 76 0 76 0 161 120 120 0 120 76 120 120 0 76 0 76 0 0 120 161 120 0 0 76 0 76 0 0 76 0 76 76 0 76 0 0 0 0 0 0 0 0 0 0 0 0 0 0 0 0 0 0 0 167 224 224 167 0 0 0 0 74 149 106 74 167 106 224 167 0 167 212 149 167 74 106 0 106 74 74 74 149 106 167 0 0 0 0 0 0 0 0 0 0 0 0 0 0 0 0 0 0 0 0 0 0 74 167 0 137 80 190 0 0 0 0 0 0 0 0 0 0 0 0 0 0 76 0 76 0 76 0 76 0 0 0 0 0 0 0 0 76 0 76 0 107 0 0 0 0 76 0 76 0 0 0 0 0 0 0 0 0 0 0 0 0 0 0 0 0 0 0 0 0 0 0 0 120 120 120 152 0 0 0 0 0 0 0 0 0 0 0 0 0 0 0 0 0 0 0 0 0 0 0 0 0 0 0 0 0 0 0 0 0 0 0 0 0 0 0 0 0 0 0 0 0 0 0 0 0 0 0 0 0 0 0 0 0 0 0 0 0 0 0 0 0 0 0 0 0 0 0 0 0 0 0 0 0 0 0 0 0 0 0 0 0 0 0 0 0 0 0 0 0 0 0 0 0 0 0 0 0 0 0 0 0 0 0 0 0 0 0 0 0 0 0 0 74 224 224 74 0 0 0 0 0 0 0 0 0 0 0 0 74 0 0 0 212 0 0 0 0 0 0 0 0 0 0 0 0 0 0 0 0 0 0 0 0 0 0 0 0 0 0 0 0 0 0 0 0 0 0 0 
0 0 0 0 0 0 0 0 0 0 0 0 0 0 0 0 0 0 0 0 0 0 0 0 107 120 76 0 0 0 101 0 72 72 0 0 0 113 72 0 72 101 0 0 0 113 113 0 0 0 0 0 0 0 0 0 0 0 0 0 0 0 0 0 0 0 0 0 0 0 0 0 0 0 0 0 0 0 0 0 0 0 0 0 0 0 0 0 0 0 0 0 0 0 0 0 0 0 0 76 169 152 161 0 120 107 0 120 120 152 152 120 76 76 107 120 120 0 76 0 0 107 0 0 76 0 107 0 161 120 0 76 0 76 0 76 0 76 0 107 0 169 0 92 0 0 92 0 0 0 76 0 0 120 120 152 76 0 0 0 120 120 76 120 152 120 0 120 107 0 76 0 0 76 0 0 0 120 169 0 76 0 0 120 120 0 0 76 0 76 0 76 0 0 0 0 0 0 0 0 0 0 0 0 0 0 0 0 0 0 0 0 106 74 149 0 167 212 167 74 167 224 167 74 106 0 167 167 237 212 212 167 74 106 74 106 74 74 149 74 74 106 167 0 0 0 0 0 0 0 0 0 0 0 0 0 0 0 0 0 0 0 0 0 0 0 0 74 217 100 133 236 0 0 0 0 0 0 0 0 0 0 0 0 0 0 76 76 76 0 0 0 0 0 0 0 0 0 0 0 0 0 0 76 0 0 0 0 0 0 76 0 0 0 0 0 0 0 0 0 0 0 0 0 0 0 0 0 0 0 0 0 0 0 0 0 0 0 169 120 0 0 0 0 0 0 0 0 0 0 0 0 0 0 0 0 0 0 0 0 0 0 0 0 0 0 0 0 0 0 0 0 0 0 0 0 0 0 0 0 0 0 0 0 0 0 0 0 0 0 0 0 0 0 0 0 0 0 0 0 0 0 0 0 0 0 0 0 0 0 0 0 0 0 0 0 0 0 0 0 0 0 0 0 0 0 0 0 0 0 0 0 0 0 0 0 0 0 0 0 0 0 0 0 0 0 0 0 0 0 0 0 0 0 0 0 0 74 224 224 74 0 0 0 0 0 0 0 0 0 0 74 224 80 0 212 113 0 0 0 0 0 0 0 0 0 0 0 0 0 0 0 0 0 0 0 0 0 0 0 0 0 0 0 0 0 0 0 0 0 0 0 
0 0 0 0 0 0 0 0 0 0 0 0 0 0 0 0 0 0 0 0 0 0 0 120 161 120 0 0 0 113 152 113 0 72 0 0 0 0 72 72 0 101 113 0 72 72 72 72 0 0 0 0 0 0 0 0 0 0 0 0 0 0 0 0 0 0 0 0 0 0 0 0 0 0 0 0 0 0 0 0 0 0 0 0 0 0 0 0 0 0 0 0 0 0 0 0 0 76 0 76 0 76 0 0 107 0 0 161 169 120 0 120 120 152 120 0 0 120 120 76 107 120 0 0 0 161 161 107 107 0 0 107 76 107 0 0 128 0 0 182 0 107 152 169 169 169 161 0 0 120 76 0 0 120 76 0 120 107 76 107 0 0 0 0 0 0 76 0 0 107 120 0 120 120 76 120 120 0 120 76 0 0 76 0 76 76 0 76 0 76 0 0 0 0 0 0 0 0 0 0 0 0 0 0 0 0 0 0 0 0 0 0 106 0 106 167 149 106 149 167 167 224 237 167 167 74 167 167 74 0 0 74 106 74 74 106 74 167 74 167 106 106 74 0 0 0 0 0 0 0 0 0 0 0 0 0 0 0 0 0 0 0 0 0 0 0 0 0 0 74 0 137 80 190 0 0 0 0 0 0 0 0 0 0 0 0 0 0 0 0 0 0 0 0 0 0 0 0 0 0 0 0 0 0 0 0 0 0 0 0 0 0 0 0 0 0 0 0 0 0 0 0 0 0 0 0 0 0 0 0 0 0 0 0 0 0 0 161 161 0 0 0 0 0 0 0 0 0 0 0 0 0 0 0 0 0 0 0 0 0 0 0 0 0 0 0 0 0 0 0 0 0 0 0 0 0 0 0 0 0 0 0 0 0 0 0 0 0 0 0 0 0 0 0 0 0 0 0 0 0 0 0 0 0 0 0 0 0 0 0 0 0 0 0 0 0 0 0 0 0 0 0 0 0 0 0 0 0 0 0 0 0 0 0 0 0 0 0 0 0 0 0 0 0 0 0 0 0 0 0 0 0 0 0 0 0 0 0 74 237 167 0 0 0 0 0 0 0 0 0 74 224 0 0 0 152 0 0 0 0 0 0 0 0 0 0 0 0 0 0 0 0 0 0 0 0 0 0 0 0 0 0 0 0 0 0 0 0 0 0 0 0 
0 0 0 0 0 0 0 0 0 0 0 0 0 0 0 0 0 0 0 0 0 0 0 152 152 0 0 0 0 160 113 0 72 0 0 0 0 0 0 113 0 0 160 0 0 113 113 0 0 0 0 0 0 0 0 0 0 0 0 0 0 0 0 0 0 0 0 0 0 0 0 0 0 0 0 0 0 0 0 0 0 0 0 0 0 0 0 0 0 0 0 0 0 0 0 0 0 0 0 0 76 76 76 0 76 0 107 0 120 169 169 107 0 0 0 76 76 76 0 152 0 169 76 76 120 152 152 0 161 161 107 161 152 120 0 120 0 80 0 0 76 76 0 76 76 0 169 107 161 169 169 152 169 120 0 0 120 120 161 0 0 0 0 0 0 120 120 120 76 107 120 76 76 76 0 76 76 0 107 0 0 107 76 120 120 0 0 0 76 0 0 0 0 0 0 0 0 0 0 0 0 0 0 0 0 0 0 0 0 0 0 0 74 106 74 167 167 212 167 167 74 167 167 106 237 167 0 0 0 0 0 0 0 0 106 0 106 167 106 167 0 0 0 0 0 0 0 0 0 0 0 0 0 0 0 0 0 0 0 0 0 0 0 0 0 0 0 0 0 0 74 217 100 133 242 120 0 0 0 0 0 0 0 0 0 0 0 0 0 0 0 0 0 0 0 0 0 0 0 0 0 0 0 0 76 0 0 0 0 0 0 0 0 0 0 0 0 0 0 0 0 0 0 0 0 0 0 0 0 0 0 0 0 0 0 0 76 120 107 0 0 0 0 0 0 0 0 0 0 0 0 0 0 0 0 0 0 0 0 0 0 0 0 0 0 0 0 0 0 0 0 0 0 0 0 0 0 0 0 0 0 0 0 0 0 0 0 0 0 0 0 0 0 0 0 0 0 0 0 0 0 0 0 0 0 0 0 0 0 0 0 0 0 0 0 0 0 0 0 0 0 0 0 0 0 0 0 0 0 0 0 0 0 0 0 0 0 0 0 0 0 0 0 0 0 0 0 0 0 0 0 0 0 0 0 0 0 0 0 167 237 74 0 0 0 0 0 0 0 74 224 0 0 0 206 0 0 0 0 0 0 0 0 0 0 0 0 0 0 0 0 0 0 0 0 0 0 0 0 0 0 0 0 0 0 0 0 0 0 0 0 0 
0 0 0 0 0 0 0 0 0 0 0 0 0 0 0 0 0 0 0 0 0 0 0 120 169 0 0 0 113 113 72 113 0 0 0 0 0 0 0 144 0 101 113 72 0 0 0 0 0 0 0 0 0 0 0 0 0 0 0 0 0 0 0 0 0 0 0 0 0 0 0 0 0 0 0 0 0 0 0 0 0 0 0 0 0 0 0 0 0 0 0 0 0 0 0 0 76 0 76 76 0 0 0 76 0 107 0 76 0 0 120 107 0 120 0 76 0 120 152 107 0 76 120 120 76 169 120 0 169 76 107 76 0 0 120 120 160 231 0 0 161 0 76 0 120 120 76 120 161 0 0 76 0 0 0 0 0 76 0 0 0 0 0 0 0 120 107 0 0 107 0 76 76 76 0 120 120 120 120 120 161 120 0 0 0 0 0 120 120 0 0 0 0 0 0 0 0 0 0 0 0 0 0 0 0 0 0 0 0 0 0 0 74 167 212 106 0 0 74 74 0 74 106 74 212 212 0 0 0 0 74 106 74 0 74 106 74 74 106 74 0 0 0 0 0 0 74 106 74 0 0 0 0 0 0 0 0 0 0 0 0 0 0 0 0 0 0 0 0 0 0 0 74 0 100 80 236 0 0 0 0 0 0 0 0 0 0 0 0 0 0 0 0 0 0 0 0 0 0 0 0 0 0 76 0 76 0 0 0 0 0 0 0 0 0 0 0 0 0 0 0 0 0 0 0 0 0 0 0 0 0 0 0 0 0 0 0 120 161 120 0 0 0 0 0 0 0 0 0 0 0 0 0 0 0 0 0 0 0 0 0 0 0 0 0 0 0 0 0 0 0 0 0 0 0 0 0 0 0 0 0 0 0 0 0 0 0 0 0 0 0 0 0 0 0 0 0 0 0 0 0 0 0 0 0 0 0 0 0 0 0 0 0 0 0 0 0 0 0 0 0 0 0 0 0 0 0 0 0 0 0 0 0 0 0 0 0 0 0 0 0 0 0 0 0 0 0 0 0 0 0 0 0 0 0 0 0 0 0 74 224 224 74 0 0 0 0 0 74 224 0 0 0 206 0 0 0 0 0 0 0 0 0 0 0 0 0 0 0 0 0 0 0 0 0 0 0 0 0 0 0 0 0 0 0 0 0 0 0 0 0 0 
0 0 0 0 0 0 0 0 0 0 0 0 0 0 0 0 0 0 0 0 0 0 0 0 169 120 0 0 113 113 160 152 113 0 0 0 0 72 0 113 113 72 113 0 0 0 0 0 0 0 0 0 0 0 0 0 0 0 0 0 0 0 0 0 0 0 0 0 0 0 0 0 0 0 0 0 0 0 0 0 0 0 0 0 0 0 0 0 0 0 0 0 0 0 0 0 0 76 0 0 76 76 76 0 0 0 76 0 0 0 120 107 0 76 0 0 0 0 0 0 120 76 107 120 0 169 0 120 169 76 120 0 120 0 242 0 106 148 0 0 116 104 120 120 0 76 0 76 0 0 0 0 0 0 0 0 0 0 0 0 0 0 0 0 0 0 107 76 107 0 0 120 107 120 76 0 76 76 169 76 169 76 76 0 0 0 76 76 76 76 0 0 0 0 0 0 0 0 0 0 0 0 0 0 0 0 0 0 0 0 0 0 167 224 167 167 74 167 237 167 74 167 167 237 224 167 0 0 0 0 167 106 167 0 0 0 0 74 106 74 0 0 0 0 0 0 106 0 106 0 0 0 0 0 0 0 0 0 0 0 0 0 0 0 0 0 0 0 0 0 0 0 0 74 167 0 137 80 190 0 0 0 0 0 0 0 0 0 0 0 0 0 0 0 0 0 0 0 0 0 0 0 0 0 76 0 0 0 0 0 0 0 0 0 0 0 0 0 0 0 0 0 0 0 0 0 0 0 0 0 0 0 0 0 0 0 0 0 169 120 0 0 0 0 0 0 0 0 0 0 0 0 0 0 0 0 0 0 0 0 0 0 0 0 0 0 0 0 0 0 0 0 0 0 0 0 0 0 0 0 0 0 0 0 0 0 0 0 0 0 0 0 0 0 0 0 0 0 0 0 0 0 0 0 0 0 0 0 0 0 0 0 0 0 0 0 0 0 0 0 0 0 0 0 0 0 0 0 0 0 0 0 0 0 0 0 0 0 0 0 0 0 0 0 0 0 0 0 0 0 0 0 0 0 0 0 0 0 0 0 74 237 167 0 0 0 0 74 224 0 0 0 206 0 0 0 0 0 0 0 0 0 0 0 0 0 0 0 0 0 0 0 0 0 0 0 0 0 0 0 0 0 0 0 0 0 0 0 0 0 0 0 
0 0 0 0 0 0 0 0 0 0 0 0 0 0 0 0 0 0 0 0 0 0 0 0 169 120 0 0 0 0 72 152 113 0 0 0 113 72 113 0 152 160 144 144 144 113 0 0 0 0 0 0 0 0 0 0 0 0 0 0 0 0 0 0 0 0 0 0 0 0 0 0 0 0 0 0 0 0 0 0 0 0 0 0 0 0 0 0 0 0 0 0 0 0 0 0 0 0 0 0 0 0 0 0 0 0 0 0 0 120 161 107 0 0 76 0 76 0 0 0 107 161 0 120 120 161 76 161 161 76 120 76 161 76 80 0 224 0 218 206 113 146 76 0 120 120 0 0 0 76 0 0 0 0 0 0 0 0 0 0 0 0 0 0 0 0 120 120 76 120 0 120 120 161 0 120 120 120 76 76 120 0 0 107 0 0 0 120 120 0 0 76 0 0 0 0 0 0 0 0 0 0 0 0 0 0 0 0 0 0 0 0 167 224 167 167 74 167 106 237 224 167 167 167 167 74 0 74 106 74 167 106 167 0 0 0 0 167 106 167 0 0 0 0 0 0 74 106 74 0 0 0 0 0 0 0 0 0 0 0 0 0 0 0 0 0 0 0 0 0 0 0 0 0 0 74 217 100 133 236 0 0 0 0 0 0 0 0 0 0 0 0 0 0 0 0 0 0 0 0 0 0 0 0 0 0 0 0 0 0 0 0 0 0 0 0 0 0 0 0 0 0 0 0 0 0 0 0 0 0 0 0 0 0 0 0 0 120 169 0 0 0 0 0 0 0 0 0 0 0 0 0 0 0 0 0 0 0 0 0 0 0 0 0 0 0 0 0 0 0 0 0 0 0 0 0 0 0 0 0 0 0 0 0 0 0 0 0 0 0 0 0 0 0 0 0 0 0 0 0 0 0 0 0 0 0 0 0 0 0 0 0 0 0 0 0 0 0 0 0 0 0 0 0 0 0 0 0 0 0 0 0 0 0 0 0 0 0 0 0 0 0 0 0 0 0 0 0 0 0 0 0 0 0 0 0 0 0 0 0 0 212 212 0 0 74 167 237 0 0 0 206 0 0 0 0 0 0 0 0 0 0 0 0 0 0 0 0 0 0 0 0 0 0 0 0 0 0 0 0 0 0 0 0 0 0 0 0 0 0 0 0 
0 0 0 0 0 0 0 0 0 0 0 0 0 0 0 0 0 0 0 0 0 0 0 76 120 107 0 0 0 113 152 113 0 0 0 0 113 0 101 144 72 72 113 0 0 72 72 0 0 0 0 0 0 0 0 0 0 0 0 0 0 0 0 0 0 0 0 0 0 0 0 0 0 0 0 0 0 0 0 0 0 0 0 0 0 0 0 0 0 0 0 0 0 0 0 0 0 0 76 0 0 0 0 76 0 0 0 0 0 169 76 169 0 76 76 0 120 152 107 0 0 0 76 0 120 120 0 0 107 76 107 107 107 120 108 212 212 108 224 144 72 220 0 76 0 0 0 0 161 120 120 0 0 0 0 0 0 0 0 76 0 0 76 0 0 0 152 76 120 107 120 0 76 0 0 169 0 0 76 76 107 0 76 0 120 120 0 0 0 0 76 0 107 0 0 0 0 0 0 0 0 0 0 0 0 0 0 0 0 0 0 0 74 167 149 106 149 149 224 0 237 0 237 106 106 74 0 167 106 167 74 106 74 0 0 0 0 167 106 167 0 0 0 0 0 0 0 0 0 0 0 0 0 0 0 0 0 0 0 0 0 0 0 0 0 0 0 0 0 0 0 0 0 0 0 0 0 74 0 130 236 0 0 0 0 0 0 0 0 0 0 0 0 0 0 0 0 0 0 0 0 0 0 0 0 0 0 0 0 0 0 0 0 0 0 0 0 0 0 0 0 0 0 0 0 0 0 0 0 0 0 0 0 0 0 0 0 120 161 120 0 0 0 0 0 0 0 0 0 0 0 0 0 0 0 0 0 0 0 0 0 0 0 0 0 0 0 0 0 0 0 0 0 0 0 0 0 0 0 0 0 0 0 0 0 0 0 0 0 0 0 0 0 0 0 0 0 0 0 0 0 0 0 0 0 0 0 0 0 0 0 0 0 0 0 0 0 0 0 0 0 0 0 0 0 0 0 0 0 0 0 0 0 0 0 0 0 0 0 0 0 0 0 0 0 0 0 0 0 0 0 0 0 0 0 0 0 0 0 0 0 212 212 0 74 224 237 217 0 0 206 0 0 0 0 0 0 0 0 0 0 0 0 0 0 0 0 0 0 0 0 0 0 0 0 0 0 0 0 0 0 0 0 0 0 0 0 0 0 0 0 0 
0 0 0 0 0 0 0 0 0 0 0 0 0 0 0 0 0 0 0 0 0 0 0 76 76 76 76 0 0 144 113 72 0 0 0 0 0 101 0 0 0 113 160 160 113 0 72 0 0 0 0 0 72 0 0 0 0 0 0 0 0 0 0 0 0 0 0 0 0 0 0 0 0 0 0 0 0 0 0 0 0 0 0 0 0 0 0 0 0 0 0 0 0 0 0 0 0 76 0 0 76 0 76 0 76 0 76 0 76 120 120 161 0 76 0 120 120 0 152 0 76 76 0 120 161 76 161 120 107 120 76 76 169 76 0 0 0 80 150 152 113 146 76 0 0 0 0 161 161 120 152 0 0 0 0 0 0 0 107 0 76 76 0 76 0 0 169 107 169 0 169 0 0 0 76 120 120 152 107 0 120 0 107 0 0 76 76 0 0 0 76 76 76 76 0 0 0 0 0 0 0 0 0 0 0 0 0 0 0 0 0 0 0 0 167 167 167 106 237 167 167 167 149 212 167 167 0 167 74 149 212 167 74 0 0 0 74 74 74 74 0 0 0 0 0 0 0 0 0 0 0 0 0 0 0 0 0 0 0 0 0 0 0 0 0 0 0 0 0 0 0 0 0 0 0 0 0 0 74 0 137 80 190 0 0 0 0 0 0 0 0 0 0 0 0 0 0 0 0 0 0 0 0 0 0 0 0 0 0 0 0 0 0 0 0 0 0 0 0 0 0 0 0 0 0 0 0 0 0 0 0 0 0 0 0 0 0 0 120 161 120 0 0 0 0 0 0 0 0 0 0 0 0 0 0 0 0 0 0 0 0 0 0 0 0 0 0 0 0 0 0 0 0 0 0 0 0 0 0 0 0 0 0 0 0 0 0 0 0 0 0 0 0 0 0 0 0 0 0 0 0 0 0 0 0 0 0 0 0 0 0 0 0 0 0 0 0 0 0 0 0 0 0 0 0 0 0 0 0 0 0 0 0 0 0 0 0 0 0 0 0 0 0 0 0 0 0 0 0 0 0 0 0 0 0 0 0 0 0 0 0 167 224 212 237 0 190 218 0 206 0 0 0 0 0 0 0 0 0 0 0 0 0 0 0 0 0 0 0 0 0 0 0 0 0 0 0 0 0 0 0 0 0 0 0 0 0 0 0 0 0 0 
0 0 0 0 0 0 0 0 0 0 0 0 0 0 0 0 0 0 0 0 0 0 0 76 120 107 0 0 0 144 72 0 72 0 0 0 0 0 101 72 0 101 113 0 72 0 72 0 0 0 0 72 0 72 0 0 0 0 0 0 0 0 0 0 0 0 0 0 0 0 0 0 0 0 0 0 0 0 0 0 0 0 0 0 0 0 0 0 0 0 0 0 0 0 0 0 76 0 76 0 0 76 0 76 0 76 0 76 0 120 120 0 0 120 107 107 161 120 120 0 76 0 120 0 152 0 169 107 120 120 0 76 0 120 139 80 80 236 0 0 72 0 0 0 0 0 76 120 107 120 120 76 0 0 0 76 0 120 0 120 0 0 76 0 0 76 120 107 76 107 120 76 0 76 0 76 76 0 161 120 76 0 0 107 120 120 0 0 0 0 76 76 0 107 0 0 0 0 120 120 0 0 0 0 0 0 0 0 0 0 0 0 0 0 74 224 167 167 212 167 149 167 74 74 167 167 74 74 74 106 106 167 106 0 74 167 167 74 106 0 0 0 0 0 0 0 0 0 0 0 0 0 0 0 0 0 0 0 0 0 0 0 0 0 0 0 0 0 0 0 0 0 0 0 0 0 0 0 0 74 217 100 133 236 0 0 0 0 0 0 0 0 0 0 0 0 0 0 0 0 0 0 0 0 0 0 0 0 0 0 0 0 0 0 0 0 0 0 0 0 0 0 0 0 0 0 0 0 0 0 0 0 0 0 0 0 0 0 0 152 152 0 0 0 0 0 0 0 0 0 0 0 0 0 0 0 0 0 0 0 0 0 0 0 0 0 0 0 0 0 0 0 0 0 0 0 0 76 0 0 0 0 0 0 0 0 0 0 0 0 0 0 0 0 0 0 0 0 0 0 0 0 0 0 0 0 0 0 0 0 0 0 0 0 0 0 0 0 0 0 0 0 0 0 0 0 0 0 0 0 0 0 0 0 0 0 0 0 0 0 0 0 0 0 0 0 0 0 0 0 0 0 0 0 0 0 0 0 0 0 0 74 167 252 0 0 0 0 206 0 0 0 0 0 0 0 0 0 0 0 0 0 0 0 0 0 0 0 0 0 0 0 0 0 0 0 0 0 0 0 0 0 0 0 0 0 0 0 0 0 0 0 
0 0 0 0 0 0 0 0 0 0 0 0 0 0 0 0 0 0 0 0 0 0 0 76 152 76 0 0 0 160 101 72 0 0 0 0 0 0 113 113 72 101 144 144 113 72 101 0 0 0 0 0 72 0 0 0 0 0 0 0 0 0 0 0 0 0 0 0 0 0 0 0 0 0 0 0 0 0 0 0 0 0 0 0 0 0 0 0 0 0 0 0 0 76 0 76 0 76 0 0 76 0 0 0 0 0 76 0 0 0 0 0 0 0 152 152 120 161 120 107 107 0 152 0 152 76 152 76 0 0 0 0 0 152 120 120 120 0 0 0 0 0 0 0 76 76 107 0 120 120 0 0 76 0 76 0 76 120 76 120 0 0 0 120 120 0 107 120 0 120 120 0 76 0 0 107 120 76 0 107 0 0 120 120 0 0 0 0 0 120 76 0 0 76 76 0 0 76 120 107 120 0 0 0 0 0 0 0 0 0 0 0 0 0 74 149 74 74 167 106 237 167 0 224 149 106 167 106 74 149 212 224 74 74 149 74 74 149 74 0 0 0 0 0 0 0 0 0 0 0 0 0 0 0 0 0 0 0 0 0 0 0 0 0 0 0 0 0 0 0 0 0 0 0 0 0 0 0 0 0 0 74 0 130 236 74 72 0 0 0 0 0 0 0 0 0 0 0 0 0 0 0 0 0 0 0 0 0 0 0 0 0 0 0 0 0 0 0 0 0 0 0 0 0 0 0 0 0 0 0 0 0 0 0 0 0 0 0 120 161 120 0 0 0 0 0 0 0 0 0 0 0 0 0 0 0 0 0 0 0 0 0 0 0 0 0 0 0 0 0 0 0 0 76 0 0 76 0 107 0 0 0 0 0 0 0 0 0 0 0 0 0 0 0 0 0 0 0 0 0 0 0 0 0 0 0 0 0 0 0 0 0 0 0 0 0 0 0 0 0 0 0 0 0 0 0 0 0 0 0 0 0 0 0 0 0 0 0 0 0 0 0 0 0 0 0 0 0 0 0 0 0 0 0 0 0 0 0 0 0 0 0 0 120 212 0 212 113 0 0 0 0 0 0 0 0 0 0 0 0 0 0 0 0 0 0 0 0 0 0 0 0 0 0 0 0 0 0 0 0 0 0 0 0 0 0 0 0 0 0 0 0 
0 0 0 0 0 0 0 0 0 0 0 0 0 0 0 0 0 0 0 0 0 0 0 76 120 107 0 0 72 113 101 0 0 0 0 0 0 0 144 113 101 0 0 0 0 0 72 72 0 0 0 0 0 0 0 0 0 0 0 0 0 0 0 0 0 0 0 0 0 0 0 0 0 0 0 0 0 0 0 0 0 0 0 0 0 0 0 0 0 0 0 0 76 0 76 0 76 0 0 0 0 0 0 0 0 0 0 0 0 0 0 0 0 0 120 161 120 0 0 76 0 120 107 107 120 0 161 169 169 161 120 0 0 152 152 0 0 0 0 0 0 0 0 76 0 0 76 76 0 76 76 0 0 0 0 76 0 0 0 0 76 120 169 169 161 120 76 152 76 0 0 0 0 76 107 107 120 76 0 0 76 120 0 0 0 0 0 0 120 161 161 76 120 120 0 0 0 0 161 120 120 0 0 0 0 0 0 0 0 0 0 0 0 0 167 149 167 0 74 149 74 0 106 167 106 74 74 106 74 74 106 74 0 106 74 167 167 74 0 0 0 0 0 0 0 0 0 0 0 0 0 0 0 0 0 0 0 0 0 0 0 0 0 0 0 0 0 0 0 0 0 0 0 0 0 0 0 0 0 0 0 0 74 0 130 0 74 101 0 0 0 0 0 0 0 0 0 0 0 0 0 0 0 0 0 0 0 0 0 0 0 0 0 0 0 0 0 0 0 0 0 0 0 0 0 0 0 0 0 0 0 0 0 0 0 0 0 76 120 107 0 0 0 0 0 0 0 0 0 0 0 0 0 0 0 0 0 0 0 0 0 0 0 0 0 0 0 0 0 0 0 0 120 120 169 152 120 107 120 161 0 0 0 0 0 0 0 0 0 0 0 0 0 0 0 0 0 0 0 0 0 0 0 0 0 0 0 0 0 0 0 0 0 0 0 0 0 0 0 0 0 0 0 0 0 0 0 0 0 0 0 0 0 0 0 0 0 0 0 0 0 0 0 0 0 0 0 0 0 0 0 0 0 0 0 0 0 0 0 0 0 0 120 161 234 160 0 0 0 0 0 0 0 0 0 0 0 0 0 0 0 0 0 0 0 0 0 0 0 0 0 0 0 0 0 0 0 0 0 0 0 0 0 0 0 0 0 0 0 0 0 0 
0 0 0 0 0 0 0 0 0 0 0 0 0 0 0 0 0 0 0 0 0 0 0 76 76 76 76 0 72 72 72 72 0 0 0 0 0 0 144 113 101 0 0 0 0 0 101 0 0 0 0 0 0 0 0 0 0 0 0 0 0 0 0 0 0 0 0 0 0 0 0 0 0 0 0 0 0 0 0 0 0 0 0 0 0 0 0 0 0 0 0 0 0 76 0 0 0 0 0 0 76 0 0 0 0 0 0 0 0 0 0 0 0 0 0 120 152 152 152 161 0 152 0 169 0 120 76 76 0 76 169 0 0 152 152 0 0 0 0 0 0 0 0 0 76 76 120 120 0 0 0 76 0 76 0 0 0 0 161 120 0 76 0 107 76 161 120 76 120 152 152 152 152 152 120 107 107 120 120 120 161 0 0 0 0 0 0 0 120 161 161 120 0 120 120 0 0 0 0 76 0 0 0 0 0 0 0 0 0 0 0 0 0 0 167 167 224 106 106 0 167 167 0 167 167 106 149 106 106 74 0 74 106 0 106 74 0 0 0 0 0 0 0 0 0 0 0 0 0 0 0 0 0 0 0 0 0 0 0 0 0 0 0 0 0 0 0 0 0 0 0 0 0 0 0 0 0 0 0 0 0 0 0 74 0 187 163 138 72 0 0 0 0 0 0 0 0 0 0 0 0 0 0 0 0 0 0 0 0 0 0 0 0 0 0 0 0 0 0 0 0 0 0 0 0 0 0 0 0 0 0 0 0 0 0 0 0 0 169 120 0 0 0 0 0 0 0 0 0 0 0 0 0 0 0 0 0 0 0 0 0 0 0 0 0 0 0 0 0 0 0 0 152 120 120 152 152 120 0 120 120 120 0 0 0 0 0 0 0 0 0 0 0 0 0 0 0 0 0 0 0 0 0 0 0 0 0 0 0 0 0 0 0 0 0 0 0 0 0 0 0 0 0 0 0 0 0 0 0 0 0 0 0 0 0 0 0 0 0 0 0 0 0 0 0 0 0 0 0 0 0 0 0 0 0 0 0 0 0 0 0 120 161 167 212 113 0 0 0 0 0 0 0 0 0 0 0 0 0 0 0 0 0 0 0 0 0 0 0 0 0 0 0 0 0 0 0 0 0 0 0 0 0 0 0 0 0 0 0 0 0 0 
0 0 0 0 0 0 0 0 0 0 0 0 0 0 0 0 0 0 0 0 0 0 0 120 161 120 0 0 113 152 113 0 0 0 0 0 0 113 101 72 113 72 72 72 113 152 113 0 72 0 0 0 0 0 0 0 0 0 0 0 0 0 0 0 0 0 0 0 0 0 0 0 0 0 0 0 0 0 0 0 0 0 0 0 0 0 0 0 0 0 0 0 0 0 0 0 0 0 0 76 0 76 0 76 0 0 0 0 0 0 0 0 0 0 0 0 120 152 152 107 0 76 120 107 0 120 76 76 0 0 152 76 0 169 120 0 0 0 0 0 0 0 0 76 0 0 0 0 0 0 0 0 76 0 0 0 0 120 120 76 0 0 0 120 120 0 0 0 0 0 120 152 120 0 0 0 107 120 120 107 120 76 0 76 0 0 120 120 0 120 120 0 76 120 107 120 0 0 0 76 0 0 0 0 0 0 0 0 0 0 0 0 0 0 74 106 74 0 0 106 106 106 106 0 106 212 74 106 74 74 106 74 0 106 0 0 0 0 0 0 0 0 0 0 0 0 0 0 0 0 0 0 0 0 0 0 0 0 0 0 0 0 0 0 0 0 0 0 0 0 0 0 0 0 0 0 0 0 0 0 0 0 0 0 74 217 187 183 138 0 0 0 0 113 113 0 0 0 0 0 0 0 0 0 0 0 0 0 0 0 0 0 0 0 0 0 0 0 0 0 0 0 0 0 0 0 0 0 0 0 0 0 0 0 0 0 0 0 152 152 0 0 0 0 0 0 0 0 0 0 0 0 0 0 0 0 0 0 0 0 0 0 0 0 0 0 0 0 0 0 0 76 120 152 0 0 0 0 76 0 120 169 161 0 0 0 0 0 0 0 0 0 0 0 0 0 0 0 0 0 0 0 0 0 0 0 0 0 0 0 0 0 0 0 0 0 0 0 0 0 0 0 0 0 0 0 0 0 0 0 0 0 0 0 0 0 0 0 0 0 0 0 0 0 0 0 0 0 0 0 0 0 0 0 0 0 0 0 0 0 0 152 191 152 152 0 0 0 0 0 0 0 0 0 0 0 0 0 0 0 0 0 0 0 0 0 0 0 0 0 0 0 0 0 0 0 0 0 0 0 0 0 0 0 0 0 0 0 0 0 0 0 
0 0 0 0 0 0 0 0 0 0 0 0 0 0 0 0 0 0 0 0 0 0 0 120 169 0 0 0 113 160 0 0 0 0 0 0 72 72 0 101 0 0 113 144 160 152 113 72 0 72 0 0 0 0 0 0 0 0 0 0 0 0 0 0 0 0 0 0 72 0 0 0 0 0 0 0 0 0 0 0 0 0 0 0 0 0 0 0 0 0 0 0 0 0 0 0 0 0 0 0 76 0 120 76 120 0 0 0 0 0 0 0 0 0 0 76 76 0 0 0 76 76 120 107 107 76 76 76 0 182 0 197 167 169 0 0 0 0 0 0 0 0 76 0 76 0 0 0 0 0 0 0 0 0 0 0 0 152 0 0 107 120 120 0 120 152 120 76 76 120 76 0 76 120 76 76 107 0 0 120 120 0 76 0 120 169 169 161 120 0 0 0 0 161 120 120 0 0 76 0 76 0 0 0 0 0 0 0 0 0 0 0 0 0 0 0 0 0 0 74 167 167 0 167 237 224 106 167 224 74 0 74 106 74 0 0 0 0 0 0 0 0 0 0 0 0 0 0 0 0 0 0 0 0 0 0 0 0 0 0 0 0 0 0 0 0 0 0 0 0 0 0 0 0 0 0 0 0 0 0 0 0 0 0 0 0 128 130 150 108 108 108 79 233 0 101 0 0 0 0 0 0 0 0 0 0 0 0 0 0 0 0 0 0 0 0 0 0 0 0 0 0 0 0 0 0 0 0 0 0 0 0 0 0 0 0 0 0 152 152 0 0 0 0 0 0 0 0 0 0 0 0 0 0 0 0 0 0 0 0 0 0 0 0 0 0 0 0 0 0 120 76 0 152 0 0 0 0 0 76 0 0 169 120 0 0 0 0 0 0 0 0 0 0 0 0 0 0 0 0 0 0 0 0 0 0 0 0 0 0 0 0 0 0 0 0 0 0 0 0 0 0 0 0 0 0 0 0 0 0 0 0 0 0 0 0 0 0 0 0 0 0 0 0 0 0 0 0 0 0 0 0 0 0 0 0 0 0 0 0 0 218 0 152 0 0 0 0 0 0 0 0 0 0 0 0 0 0 0 0 0 0 0 0 0 0 0 0 0 0 0 0 0 0 0 0 0 0 0 0 0 0 0 0 0 0 0 0 0 0 0 0 
0 0 0 0 0 0 0 0 0 0 0 0 0 0 0 0 0 0 0 0 0 0 0 76 152 76 0 0 0 160 113 0 0 0 0 0 0 113 113 0 0 72 113 72 113 113 0 0 72 0 0 0 0 0 0 0 76 0 0 0 0 0 0 0 0 0 0 72 0 72 0 0 0 0 0 0 0 0 0 0 0 0 0 0 0 0 0 0 0 0 0 0 0 0 0 0 0 0 0 0 0 76 76 76 120 0 0 76 0 0 0 0 0 120 120 0 107 0 0 76 0 169 120 120 169 0 76 76 0 80 203 197 0 120 0 0 0 0 0 0 0 0 0 0 0 0 0 0 0 0 0 0 76 0 0 0 0 120 76 76 161 169 161 0 0 120 120 120 0 169 0 0 107 120 0 120 161 0 0 76 0 0 0 107 0 0 120 161 120 0 0 0 76 0 76 0 0 76 0 76 0 0 0 0 0 0 0 0 0 0 0 0 0 0 0 0 0 0 0 74 167 167 74 167 149 74 167 149 167 74 106 74 0 0 0 0 0 0 0 0 0 0 0 0 0 0 0 0 0 0 0 0 0 0 0 0 0 0 0 0 0 0 0 0 0 0 0 0 0 0 0 0 74 167 167 74 0 0 0 0 0 0 0 0 0 0 0 128 0 108 108 108 168 0 175 128 101 0 0 0 0 0 0 0 0 0 0 0 0 0 0 0 0 0 0 0 0 0 0 0 0 0 0 0 0 0 0 0 0 0 0 0 0 0 0 0 0 0 169 120 0 0 0 0 0 0 0 0 0 0 0 0 0 0 0 0 0 0 0 0 0 0 0 0 0 0 0 0 0 0 152 0 0 152 0 0 0 0 0 0 0 0 152 152 0 0 0 0 0 0 0 0 0 0 0 0 0 0 0 0 0 0 0 0 0 0 0 0 0 0 0 0 0 0 0 0 0 0 0 0 0 0 0 0 0 0 0 0 0 0 0 0 0 0 0 0 0 0 0 0 0 0 0 0 0 0 0 0 0 0 0 0 0 0 0 0 0 0 0 120 218 0 206 0 0 0 0 0 0 0 0 0 0 0 0 0 0 0 0 0 0 0 0 0 0 0 0 0 0 0 0 0 0 0 0 0 0 0 0 0 0 0 0 0 0 0 0 0 0 0 0 0 
0 0 0 0 0 0 0 0 0 0 0 0 0 0 0 0 0 0 0 0 0 0 0 76 152 76 0 0 0 144 144 0 0 0 0 0 0 0 113 113 0 72 144 0 0 0 0 0 0 0 72 0 0 0 0 76 0 76 0 0 0 0 0 0 0 0 0 0 72 0 0 0 0 0 0 0 0 0 0 0 0 0 0 0 0 0 0 0 0 0 0 0 0 0 0 0 0 0 0 0 76 0 0 76 0 0 76 0 76 0 0 0 76 76 76 76 76 76 0 120 169 107 107 120 120 0 120 120 120 0 167 80 242 0 0 0 0 0 0 0 0 0 0 76 0 76 0 0 0 0 0 76 0 76 0 0 0 107 0 0 0 0 0 0 120 161 107 76 120 120 0 161 169 76 76 0 120 0 161 152 161 0 0 0 120 152 152 120 0 0 0 76 0 76 0 0 76 0 0 120 120 0 0 0 0 0 0 0 0 0 0 0 0 0 0 0 0 0 74 149 149 167 149 167 167 0 74 167 167 74 0 0 0 0 0 0 0 0 0 0 0 0 0 0 0 0 0 0 0 0 0 0 0 0 0 0 0 0 0 0 0 0 0 0 0 0 0 0 0 0 0 0 106 106 106 106 0 0 0 0 0 0 0 0 0 0 0 0 0 0 0 0 74 217 187 231 128 101 0 0 0 0 0 0 0 0 0 0 0 0 0 0 0 0 0 0 0 0 0 0 0 0 0 0 0 0 0 0 0 0 0 0 0 0 0 0 0 76 152 76 0 0 0 0 0 0 0 0 0 0 0 0 0 0 0 0 0 0 0 0 0 0 0 0 0 0 0 0 0 0 152 0 76 120 0 0 0 0 0 0 0 0 120 161 120 0 0 0 0 0 0 0 0 0 0 0 0 0 0 0 0 0 0 0 0 0 0 0 0 0 0 0 0 0 0 0 0 0 0 0 0 0 0 0 0 0 0 0 0 0 0 0 0 0 0 0 0 0 0 0 0 0 0 0 0 0 0 0 0 0 0 0 0 0 0 0 0 0 120 161 209 212 0 0 0 0 0 0 0 0 0 0 0 0 0 0 0 0 0 0 0 0 0 0 0 0 0 0 0 0 0 0 0 0 0 0 0 0 0 0 0 0 0 0 0 0 0 0 0 0 0 0 
0 0 0 0 0 0 0 0 0 0 0 0 0 0 0 0 0 0 0 0 0 0 0 76 152 76 0 0 0 144 144 0 0 0 0 0 0 72 72 0 0 0 113 0 0 0 0 0 0 72 0 72 0 0 0 0 76 0 0 0 0 0 0 0 0 0 0 0 0 0 0 0 0 0 0 0 0 0 0 0 0 0 0 0 0 0 0 0 0 0 0 0 0 0 0 0 0 0 0 0 107 0 76 0 0 0 0 0 76 120 0 0 76 76 0 120 76 76 169 120 0 76 76 120 76 0 0 0 169 167 148 242 120 0 0 0 0 0 0 0 0 0 0 0 76 0 0 0 0 0 0 0 76 0 0 0 76 76 76 0 0 0 120 169 161 120 152 120 76 0 76 152 76 76 0 76 0 0 120 0 107 169 120 0 0 0 76 0 0 0 0 0 0 76 120 0 0 0 107 120 120 76 0 0 0 0 0 0 0 0 0 0 0 0 0 0 0 0 106 74 167 167 106 149 167 74 106 74 0 0 0 0 0 0 74 106 74 0 0 0 0 0 0 0 0 0 0 0 0 0 0 0 0 0 0 0 0 0 0 0 0 0 0 0 0 0 0 74 106 74 0 0 74 167 167 74 0 0 0 0 0 0 0 0 0 0 0 0 0 0 0 0 0 0 128 187 175 0 152 0 0 0 0 0 0 0 0 0 0 0 0 0 0 0 0 0 0 0 0 0 0 0 0 0 0 0 0 0 0 0 0 0 0 0 0 0 0 0 169 120 0 0 0 0 0 0 0 0 0 0 0 0 0 0 0 0 0 0 0 0 0 0 0 0 0 0 0 0 0 0 152 120 76 0 0 0 0 0 0 0 0 0 0 120 161 120 0 0 0 0 0 0 0 0 0 0 0 0 0 0 0 0 0 0 0 0 0 0 0 0 0 0 0 0 0 0 0 0 0 0 0 0 0 0 0 0 0 0 0 0 0 0 0 0 0 0 0 0 0 0 0 0 0 0 0 0 0 0 0 0 0 0 0 0 0 0 0 0 169 167 160 113 0 0 0 0 0 0 0 0 0 0 0 0 0 0 0 0 0 0 0 0 0 0 0 0 0 0 0 0 0 0 0 0 0 0 0 0 0 0 0 0 0 0 0 0 0 0 0 0 0 0 
0 0 0 0 0 0 0 0 0 0 0 0 0 0 0 0 0 0 0 0 0 0 0 76 152 76 0 0 0 113 160 0 0 0 0 0 0 0 113 101 101 101 72 152 0 0 0 0 0 0 72 0 0 0 0 0 0 0 0 0 0 0 0 0 72 0 0 0 0 0 0 0 0 0 0 0 0 0 0 0 0 0 0 0 0 0 0 0 0 0 0 0 0 0 0 0 0 0 0 76 120 107 120 0 0 0 0 76 76 0 120 120 0 120 120 152 161 120 0 120 161 76 169 107 107 0 0 161 161 0 120 169 0 0 0 0 0 0 0 0 0 0 0 0 0 0 0 0 0 0 0 0 0 0 0 0 76 0 107 76 0 120 0 76 76 76 152 152 0 0 0 169 120 76 0 0 76 76 107 120 0 76 76 76 0 76 0 120 120 0 0 0 107 0 76 76 0 76 120 120 161 0 0 0 0 0 0 0 0 0 0 0 0 0 0 0 0 0 74 106 74 106 74 149 74 106 0 106 0 0 0 0 0 0 106 0 106 0 0 0 0 0 0 0 0 0 0 0 0 0 0 0 0 0 0 0 0 0 0 0 0 0 0 74 106 74 0 106 0 106 0 0 0 0 0 0 0 0 0 0 0 0 0 0 0 0 0 0 0 0 0 0 0 0 0 217 247 85 70 113 0 72 0 0 0 0 0 0 0 0 0 0 0 0 0 0 0 0 0 0 0 0 0 0 0 0 0 0 0 0 0 0 0 0 0 0 0 0 152 152 0 0 0 0 0 0 0 0 0 0 0 0 0 0 0 0 0 0 0 0 0 0 0 0 0 0 0 0 0 0 120 169 0 0 0 0 0 0 0 0 0 0 0 0 120 161 120 0 0 0 0 0 0 0 0 0 0 0 0 0 0 0 0 0 0 0 0 0 0 0 0 0 0 0 0 0 0 0 0 0 0 0 0 0 0 0 0 0 0 0 0 0 0 0 0 0 0 0 0 0 0 0 0 0 0 0 0 0 0 0 0 0 0 0 0 0 0 161 212 206 152 0 0 0 0 0 0 0 0 0 0 0 0 0 0 0 0 0 0 0 0 0 0 0 0 0 0 0 0 0 0 0 0 0 0 0 0 0 0 0 0 0 0 0 0 0 0 0 0 0 0 0 
0 0 0 0 0 0 0 0 0 0 0 0 0 0 0 0 0 0 0 0 0 0 0 76 152 76 0 0 0 101 113 72 0 0 0 0 0 0 0 113 160 72 101 113 72 0 72 0 0 0 72 0 0 0 0 0 72 0 0 0 0 72 0 72 0 72 0 0 0 0 0 0 0 0 0 0 0 0 0 0 0 0 0 0 0 0 0 0 0 0 0 0 0 0 0 0 0 0 0 0 161 120 76 76 76 76 0 0 120 120 76 107 76 169 107 76 120 152 0 0 169 120 120 120 76 120 76 169 0 0 152 152 0 0 0 0 0 0 0 0 0 0 0 0 0 0 0 0 120 120 0 0 0 0 0 0 76 0 76 0 161 107 107 169 169 169 161 76 120 152 152 161 76 161 152 76 0 107 169 107 107 169 120 0 0 107 0 0 76 76 0 76 0 120 120 0 0 0 120 120 0 0 0 0 0 0 0 0 0 0 0 0 0 0 0 0 0 0 74 106 149 224 106 74 74 74 106 74 0 0 74 167 167 74 74 106 74 0 0 0 0 0 0 0 0 0 0 0 0 0 0 0 0 0 0 0 0 0 0 0 0 0 0 106 0 106 0 74 106 74 0 0 0 0 0 0 0 0 0 0 0 0 0 0 0 0 0 0 0 0 0 0 0 0 0 74 73 0 233 101 160 144 152 0 0 0 0 0 0 0 0 0 0 0 0 0 0 0 0 0 0 0 0 0 0 0 0 0 0 0 0 0 0 0 0 0 0 0 152 152 0 0 0 0 0 0 0 0 0 0 0 0 0 0 0 0 0 0 0 0 0 0 0 0 0 0 0 0 0 0 0 169 120 0 0 0 0 0 0 0 0 0 0 0 0 120 161 120 0 0 0 0 0 0 0 0 0 0 0 0 0 0 0 0 0 0 0 0 0 0 0 0 0 0 0 0 0 0 0 0 0 0 0 0 0 0 0 0 0 0 0 0 0 0 0 0 0 0 0 0 0 0 0 0 0 0 0 0 0 0 0 0 0 0 0 0 120 169 163 160 0 0 0 0 0 0 0 0 0 0 0 0 0 0 0 0 0 0 0 0 0 0 0 0 0 0 0 0 0 0 0 0 0 0 0 0 0 0 0 0 0 0 0 0 0 0 0 0 0 0 0 0 
0 0 0 0 0 0 0 0 0 0 0 0 0 0 0 0 0 0 0 0 0 0 0 120 169 0 0 0 72 113 101 0 0 0 0 0 0 0 0 0 152 101 72 113 0 72 0 72 0 72 0 72 0 0 0 72 0 72 0 0 72 0 72 0 72 0 0 0 0 0 0 0 0 0 0 0 0 0 0 0 0 0 0 0 0 0 0 0 0 0 0 0 0 0 0 0 0 0 0 0 0 76 0 0 76 0 76 0 0 0 161 120 120 152 0 76 0 152 0 120 120 0 0 0 120 76 169 120 0 120 161 120 0 0 0 0 0 0 0 0 0 0 0 0 0 0 0 76 76 76 76 0 0 0 0 0 0 76 0 161 107 0 76 120 76 76 120 76 161 152 120 0 76 76 76 0 0 120 120 76 169 0 0 0 161 169 107 107 76 0 0 0 76 0 0 0 0 0 0 0 0 0 0 0 0 0 0 0 0 0 0 0 0 0 0 0 0 0 106 0 106 167 224 167 167 0 0 0 0 0 106 106 106 106 0 0 74 106 74 0 0 0 0 0 0 0 0 0 0 0 0 0 0 0 0 0 0 0 0 0 0 0 0 74 106 74 0 0 0 0 0 0 0 0 0 0 0 0 0 0 0 0 0 0 0 0 0 0 0 0 0 0 0 0 0 0 74 148 176 116 0 0 113 0 72 0 0 0 0 0 0 0 0 0 0 0 0 0 0 0 0 0 0 0 0 0 0 0 0 0 0 0 0 0 0 0 0 0 120 169 0 0 0 0 0 0 0 0 0 0 0 0 0 0 0 0 0 0 0 0 0 0 0 0 0 0 0 0 0 0 0 169 120 0 0 0 0 0 0 0 0 0 0 0 0 0 120 169 0 0 0 0 0 0 0 0 0 0 0 0 0 0 0 0 0 0 0 0 0 0 0 0 0 0 0 0 0 0 0 0 0 0 0 0 0 0 0 0 0 0 0 0 0 0 0 0 0 0 0 0 0 0 0 0 0 0 0 0 0 0 0 0 0 0 0 120 161 167 160 113 0 0 0 0 0 0 0 0 0 0 0 0 0 0 0 0 0 0 0 0 0 0 0 0 0 0 0 0 0 0 0 0 0 0 0 0 0 0 0 0 0 0 0 0 0 0 0 0 0 0 0 0 
0 0 0 0 0 0 0 0 0 0 0 0 0 0 0 0 0 0 0 0 0 0 0 120 169 0 0 0 0 152 160 113 0 0 0 0 0 0 0 0 0 101 152 0 0 0 72 0 0 0 72 0 0 0 0 0 72 0 0 0 0 72 0 0 0 0 0 0 0 0 0 0 0 0 0 0 0 0 0 0 0 0 0 0 0 0 0 0 0 0 0 0 0 0 0 0 76 0 0 0 0 0 0 107 76 107 0 0 0 76 0 0 0 76 76 76 76 76 120 107 76 152 169 169 107 107 161 0 161 169 120 0 0 0 0 0 0 0 0 0 0 0 0 0 0 0 0 0 120 120 0 0 0 0 0 0 0 120 120 76 120 120 0 0 76 76 0 152 120 120 169 169 120 76 120 107 76 76 152 107 107 120 76 107 76 120 161 120 76 0 76 0 0 76 0 0 0 76 0 0 0 0 0 0 76 0 0 0 0 0 0 0 0 0 0 0 0 0 74 106 149 149 106 149 167 0 74 167 167 74 74 167 167 74 0 74 149 74 106 0 0 0 0 0 0 0 0 0 0 0 0 0 0 0 0 0 0 0 0 0 0 0 0 0 0 0 0 0 0 0 0 0 0 0 0 0 0 0 0 0 0 0 0 0 0 0 0 0 0 0 0 0 0 0 0 0 0 217 187 136 104 113 101 0 0 72 0 0 0 0 0 0 0 0 0 0 0 0 0 0 0 0 0 0 0 0 0 0 0 0 0 0 0 0 0 0 0 0 0 169 120 0 0 0 0 0 0 0 0 0 0 0 0 0 0 0 0 0 0 0 0 0 0 0 0 0 0 0 0 0 120 169 0 0 0 0 0 0 0 0 0 113 113 0 0 0 0 161 161 0 0 0 0 0 0 0 0 0 0 0 0 0 0 0 0 0 0 0 0 0 0 0 0 0 0 0 0 0 0 0 0 0 0 0 0 0 0 0 0 0 0 0 0 0 0 0 0 0 0 0 0 0 0 0 0 0 0 0 0 0 0 0 0 0 120 161 167 206 152 0 0 0 0 0 0 0 0 0 0 0 0 0 0 0 0 0 0 0 0 0 0 0 0 0 0 0 0 0 0 0 0 0 0 0 0 0 0 0 0 0 0 0 0 0 0 0 0 0 0 0 0 0 
0 0 0 0 0 0 0 0 0 0 0 0 0 0 0 0 0 0 0 0 0 0 0 76 152 76 0 0 0 101 0 72 72 0 0 0 0 0 0 113 113 101 113 113 0 0 0 0 0 0 0 0 0 0 0 0 0 0 0 0 0 0 0 0 0 0 0 0 0 0 0 0 0 0 0 0 0 0 0 0 0 0 0 0 0 0 0 0 0 0 0 0 0 0 0 76 0 76 0 0 0 0 0 0 0 0 76 0 76 0 76 76 0 0 76 76 0 107 169 107 120 76 120 120 76 169 0 120 169 0 0 0 0 0 0 0 0 0 0 0 0 0 0 0 76 76 76 0 0 76 0 0 0 0 0 0 161 169 107 107 120 76 120 120 0 76 0 120 76 169 120 0 0 161 169 107 0 0 0 76 76 107 0 0 120 152 76 76 76 0 0 120 120 0 76 0 161 120 120 0 0 0 0 107 0 76 0 0 0 0 0 0 0 0 0 0 0 0 0 0 106 167 167 167 74 0 106 167 149 167 0 0 0 0 0 106 74 149 74 0 0 0 0 0 0 0 0 0 0 0 0 0 74 167 212 212 167 74 0 0 0 0 0 0 0 0 0 0 0 0 0 0 0 0 0 0 0 0 0 0 0 0 0 0 0 0 0 0 0 0 0 0 0 0 0 0 0 74 0 234 85 0 160 72 0 0 0 0 0 0 0 0 0 0 0 0 0 0 0 0 0 0 0 0 0 0 0 0 0 0 0 0 0 0 0 0 0 0 0 169 120 0 0 0 0 0 0 0 0 0 0 0 0 0 0 0 0 0 0 0 0 0 0 0 0 0 0 0 0 0 152 152 0 0 0 0 0 0 113 113 101 152 152 113 0 0 0 0 169 120 0 0 0 0 0 0 0 0 0 0 0 0 0 0 0 0 0 0 0 0 0 0 0 0 0 0 0 0 0 0 0 0 0 0 0 0 0 0 0 0 0 0 0 0 0 0 0 0 0 0 0 0 0 0 0 0 0 0 0 0 0 0 0 0 169 167 152 152 0 0 0 0 0 0 0 0 0 0 0 0 0 0 0 0 0 0 0 0 0 0 0 0 0 0 0 0 0 0 0 0 0 0 0 0 0 0 0 0 0 0 0 0 0 0 0 0 0 0 0 0 0 0 
0 0 0 0 0 0 0 0 0 0 0 0 0 0 0 0 0 0 0 0 0 0 0 120 169 0 0 0 113 152 144 113 0 0 0 0 0 0 113 152 101 152 113 113 0 0 0 0 0 0 0 0 0 0 0 0 0 0 0 0 0 0 0 0 0 0 0 0 0 0 0 0 0 0 0 0 0 0 0 0 0 0 0 0 0 0 0 0 0 0 0 0 0 0 0 0 76 0 0 0 0 0 76 0 107 0 0 76 0 76 0 0 0 0 0 76 0 120 120 161 120 0 0 76 120 152 0 120 120 0 0 0 0 0 0 0 0 0 0 0 0 0 0 120 76 0 0 76 76 0 76 0 0 0 0 120 120 76 161 120 0 76 0 76 0 0 107 0 107 0 76 0 0 76 76 0 76 76 107 76 169 0 120 76 0 0 161 120 120 76 76 76 0 107 0 120 120 120 120 0 0 0 76 0 107 0 0 0 0 0 0 76 0 0 0 0 0 0 0 0 167 167 74 106 106 74 74 224 167 167 74 167 167 74 0 74 106 74 0 0 0 0 0 0 0 0 0 0 0 74 167 212 237 167 106 106 167 106 0 0 0 0 0 0 0 0 0 0 0 0 0 0 0 0 0 0 0 0 0 0 0 0 0 0 0 0 0 0 0 0 0 0 0 0 0 0 0 0 74 73 0 0 0 113 0 113 113 0 0 0 0 0 0 0 0 0 0 0 0 0 0 0 0 0 0 0 0 0 0 0 0 0 0 0 0 0 0 0 120 169 0 0 0 0 0 0 0 0 0 0 0 0 0 0 0 0 0 0 0 0 0 0 0 0 0 0 0 0 0 0 152 152 0 0 0 0 0 113 152 160 113 113 113 160 0 0 0 0 120 169 0 0 0 0 0 0 0 0 0 0 0 0 0 0 0 0 0 0 0 0 0 0 0 0 0 0 0 0 0 0 0 0 0 0 0 0 0 0 0 0 0 0 0 0 0 0 0 0 0 0 0 0 0 0 0 0 0 0 0 0 0 0 0 120 169 163 160 0 0 0 0 0 0 0 0 0 0 0 0 0 0 0 0 0 0 0 0 0 0 0 0 0 0 0 0 0 0 0 0 0 0 0 0 0 0 0 0 0 0 0 0 0 0 0 0 0 0 0 0 0 0 0 
0 0 0 0 0 0 0 0 0 0 0 0 0 0 0 0 0 0 0 0 0 0 0 152 152 0 0 0 113 160 0 0 0 0 0 0 0 72 72 72 72 0 72 0 0 0 0 0 0 0 0 0 0 0 0 0 0 0 0 0 0 0 0 0 0 0 0 0 0 0 0 0 0 0 0 0 0 0 0 0 0 0 0 0 0 0 0 0 0 0 0 0 0 0 0 0 0 0 0 0 76 0 0 107 0 0 76 0 0 0 107 0 76 0 76 0 0 120 152 120 0 0 120 120 120 76 161 120 0 76 0 0 0 0 0 0 0 0 0 0 0 0 0 120 76 107 76 0 76 0 107 0 0 0 120 107 76 169 120 0 120 76 120 76 0 76 0 0 76 169 120 120 0 120 107 0 0 169 0 169 76 76 120 0 0 107 76 120 107 0 0 120 120 0 120 107 76 161 0 0 0 0 0 0 0 0 0 0 0 0 76 0 76 0 0 0 0 74 106 74 167 167 212 167 74 106 0 74 106 74 106 106 106 106 0 0 0 0 0 0 0 0 0 0 0 0 0 0 74 224 237 212 106 149 212 212 224 74 0 0 0 0 0 0 0 0 0 0 0 0 0 0 0 0 0 0 0 0 0 0 0 0 0 0 0 0 0 0 0 0 0 0 0 0 0 0 0 0 0 74 148 241 104 144 0 72 72 72 0 0 0 0 0 0 0 0 0 0 0 0 0 0 0 0 0 0 0 0 0 0 0 0 0 0 0 0 0 0 152 152 0 0 0 0 0 0 0 0 0 0 0 0 0 0 0 0 0 0 0 0 0 0 0 0 0 0 0 0 0 0 120 169 0 0 0 0 0 144 144 0 72 0 0 152 152 0 0 0 0 161 161 0 0 0 0 0 0 0 0 0 0 0 0 0 0 0 0 0 0 0 0 0 0 0 0 0 0 0 0 0 0 0 0 0 0 0 0 0 0 0 0 0 0 0 0 0 0 0 0 0 0 0 0 0 0 0 0 0 0 0 0 0 0 169 167 160 113 0 0 0 0 0 0 0 0 0 0 0 0 0 0 0 0 0 0 0 0 0 0 0 0 0 0 0 0 0 0 0 0 0 0 0 0 0 0 0 0 0 0 0 0 0 0 0 0 0 0 0 0 0 0 0 
0 0 0 0 0 0 0 0 0 0 0 0 0 0 0 0 0 0 0 0 0 0 0 169 120 0 0 0 72 144 72 0 0 0 0 0 0 0 113 160 160 113 0 0 0 0 0 0 72 0 0 0 0 0 0 0 0 0 0 0 0 0 0 0 0 0 0 0 0 0 0 0 0 0 0 0 0 0 0 0 0 0 0 0 0 0 0 0 0 0 0 0 0 0 0 0 0 0 0 76 0 76 0 76 0 76 0 0 0 76 0 107 0 0 0 0 0 0 0 120 120 76 169 107 76 76 169 76 76 0 0 0 0 0 0 0 0 0 0 0 0 0 0 0 76 0 0 0 76 76 76 76 0 76 76 0 107 0 0 0 120 76 120 76 76 0 107 0 76 0 107 76 120 161 0 120 169 161 0 152 0 76 0 0 76 0 120 76 107 120 120 0 120 120 0 0 107 0 76 0 0 0 0 76 0 76 0 0 0 0 0 76 0 0 0 0 0 167 106 167 74 106 74 167 149 74 74 167 167 74 74 167 167 74 0 0 0 0 0 0 0 0 74 167 212 212 212 212 167 106 167 212 237 224 106 106 74 0 0 0 0 0 0 0 0 0 0 0 0 0 0 0 0 0 0 0 0 0 0 0 0 0 0 0 0 0 0 0 0 0 0 0 0 0 0 0 0 0 0 0 217 247 85 70 72 101 0 101 0 0 0 0 0 0 0 0 0 0 0 0 0 0 0 0 0 0 0 0 0 0 0 0 0 0 0 0 0 0 152 152 0 0 0 0 0 0 0 0 0 0 0 0 0 0 0 0 0 0 0 0 0 0 0 0 0 0 0 0 0 0 0 161 161 0 0 0 0 160 113 0 0 0 0 0 160 113 0 0 0 0 169 120 0 0 0 0 0 0 0 0 0 0 0 0 0 0 0 0 0 0 0 0 0 0 0 0 0 0 0 0 0 0 0 0 0 0 0 0 0 0 0 0 0 0 0 0 0 0 0 0 0 0 0 0 0 0 0 0 0 0 0 0 161 212 206 152 0 0 0 0 0 0 0 0 0 0 0 0 0 0 0 0 0 0 0 0 0 0 0 0 0 0 0 0 0 0 0 0 0 0 0 0 0 0 0 0 0 0 0 0 0 0 0 0 0 0 0 0 0 0 0 0 
0 0 0 0 0 0 0 0 0 0 0 0 0 0 0 0 0 0 0 0 0 0 120 169 0 0 0 0 72 144 0 72 0 0 0 0 0 0 0 72 72 0 101 0 0 0 0 72 0 72 0 0 0 0 0 0 0 0 0 0 0 0 0 0 0 0 0 0 0 0 0 0 0 0 0 0 0 0 0 0 0 0 0 0 0 0 0 0 0 0 0 0 0 0 0 0 0 0 0 0 76 0 0 76 0 76 0 0 0 76 0 76 0 120 120 169 120 0 76 76 76 0 152 76 0 169 120 0 0 0 0 0 0 0 0 0 0 0 0 0 0 0 0 76 0 0 0 0 0 120 76 76 152 120 0 76 0 120 152 120 0 76 0 0 120 120 0 0 76 152 76 107 120 0 0 120 0 0 120 161 0 0 0 0 0 76 0 76 120 107 120 120 107 76 120 120 0 76 0 76 0 0 0 0 76 0 0 0 0 0 0 0 0 0 0 0 0 167 106 167 74 167 237 224 74 0 167 224 224 167 0 0 0 0 0 0 0 0 0 0 0 74 224 237 212 212 212 212 149 149 212 212 167 74 0 0 0 0 0 0 0 0 0 0 0 0 0 0 0 0 0 0 0 0 0 0 0 0 0 0 0 0 0 0 0 0 0 0 0 0 0 0 0 0 0 0 0 0 0 0 74 73 0 0 0 160 113 113 72 0 0 0 0 0 0 0 0 0 0 0 0 0 0 0 0 0 0 0 0 0 0 0 0 0 0 0 0 0 152 152 0 0 0 0 0 0 0 0 0 0 0 0 0 0 0 0 0 0 0 0 0 0 0 0 0 0 0 0 0 0 0 0 169 120 0 0 113 160 0 0 0 0 0 0 113 160 0 0 0 0 120 169 0 0 0 0 0 0 0 0 0 0 0 0 0 0 0 0 0 0 0 0 0 0 0 0 0 0 0 0 0 0 0 0 0 0 0 0 0 0 0 0 0 0 0 0 0 0 0 0 0 0 0 0 0 0 0 0 0 0 0 161 212 206 152 0 0 0 0 0 0 0 0 0 0 0 0 0 0 0 0 0 0 0 0 0 0 0 0 0 0 0 0 0 0 0 0 0 0 0 0 0 0 0 0 0 0 0 0 0 0 0 0 0 0 0 0 0 0 0 0 0 
0 0 0 0 0 0 0 0 0 0 0 0 0 0 0 0 0 0 0 0 0 0 120 169 0 0 0 0 72 144 0 0 72 0 0 0 0 0 0 113 152 101 0 113 0 0 0 0 72 0 0 0 0 0 0 0 0 0 0 0 0 0 0 0 0 0 0 0 0 0 0 0 0 0 0 0 0 0 0 0 0 0 0 0 0 0 0 0 0 0 0 0 0 0 0 0 0 0 0 0 0 0 0 0 76 0 0 76 0 76 0 76 0 120 107 0 120 161 0 107 0 0 107 169 169 161 0 0 0 0 0 0 0 0 0 0 0 0 0 0 0 0 76 0 76 0 0 0 76 0 76 76 0 0 0 76 0 76 0 76 76 0 0 0 0 0 76 0 76 0 120 120 107 120 76 161 152 169 76 76 120 0 0 0 0 0 76 0 120 120 0 120 76 161 0 0 0 0 76 0 0 0 0 0 0 0 0 0 0 0 0 0 0 0 0 0 0 74 106 0 224 237 106 74 74 0 167 224 224 167 0 74 106 74 0 0 0 0 0 0 0 167 237 74 0 74 167 212 224 167 0 0 0 0 0 0 0 0 0 0 0 0 0 0 0 0 0 0 0 0 0 0 0 0 0 0 0 0 0 0 0 0 0 0 0 0 0 0 0 0 0 0 0 0 0 0 0 0 0 0 0 74 73 231 0 116 0 113 72 113 72 72 0 0 0 0 0 0 0 0 0 0 0 0 0 0 0 0 0 0 0 0 0 0 0 0 0 0 152 152 0 0 0 0 0 0 0 0 0 0 0 0 0 0 0 0 0 0 0 0 0 0 0 0 0 0 0 0 0 0 0 120 161 120 0 0 113 160 0 0 0 0 0 0 0 152 160 113 0 0 0 161 161 0 0 0 0 0 0 0 0 0 0 0 0 0 0 0 0 0 0 0 0 0 0 0 0 0 0 0 0 0 0 0 0 0 0 0 0 0 0 0 0 0 0 0 0 0 0 0 0 0 0 0 0 0 0 0 0 0 120 169 163 160 0 0 0 0 0 0 0 0 0 0 0 0 0 0 0 0 0 0 0 0 0 0 0 0 0 0 0 0 0 0 0 0 0 0 0 0 0 0 0 0 0 0 0 0 0 0 0 0 0 0 0 0 0 0 0 0 0 0 
0 0 0 0 0 0 0 0 0 0 0 0 0 0 0 0 0 0 0 0 0 0 0 169 120 0 0 0 72 144 0 72 0 0 0 0 0 113 144 152 72 160 0 144 0 0 0 0 0 0 0 0 0 0 0 0 0 0 0 0 0 0 0 0 0 0 0 0 0 0 0 0 0 0 0 0 0 0 0 0 0 0 0 0 0 0 0 0 0 0 0 0 0 0 0 0 0 0 0 0 0 0 0 0 0 0 76 0 76 0 76 0 0 0 120 169 120 120 76 76 76 76 0 120 120 0 0 0 0 0 0 0 0 0 0 0 0 0 0 0 0 0 0 0 0 0 0 120 120 161 0 120 152 152 152 120 76 120 152 120 0 0 0 76 0 0 0 0 76 120 76 120 161 120 120 0 0 0 120 161 161 120 0 0 0 76 0 76 0 0 120 0 120 0 76 0 0 0 0 0 0 0 0 0 0 76 0 0 0 0 0 0 0 0 0 0 0 0 0 167 167 106 237 212 237 167 0 167 167 74 74 224 167 167 0 0 0 74 167 167 106 237 167 0 74 224 237 212 167 74 0 0 0 0 0 0 0 0 0 0 0 0 0 0 0 0 0 0 0 0 0 0 0 0 0 0 0 0 0 0 0 0 0 0 0 0 0 0 0 0 0 0 0 0 0 0 0 0 0 0 0 0 74 73 234 132 0 101 0 72 0 0 72 0 0 0 0 0 0 0 0 0 0 0 0 0 0 0 0 0 0 0 0 0 0 0 0 0 152 152 0 0 0 0 0 0 0 0 0 0 0 0 0 0 0 0 0 0 0 0 0 0 0 0 0 0 0 0 0 0 120 161 120 0 0 0 0 160 113 0 0 0 0 0 0 72 0 101 113 0 0 0 169 120 0 0 0 0 0 0 0 0 0 0 0 0 0 0 0 0 0 0 0 0 0 0 0 0 0 0 0 0 0 0 0 0 0 0 0 0 0 0 0 0 0 0 0 0 0 0 0 0 0 0 0 0 0 0 0 0 169 167 160 113 0 0 0 0 0 0 0 0 0 0 0 0 0 0 0 0 0 0 0 0 0 0 0 0 0 0 0 0 0 0 0 0 0 0 0 0 0 0 0 0 0 0 0 0 0 0 0 0 0 0 0 0 0 0 0 0 0 0 
0 0 0 0 0 0 0 0 0 0 0 0 0 0 0 0 0 0 0 0 0 0 0 152 152 0 0 0 72 144 72 0 0 0 0 0 72 72 0 72 0 113 101 113 0 0 0 0 0 0 113 113 0 0 0 0 0 0 0 0 0 0 0 0 0 0 0 0 0 0 0 0 0 0 0 0 0 0 0 0 0 0 0 0 0 0 0 0 0 0 0 0 0 0 0 0 0 0 0 0 0 0 0 0 0 0 76 0 76 0 0 0 0 0 0 0 120 76 76 120 0 107 0 0 0 0 0 0 0 0 0 0 0 0 0 0 0 0 0 0 0 76 0 76 0 0 0 120 76 107 161 0 0 0 0 120 152 120 76 76 0 0 76 0 76 0 0 107 107 107 0 0 120 161 0 0 120 152 107 107 161 120 0 0 0 0 76 0 0 0 120 76 120 120 76 120 0 0 0 0 0 0 0 0 76 0 76 0 0 0 0 0 0 0 0 0 0 0 0 167 167 237 167 74 106 106 106 0 0 0 106 167 149 167 0 74 167 237 237 237 212 224 0 167 237 224 74 0 0 0 0 0 0 0 0 0 0 0 0 0 0 0 0 0 0 0 0 0 0 0 0 0 0 0 0 0 0 0 0 0 0 0 0 0 0 0 0 0 0 0 0 0 0 0 0 0 0 0 0 0 0 0 0 74 0 243 0 72 101 72 0 0 72 0 72 0 0 0 0 0 0 0 0 0 0 0 0 0 0 0 0 0 0 0 0 0 0 0 152 152 0 0 0 0 0 0 0 0 0 0 0 0 0 0 0 0 0 0 0 0 0 0 0 0 0 0 0 0 0 0 120 169 0 0 0 0 0 144 144 0 0 0 0 0 0 72 0 72 144 0 0 0 152 152 0 0 0 0 0 0 0 0 0 0 0 0 0 0 0 0 0 0 0 0 0 0 0 0 0 0 0 0 0 0 0 0 0 0 0 0 0 0 0 0 0 0 0 0 0 0 0 0 0 0 0 0 0 0 0 161 212 206 152 0 0 0 0 0 0 0 0 0 0 0 0 0 0 0 0 0 0 0 0 0 0 0 0 0 0 0 0 0 0 0 0 0 0 0 0 0 0 0 0 0 0 0 0 0 0 0 0 0 0 0 0 0 0 0 0 0 0 0 
0 0 0 0 0 0 0 0 0 0 0 0 0 0 0 0 0 0 0 0 0 0 0 152 152 0 0 0 72 144 72 0 0 0 0 0 0 113 144 152 72 113 113 0 0 0 0 0 0 72 72 72 72 0 0 0 0 0 0 0 0 0 0 0 0 0 0 0 0 0 0 0 0 0 0 0 0 0 0 0 0 0 0 0 0 0 0 0 0 0 0 0 0 0 0 0 0 76 0 0 0 0 0 0 0 0 161 120 120 0 0 0 0 0 0 0 0 120 161 152 161 120 0 0 0 0 0 0 0 0 0 0 0 0 0 0 0 0 0 0 0 0 76 0 0 0 76 0 120 120 120 76 0 0 76 76 0 76 0 0 76 0 0 76 0 0 76 0 107 0 76 76 0 0 0 76 0 0 0 120 120 0 0 0 0 0 120 120 0 0 0 0 0 76 76 120 0 0 0 76 0 0 0 0 0 76 0 0 0 0 0 0 0 0 0 0 0 0 0 74 106 0 167 237 237 167 74 0 0 74 74 106 167 74 74 224 237 167 74 74 106 0 224 237 167 74 0 0 0 0 0 0 0 0 0 0 0 0 0 0 0 0 0 0 0 0 0 0 0 0 0 0 0 0 0 0 0 0 0 0 0 0 0 0 0 0 0 0 0 0 0 0 0 0 0 0 0 0 0 0 0 0 0 0 74 148 225 116 101 160 113 113 0 152 113 113 0 0 0 0 0 0 0 0 0 0 0 0 0 0 0 0 0 0 0 0 0 0 152 152 0 0 0 0 0 0 0 0 0 0 0 0 0 0 0 0 0 0 0 0 0 0 0 0 0 0 0 0 0 0 0 169 120 0 0 0 0 144 144 0 0 0 0 0 0 0 72 113 113 72 0 0 120 161 152 120 0 0 0 0 0 0 0 0 0 0 0 0 0 0 0 0 0 0 0 0 0 0 0 0 0 0 0 0 0 0 0 0 0 0 0 0 0 0 0 0 0 0 0 0 0 0 0 0 0 0 0 0 161 212 206 152 0 0 0 0 0 0 0 0 0 0 0 0 0 0 0 0 0 0 0 0 0 0 0 0 0 0 0 0 0 0 0 0 0 0 0 0 0 0 0 0 0 0 0 0 0 0 0 0 0 0 0 0 0 0 0 0 0 0 0 0 
0 0 0 0 0 0 0 0 0 0 0 0 0 0 0 0 0 0 0 0 0 0 0 152 152 0 0 0 0 152 152 0 0 0 0 0 0 0 0 144 144 0 0 0 0 72 0 0 0 72 0 101 0 0 0 0 0 0 0 0 0 0 0 0 0 0 0 0 0 0 0 0 0 0 0 0 0 0 0 0 0 0 0 0 0 0 0 0 0 0 0 0 0 0 0 0 76 0 76 0 120 120 0 0 0 76 120 107 120 0 120 120 0 0 0 0 0 169 120 0 152 152 0 0 0 0 0 0 0 0 0 0 0 0 0 0 0 0 0 0 0 0 0 0 0 0 0 76 76 120 120 0 0 0 76 0 120 120 76 76 0 0 0 0 120 120 0 76 120 0 76 76 0 0 120 120 0 161 120 0 0 0 0 0 0 76 76 76 76 0 0 76 0 0 76 0 0 0 76 0 76 0 0 0 0 0 0 0 0 0 0 0 0 0 0 0 0 0 0 0 0 167 224 167 74 74 167 167 74 106 0 106 0 74 224 224 74 0 0 74 167 237 224 74 0 0 0 0 0 0 0 0 0 0 0 0 0 0 0 0 0 0 0 0 0 0 0 0 0 0 0 0 0 0 0 0 0 0 0 0 0 0 0 0 0 0 0 0 0 0 0 0 0 0 0 0 0 0 0 0 0 0 0 0 0 217 187 85 115 72 101 152 0 144 72 144 0 0 0 0 72 0 0 0 0 0 0 0 0 0 0 0 0 0 0 0 0 0 152 120 76 0 0 0 0 0 0 0 0 0 0 0 0 0 0 0 0 0 0 0 0 0 0 0 0 0 0 0 0 0 0 152 152 0 0 0 0 144 144 0 0 0 0 0 0 0 0 144 0 72 113 0 0 120 152 161 120 0 0 0 0 0 0 0 0 0 0 0 0 0 0 0 0 0 0 0 0 0 0 0 0 0 0 0 0 0 0 0 0 0 0 0 0 0 0 0 0 0 0 0 0 0 0 0 0 0 0 120 169 163 160 0 0 0 0 0 0 0 0 0 0 0 0 0 0 0 0 0 0 0 0 0 0 0 0 0 0 0 0 0 0 0 0 0 0 0 0 0 0 0 0 0 0 0 0 0 0 0 0 0 0 0 0 0 0 0 0 0 0 0 0 0 
0 0 0 0 0 0 0 0 0 0 0 0 0 0 0 0 0 0 0 0 0 0 76 76 169 0 0 0 0 72 113 101 0 0 0 0 0 0 72 72 152 113 0 0 72 0 72 0 0 72 0 72 0 0 0 0 0 0 0 0 0 0 0 0 0 72 0 0 0 0 0 0 0 0 0 0 0 0 0 0 0 0 0 0 0 0 0 0 0 0 0 0 0 0 0 0 0 76 0 76 120 120 161 0 0 0 76 120 0 76 120 107 120 0 0 0 161 161 0 120 161 120 0 0 0 0 0 0 0 0 0 0 0 0 0 0 0 0 76 0 0 0 0 120 152 120 0 0 0 0 76 0 0 0 161 120 120 0 0 0 0 0 0 107 0 76 0 120 161 0 76 120 76 120 0 0 120 120 0 0 0 0 0 0 0 0 120 120 0 0 76 0 76 0 0 0 0 0 0 76 0 0 0 0 0 0 0 0 0 0 0 0 0 0 0 0 0 0 0 0 74 237 106 106 74 106 106 106 106 106 74 149 74 167 237 74 0 74 167 237 237 167 74 0 0 0 0 0 0 0 0 0 0 0 0 0 0 0 0 0 0 0 0 0 0 0 0 0 0 0 0 0 0 0 0 0 0 0 0 0 0 0 0 0 0 0 0 0 0 0 0 0 0 0 0 0 0 0 0 0 0 0 0 0 0 74 0 243 95 0 144 72 0 152 72 101 113 0 0 113 72 113 0 0 0 72 0 0 0 0 0 0 0 0 0 0 0 0 169 0 0 76 0 0 0 0 0 0 0 0 0 0 0 0 0 0 0 0 0 0 0 0 0 0 0 0 0 0 0 0 0 152 152 0 0 0 0 144 144 0 0 0 0 0 0 0 0 113 0 0 113 0 0 0 0 152 152 0 0 0 0 0 0 0 0 0 0 0 0 0 0 0 0 0 0 0 0 0 0 0 0 0 0 0 0 0 0 0 0 0 0 0 0 0 0 0 0 0 0 0 0 0 0 0 0 0 0 169 167 160 113 0 0 0 0 0 0 0 0 0 0 0 0 0 0 0 0 0 0 0 0 0 0 0 0 0 0 0 0 0 0 0 0 0 0 0 0 0 0 0 0 0 0 0 0 0 0 0 0 0 0 0 0 0 0 0 0 0 0 0 0 0 
0 0 0 0 0 0 0 0 0 0 0 0 0 0 0 0 0 0 0 0 0 76 0 0 152 76 0 0 0 101 0 72 72 0 0 0 0 72 0 0 72 72 72 0 72 0 72 0 0 0 72 0 0 0 0 0 0 0 0 0 0 0 0 0 72 0 72 0 0 0 0 0 0 0 0 0 0 0 0 0 0 0 0 0 0 0 0 0 0 0 0 0 0 0 0 0 0 0 0 0 169 0 152 76 76 0 76 0 0 0 169 0 152 0 0 120 169 0 120 161 120 0 0 0 0 0 0 0 0 0 0 76 0 0 0 0 0 76 0 76 0 0 107 0 0 76 76 0 0 76 0 0 76 0 120 107 120 0 0 0 0 0 76 0 76 0 76 0 76 76 120 161 152 161 0 107 120 76 0 0 0 0 0 76 0 0 0 0 0 76 0 76 0 0 0 0 0 0 0 0 0 0 0 0 0 0 0 0 0 0 0 0 0 0 0 0 0 0 0 0 106 167 167 212 224 0 167 167 74 167 224 237 237 224 167 74 167 237 237 167 74 0 0 0 0 0 0 0 0 0 0 0 0 0 0 0 0 0 0 0 0 0 0 0 0 0 0 0 0 0 0 0 0 0 0 0 0 0 0 0 0 0 0 0 0 0 0 0 0 0 0 0 0 0 0 0 0 0 0 0 0 0 0 0 0 0 74 131 0 230 101 160 144 72 0 72 113 160 113 72 72 113 0 0 72 0 72 0 0 0 0 0 0 0 0 0 0 120 120 0 0 0 0 0 0 0 0 0 0 0 0 0 0 0 0 0 0 0 0 0 0 0 0 0 0 0 0 0 0 0 0 152 152 0 0 0 0 144 144 0 0 0 0 0 0 0 0 0 101 113 72 0 0 0 0 169 120 0 0 0 0 0 0 0 0 0 0 0 0 0 0 0 0 0 0 0 0 0 0 0 0 0 0 0 0 0 0 0 0 0 0 0 0 0 0 0 0 0 0 0 0 0 0 0 0 0 120 218 206 152 0 0 0 0 0 0 0 0 0 0 0 0 0 0 0 0 0 0 0 0 0 0 0 0 0 0 0 0 0 0 0 0 0 0 0 0 0 0 0 0 0 0 0 0 0 0 0 0 0 0 0 0 0 0 0 0 0 0 0 0 0 0 
0 0 0 0 0 0 0 0 0 0 0 0 0 0 0 0 0 0 0 0 0 0 76 76 169 0 0 0 72 0 0 113 0 0 0 0 0 72 0 72 0 72 72 0 72 0 72 0 0 0 0 0 0 0 0 0 0 0 0 0 0 0 0 0 0 72 0 0 0 0 0 0 0 0 0 0 0 0 0 0 0 0 0 0 0 0 0 0 0 0 0 0 0 0 0 76 0 0 0 0 120 120 161 0 0 76 0 0 0 0 120 0 120 0 0 152 152 0 169 120 0 0 0 0 0 0 0 0 0 0 76 0 76 0 0 0 0 0 76 0 0 76 0 120 152 120 0 0 0 0 76 0 0 0 120 120 0 0 0 0 0 0 0 0 107 120 76 76 120 0 169 0 0 76 169 76 0 120 0 0 0 0 76 0 76 0 0 0 0 0 76 0 0 0 0 0 0 0 0 0 0 0 0 0 0 0 0 0 0 0 0 0 0 0 0 0 0 0 0 0 74 167 167 74 167 149 74 74 167 224 167 74 167 167 0 224 237 167 74 0 0 0 0 0 0 0 0 0 0 0 0 0 0 0 0 0 0 0 0 0 0 0 0 0 0 0 0 0 0 0 0 0 0 0 0 0 0 0 0 0 0 0 0 0 0 0 0 0 0 0 0 0 0 0 0 0 0 0 0 0 0 0 0 0 0 0 0 128 187 224 116 113 144 160 113 113 0 101 113 0 0 113 113 0 0 72 0 0 0 0 0 0 0 0 0 0 0 152 76 0 76 0 0 0 0 0 0 0 0 0 0 0 0 0 0 0 0 0 0 0 0 0 0 0 0 0 0 0 0 0 0 152 152 0 0 0 0 144 144 0 0 0 0 0 0 0 0 0 0 160 113 0 0 0 76 120 107 0 0 0 0 0 0 0 0 0 0 0 0 0 0 0 0 0 0 0 0 0 0 0 0 0 0 0 0 0 0 0 0 0 0 0 0 0 0 0 0 0 0 0 0 0 0 0 0 0 169 234 160 0 0 0 0 0 0 0 0 0 0 0 0 0 0 0 0 0 0 0 0 0 0 0 0 0 0 0 0 0 0 0 0 0 0 0 0 0 0 0 0 0 0 0 0 0 0 0 0 0 0 0 0 0 0 0 0 0 0 0 0 0 0 0 
0 0 0 0 0 0 0 0 0 0 0 0 0 0 0 0 0 0 0 0 0 0 0 169 120 0 0 0 0 72 113 144 0 0 0 0 0 72 72 0 0 72 72 0 0 72 0 0 0 0 72 0 0 0 0 0 0 0 0 0 0 0 0 0 0 0 0 0 0 0 0 0 0 0 0 0 0 0 0 0 0 0 0 0 0 0 0 0 0 0 0 0 0 0 76 0 76 0 0 0 0 76 0 0 76 0 0 0 0 0 0 120 0 120 0 152 120 161 161 0 0 0 0 0 0 0 0 0 0 0 0 76 0 0 0 0 0 0 0 0 0 0 76 0 0 0 0 76 0 0 0 0 76 0 0 0 0 0 0 76 0 0 0 120 169 0 120 120 107 0 107 169 169 169 76 76 0 120 0 0 0 0 0 76 0 0 0 0 0 0 0 0 0 0 0 0 0 0 0 0 0 0 76 0 0 0 0 0 0 0 0 0 0 0 0 0 0 0 0 0 0 74 167 237 106 106 237 237 237 167 74 0 0 74 224 224 74 0 0 0 0 0 0 0 0 0 0 0 0 0 0 0 0 0 0 0 0 0 0 0 0 0 0 0 0 0 0 0 0 0 0 0 0 0 0 0 0 0 0 0 0 0 0 0 0 0 0 0 0 0 0 0 0 0 0 0 0 0 0 0 0 0 0 0 0 0 0 0 217 247 132 185 144 72 0 0 113 160 152 0 113 113 152 113 0 0 0 0 72 72 113 113 0 0 0 0 0 120 120 0 0 0 0 0 0 0 0 0 0 0 0 0 0 0 0 0 0 0 0 0 0 0 0 0 0 0 0 0 0 0 0 120 169 0 0 0 0 144 144 0 0 0 0 0 0 0 0 0 0 113 160 0 0 0 0 120 161 120 0 0 0 0 0 0 0 0 0 0 0 0 0 0 0 0 0 0 0 0 0 0 0 0 0 0 0 0 0 0 0 0 0 0 0 0 0 0 0 0 0 0 0 0 0 0 0 161 212 212 113 0 0 0 0 0 0 0 0 0 0 0 0 0 0 0 0 0 0 0 0 0 0 0 0 0 0 0 0 0 0 0 0 0 0 0 0 0 0 0 0 0 0 0 0 0 0 0 0 0 0 0 0 0 0 0 0 0 0 0 0 0 0 0 
0 0 0 0 0 0 0 0 0 0 0 0 0 0 0 0 0 0 0 0 0 0 120 169 0 0 0 0 0 0 160 113 0 0 0 0 0 0 113 101 101 113 0 0 0 0 0 0 0 72 0 72 0 0 0 0 0 0 0 0 0 0 0 0 0 0 0 0 0 0 0 0 0 0 0 0 0 0 0 0 0 0 0 0 0 0 0 0 0 0 0 0 0 0 0 76 0 0 0 0 0 0 0 76 0 76 0 0 0 120 120 76 76 76 76 120 0 169 0 0 0 0 0 0 0 0 0 0 0 0 0 0 0 0 0 0 0 0 0 0 0 0 0 0 0 0 76 0 107 0 0 0 0 0 0 0 0 76 0 0 0 76 0 120 169 0 120 76 107 152 107 0 0 107 0 0 107 0 0 76 0 0 0 0 0 0 0 0 0 0 0 0 0 0 0 0 0 0 0 0 0 161 120 120 0 0 0 0 0 0 0 0 0 0 0 0 0 0 0 0 74 224 237 106 167 149 167 167 74 0 0 74 167 237 224 74 0 0 0 0 0 0 0 0 0 0 0 0 0 0 0 0 0 0 0 0 0 0 0 0 0 0 0 0 0 0 0 0 0 0 0 0 0 0 0 0 0 0 0 0 0 0 0 0 0 0 0 0 0 0 0 0 0 0 0 0 0 0 0 0 0 0 0 0 0 0 0 0 74 73 234 97 163 113 0 72 0 0 101 0 160 113 113 160 0 0 0 72 0 0 113 101 113 0 0 0 0 76 152 76 0 0 0 0 0 0 0 0 0 0 0 0 0 0 0 0 0 0 0 0 0 0 0 0 0 0 0 0 0 0 0 0 169 120 0 0 0 144 144 0 0 0 0 0 0 0 0 0 0 0 152 152 0 0 0 0 120 169 0 0 0 0 0 0 0 0 0 0 0 0 0 0 0 0 0 0 0 0 0 0 0 0 0 0 0 0 0 0 0 0 0 0 0 0 0 0 0 0 0 0 0 0 0 0 120 169 163 160 0 0 0 0 0 0 0 0 0 0 0 0 0 0 0 0 0 0 0 0 0 0 0 0 0 0 0 0 0 0 0 0 0 0 0 0 0 0 0 0 0 0 0 0 0 0 0 0 0 0 0 0 0 0 0 0 0 0 0 0 0 0 0 0 
0 0 0 0 0 0 0 0 0 0 0 0 0 0 0 0 0 0 0 0 0 0 152 152 0 0 0 0 0 72 144 72 0 0 0 0 0 0 0 113 152 144 113 0 0 0 0 0 0 0 72 0 0 0 0 0 0 0 0 0 0 0 0 0 0 0 0 0 0 0 0 0 0 0 0 0 0 0 0 0 0 0 0 0 0 0 0 0 0 0 0 0 0 0 0 0 0 0 0 0 0 0 0 0 76 0 0 0 76 120 107 76 76 76 76 0 76 120 0 0 0 0 0 0 0 0 0 0 76 0 0 0 0 0 0 0 76 0 0 0 0 0 0 0 0 0 0 107 0 76 0 0 0 0 0 0 76 0 76 0 0 0 76 0 169 120 0 76 120 76 120 0 107 120 0 0 76 120 0 0 76 0 120 152 120 0 0 0 0 0 0 0 0 0 0 0 0 0 0 0 76 120 107 120 0 0 0 0 0 0 0 0 0 0 0 0 0 0 74 167 237 149 106 237 224 74 0 0 0 0 74 224 237 167 74 0 0 0 0 0 0 0 0 0 0 0 0 0 0 0 0 0 0 0 0 0 0 0 0 0 0 0 0 0 0 0 0 0 0 0 0 0 0 0 0 0 0 0 0 0 0 0 0 0 0 0 0 0 0 0 0 0 0 0 0 0 0 0 0 0 0 0 0 0 0 0 0 0 0 74 0 137 114 0 104 72 113 0 72 72 144 144 72 144 72 0 0 0 72 72 152 113 113 0 0 0 0 76 152 76 0 0 0 0 0 0 0 0 0 0 0 0 0 0 0 0 0 0 0 0 0 0 0 0 0 0 0 0 0 0 0 0 152 152 0 0 0 113 160 0 0 0 0 0 0 0 0 0 0 0 0 160 113 0 0 0 0 169 120 0 0 0 0 0 0 0 0 0 0 0 0 0 0 0 0 0 0 0 0 0 0 0 0 0 0 0 0 0 0 0 0 0 0 0 0 0 0 0 0 0 0 0 0 0 169 167 160 113 0 0 0 0 0 0 0 0 0 0 0 0 0 0 0 0 0 0 0 0 0 0 0 0 0 0 0 0 0 0 0 0 0 0 0 0 0 0 0 0 0 0 0 0 0 0 0 0 0 0 0 0 0 0 0 0 0 0 0 0 0 0 0 0 
0 0 0 0 0 0 0 0 0 0 0 0 0 0 0 0 0 0 0 0 0 0 152 152 0 0 0 0 0 0 160 113 0 0 0 0 0 0 0 72 72 0 72 72 0 0 72 0 0 0 0 0 72 0 0 0 0 0 0 0 0 0 0 0 0 0 0 0 0 0 0 0 0 0 0 0 0 0 0 0 0 0 0 0 0 0 0 0 0 0 0 0 0 0 0 0 0 0 0 0 0 0 0 0 0 0 0 0 0 161 120 120 0 169 0 120 76 0 0 0 0 0 0 0 0 0 0 76 0 76 0 0 0 0 0 76 0 76 0 0 0 0 76 0 0 0 0 0 76 0 0 0 0 0 0 76 0 107 0 0 0 0 0 120 107 107 120 0 76 0 0 107 0 169 0 76 76 76 0 76 0 120 161 120 120 76 0 0 0 0 0 0 0 0 0 0 0 0 0 0 0 120 120 0 0 0 0 0 0 0 0 0 0 0 0 0 0 0 167 224 106 149 237 167 74 0 0 0 74 167 237 224 74 0 0 0 0 0 0 0 0 0 0 0 0 0 0 0 0 0 0 0 0 0 0 0 0 0 0 0 0 0 0 0 0 0 0 0 0 0 0 0 0 0 0 0 0 0 0 0 0 0 0 0 0 0 0 0 0 0 0 0 0 0 0 0 0 0 0 0 0 0 0 0 0 0 0 0 0 0 74 217 148 0 241 95 185 113 0 113 152 113 72 113 113 144 144 144 113 0 0 72 0 0 0 0 0 0 169 120 0 0 0 0 0 0 0 0 0 0 0 0 0 0 0 0 0 0 0 0 0 0 0 0 0 0 0 0 0 0 0 0 120 169 0 0 0 0 160 113 0 0 0 0 0 0 0 0 0 0 0 113 160 0 0 0 0 120 161 120 0 0 0 0 0 0 0 0 0 0 0 0 0 0 0 0 0 0 0 0 0 0 0 0 0 0 0 0 0 0 0 0 0 0 0 0 0 0 0 0 0 0 0 161 212 206 152 0 0 0 0 0 0 0 0 0 0 0 0 0 0 0 0 0 0 0 0 0 0 0 0 0 0 0 0 0 0 0 0 0 0 0 0 0 0 0 0 0 0 0 0 0 0 0 0 0 0 0 0 0 0 0 0 0 0 0 0 0 0 0 0 0 
0 0 0 0 0 0 0 0 0 0 0 0 0 0 0 0 0 0 0 0 0 0 120 169 0 0 0 0 0 0 160 113 0 0 0 0 0 0 0 72 72 0 101 0 0 72 0 72 0 0 0 72 0 72 0 0 0 0 0 0 0 0 0 0 0 0 0 0 0 0 0 0 0 0 0 0 0 0 0 0 0 0 0 0 0 0 0 0 0 0 0 0 0 0 0 0 0 0 0 0 0 0 0 0 0 0 0 0 0 0 0 76 169 161 120 152 0 0 0 0 0 0 0 0 0 0 0 0 76 0 0 0 0 0 0 0 76 0 0 76 0 76 0 76 0 0 0 0 0 0 0 0 0 0 76 0 120 120 0 0 76 169 169 120 76 76 120 0 76 0 76 0 107 120 0 0 120 120 0 0 120 107 107 169 107 76 120 0 0 0 0 0 0 0 0 0 0 0 0 0 0 0 0 0 0 0 0 0 0 0 0 0 0 0 0 0 0 0 167 224 237 224 74 0 0 76 0 0 167 224 167 74 0 0 0 0 0 0 0 0 0 0 0 0 0 0 0 0 0 0 0 0 0 0 0 0 0 0 0 0 0 0 0 0 0 0 0 0 0 0 0 0 0 0 0 0 0 0 0 0 0 0 0 0 0 0 0 0 0 0 0 0 0 0 0 0 0 0 0 0 0 0 0 0 0 0 0 0 0 0 0 0 74 217 148 0 146 186 152 144 113 0 72 72 0 0 0 0 101 113 0 0 0 0 0 0 0 0 152 152 0 0 0 0 0 0 0 0 0 0 0 0 0 0 0 0 0 0 0 0 0 0 0 0 0 0 0 0 0 0 0 76 0 152 76 0 0 0 144 144 0 0 0 0 0 0 0 0 0 0 0 0 160 113 0 0 0 0 107 120 76 0 0 0 0 0 0 0 0 0 0 0 0 0 0 0 0 0 0 0 0 0 0 0 0 0 0 0 0 0 0 0 0 0 0 0 0 0 0 0 0 0 161 161 163 160 0 0 0 0 0 0 0 0 0 0 0 0 0 0 0 0 0 0 0 0 0 0 0 0 0 0 0 0 0 0 0 0 0 0 0 0 0 0 0 0 0 0 0 0 0 0 0 0 0 0 0 0 0 0 0 0 0 0 0 0 0 0 0 0 0 0 
0 0 0 0 0 0 0 0 0 0 0 0 0 0 0 0 0 0 0 0 0 0 107 120 76 0 0 0 0 72 144 72 0 0 0 0 0 0 0 0 72 152 113 0 0 0 72 0 0 0 0 0 72 0 0 0 0 0 0 0 0 72 0 0 0 0 0 0 0 0 0 0 0 0 0 0 0 0 0 0 0 0 0 0 0 0 0 0 0 0 0 0 0 0 0 0 0 0 0 0 0 0 0 0 0 0 0 76 0 0 76 120 107 0 169 120 0 0 0 0 0 0 0 0 0 0 0 0 0 0 0 0 0 0 0 0 0 0 76 0 76 0 76 0 0 0 0 0 0 0 0 0 0 0 76 76 0 0 76 76 76 76 0 76 76 120 107 0 76 169 152 120 0 120 120 0 0 0 0 120 107 76 120 120 76 107 120 76 0 0 0 0 0 0 0 0 0 0 0 0 0 76 0 0 0 0 0 0 0 0 0 0 0 0 0 0 0 0 74 167 167 74 0 120 120 0 139 167 224 167 0 0 0 0 0 0 0 0 0 0 0 0 0 0 0 0 0 0 0 0 0 0 0 0 0 0 0 0 0 0 0 0 0 0 0 0 0 0 0 0 0 0 0 0 0 0 0 0 0 0 0 0 0 0 0 0 0 0 0 0 0 0 0 0 0 0 0 0 0 0 0 0 0 0 0 0 0 0 0 0 0 0 0 0 74 217 137 231 79 104 0 72 0 72 0 0 0 113 113 113 0 72 0 0 0 0 0 0 152 152 0 0 0 0 0 0 0 0 0 0 0 0 0 0 0 0 0 0 0 0 0 0 0 0 0 0 0 0 0 0 76 0 0 169 0 0 0 0 160 113 0 0 0 0 0 0 0 0 0 0 0 0 113 152 113 0 0 0 76 152 0 76 0 0 0 0 0 0 0 0 0 0 0 0 0 0 0 0 0 0 0 0 0 0 0 0 0 0 0 0 0 0 0 0 0 0 0 0 0 0 0 120 169 104 160 113 0 0 0 0 0 0 0 0 0 0 0 0 0 0 0 0 0 0 0 0 0 0 0 0 0 0 0 0 0 0 0 0 0 0 0 0 0 0 0 0 0 0 0 0 0 0 0 0 0 0 0 0 0 0 0 0 0 0 0 0 0 0 0 0 0 0 
0 0 0 0 0 0 0 0 0 0 0 0 0 0 0 0 0 0 0 0 0 76 76 76 76 0 0 0 0 0 160 113 0 0 0 0 0 0 113 113 160 152 113 0 0 0 0 0 0 0 0 0 0 0 0 0 72 0 0 0 72 0 72 0 0 0 0 0 0 0 0 0 0 0 0 0 0 0 0 0 0 0 0 0 0 0 0 0 0 0 0 0 0 0 0 0 0 0 76 0 0 0 0 0 0 0 76 0 76 0 76 152 76 120 169 0 0 0 0 0 0 0 0 0 0 0 0 0 0 0 0 0 0 0 0 0 76 0 0 76 0 0 76 0 0 0 0 0 0 120 120 0 0 0 76 0 120 152 120 107 120 120 0 0 120 76 107 120 120 0 76 0 76 0 76 76 0 0 0 120 120 161 0 0 120 120 161 0 0 0 0 0 0 0 0 0 0 0 0 0 76 0 76 0 0 0 76 0 0 0 0 0 0 0 0 0 0 0 0 0 0 0 76 76 128 0 0 237 167 74 0 0 0 0 0 0 0 0 0 0 0 0 0 0 0 0 0 0 0 0 0 0 0 0 0 0 0 0 0 0 0 0 0 74 106 74 0 0 0 0 0 0 0 0 0 0 0 0 0 0 0 0 0 0 0 0 0 0 0 0 0 0 0 0 0 0 0 0 0 0 0 0 0 0 0 0 0 0 0 0 0 0 0 0 0 0 128 131 0 136 185 144 101 72 144 113 101 0 0 0 72 0 72 0 0 0 0 0 152 120 76 0 0 0 0 0 0 0 0 0 0 0 0 0 0 0 0 0 0 0 0 0 0 0 0 0 0 0 0 0 0 0 120 120 0 0 0 113 160 0 0 0 0 0 0 0 0 0 0 0 0 0 0 113 152 113 0 0 0 169 0 0 76 0 0 0 0 0 0 0 0 0 0 0 0 0 0 0 0 0 0 0 0 0 0 0 0 0 0 0 0 0 0 0 0 0 0 0 0 0 0 169 167 152 152 0 0 0 0 0 0 0 0 0 0 0 0 0 0 0 0 0 0 0 0 0 0 0 0 0 0 0 0 0 0 0 0 0 0 0 0 0 0 0 0 0 0 0 0 0 0 0 0 0 0 0 0 0 0 0 0 0 0 0 0 0 0 0 0 0 0 0 
0 0 0 0 0 0 0 0 0 0 0 0 0 0 0 0 0 0 0 0 0 0 120 161 120 0 0 0 0 0 160 113 0 0 0 0 0 0 113 101 0 0 101 0 0 0 0 0 0 0 0 0 0 0 0 72 0 72 0 0 0 72 0 0 0 0 0 0 0 0 0 0 0 0 0 0 0 0 0 0 0 0 0 0 0 0 0 0 0 0 0 0 0 0 0 0 0 76 0 76 0 0 0 0 0 0 0 76 0 0 161 161 0 169 120 0 0 0 0 0 0 0 0 0 0 0 0 0 0 0 0 0 0 0 0 76 0 76 0 76 0 76 0 107 0 0 0 0 76 76 0 120 120 0 0 76 0 120 152 76 0 76 161 76 76 169 107 120 120 0 120 76 76 152 76 0 0 0 0 0 76 0 0 0 0 0 0 0 0 0 0 0 0 0 0 0 0 0 0 76 0 76 0 0 0 76 0 76 0 0 0 0 0 0 0 0 0 0 0 0 0 76 74 0 100 0 167 74 0 0 0 0 0 0 0 0 0 0 0 0 0 0 0 0 0 0 0 0 0 0 0 0 0 0 0 0 0 0 0 0 0 0 0 106 0 106 0 0 0 0 0 0 0 0 0 0 0 0 0 0 0 0 0 0 0 0 0 0 0 0 0 0 0 0 0 0 0 0 0 0 0 0 0 0 0 0 0 0 0 0 0 0 0 0 0 0 0 74 73 234 0 104 144 72 0 113 101 0 113 113 0 72 0 0 0 0 0 0 152 76 0 76 0 0 0 0 0 0 0 0 0 0 0 0 0 0 0 0 0 0 0 0 0 0 0 0 0 0 0 0 0 76 152 76 0 0 0 160 113 0 0 0 0 0 0 0 0 0 0 0 0 0 0 0 144 144 0 0 0 120 120 0 0 0 0 0 0 0 0 0 0 0 0 0 0 0 0 0 0 0 0 0 0 0 0 0 0 0 0 0 0 0 0 0 0 0 0 0 0 0 161 212 206 152 0 0 0 0 0 0 0 0 0 0 0 0 0 0 0 0 0 0 0 0 0 0 0 0 0 0 0 0 0 0 0 0 0 0 0 0 0 0 0 0 0 0 0 0 0 0 0 0 0 0 0 0 0 0 0 0 0 0 0 0 0 0 0 0 0 0 0 0 
0 0 0 0 0 0 0 0 0 0 0 0 0 0 0 0 0 0 0 0 0 0 0 169 120 0 0 0 0 72 113 101 0 0 0 0 0 0 0 113 144 113 113 72 0 0 0 0 0 0 0 0 0 0 0 0 72 0 0 0 0 0 0 0 0 0 0 0 0 0 0 0 0 0 0 0 0 0 0 0 0 0 0 0 0 0 0 0 0 0 0 0 0 0 0 0 0 0 76 0 0 0 0 0 0 0 0 0 0 161 161 0 120 169 0 0 0 0 0 0 0 0 0 0 0 0 0 0 0 0 0 0 0 0 0 0 76 0 76 0 76 0 107 0 76 0 0 0 0 120 120 0 76 76 0 0 76 76 0 0 120 161 120 76 76 0 120 107 0 107 161 161 120 0 120 76 120 0 0 0 0 0 0 76 0 76 0 0 0 0 0 0 0 0 0 0 0 0 120 76 120 0 0 0 0 0 76 0 0 0 0 0 0 0 0 0 0 0 0 76 0 0 240 224 167 74 0 0 0 0 0 0 0 0 0 0 0 0 0 0 0 0 0 0 0 0 0 0 0 0 0 0 0 0 0 0 0 0 0 0 0 0 0 74 106 74 0 0 0 0 0 0 0 0 0 0 0 0 0 0 0 0 0 0 0 0 0 0 0 0 0 0 0 0 0 0 0 0 0 0 0 0 0 0 0 0 0 0 0 0 0 0 0 0 0 0 0 0 74 0 130 0 185 0 0 113 101 0 0 72 72 0 0 0 0 0 0 0 120 107 0 76 0 0 0 0 0 0 0 0 0 0 0 0 0 0 0 0 0 0 0 0 0 0 0 0 0 0 0 0 0 76 152 76 0 0 113 160 0 0 0 0 0 0 0 0 0 0 0 0 0 0 0 0 113 160 0 0 0 0 161 161 0 0 0 0 0 0 0 0 0 0 0 0 0 0 0 0 0 0 0 0 0 0 0 0 0 0 0 0 0 0 0 0 0 0 0 0 0 120 169 163 160 0 0 0 0 0 0 0 0 0 0 0 0 0 0 0 0 0 0 0 0 0 0 0 0 0 0 0 0 0 0 0 0 0 0 0 0 0 0 0 0 0 0 0 0 0 0 0 0 0 0 0 0 0 0 0 0 0 0 0 0 0 0 0 0 0 0 0 0 0 
0 0 0 0 0 0 0 0 0 0 0 0 0 0 0 0 0 0 0 0 0 0 161 161 0 0 0 0 0 101 0 72 72 0 0 0 0 0 0 113 144 160 152 0 0 0 0 0 0 0 0 0 0 0 72 0 0 0 0 0 0 0 0 0 0 0 0 0 0 0 0 0 0 0 0 0 0 0 0 0 0 0 0 0 0 0 0 0 0 0 0 0 0 0 0 0 76 0 0 0 0 0 0 0 0 0 0 0 120 169 0 76 120 152 0 0 0 0 0 0 0 0 0 0 0 0 0 0 0 0 0 0 0 0 0 0 0 0 0 76 0 0 0 76 0 0 0 0 0 0 0 120 76 76 152 120 0 107 0 0 120 120 0 0 76 120 0 76 0 0 161 161 120 0 120 76 120 0 0 0 0 0 0 0 76 0 0 0 0 0 0 0 0 0 0 0 0 76 76 76 120 0 76 0 0 0 0 0 0 0 0 0 120 120 0 0 0 120 120 0 128 240 0 167 0 0 0 0 0 0 0 0 0 0 0 0 0 0 0 0 0 0 0 0 0 0 0 0 0 0 0 0 0 0 0 0 0 0 0 0 0 0 0 0 0 0 0 0 0 0 0 0 0 0 0 0 0 0 0 0 0 0 0 0 0 0 0 0 0 0 0 0 0 0 0 0 0 0 0 0 0 0 0 0 0 0 0 0 0 0 0 0 0 0 0 0 0 0 0 74 0 243 95 0 0 0 113 113 0 0 113 113 0 0 0 0 0 0 76 0 107 120 0 0 0 0 0 0 0 0 0 0 0 0 0 0 0 0 0 0 0 0 0 0 0 0 0 0 0 0 0 161 161 0 0 0 113 160 0 0 0 0 0 0 0 0 0 0 0 0 0 0 0 0 0 152 152 0 0 0 0 161 161 0 0 0 0 0 0 0 0 0 0 0 0 0 0 0 0 0 0 0 0 0 0 0 0 0 0 0 0 0 0 0 0 0 0 0 0 169 167 160 113 0 0 0 0 0 0 0 0 0 0 0 0 0 0 0 0 0 0 0 0 0 0 0 0 0 0 0 0 0 0 0 0 0 0 0 0 0 0 0 0 0 0 0 0 0 0 0 0 0 0 0 0 0 0 0 0 0 0 0 0 0 0 0 0 0 0 0 152 0 
0 0 0 0 0 0 0 0 0 0 0 0 0 0 0 0 0 0 0 0 0 76 120 107 0 0 0 0 72 113 113 113 0 0 0 0 0 0 72 72 0 0 113 144 113 0 0 0 0 0 0 0 0 72 0 72 0 0 0 0 0 0 0 72 0 0 0 0 0 0 0 0 0 0 0 0 0 0 0 0 0 0 0 0 0 0 0 0 0 0 0 0 0 0 0 120 76 120 0 0 0 0 0 0 0 0 0 0 152 152 76 0 107 120 0 0 0 0 0 0 0 0 0 0 0 0 0 0 0 0 0 0 0 0 0 0 76 0 0 0 0 0 0 0 0 0 0 0 0 0 0 0 76 76 0 76 0 161 169 76 0 0 76 0 76 120 107 76 107 76 120 120 0 0 0 76 0 0 0 0 0 0 0 0 0 0 0 0 0 76 0 0 0 0 0 0 76 0 0 76 0 76 0 76 0 0 0 0 0 0 0 120 107 120 76 0 107 0 0 107 217 224 167 74 0 0 0 0 0 0 0 0 0 74 106 74 0 0 0 0 0 0 0 0 0 0 0 0 0 0 0 0 0 0 0 0 0 0 0 0 0 0 0 0 0 0 0 0 0 0 0 0 0 0 0 0 0 0 0 0 0 0 0 0 0 0 0 0 0 0 0 0 0 0 0 0 0 0 0 0 0 0 0 0 0 0 0 0 0 0 0 0 0 0 0 0 0 0 0 0 74 131 0 0 0 0 0 0 113 144 144 152 113 0 0 0 0 0 120 120 120 120 0 0 0 0 0 0 0 0 0 0 0 0 0 0 0 0 0 0 0 0 0 0 0 0 0 0 0 0 76 152 76 0 0 0 0 160 113 0 0 0 0 0 0 0 0 0 0 0 0 0 0 0 0 0 152 152 0 0 0 0 161 161 0 0 0 0 0 0 0 0 0 0 0 0 0 0 0 0 0 0 0 0 0 0 0 0 0 0 0 0 0 0 0 0 0 0 161 161 163 160 0 0 0 0 0 0 0 0 0 0 0 0 0 0 0 0 0 0 0 0 0 0 0 0 0 0 0 0 0 0 0 0 0 0 0 0 0 0 0 0 0 0 0 0 0 0 0 0 0 0 0 0 0 0 0 0 0 0 0 0 0 0 0 0 0 0 0 113 160 0 
0 0 0 0 0 0 0 0 0 0 0 0 0 0 0 0 0 0 0 0 0 0 120 161 120 0 0 0 0 160 113 0 0 0 0 0 0 0 72 0 72 0 0 0 72 72 0 0 0 0 0 0 0 0 72 0 0 0 0 0 0 0 113 72 113 0 0 0 0 0 0 0 0 0 0 0 0 0 0 0 0 0 0 0 0 0 0 0 0 0 0 0 0 0 0 120 76 120 0 0 0 0 0 0 0 0 0 0 169 120 76 120 107 0 0 0 0 0 0 0 0 0 0 0 0 0 0 0 0 0 0 0 0 0 0 76 0 120 120 0 0 0 0 0 0 0 0 0 0 0 0 0 0 120 120 0 120 161 0 107 0 0 107 76 120 161 0 169 0 0 0 0 0 0 0 0 0 0 0 0 0 0 0 0 0 0 0 0 120 76 120 0 0 0 0 0 0 76 0 0 0 0 76 0 0 0 0 0 0 0 0 169 0 120 76 120 0 190 0 197 167 212 0 0 0 0 0 0 0 0 0 0 0 106 0 106 0 0 0 0 0 0 0 0 0 0 0 0 0 0 0 0 0 0 0 0 0 0 0 0 0 0 0 0 0 0 0 0 0 0 0 0 0 0 0 0 0 0 0 0 0 0 0 0 0 0 0 0 0 0 0 0 0 0 0 0 0 0 0 0 0 0 0 0 0 0 0 0 0 0 0 0 0 0 0 0 0 0 0 0 0 128 187 224 163 0 0 0 0 0 0 160 113 0 0 0 0 0 120 120 0 0 0 0 0 0 0 0 0 0 0 0 0 0 0 0 0 0 0 0 0 0 0 0 0 0 0 0 0 0 0 161 161 0 0 0 0 144 144 0 0 0 0 0 0 0 0 0 0 0 0 0 0 0 0 0 0 152 152 0 0 0 0 161 161 0 0 0 0 0 0 0 0 0 0 0 0 0 0 0 0 0 0 0 0 0 0 0 0 0 0 0 0 0 0 0 0 120 218 163 152 113 0 0 0 0 0 0 0 0 0 0 0 0 0 0 0 0 0 0 0 0 0 0 0 0 0 0 0 0 0 0 0 0 0 0 0 0 0 0 0 0 0 0 0 0 0 0 0 0 0 0 0 0 0 0 0 0 0 0 0 0 0 0 0 0 0 0 113 152 163 0 
0 0 0 0 0 0 0 0 0 0 0 0 0 0 0 0 0 0 0 0 0 0 76 120 152 0 0 0 0 113 160 0 0 0 0 0 0 0 72 0 0 113 113 113 0 101 0 0 0 0 0 0 72 0 0 0 0 0 0 0 0 0 113 72 113 0 0 0 0 0 0 0 0 0 0 0 0 0 0 0 0 0 0 0 0 0 0 0 0 0 0 0 0 0 0 0 76 0 76 0 0 0 0 0 0 0 120 169 161 0 161 161 0 0 0 0 0 0 0 0 0 0 0 0 0 0 0 0 0 0 0 0 0 0 0 0 107 0 76 0 120 120 0 0 0 0 0 0 0 120 120 0 0 0 107 0 0 120 120 0 107 0 76 0 0 0 107 120 0 0 0 0 0 0 0 0 0 0 0 0 0 0 0 0 0 0 0 0 120 76 120 0 0 76 0 0 0 0 0 76 0 0 0 0 0 0 0 0 0 0 161 107 120 0 76 128 0 0 237 237 167 106 106 74 0 0 0 0 0 0 0 0 0 74 106 74 0 0 0 0 0 0 0 0 0 0 0 0 0 0 0 0 0 0 0 0 0 0 0 0 0 0 0 0 0 0 0 0 0 0 0 0 0 0 0 0 0 0 0 0 0 0 0 0 0 0 0 0 0 0 0 0 0 0 0 0 0 0 0 0 0 0 0 0 0 0 0 0 0 0 0 0 0 0 0 0 0 0 0 0 0 0 217 247 136 104 0 113 113 0 72 144 72 0 0 0 0 0 76 152 76 0 0 0 0 0 0 0 0 0 0 0 0 0 0 0 0 0 0 0 0 0 0 0 0 0 0 0 0 0 0 76 152 76 0 0 0 144 144 0 0 0 0 0 0 0 0 0 0 0 0 0 0 0 0 0 0 0 160 101 72 0 0 0 161 161 0 0 0 0 0 0 0 0 0 0 0 0 0 0 0 0 0 0 0 0 0 0 0 0 0 0 0 0 0 0 0 169 234 152 113 0 0 0 0 0 0 0 0 0 0 0 0 0 0 0 0 0 0 0 0 0 0 0 0 0 0 0 0 0 0 0 0 0 0 0 0 0 0 0 0 0 0 0 0 0 0 0 0 0 0 0 0 0 0 0 0 0 0 0 0 0 0 0 0 0 0 113 152 163 212 0 
0 0 0 0 0 0 0 0 0 0 0 0 0 0 0 0 0 0 0 0 0 76 0 76 152 0 0 0 0 72 144 72 0 0 0 0 0 0 101 0 0 160 101 152 160 160 160 144 113 0 0 72 0 72 0 0 0 0 0 0 0 0 0 72 0 0 0 0 0 0 0 0 0 0 0 0 0 0 0 0 0 0 0 0 0 0 0 0 0 0 0 0 0 0 0 0 0 76 0 76 0 0 0 0 76 107 236 223 92 120 169 0 0 0 0 0 0 0 0 0 0 0 0 0 0 0 0 0 0 0 0 0 0 0 0 0 0 120 120 0 76 76 76 0 0 0 0 0 76 76 76 76 0 76 0 120 120 0 0 0 76 76 76 152 152 120 0 76 0 0 0 0 0 0 0 0 0 0 0 0 0 0 0 0 0 0 0 76 0 76 0 0 120 76 120 0 120 120 107 76 107 120 152 120 0 0 0 120 152 120 120 0 152 128 0 100 0 106 74 74 0 74 106 167 0 0 0 0 0 0 0 0 0 0 0 0 0 0 0 0 0 0 0 0 0 0 0 0 74 106 74 0 0 0 0 0 0 0 0 0 0 0 0 0 0 0 0 0 0 0 0 0 0 0 0 0 0 0 0 0 0 0 0 0 0 0 0 0 0 0 0 0 0 0 0 0 0 0 0 0 0 0 0 0 0 0 0 0 0 0 0 0 0 0 0 0 0 0 0 0 0 0 74 73 0 83 0 72 72 72 72 113 113 113 0 0 0 0 76 120 107 0 0 0 0 0 0 0 0 0 0 0 0 0 0 0 0 0 0 0 0 0 0 0 0 0 0 0 0 0 0 76 152 76 0 0 0 113 160 0 0 0 0 0 0 0 0 0 0 0 0 0 0 0 0 0 0 0 113 101 0 72 0 0 0 161 169 120 0 0 0 0 0 0 0 0 0 0 0 0 0 0 0 0 0 0 0 0 0 0 0 0 0 0 0 0 161 212 212 113 0 0 0 0 0 0 0 0 0 0 0 0 0 0 0 0 0 0 0 0 0 0 0 0 0 0 0 0 0 0 0 0 0 0 0 0 0 0 0 0 0 0 0 0 0 0 0 0 0 0 0 0 0 0 0 0 0 0 0 0 0 0 0 0 0 0 0 160 163 161 161 0 
0 0 0 0 0 0 0 0 0 0 0 0 0 0 0 0 0 0 0 0 0 0 76 120 152 0 0 0 0 113 160 0 0 0 0 0 0 72 72 72 0 160 0 113 113 113 0 0 72 72 0 0 72 0 0 0 0 0 0 0 0 0 0 0 0 0 0 0 0 0 0 0 0 0 0 0 0 0 0 0 0 0 0 0 0 0 0 0 0 0 0 0 0 0 0 0 0 0 76 0 0 0 0 76 0 76 0 106 197 169 120 0 0 0 0 0 0 0 0 0 0 0 0 0 0 0 0 0 0 0 0 0 0 0 0 0 0 0 0 0 120 120 0 0 0 0 0 0 0 107 0 120 120 0 76 0 76 76 76 0 107 120 76 0 0 120 120 161 0 0 0 0 0 0 0 0 120 152 120 0 0 76 0 0 0 0 76 0 76 0 0 0 120 76 76 161 169 169 120 76 120 120 0 76 76 0 161 120 0 0 107 0 152 240 224 167 0 149 106 106 74 74 106 167 0 0 0 0 0 0 0 0 0 0 0 0 0 74 106 74 0 0 0 0 0 0 0 0 167 106 167 0 0 0 0 0 0 0 0 0 0 0 0 0 0 0 0 0 0 0 0 0 0 0 0 0 0 0 0 0 0 0 0 0 0 0 0 0 0 0 0 0 0 0 0 0 0 0 0 0 0 0 0 0 0 0 0 0 0 0 0 0 0 0 0 0 0 0 0 0 0 0 0 74 168 215 72 101 0 101 0 0 72 113 72 0 0 0 76 0 107 120 0 0 0 0 0 0 0 0 0 0 0 0 0 0 0 0 0 0 0 0 0 0 0 0 0 0 0 0 0 76 152 76 0 0 0 72 144 72 0 0 0 0 0 0 0 0 0 0 0 0 0 0 0 0 0 0 0 101 113 72 0 0 0 76 76 0 107 0 0 0 0 0 0 0 0 0 0 0 0 0 0 0 0 0 0 0 0 0 0 0 0 0 0 120 169 163 160 0 0 0 0 0 0 0 0 0 0 0 0 0 0 0 0 0 0 0 0 0 0 0 0 0 0 0 0 0 0 0 0 0 0 0 0 0 0 0 0 0 0 0 0 0 0 0 0 0 0 0 0 0 0 0 0 0 0 0 0 0 0 0 0 0 0 113 160 206 212 161 0 0 
0 0 0 0 0 0 0 0 0 0 0 0 0 0 0 0 0 0 0 0 0 0 0 152 152 0 0 0 0 144 144 0 0 0 0 0 0 0 113 113 72 160 72 113 144 144 144 144 113 0 0 0 0 0 0 0 0 0 0 0 0 0 0 0 0 0 0 0 0 0 0 0 0 0 0 0 0 0 0 0 0 0 0 0 0 0 0 0 0 0 0 0 0 0 0 0 0 0 0 0 0 0 0 0 76 167 0 74 240 152 76 0 0 0 0 0 0 0 0 0 0 0 0 0 0 0 0 0 0 0 0 0 0 0 0 0 0 0 0 0 0 0 0 0 0 0 0 0 0 76 76 0 76 76 0 0 0 120 169 76 76 161 0 0 120 107 0 120 76 0 0 0 0 0 0 161 169 120 120 76 76 0 76 0 0 0 0 76 0 0 0 0 0 0 107 107 76 76 0 76 0 107 169 120 0 161 107 107 169 120 107 120 161 252 212 0 106 106 0 74 149 106 74 106 167 74 0 74 106 74 0 74 106 74 0 0 0 106 0 106 0 0 0 0 0 0 0 0 167 106 167 0 0 0 0 0 0 0 0 0 0 0 0 0 0 0 0 0 0 0 0 0 0 0 0 0 0 0 0 0 0 0 0 0 0 0 0 0 0 0 0 0 0 0 0 0 0 0 0 0 0 0 0 0 0 0 0 0 0 0 0 0 0 0 0 0 0 0 0 0 0 0 0 0 0 0 0 160 160 152 72 72 0 144 72 0 0 0 76 0 76 152 0 0 0 0 0 0 0 0 0 0 0 0 0 0 0 0 0 0 0 0 0 0 0 0 0 0 0 0 0 76 152 76 0 0 0 72 144 72 0 0 0 0 0 0 0 0 0 0 0 0 0 0 0 0 0 0 0 0 152 160 113 0 0 76 76 0 76 0 76 0 0 0 0 0 0 0 0 0 0 0 0 0 0 0 0 0 0 0 0 0 0 0 0 169 167 160 113 0 0 0 0 0 0 0 0 0 0 0 0 0 0 0 0 0 0 0 0 0 0 0 0 0 0 0 0 0 0 0 0 0 0 0 0 0 0 0 0 0 0 0 0 0 0 0 0 0 0 0 0 0 0 0 0 0 0 0 0 0 0 0 0 0 113 152 163 212 161 0 0 0 
0 0 0 0 0 0 0 0 0 0 0 0 0 0 0 0 0 0 0 0 0 0 0 152 152 0 0 0 0 144 144 0 0 0 0 0 0 0 0 0 144 144 0 0 0 0 0 0 0 0 0 0 0 0 0 0 0 0 0 0 0 0 0 0 0 0 0 0 0 0 0 0 0 0 0 0 0 0 0 0 0 0 0 0 0 0 0 0 0 0 0 0 0 0 0 0 0 0 0 0 0 0 0 0 0 80 190 167 92 169 150 72 0 0 0 0 0 0 0 0 0 0 0 0 0 0 0 0 0 0 0 0 0 0 0 0 0 0 0 0 0 0 0 0 0 0 0 0 76 0 120 152 76 76 120 0 0 0 107 107 107 0 76 0 120 0 107 120 0 0 0 0 0 0 120 120 76 169 161 0 0 76 0 0 0 0 0 0 0 0 0 0 76 0 120 120 120 120 76 0 76 120 120 152 169 161 0 120 107 92 197 0 252 149 167 74 74 149 106 149 74 0 106 167 149 167 0 167 106 167 0 106 0 106 0 0 0 74 106 0 167 167 74 0 0 0 0 0 74 106 74 0 0 0 0 0 0 0 0 0 0 0 0 0 0 0 0 0 0 0 0 0 0 0 0 0 0 0 0 0 0 0 0 0 0 0 0 0 0 0 0 0 0 0 0 0 0 0 0 0 0 0 0 0 0 0 0 0 0 0 0 0 0 0 0 0 0 0 0 0 0 0 0 0 128 180 243 255 0 152 113 0 0 160 113 0 0 0 0 76 120 152 0 0 0 0 0 0 0 0 0 0 0 0 0 0 0 0 0 0 0 0 0 0 0 0 0 0 0 0 0 0 169 120 0 0 0 0 160 113 0 0 0 0 0 0 0 0 0 0 0 0 0 0 0 0 0 0 0 0 0 113 152 113 0 0 120 120 107 76 0 76 0 0 0 74 167 212 167 74 0 120 120 0 0 0 0 0 0 0 0 0 0 0 161 161 163 160 0 0 0 0 0 0 0 0 0 0 0 0 0 0 0 0 0 0 0 0 0 0 0 0 0 0 0 0 0 0 0 0 0 0 0 0 0 0 0 0 0 0 0 0 0 0 0 0 0 0 0 0 0 0 0 0 0 0 0 0 0 0 0 0 0 0 144 144 120 169 0 0 0 0 
0 0 0 0 0 0 0 0 0 0 0 0 0 0 0 0 0 0 0 0 0 0 0 169 120 0 0 0 0 144 144 0 0 0 0 0 0 0 0 0 113 152 113 72 72 0 0 0 0 0 0 0 0 0 0 0 0 0 0 0 0 0 0 0 0 0 0 0 0 0 0 0 0 0 0 0 0 0 0 0 0 0 0 0 0 0 0 0 0 0 0 0 0 0 0 0 0 0 0 0 0 0 0 0 236 137 148 237 74 152 224 0 72 0 0 0 0 0 0 0 0 0 0 0 0 0 0 0 0 0 0 0 0 0 0 0 0 0 0 0 0 0 0 0 0 0 0 161 120 120 0 76 0 76 76 76 0 76 120 0 76 169 120 76 161 120 120 0 0 0 0 0 120 152 107 76 169 120 0 0 0 0 0 0 0 0 0 0 0 0 0 120 76 76 120 120 76 169 0 0 0 76 152 152 120 0 0 107 120 182 106 74 167 167 0 149 74 74 106 74 0 0 74 237 74 212 0 167 106 167 0 74 106 74 0 0 0 0 0 106 167 149 167 0 0 0 0 0 0 0 0 0 0 0 0 0 0 0 0 0 0 0 0 0 0 0 0 0 0 0 0 0 0 0 0 0 0 0 0 0 0 0 0 0 0 0 0 0 0 0 0 0 0 0 0 0 0 0 0 0 0 0 0 0 0 0 0 0 0 0 0 0 0 0 0 0 0 0 0 0 0 0 0 0 0 128 80 183 0 101 0 0 0 160 72 72 0 0 0 76 120 152 0 0 0 0 0 0 0 0 0 0 0 0 0 0 0 0 0 0 0 0 0 0 0 0 0 0 0 0 0 0 152 152 0 0 0 0 160 113 0 0 0 0 0 0 0 0 0 0 0 0 0 0 0 0 0 0 0 0 0 0 113 152 113 0 0 0 107 76 182 217 212 212 212 237 237 212 237 237 204 139 76 76 0 74 167 167 74 0 0 0 0 120 169 104 160 113 0 0 0 0 0 0 0 0 0 0 0 0 0 0 0 0 0 0 0 0 0 0 0 0 0 0 0 0 0 0 0 0 0 0 0 0 0 0 0 0 0 72 0 0 0 0 0 0 0 0 0 0 0 0 0 0 0 0 0 0 0 0 0 0 0 0 160 113 152 152 0 0 0 0 
0 0 0 0 0 0 0 0 0 0 0 0 0 0 0 0 0 0 0 0 0 0 120 169 0 0 0 0 0 144 144 0 0 0 0 0 0 0 0 0 0 113 160 144 113 101 72 0 0 0 0 0 0 0 0 0 0 0 0 0 0 0 0 0 0 0 0 0 0 0 0 0 0 0 0 0 0 0 0 0 0 0 0 0 0 0 0 0 0 0 0 0 0 0 0 0 0 0 0 0 0 0 0 120 80 0 106 237 197 169 150 72 0 0 0 0 0 0 0 0 0 0 0 0 0 0 0 0 0 0 0 0 0 0 0 0 0 0 0 0 0 0 0 0 0 0 76 120 107 120 76 0 0 107 0 120 152 76 107 120 0 0 107 120 0 76 0 0 0 0 120 169 120 0 0 107 0 0 120 120 0 0 0 0 0 0 0 0 0 0 0 120 76 76 120 120 76 161 152 120 0 76 0 0 0 0 120 242 0 148 106 224 167 74 149 74 106 0 0 0 0 0 0 167 106 167 0 74 106 74 0 0 0 0 0 0 0 74 106 0 224 167 167 0 0 0 0 0 0 0 0 0 0 0 0 0 0 0 0 0 0 0 0 0 0 0 0 0 0 0 0 0 0 0 0 0 0 0 0 0 0 0 0 0 0 0 0 0 0 0 0 0 0 0 0 0 0 0 0 0 0 0 0 0 0 0 0 0 0 0 0 0 0 0 0 0 0 0 0 0 0 0 0 0 0 0 74 148 225 206 0 0 72 144 0 0 72 0 76 0 76 152 0 0 0 0 0 0 0 0 0 0 0 0 0 0 0 0 0 0 0 0 0 0 0 0 0 0 0 0 0 0 169 120 0 0 0 72 144 72 0 0 0 0 0 0 0 0 0 0 0 0 0 0 0 0 0 0 0 0 0 0 0 101 113 72 0 0 161 236 0 237 212 212 212 167 74 0 74 167 0 100 0 148 167 237 237 237 224 74 0 76 76 169 167 152 152 0 0 0 0 0 0 0 0 0 0 0 0 0 0 0 0 0 0 0 0 0 0 0 0 0 0 0 0 0 0 0 0 0 0 0 0 0 0 0 0 0 113 72 113 0 0 0 0 0 0 0 0 0 0 0 0 0 0 0 0 0 0 0 0 0 0 152 206 167 161 120 0 0 0 0 
0 0 0 0 0 0 0 0 0 0 0 0 0 0 0 0 0 0 0 0 0 0 152 152 0 0 0 0 0 144 144 0 0 0 0 0 0 0 0 0 0 72 0 0 101 0 0 72 0 0 0 0 0 0 0 0 0 0 0 0 0 0 0 0 0 0 0 0 0 0 0 0 0 0 0 0 0 0 0 0 0 0 0 0 0 0 0 0 0 0 0 0 0 0 0 0 0 0 0 0 0 0 0 211 123 167 74 237 0 169 0 0 0 0 0 0 0 0 0 0 0 0 0 0 0 0 0 0 0 0 0 0 0 0 0 76 0 0 0 0 120 120 76 76 0 0 0 120 120 0 0 0 0 107 0 0 0 76 0 120 107 152 120 0 0 0 0 0 0 120 107 0 120 169 76 76 152 120 0 76 76 0 0 76 0 0 0 0 0 0 0 0 76 0 76 76 0 76 0 0 107 0 0 0 120 169 242 0 203 167 224 106 237 74 74 106 74 0 0 0 74 106 106 74 74 74 0 74 106 74 0 0 0 0 0 0 0 167 167 224 0 106 74 0 0 0 0 0 0 0 0 0 0 0 0 0 0 0 0 0 0 0 0 0 0 0 0 0 0 0 0 0 0 0 0 0 0 0 0 0 0 0 0 0 0 0 0 0 0 0 0 0 0 0 0 0 0 0 0 0 0 0 0 0 0 0 0 0 0 0 0 0 0 0 0 0 0 0 0 0 0 0 0 0 0 0 0 217 187 136 163 0 0 152 101 0 0 0 0 76 120 152 0 0 0 0 0 0 0 0 0 0 0 0 0 0 0 0 0 0 0 0 0 0 0 0 0 0 0 0 0 161 161 0 0 0 0 72 144 72 0 0 0 0 0 0 0 0 0 0 0 0 0 0 0 0 0 0 0 0 0 0 0 101 72 101 74 236 0 0 224 74 0 0 0 0 0 0 0 0 74 167 237 212 237 167 74 74 224 237 204 92 120 212 206 152 0 0 0 0 0 0 0 0 0 0 0 0 0 0 0 0 0 0 0 0 0 0 0 0 0 0 0 0 0 0 0 0 0 0 0 0 0 0 0 0 0 0 113 72 113 0 0 0 0 0 0 0 0 0 0 0 0 0 0 0 0 0 0 0 0 0 113 160 167 161 120 0 0 0 0 0 
0 0 0 0 0 0 0 0 0 0 0 0 0 0 0 0 0 0 0 0 0 0 152 152 0 0 0 0 0 144 144 0 0 0 0 0 0 0 0 0 72 0 0 72 72 0 72 0 0 0 0 0 0 0 0 0 0 0 0 0 0 0 72 0 0 0 0 0 0 0 0 0 0 0 0 0 0 0 0 0 0 0 0 0 0 0 0 0 0 0 0 0 0 0 0 0 0 0 0 0 0 0 0 80 100 74 167 237 211 152 0 0 0 0 0 0 0 0 0 0 0 0 0 0 0 0 0 0 0 0 0 0 0 0 76 0 76 0 0 76 76 76 0 0 76 0 0 0 0 76 0 76 120 0 107 152 152 120 0 169 120 0 0 0 0 0 0 0 0 120 76 169 120 0 161 169 120 76 120 120 0 0 76 0 76 0 0 0 0 0 0 0 120 120 0 107 76 161 152 120 0 0 0 236 80 72 0 167 74 74 224 167 167 106 0 0 74 106 74 0 106 0 0 0 106 0 0 106 0 106 0 0 74 106 74 74 167 149 74 167 106 0 0 0 0 0 0 0 0 0 0 0 0 0 0 0 0 0 0 0 0 0 0 0 0 0 0 0 0 0 0 0 0 0 0 0 0 0 0 0 0 0 0 0 0 0 0 0 0 0 0 0 0 0 0 0 0 0 0 0 0 0 0 0 0 0 0 0 0 0 0 0 0 0 0 0 0 0 0 0 0 0 0 0 0 0 0 74 0 216 0 0 0 0 152 152 0 0 0 0 152 152 0 0 0 0 0 0 0 0 0 0 0 0 0 0 0 0 0 0 0 0 0 0 0 0 0 0 0 0 76 152 76 0 0 0 0 113 160 0 0 0 0 0 0 0 0 0 0 0 0 0 0 0 0 0 0 0 0 0 0 0 72 0 72 206 106 137 0 167 74 0 0 0 0 0 0 0 0 0 0 0 74 106 74 0 0 0 74 167 0 80 204 206 152 0 0 0 0 0 0 0 0 0 0 0 0 0 0 0 0 0 0 0 0 0 0 0 0 0 0 0 0 0 0 0 0 0 0 0 0 0 0 0 0 0 0 0 0 72 0 0 0 0 0 0 0 0 0 0 0 0 0 0 0 0 0 0 0 0 0 113 206 209 161 120 0 0 0 0 0 0 
0 0 0 0 0 0 0 0 0 0 0 0 0 0 0 0 0 0 0 0 0 0 120 169 0 0 0 0 0 113 160 0 0 0 0 0 72 0 0 0 0 72 0 72 0 101 0 0 0 0 0 0 0 0 0 0 0 0 0 0 0 72 0 72 0 0 0 0 0 0 0 0 0 0 0 0 0 0 0 0 0 0 0 0 0 0 0 0 0 0 0 0 0 0 0 0 0 0 0 0 0 0 190 150 217 74 237 217 169 120 0 0 0 0 0 0 0 0 0 0 0 0 0 0 0 0 0 0 0 0 0 0 0 0 0 76 0 0 0 0 120 120 76 76 0 120 120 0 0 107 76 120 107 0 107 152 152 152 169 161 0 0 0 0 0 0 76 76 107 0 107 0 0 76 120 120 169 161 0 0 0 0 0 76 0 0 0 0 0 0 0 161 169 120 107 120 161 120 0 0 0 0 161 247 217 167 106 74 74 74 74 106 167 74 0 0 106 74 149 74 74 106 106 106 74 0 0 74 106 74 0 0 167 167 224 74 106 74 167 167 74 0 0 0 0 0 0 0 0 0 0 0 0 0 0 0 0 0 0 0 0 0 0 0 0 0 0 0 0 0 0 0 0 0 0 0 0 0 0 0 0 0 0 0 0 0 0 0 0 0 0 0 0 0 0 0 0 0 0 0 0 0 0 0 0 0 0 0 0 0 0 0 0 0 0 0 0 0 0 0 0 0 0 0 0 0 0 0 167 236 114 0 0 0 72 144 72 0 0 0 169 120 0 0 0 0 0 0 0 0 0 0 0 0 0 0 0 0 0 0 0 0 0 0 0 0 0 0 0 0 0 161 161 0 0 0 0 113 160 0 0 0 0 0 0 0 0 0 0 0 0 0 0 0 0 0 0 0 0 0 0 0 0 74 0 0 187 217 74 0 0 0 0 0 0 0 0 0 0 0 0 0 0 0 0 0 0 0 0 0 74 100 173 185 0 0 0 0 0 0 0 0 0 0 0 0 0 0 0 0 0 0 0 0 0 0 0 0 0 0 0 0 0 0 0 0 0 0 0 0 0 0 0 0 0 0 0 0 0 0 0 0 0 0 0 0 0 0 0 0 0 0 0 0 0 0 0 0 0 0 152 160 209 212 120 0 0 0 0 0 0 0 
0 0 0 0 0 0 0 0 0 0 0 0 0 0 0 0 0 0 0 0 0 0 0 169 120 0 0 0 0 72 144 72 0 0 0 72 0 72 0 0 0 72 101 152 113 0 72 0 0 113 113 0 0 0 72 0 0 0 0 0 0 0 72 0 0 0 0 0 0 0 0 0 0 0 0 0 0 0 0 0 0 0 0 0 0 0 0 0 0 0 0 0 0 0 0 0 0 0 0 0 0 0 80 100 74 167 237 190 169 0 0 0 0 0 0 0 0 0 0 0 0 0 0 0 0 0 0 0 0 0 0 0 0 0 0 0 0 0 0 0 0 0 0 120 120 0 76 0 161 120 0 0 0 0 107 120 76 76 0 76 0 0 120 152 152 120 0 0 0 107 0 76 76 0 76 152 120 0 120 120 0 0 0 0 0 0 0 120 152 152 120 76 120 169 76 107 120 0 0 120 152 169 161 92 224 224 74 106 106 0 0 106 0 74 167 167 0 167 106 224 74 0 0 0 0 0 0 0 0 74 167 212 224 149 224 149 106 167 74 0 0 0 0 0 0 0 0 0 0 0 0 0 0 0 0 0 0 0 0 0 0 0 0 0 0 0 0 0 0 0 0 0 0 0 0 0 0 0 0 0 0 0 0 0 0 0 0 0 0 0 0 0 0 0 0 0 0 0 0 0 0 0 0 0 0 0 0 0 0 0 0 0 0 0 0 0 0 0 0 0 0 0 0 0 0 0 0 0 74 148 241 163 0 0 113 160 0 0 0 120 169 0 0 0 0 0 0 0 0 0 0 0 0 0 0 0 0 0 0 0 0 0 0 0 0 0 0 0 0 0 0 76 152 76 0 0 0 0 160 113 0 0 0 0 0 0 0 0 0 0 0 0 0 0 0 0 0 0 0 0 0 0 104 132 0 131 128 0 0 0 0 0 0 0 0 0 0 0 0 0 0 0 0 0 0 0 0 0 0 0 0 217 0 95 0 0 0 0 0 0 0 0 0 0 0 0 0 0 0 0 0 0 0 0 0 0 0 0 0 0 0 0 0 0 0 0 0 0 0 0 0 0 0 0 0 0 0 0 0 0 0 0 0 0 0 0 0 0 0 0 0 0 0 0 0 0 0 0 0 113 160 104 169 120 0 0 0 0 0 0 76 0 
0 0 0 0 0 0 0 0 0 0 0 0 0 0 0 0 0 0 0 0 0 0 0 152 152 0 0 0 0 72 144 72 0 0 0 0 72 0 0 0 152 144 113 113 0 72 0 0 72 72 72 72 0 72 0 72 0 0 0 0 0 0 0 0 0 0 0 0 0 0 0 0 0 0 0 0 0 0 0 0 0 0 0 0 0 0 0 0 0 0 0 0 0 0 0 0 0 0 0 0 0 120 115 252 0 212 212 120 169 0 0 0 0 0 0 0 0 0 0 0 0 0 0 0 0 0 0 0 0 0 0 0 0 0 0 0 0 0 0 0 0 0 76 76 0 120 76 107 161 76 161 152 76 120 120 120 76 76 76 120 0 120 161 120 0 0 107 76 76 0 76 0 0 0 76 0 0 76 76 76 76 0 0 0 0 0 161 169 152 152 107 107 152 76 120 120 0 0 161 169 211 0 197 74 74 237 106 167 167 106 106 74 0 106 167 167 224 106 149 106 149 74 0 0 0 0 0 0 74 224 237 212 106 106 106 167 167 0 0 0 0 0 0 0 0 0 0 0 0 0 0 0 0 0 0 0 0 0 0 0 0 0 0 0 0 0 0 0 0 0 0 0 0 0 0 0 0 0 0 0 0 0 0 0 0 0 0 0 0 0 0 0 0 0 0 0 0 0 0 0 0 0 0 0 0 0 0 0 0 0 0 0 0 0 0 0 0 0 0 0 0 0 0 0 0 0 0 0 0 217 0 95 0 0 113 160 0 0 0 120 169 0 0 0 0 0 0 0 0 0 0 0 0 0 0 0 0 0 0 0 0 0 0 0 0 0 0 0 0 0 0 120 169 0 0 0 0 0 144 144 0 0 0 0 0 0 0 0 0 0 0 0 0 0 0 0 0 0 0 0 0 179 213 0 73 74 0 0 0 0 0 0 0 0 0 0 0 0 0 0 0 0 0 0 0 0 0 0 0 0 0 74 148 241 163 0 0 0 0 0 0 0 0 0 0 0 0 0 0 0 0 0 0 0 0 0 0 0 0 0 0 0 0 0 0 0 0 0 0 0 0 0 0 0 0 0 0 0 0 0 0 0 0 0 0 0 0 0 0 0 0 0 0 0 0 0 0 0 0 160 163 161 161 0 0 0 0 0 0 0 0 0 
0 0 0 0 0 0 0 0 0 0 0 0 0 0 0 0 0 0 0 0 0 0 0 152 152 0 0 0 0 0 152 152 0 0 0 0 0 0 0 72 113 72 0 72 0 0 0 72 0 113 113 0 0 0 72 0 0 0 0 0 0 0 0 0 0 0 0 0 0 0 0 0 0 0 0 0 0 0 0 0 0 0 0 0 0 0 0 0 0 0 0 0 0 0 0 0 0 0 0 0 0 211 123 167 0 212 212 76 152 76 0 0 0 0 0 0 0 0 0 0 0 0 0 0 0 0 0 0 0 0 0 0 0 0 0 0 0 0 0 0 0 0 0 120 120 0 107 76 107 120 120 120 169 161 0 120 0 76 76 120 0 152 120 161 169 120 0 0 0 0 0 76 0 0 120 120 0 0 120 120 0 0 0 0 0 161 161 0 0 0 152 120 120 169 161 0 0 161 236 217 237 237 237 224 74 167 237 74 0 74 106 74 0 74 237 106 224 167 0 74 106 224 74 0 0 0 74 106 74 167 167 212 237 237 237 106 167 74 0 0 0 0 0 0 0 0 0 0 0 0 0 0 0 0 0 0 0 0 0 0 0 0 0 0 0 0 0 0 0 0 0 0 0 0 0 0 0 0 0 0 0 0 0 0 0 0 0 0 0 0 0 0 0 0 0 0 0 0 0 0 0 0 0 0 0 0 0 0 0 0 0 0 0 0 0 0 0 0 0 0 0 0 0 0 0 0 0 0 0 74 148 241 163 0 0 152 152 0 0 0 169 120 0 0 0 0 0 0 0 0 0 0 0 0 0 0 0 0 0 0 0 0 0 0 0 0 0 0 0 0 0 120 169 0 0 0 0 0 144 144 0 0 0 0 0 0 0 0 0 0 0 0 0 0 0 0 0 0 0 0 236 0 0 0 74 0 0 0 0 0 0 0 0 0 0 0 0 0 0 0 0 0 0 0 0 0 0 0 0 0 0 0 217 0 68 0 0 0 0 0 0 0 0 0 0 0 0 0 0 0 0 0 0 0 0 0 0 0 0 0 0 0 0 0 0 0 0 0 0 0 0 0 0 0 0 0 0 0 0 0 0 0 0 0 0 0 0 0 0 0 0 0 0 0 0 0 0 0 152 206 212 161 0 0 0 0 0 0 0 0 0 0 
0 0 0 0 0 0 0 0 0 0 0 0 0 0 0 0 0 0 0 0 0 0 0 152 152 0 0 0 0 0 101 113 72 0 0 0 0 0 0 0 113 144 152 113 0 72 101 72 113 0 0 0 0 0 0 0 0 0 0 0 0 0 0 0 0 0 0 0 0 0 0 0 0 0 0 0 0 0 0 0 0 0 0 0 0 0 0 0 0 0 0 0 0 0 0 0 0 0 0 0 0 80 100 74 74 237 167 120 169 0 0 0 0 0 0 0 0 0 0 0 0 0 0 0 0 0 0 0 0 0 0 0 0 0 0 76 0 0 0 0 0 0 0 0 76 0 0 120 161 0 120 169 76 76 120 0 107 76 76 0 0 120 120 107 76 152 120 0 0 0 0 0 161 169 120 120 76 0 0 0 0 0 0 120 169 161 0 0 120 120 76 120 169 120 0 120 169 161 148 167 74 106 106 149 224 0 237 167 0 106 0 106 0 0 167 224 106 106 237 106 74 167 106 0 0 74 224 212 149 106 212 212 167 74 74 149 0 149 74 0 0 0 0 0 0 0 0 0 0 0 0 0 0 0 0 0 0 0 0 0 0 0 0 0 0 0 0 0 0 0 0 0 0 0 0 0 0 0 0 0 0 0 0 0 0 0 0 0 0 0 0 0 0 0 0 0 0 0 0 0 0 0 0 0 0 0 0 0 0 0 0 0 0 0 0 0 0 0 0 0 0 0 0 0 0 0 0 0 0 0 252 229 0 0 0 101 113 72 0 0 120 169 0 0 0 0 0 0 0 0 0 0 0 0 0 0 0 0 0 0 0 0 0 0 0 0 0 0 0 0 0 0 169 120 0 0 0 0 144 144 0 0 0 0 0 0 0 0 0 0 0 0 0 0 0 0 0 0 104 83 0 234 179 0 0 0 74 167 167 74 0 0 0 0 0 0 0 0 0 0 0 0 0 0 0 0 0 0 0 0 0 0 74 236 215 0 0 0 0 0 0 0 0 0 0 0 0 0 0 0 0 0 0 0 0 0 0 0 0 0 0 0 0 0 0 0 0 0 0 0 0 0 0 0 0 0 0 0 0 0 0 0 0 0 0 0 0 0 0 0 0 0 0 0 0 0 0 113 160 167 169 0 0 0 0 0 0 0 0 0 0 0 
0 0 0 0 0 0 0 0 0 0 0 0 0 0 0 0 0 0 0 0 0 0 0 152 152 0 0 0 0 113 152 113 0 0 0 0 0 0 0 0 0 0 113 160 101 72 0 0 144 0 0 0 0 0 0 0 0 0 0 0 0 0 0 0 0 0 0 0 0 0 0 0 0 0 0 0 0 0 0 0 0 0 0 0 0 0 0 0 0 0 0 0 0 0 0 0 0 0 0 0 190 150 217 0 167 237 74 152 152 0 0 0 0 0 0 0 0 0 0 0 0 0 0 0 0 0 0 0 76 0 0 0 0 0 76 0 76 0 0 0 0 0 76 0 0 0 76 0 169 0 0 76 120 107 76 0 76 120 0 0 0 0 76 76 107 0 76 76 0 0 0 161 107 76 169 161 0 0 0 0 0 0 161 169 120 0 0 107 0 76 0 76 0 0 120 161 190 148 0 237 106 149 167 74 224 224 167 212 0 74 74 106 212 212 106 106 237 237 106 74 106 149 0 167 167 74 167 106 167 106 0 0 0 74 106 0 149 0 149 74 0 0 0 0 0 0 0 0 0 0 0 0 0 0 0 0 0 0 0 0 0 0 0 0 0 0 0 0 0 0 0 0 0 0 0 0 0 0 0 0 0 0 0 0 0 0 0 0 0 0 0 0 0 0 0 0 0 0 0 0 0 0 0 0 0 0 0 0 0 0 0 0 0 0 0 0 0 0 0 0 0 0 0 0 0 0 0 0 0 0 167 148 146 163 72 113 101 0 0 0 0 169 120 0 0 0 0 0 0 0 0 0 0 0 0 0 0 0 0 0 0 0 0 0 0 0 0 0 0 0 0 0 152 152 0 0 0 0 160 113 0 0 0 0 0 0 0 0 0 0 0 0 0 0 0 0 0 236 224 0 131 128 0 0 0 74 224 237 224 167 0 0 0 0 0 0 0 0 0 0 0 0 0 0 0 0 0 0 0 0 0 0 0 113 0 163 0 0 0 0 0 0 0 0 0 0 0 0 0 0 0 0 0 0 0 0 0 0 0 0 0 0 0 0 0 0 0 0 0 0 0 0 0 0 0 0 0 0 0 0 0 0 0 0 0 0 0 0 0 0 0 0 0 0 0 0 0 160 163 169 120 0 0 0 0 0 0 0 0 76 0 0 
0 0 0 0 0 0 0 0 0 0 0 0 0 0 0 0 0 0 0 0 0 0 0 152 152 0 0 0 0 144 144 0 0 0 0 0 0 0 0 72 0 0 0 160 0 0 0 72 72 72 0 0 0 0 72 0 0 0 0 0 0 0 0 0 0 0 0 0 0 0 0 0 0 0 0 0 0 0 0 0 0 0 0 0 0 0 0 0 0 0 0 0 0 0 0 0 0 0 0 0 0 123 74 0 212 212 0 152 152 0 0 0 0 0 0 0 0 0 0 0 0 0 0 0 0 0 0 76 0 76 0 0 0 0 0 0 76 120 0 0 0 161 120 76 76 0 120 169 107 107 152 161 76 120 161 0 76 76 76 0 0 0 120 107 76 169 76 0 76 120 169 107 107 169 120 0 0 0 0 0 0 120 169 0 0 0 76 0 120 120 0 0 0 120 161 190 149 74 106 167 74 106 224 74 74 237 74 212 0 74 149 149 167 167 167 74 74 106 237 167 106 167 237 237 237 149 106 212 167 74 0 0 0 106 0 106 74 149 74 74 106 74 0 0 0 0 0 0 0 0 0 0 0 0 0 0 0 0 0 0 0 0 0 0 0 0 0 0 0 0 0 0 0 0 0 0 0 0 0 0 0 0 0 0 0 0 0 0 0 0 0 0 0 0 0 0 0 0 0 0 0 0 0 0 0 0 0 0 0 0 0 0 0 0 0 0 0 0 0 0 0 0 0 0 0 0 0 0 0 0 74 0 243 95 0 160 113 0 0 0 0 152 152 0 0 0 0 0 0 0 0 0 0 0 0 0 0 0 0 0 0 0 0 0 0 0 0 0 0 0 0 0 152 152 0 0 0 113 160 0 0 0 0 0 0 0 0 0 0 0 0 0 0 0 0 0 0 0 247 0 74 0 0 0 74 224 224 0 237 167 0 0 0 0 0 0 0 0 0 0 0 0 0 0 0 0 0 0 0 0 0 0 0 217 0 68 0 0 0 0 0 0 0 0 0 0 0 0 0 0 0 0 0 0 0 0 0 0 0 0 0 0 0 0 0 0 0 0 0 0 0 0 0 0 0 0 0 0 0 0 0 0 0 0 0 0 0 0 0 0 0 0 0 0 0 0 152 206 212 161 0 0 0 0 0 0 0 0 120 76 76 0 
0 0 0 0 0 0 0 0 0 0 0 0 0 0 0 0 0 0 0 0 0 0 0 120 169 0 0 0 0 160 72 72 0 0 0 0 0 0 72 0 72 0 0 144 0 0 72 0 0 0 72 0 0 72 0 72 0 0 0 0 0 0 0 0 0 0 0 0 0 0 0 0 0 0 0 0 0 0 0 0 0 0 0 0 0 0 0 0 0 0 0 0 0 0 0 0 0 0 0 0 115 72 0 0 212 212 0 169 120 0 0 0 0 0 0 0 0 0 0 0 0 0 0 0 0 0 0 0 76 0 0 0 0 0 0 76 76 76 76 0 76 120 107 76 76 0 76 0 120 161 0 120 0 0 76 120 0 107 0 120 120 0 76 0 107 0 161 152 152 120 0 120 161 0 0 0 0 0 0 0 0 152 120 120 120 0 0 76 0 0 0 120 169 242 0 217 74 106 74 74 106 167 74 0 0 212 74 224 167 74 106 74 167 167 167 74 106 167 74 167 149 149 167 74 74 237 167 0 0 0 0 0 0 74 74 74 74 74 106 74 0 106 0 0 0 0 0 0 0 0 0 0 0 0 0 0 0 0 0 0 0 0 0 0 0 0 0 0 0 0 0 0 0 0 0 0 0 0 0 0 0 0 0 0 0 0 0 0 0 0 0 0 0 0 0 0 0 0 0 0 0 0 0 0 0 0 0 0 0 0 0 0 0 0 0 0 0 0 0 0 0 0 0 0 0 0 0 0 0 0 0 74 148 241 163 113 160 0 0 0 0 152 152 0 0 0 0 0 0 0 0 0 0 0 0 0 0 0 0 0 0 0 0 0 0 0 0 0 0 0 0 0 152 152 0 0 0 144 144 0 0 0 0 0 0 0 0 0 0 0 0 0 0 0 104 83 0 180 128 0 0 0 74 167 237 149 106 237 224 74 0 0 0 0 0 0 0 0 0 0 0 0 0 0 0 0 0 0 0 0 0 0 0 74 236 215 0 0 0 0 0 0 0 0 0 0 0 0 0 0 0 0 0 0 0 0 0 0 0 0 0 0 0 0 0 0 0 0 0 0 0 0 0 0 0 0 0 0 0 0 0 0 0 0 0 0 0 0 0 0 0 0 0 0 0 113 160 167 169 0 0 0 0 0 0 0 0 0 120 76 120 0 
0 0 0 0 0 0 0 0 0 0 0 0 0 0 0 0 0 0 0 0 0 0 0 76 152 76 0 0 113 160 0 0 72 0 0 0 0 0 0 72 0 0 0 113 0 0 0 0 0 72 0 72 0 0 72 0 0 0 0 0 0 0 0 0 0 72 0 0 0 0 0 0 0 0 0 0 0 0 0 0 0 0 0 0 0 0 0 0 0 0 0 0 0 0 0 0 0 0 0 190 150 217 0 74 237 167 76 152 76 0 0 0 0 0 0 0 0 0 0 0 0 0 0 0 0 0 0 0 0 0 0 0 0 0 0 0 120 76 76 120 0 120 120 76 76 76 120 120 0 120 120 0 76 0 76 0 76 0 161 169 169 120 0 107 0 161 161 76 0 107 169 76 76 120 0 0 76 0 0 120 120 76 107 0 76 76 0 0 0 0 120 161 120 217 224 149 74 0 167 212 167 167 0 74 167 224 149 167 237 149 74 74 74 106 74 74 106 106 167 212 224 167 74 167 212 149 167 74 0 0 74 106 74 0 106 0 106 0 0 74 106 0 106 74 0 0 0 0 0 0 0 0 0 0 0 0 0 0 0 0 0 0 0 0 0 74 106 74 0 0 0 0 0 0 0 0 0 0 0 0 0 0 0 0 0 0 0 0 0 0 0 0 0 0 0 0 0 0 0 0 0 0 0 0 0 0 0 0 0 0 0 0 0 0 0 0 0 0 0 0 0 0 0 0 0 0 0 0 0 0 0 0 217 247 136 0 152 152 0 0 0 152 152 0 0 0 0 0 0 0 0 0 0 0 0 0 0 0 0 0 0 0 0 0 0 0 0 0 0 0 0 120 161 120 0 0 0 113 160 0 0 0 0 0 0 0 0 0 0 0 0 0 0 236 224 0 131 128 0 0 0 74 224 237 106 149 237 167 74 0 0 0 0 0 0 0 0 0 0 0 0 0 0 0 0 0 0 0 0 0 0 0 0 0 113 0 163 0 0 0 0 0 0 0 0 0 0 0 0 0 0 0 0 0 0 0 0 0 0 0 0 0 0 0 0 0 0 0 0 0 0 0 0 0 0 0 0 0 0 0 0 0 0 0 0 0 0 0 0 0 0 0 0 0 0 160 163 169 120 0 0 0 0 0 0 0 0 0 0 76 0 0 
0 0 0 0 0 0 0 0 0 0 0 0 0 0 0 0 0 0 0 0 0 0 0 120 169 0 0 0 144 144 0 72 0 0 0 0 0 0 0 0 72 0 0 72 113 72 72 0 0 0 113 72 113 0 0 0 0 0 0 0 0 0 0 0 72 0 72 0 0 0 0 0 0 0 0 0 0 0 0 0 0 0 0 0 0 0 0 0 0 0 0 0 0 0 0 0 0 0 0 0 123 74 0 167 237 74 0 169 120 0 0 0 0 0 0 0 0 0 0 0 0 0 0 0 0 0 0 0 0 0 0 0 0 0 0 0 76 0 76 76 76 0 120 107 0 120 0 120 161 152 107 0 120 76 107 0 0 120 107 0 0 120 169 169 169 161 0 0 161 161 0 76 76 76 76 120 120 169 169 169 169 120 107 120 120 0 0 0 0 120 161 120 74 167 149 149 106 106 167 106 106 74 74 149 149 149 74 0 74 224 167 74 106 74 106 106 74 149 167 106 149 74 167 224 212 167 0 149 74 0 106 0 106 0 74 106 74 0 0 0 0 106 0 106 0 0 0 0 0 0 0 0 0 0 0 0 0 0 0 0 0 0 0 0 0 106 0 106 0 0 0 0 0 0 0 0 0 0 0 0 0 0 0 0 0 0 0 0 0 0 0 0 0 0 0 0 0 0 0 0 0 0 0 0 0 0 0 0 0 0 0 0 0 0 0 0 0 0 0 0 0 0 0 0 0 0 0 0 0 0 0 0 74 73 0 79 113 113 72 0 0 120 169 0 0 0 0 0 0 0 0 0 0 0 0 0 0 0 0 0 0 0 0 0 0 0 0 0 0 0 76 76 76 76 0 0 0 72 144 72 0 0 0 0 0 0 0 0 0 0 0 104 83 0 247 0 74 0 0 0 74 224 224 0 224 224 74 0 0 0 0 0 0 0 0 0 0 0 0 0 0 0 0 0 0 0 0 0 0 0 0 0 0 0 252 0 0 0 0 0 0 0 0 0 0 0 0 0 0 0 0 0 0 0 0 0 0 0 0 0 0 0 0 0 0 0 0 0 0 0 0 0 0 0 0 0 0 0 0 0 0 0 0 0 0 0 0 0 0 0 0 0 0 0 152 206 212 161 0 0 0 0 0 0 0 0 0 0 0 0 0 0 
0 0 0 0 0 0 0 0 0 0 0 0 0 0 0 0 0 0 0 0 0 0 0 152 152 0 0 0 113 160 0 0 0 0 0 0 0 0 0 72 0 72 0 72 113 72 0 0 0 72 113 72 113 0 0 0 0 0 0 0 0 0 0 0 0 72 0 0 0 0 0 0 0 0 0 0 0 0 0 0 0 0 0 0 0 0 0 0 0 0 0 0 0 0 0 0 0 0 0 115 72 0 0 212 212 0 0 152 152 0 0 0 0 0 0 0 0 0 0 0 0 0 0 0 0 0 0 120 120 0 0 0 0 0 0 76 0 0 120 120 0 76 76 0 107 0 120 161 120 0 120 76 120 0 161 169 152 120 0 0 107 0 0 150 189 74 0 161 161 0 0 0 120 120 0 169 107 107 0 120 120 0 107 0 0 0 0 0 161 242 223 92 106 74 106 106 167 106 167 74 74 167 237 167 74 106 0 0 0 74 167 149 167 74 74 167 237 224 106 167 237 212 224 167 0 74 167 106 237 167 0 106 74 0 0 0 0 0 74 106 74 74 106 74 0 0 0 0 74 167 167 74 0 0 0 0 0 0 0 74 167 167 74 0 0 74 106 74 0 0 0 0 0 0 0 0 0 0 0 0 0 0 0 0 0 0 0 0 0 0 0 0 0 0 0 0 0 0 0 0 0 0 0 0 0 0 0 0 0 0 0 0 0 0 0 0 0 0 0 0 0 0 0 0 0 0 0 0 0 0 0 0 0 74 148 176 116 101 0 0 0 0 169 120 0 0 0 0 0 0 0 0 0 0 0 0 0 0 0 0 0 0 0 0 0 0 0 0 0 0 0 120 161 120 0 0 0 113 160 0 0 0 0 0 0 0 0 0 0 0 104 132 0 131 128 0 0 0 74 167 237 224 0 224 224 74 0 0 0 0 0 0 0 0 0 0 0 0 0 0 0 0 0 0 0 0 0 0 0 0 0 0 0 0 167 0 97 0 0 0 0 0 0 0 0 0 0 0 0 0 0 0 0 0 0 0 0 0 0 0 0 0 0 0 0 0 0 0 0 0 0 0 0 0 0 0 0 0 0 0 0 0 0 0 0 0 0 0 0 0 0 0 0 113 160 167 169 0 0 0 0 0 0 0 0 0 0 0 0 0 0 0 
0 0 0 0 0 0 0 0 0 0 0 0 0 0 0 0 0 0 0 0 0 0 0 152 152 0 0 0 72 144 72 0 0 0 0 0 0 0 0 0 72 0 0 101 0 0 72 0 72 0 0 72 0 0 0 0 0 0 0 0 0 0 0 0 0 0 0 0 0 0 0 0 0 0 0 0 0 0 0 0 0 0 0 0 0 0 0 0 0 0 0 0 0 0 0 0 0 0 120 115 252 0 0 167 237 74 0 169 120 0 0 0 0 0 0 0 0 0 0 0 0 0 0 0 0 0 76 120 107 120 0 0 0 0 0 0 76 0 0 76 0 0 120 120 0 161 169 76 0 0 0 76 0 120 169 0 0 120 120 0 76 117 72 0 0 158 169 161 0 0 0 0 0 0 76 120 120 169 120 0 0 76 76 0 0 0 0 161 161 217 106 167 74 106 106 237 106 167 106 237 237 237 167 106 106 74 0 0 0 74 167 149 149 212 237 237 106 74 167 167 167 212 106 74 74 0 167 167 106 237 224 74 0 0 0 0 0 0 106 74 149 74 0 0 0 0 0 0 106 106 74 149 74 0 0 0 0 0 0 106 167 149 167 0 0 0 0 0 0 0 0 0 0 0 0 0 0 0 0 0 0 0 0 0 0 0 0 0 0 0 0 0 0 0 0 0 0 0 0 0 0 0 0 0 0 0 0 0 0 0 0 0 0 0 0 0 0 0 0 0 0 0 0 0 0 0 0 0 0 0 0 0 0 0 217 216 210 101 0 0 0 120 161 120 0 0 0 0 0 0 0 0 0 0 0 0 0 0 0 0 0 0 0 0 0 0 0 0 0 0 0 120 161 120 0 0 0 113 160 0 0 0 0 0 0 0 0 0 0 179 213 0 73 74 0 0 0 74 224 237 106 106 237 224 74 0 0 0 0 0 0 0 0 0 0 0 0 0 0 0 0 0 0 0 0 0 0 0 0 0 0 0 0 0 74 236 215 0 0 0 0 0 0 0 0 0 0 0 0 0 0 0 0 0 0 0 0 0 0 0 0 0 0 0 0 0 0 0 0 0 0 0 0 0 0 0 0 0 0 0 0 0 0 0 0 0 0 0 0 0 0 0 0 160 163 169 120 0 0 0 0 0 0 0 0 0 0 0 0 0 0 0 
0 0 0 0 0 0 0 0 0 0 0 0 0 0 0 0 0 0 0 0 0 0 0 152 152 0 0 0 72 144 72 0 0 0 0 0 0 0 0 0 0 0 72 113 113 144 72 0 0 0 0 0 0 0 0 0 0 0 0 0 0 0 0 0 0 0 0 0 0 0 0 0 0 0 0 0 0 0 0 0 0 0 0 0 0 0 0 76 0 0 0 0 0 0 0 0 0 0 211 123 167 0 0 106 212 106 120 169 0 0 0 0 0 0 0 0 0 0 0 0 0 0 0 0 0 0 0 169 0 152 0 0 0 0 0 0 0 0 76 0 76 0 0 120 169 161 0 76 0 76 0 120 152 161 120 0 161 120 0 0 107 116 0 104 218 218 120 0 0 0 120 152 152 152 120 0 0 0 120 169 152 120 0 0 0 0 161 236 148 106 74 167 106 167 149 167 74 212 167 167 167 74 0 0 0 0 0 0 0 106 167 74 149 212 106 74 149 167 167 167 0 0 106 0 106 0 74 237 167 74 237 167 0 0 0 0 0 0 74 149 0 149 74 0 0 0 0 0 74 167 167 0 149 74 0 0 0 74 106 0 224 167 167 0 0 0 0 0 0 0 0 0 0 0 0 0 0 0 0 0 0 0 0 0 0 0 0 0 0 0 0 0 0 0 0 0 0 0 0 0 0 0 0 0 0 0 0 0 0 0 0 0 0 0 0 0 0 0 0 0 0 0 0 0 0 0 0 0 0 0 0 0 0 0 74 131 234 128 101 0 76 76 76 76 0 0 0 0 0 0 0 0 0 0 0 0 0 0 0 0 0 0 0 0 0 0 0 0 0 0 76 120 107 0 0 0 0 72 144 72 0 0 0 0 0 0 0 0 236 0 0 0 74 0 0 74 167 237 224 0 224 237 167 74 0 0 0 0 0 0 0 0 0 0 0 0 0 0 0 0 0 0 0 0 0 0 0 0 0 0 0 0 0 0 0 145 0 113 0 0 0 0 0 0 0 0 0 0 0 0 0 0 0 0 0 0 0 0 0 0 0 0 0 0 0 0 0 0 0 0 0 0 0 0 0 0 0 0 0 0 0 0 0 0 0 0 0 0 0 0 0 0 152 206 212 161 0 0 0 0 0 0 0 0 0 0 0 0 0 0 0 0 
0 0 0 0 0 0 0 0 0 0 0 0 0 0 0 0 0 0 0 0 0 0 0 152 152 0 0 0 0 160 113 0 0 0 0 0 0 0 0 0 0 0 0 152 152 0 72 0 72 0 0 0 0 0 0 0 0 72 0 0 0 0 0 0 0 0 0 0 0 0 0 0 0 0 0 0 0 0 0 0 0 0 0 0 0 0 76 0 76 0 0 0 0 0 0 0 0 0 80 100 74 0 0 167 237 74 152 152 0 0 0 0 0 0 0 0 0 0 0 0 0 0 0 0 0 0 0 120 76 120 0 0 0 0 0 0 0 0 0 76 0 0 161 120 0 76 0 0 76 0 161 169 152 120 0 76 120 120 169 120 0 74 189 218 161 0 0 0 0 76 120 120 120 0 0 0 120 152 120 0 0 0 0 0 0 161 236 203 74 74 149 0 106 149 106 0 149 167 212 74 106 74 0 0 0 74 167 167 106 74 149 167 167 0 167 106 74 106 0 106 74 106 0 106 0 106 74 167 224 212 149 167 74 0 0 0 0 0 0 74 149 0 149 74 0 0 0 0 0 0 74 149 0 149 74 0 0 167 106 167 74 106 74 0 0 0 0 0 0 0 0 0 0 0 0 0 0 0 0 0 0 0 0 0 0 0 0 0 0 0 0 0 0 0 0 0 0 0 0 0 0 0 0 0 0 0 0 0 0 0 0 0 0 0 0 0 0 0 0 0 0 0 0 0 0 0 0 0 0 0 0 0 0 0 0 128 187 175 0 113 0 120 161 120 0 0 0 0 0 0 0 0 0 0 0 0 0 0 0 0 0 0 0 0 0 0 0 0 0 0 0 169 120 0 0 0 0 113 160 0 0 0 0 0 0 0 104 83 0 234 179 0 0 0 74 224 237 167 0 224 224 74 0 0 0 0 0 0 0 0 0 0 0 0 0 0 0 0 0 0 0 0 0 0 0 0 0 0 0 0 0 0 0 0 0 108 252 144 0 0 0 0 0 0 0 0 0 0 0 0 0 0 0 0 0 0 0 0 0 0 0 0 0 0 0 0 0 0 0 0 0 0 0 0 0 0 0 0 0 0 0 0 0 0 0 0 0 0 0 0 0 113 212 212 161 0 0 0 0 0 0 0 0 0 0 0 0 0 0 0 0 0 
0 0 0 0 0 0 0 0 0 0 0 0 0 0 0 0 0 0 0 0 0 0 0 152 152 0 0 0 0 144 144 0 0 0 0 0 0 0 0 0 0 0 0 0 160 113 0 72 0 0 0 0 0 0 0 0 72 0 72 0 0 0 0 0 0 0 0 0 0 0 0 0 0 0 0 0 0 0 0 0 0 0 0 0 0 0 0 76 0 0 0 0 0 0 0 0 0 120 115 252 0 0 0 212 212 0 152 152 0 0 0 0 0 0 0 0 0 0 0 0 0 0 0 0 0 0 0 0 76 0 76 0 0 0 0 76 0 0 0 0 120 169 107 107 120 120 0 0 0 161 161 0 0 120 152 76 76 120 0 0 120 169 169 120 0 0 0 0 120 120 120 0 161 169 152 161 120 0 0 0 0 0 0 0 161 161 217 149 167 74 74 106 74 0 74 106 106 167 167 106 74 149 74 0 74 224 237 237 167 74 74 106 0 167 224 106 106 0 106 167 106 74 149 74 106 0 106 74 167 212 149 106 224 74 0 0 0 0 0 0 74 149 74 106 0 0 0 0 0 0 0 74 167 106 224 74 0 167 106 167 0 0 0 0 0 0 0 0 0 0 0 0 0 0 0 0 0 0 0 0 0 0 0 0 0 0 0 0 0 0 0 0 0 0 0 0 0 0 0 0 0 0 0 0 0 0 0 0 0 0 0 0 0 0 0 0 0 0 0 0 0 0 0 0 0 0 0 0 0 0 0 0 0 0 0 0 217 0 233 113 0 0 152 152 0 0 0 0 0 0 0 0 0 0 0 0 0 0 0 0 0 0 0 0 0 0 0 0 0 0 0 152 152 0 0 0 0 160 113 0 0 0 0 0 0 236 224 0 131 128 0 0 0 74 224 224 74 74 224 224 74 0 0 0 0 0 0 0 0 0 0 0 0 0 0 0 0 0 0 0 0 0 0 0 0 0 0 0 0 0 0 0 0 0 0 108 252 144 0 0 0 0 0 0 0 0 0 0 0 0 0 0 0 0 0 0 0 0 0 0 0 0 0 0 0 0 0 0 0 0 0 0 0 0 0 0 0 0 0 0 0 0 0 0 0 0 0 0 0 0 0 212 0 161 0 0 0 0 0 0 0 0 0 0 0 0 0 0 0 0 0 0 
0 0 0 0 0 0 0 0 0 0 0 0 0 0 0 0 0 0 0 0 0 0 0 120 169 0 0 0 0 144 144 0 0 0 0 0 0 0 0 0 0 0 113 144 101 113 72 72 0 0 0 72 0 0 0 0 0 72 0 0 0 0 0 0 0 0 0 0 0 0 0 0 0 0 0 0 0 0 0 0 0 0 0 0 0 0 0 0 0 0 0 0 0 0 0 0 0 152 108 212 0 74 106 167 212 0 152 152 0 0 0 0 0 0 0 0 0 0 0 0 0 0 0 0 0 0 0 0 0 76 0 76 0 0 76 0 76 0 0 161 169 120 0 152 0 169 0 0 120 169 0 0 76 76 0 76 76 0 0 161 169 120 0 0 0 120 152 169 169 120 0 120 161 0 120 161 120 0 0 0 0 0 120 169 161 0 212 167 237 74 74 74 106 74 0 149 149 106 74 74 149 74 74 167 237 224 0 149 149 149 0 167 237 237 167 106 106 149 74 149 106 74 0 167 106 74 74 0 0 0 167 149 106 149 74 0 0 74 106 74 0 74 106 74 0 0 0 0 0 0 0 0 167 167 149 224 74 74 106 74 0 0 0 0 0 0 0 0 0 0 0 0 0 0 0 0 0 0 0 0 0 0 0 0 0 0 0 0 0 0 0 0 0 0 0 0 0 0 0 0 0 0 0 0 0 0 0 0 0 0 0 0 0 0 0 0 0 0 0 0 0 0 0 0 0 0 0 0 0 0 0 0 0 0 0 0 74 148 114 74 0 0 169 120 0 0 0 0 0 0 0 0 0 0 0 0 0 0 0 0 0 0 0 0 0 0 0 0 0 0 120 161 120 0 0 0 113 160 0 0 0 0 0 104 83 0 247 0 74 0 0 0 74 224 224 0 167 237 224 74 0 0 0 0 0 0 0 0 0 0 0 0 0 0 0 0 0 0 0 0 0 0 0 0 0 0 0 0 0 0 0 0 0 0 0 108 252 144 0 0 0 0 0 0 0 0 0 0 0 0 0 0 0 0 0 0 0 0 0 0 0 0 0 0 0 0 0 0 0 0 0 0 0 0 0 0 0 0 0 0 0 0 0 0 0 0 0 0 0 0 152 0 218 0 0 0 0 0 0 0 0 0 0 0 0 0 0 0 0 0 0 0 
0 0 0 0 0 0 0 0 0 0 0 0 0 0 0 0 0 0 0 0 0 0 0 76 152 76 0 0 0 144 144 0 0 0 0 0 0 0 0 0 0 72 72 0 0 72 0 0 72 0 72 0 72 0 0 0 0 0 0 0 0 0 0 0 0 0 0 0 0 0 0 0 0 0 0 0 0 0 0 0 0 0 0 0 0 0 0 0 0 0 0 0 0 0 0 0 0 211 123 167 0 106 74 149 106 106 211 152 0 0 0 0 0 0 0 0 0 0 0 0 0 0 0 0 0 0 0 0 0 116 117 0 0 0 0 76 0 0 76 120 120 120 0 161 107 107 169 152 107 107 152 120 0 120 152 120 0 120 169 161 0 0 0 0 107 107 120 120 0 161 169 76 0 107 161 120 0 0 0 0 0 161 169 120 0 0 167 237 106 149 149 106 0 106 74 106 106 0 0 0 74 74 149 237 106 106 237 237 167 0 224 237 167 74 0 0 74 74 106 149 237 149 74 106 149 167 0 74 106 74 74 167 149 106 224 74 0 167 167 224 74 0 74 106 74 0 0 74 106 74 74 167 106 149 167 167 106 0 0 0 0 0 0 0 0 0 0 0 0 0 0 0 0 0 0 0 0 0 0 0 0 0 0 0 0 0 0 0 0 0 0 0 0 0 0 0 0 0 0 0 0 0 0 0 0 0 0 0 0 0 0 0 0 0 0 0 0 0 0 0 0 0 0 0 0 0 0 0 0 0 0 0 0 0 0 0 0 217 130 80 190 0 152 76 0 0 0 0 0 0 0 0 0 0 0 0 0 0 0 0 0 0 0 0 0 0 0 0 0 76 120 107 0 0 0 0 160 113 0 0 0 104 0 241 0 131 128 0 0 0 74 167 237 149 106 237 237 167 74 0 0 0 0 0 0 0 0 0 0 0 0 0 0 0 0 0 0 0 0 0 0 0 0 0 0 0 0 0 0 0 0 0 0 0 0 108 252 144 0 0 0 0 0 0 0 0 0 0 0 0 0 0 0 0 0 0 0 0 0 0 0 0 0 0 0 0 0 0 0 0 0 0 0 0 0 0 0 0 0 0 0 0 0 0 0 0 0 0 0 152 206 218 120 0 0 0 0 0 0 0 0 0 0 0 0 0 0 0 0 0 0 0 
0 0 0 0 0 0 0 0 0 0 0 0 0 0 0 0 0 0 0 0 0 0 0 120 169 0 0 0 0 144 144 0 0 0 0 0 0 0 0 0 0 72 72 0 0 0 0 0 72 0 0 72 0 0 0 0 0 0 0 0 0 0 0 0 0 0 0 0 0 0 0 0 0 0 0 0 0 0 0 0 0 0 0 0 0 0 0 0 0 0 0 0 0 0 0 0 0 0 123 74 0 74 167 167 106 106 0 169 74 72 0 0 0 0 0 0 0 0 0 0 0 0 0 0 0 0 0 0 101 0 72 0 0 0 0 120 120 0 0 120 120 120 76 76 152 0 120 120 76 76 0 76 76 0 0 120 169 120 0 120 120 76 120 169 120 0 76 0 161 161 0 120 76 0 152 0 0 0 0 0 161 236 148 74 0 0 106 212 74 167 106 74 149 167 167 0 149 74 0 0 0 167 237 74 167 224 167 0 167 237 224 74 0 0 0 0 106 74 74 149 106 167 106 224 106 167 74 106 74 149 74 0 167 149 167 106 0 167 167 149 224 74 106 74 167 167 74 106 74 167 237 237 224 106 167 167 74 0 0 0 0 0 0 0 0 0 0 0 0 0 0 0 0 0 0 0 0 0 0 0 0 0 0 0 0 0 0 0 0 0 0 0 0 0 0 0 0 0 0 0 0 0 0 0 0 0 0 0 0 0 0 0 0 0 0 0 0 0 0 0 0 0 0 0 0 0 0 0 0 0 0 0 0 0 0 0 0 74 217 100 133 182 107 169 120 0 0 0 0 0 0 0 0 0 0 0 0 0 0 0 0 0 0 0 0 0 0 0 0 0 161 161 0 0 0 113 160 0 0 0 236 224 0 213 0 74 0 0 0 74 224 237 106 149 237 167 74 0 0 0 0 0 0 0 0 0 0 0 0 0 0 0 0 0 0 0 0 0 0 0 0 0 0 0 0 0 0 0 0 0 0 0 0 0 0 108 252 144 0 0 0 0 0 0 0 0 0 0 0 0 0 0 0 0 0 0 0 0 0 0 0 0 0 0 0 0 0 0 0 0 0 0 0 0 0 0 0 0 0 0 0 0 0 0 0 0 0 0 113 160 167 169 0 0 0 0 0 0 0 0 0 0 0 0 0 0 0 0 0 0 0 0 
0 0 0 0 0 0 0 0 0 0 0 0 0 0 0 0 0 0 0 0 0 0 0 152 152 0 0 0 0 144 144 0 0 0 0 0 0 0 0 0 0 72 113 113 113 0 113 101 113 0 0 0 0 0 0 0 0 0 0 0 0 0 0 0 0 0 0 0 0 0 0 0 0 0 0 0 0 0 0 0 0 0 0 0 0 0 0 0 0 0 0 0 0 0 0 0 0 115 72 0 0 74 167 167 106 106 197 169 189 0 72 0 0 0 0 0 0 0 0 0 0 0 0 0 0 0 0 101 0 101 0 0 0 0 76 76 76 76 0 120 169 161 0 161 161 0 0 120 120 107 169 120 0 0 161 120 0 120 120 76 107 76 161 120 0 0 120 169 161 0 0 169 76 76 120 0 0 0 0 161 161 217 106 167 0 0 106 167 167 212 167 149 149 74 74 149 74 106 0 0 0 167 224 212 224 167 0 167 224 167 74 0 74 106 74 0 74 149 74 74 167 106 167 0 149 0 149 0 149 74 74 106 0 167 167 0 167 106 149 149 149 224 0 149 74 74 149 74 167 167 106 106 224 167 0 0 0 0 0 0 0 0 0 0 0 0 0 0 0 0 0 0 0 0 0 0 0 0 0 0 0 0 0 0 0 0 0 0 0 0 0 0 0 0 0 0 0 0 0 74 106 74 0 0 0 0 0 0 0 0 0 0 0 0 0 0 0 0 0 0 0 0 0 0 0 0 0 0 0 0 0 0 0 0 0 0 0 0 0 74 0 137 0 74 107 120 0 0 0 0 0 0 0 0 0 0 0 0 0 0 0 0 0 0 0 0 0 0 0 0 76 152 76 0 0 160 113 0 104 83 0 247 0 74 0 0 74 167 212 237 224 0 224 224 74 0 0 0 0 0 0 0 0 0 0 0 0 0 0 0 0 0 0 0 0 0 0 0 0 0 0 0 0 0 0 0 0 0 0 0 0 0 0 0 0 108 252 144 0 0 0 0 0 0 0 0 0 0 0 0 0 0 0 0 0 0 0 0 0 0 0 0 0 0 0 0 0 0 0 0 0 0 0 0 0 0 0 0 0 0 0 0 0 0 0 0 0 0 144 185 169 120 0 0 0 0 0 0 0 0 0 0 0 0 0 0 0 0 0 0 0 0 
0 0 0 0 0 0 0 0 0 0 0 0 0 0 0 0 0 0 0 0 0 0 0 152 152 0 0 0 0 144 113 72 0 0 0 0 0 0 0 0 113 72 101 160 113 0 152 113 113 0 0 0 0 0 0 0 0 0 0 0 0 0 0 0 0 0 0 0 0 0 0 0 0 0 0 0 0 0 0 0 0 0 0 0 0 0 0 0 0 0 0 0 0 0 0 0 120 115 252 0 0 106 74 149 106 148 190 161 150 72 0 0 0 0 0 0 0 0 0 0 0 0 0 0 0 72 0 0 101 0 0 0 0 76 0 107 0 120 169 120 0 120 169 161 0 76 0 120 120 161 0 0 120 120 76 120 169 76 107 152 120 76 161 152 169 169 152 120 0 0 120 169 76 76 0 0 0 0 161 161 0 167 106 106 167 167 0 167 212 212 167 74 106 0 0 74 106 0 167 212 212 106 106 212 167 0 167 149 167 74 0 74 224 167 167 0 74 74 74 0 74 74 74 106 74 149 74 106 74 106 74 0 74 106 74 106 167 167 149 149 167 106 167 106 106 149 106 212 224 0 224 237 167 74 0 0 0 0 0 0 0 0 0 0 0 0 0 0 0 0 0 0 0 0 0 0 0 0 0 0 0 0 0 0 0 0 0 0 0 0 0 0 0 0 0 0 74 167 167 74 0 106 0 0 0 0 0 0 0 0 0 0 0 0 0 0 0 0 0 0 0 0 0 0 0 0 0 0 0 0 0 0 0 0 0 0 0 0 0 0 74 217 100 133 167 120 0 0 0 0 0 0 0 0 0 0 0 0 0 0 0 0 0 0 0 0 0 0 0 0 161 161 0 0 72 113 146 68 241 0 131 128 0 0 0 0 106 106 74 74 106 237 224 74 0 0 0 0 0 0 0 0 0 0 0 0 0 0 0 0 0 0 0 0 0 0 0 0 0 0 0 0 0 0 0 0 0 0 0 0 0 0 0 0 74 168 215 113 0 0 0 0 0 0 0 0 0 0 0 0 0 0 0 0 0 0 0 0 0 0 0 0 0 0 0 0 0 0 0 0 0 0 0 0 0 0 0 0 0 0 0 0 0 0 0 0 0 0 212 0 161 0 0 0 0 0 0 0 0 0 0 0 0 0 0 0 0 0 0 0 0 0 
0 0 0 0 0 0 0 0 0 0 0 0 0 0 0 0 0 0 0 0 0 0 0 169 120 0 0 0 0 144 0 72 113 0 0 0 0 0 0 72 113 113 101 72 160 152 0 72 0 0 0 0 0 0 0 0 0 0 0 0 0 0 0 0 0 0 0 0 0 0 0 0 0 0 0 0 0 0 0 0 0 0 0 0 0 0 0 0 0 0 0 0 0 0 0 0 152 108 212 0 0 74 74 167 167 120 161 120 0 0 0 0 0 0 0 0 0 0 0 0 0 0 0 0 72 0 0 72 0 0 0 0 76 0 76 120 161 152 76 107 169 152 76 0 0 0 76 0 76 0 120 169 120 76 120 120 0 161 107 0 0 0 0 120 120 0 0 0 0 0 120 169 0 0 0 0 120 169 161 0 0 74 106 106 224 237 224 74 0 0 74 106 74 0 0 74 167 237 237 167 74 106 106 0 74 224 237 149 106 224 74 106 167 74 167 106 149 74 74 149 74 74 74 106 167 0 106 74 0 0 74 74 74 106 149 0 224 149 149 149 106 167 106 167 224 167 167 74 74 149 237 74 0 0 0 0 0 0 0 74 106 74 0 0 0 0 0 0 0 0 0 0 0 0 0 0 0 0 0 0 0 0 0 0 0 0 0 0 0 0 0 0 0 0 74 167 237 237 224 106 106 74 0 0 0 0 0 0 0 0 0 0 0 0 0 0 0 0 0 0 0 0 0 0 0 0 0 0 0 0 0 0 0 0 0 0 0 0 0 0 0 0 74 0 0 92 0 0 0 0 0 0 0 0 0 0 0 0 0 0 0 0 0 0 0 0 0 0 0 120 169 0 0 0 0 206 193 0 213 0 74 0 0 0 0 0 74 167 237 212 237 167 74 0 0 0 0 0 0 0 0 0 0 0 0 0 0 0 0 0 0 0 0 0 0 0 0 0 0 0 0 0 0 0 0 0 0 0 0 0 0 0 0 0 167 236 114 0 0 0 0 0 0 0 0 0 0 0 0 0 0 0 0 0 0 0 0 0 0 0 0 0 0 0 0 0 0 0 0 0 0 0 0 0 0 0 0 0 0 0 0 0 0 0 0 0 0 152 0 218 0 0 0 0 0 0 0 0 0 0 0 0 0 0 0 0 0 0 0 0 0 0 
0 0 0 0 0 0 0 0 0 0 0 0 0 0 0 0 0 0 0 0 0 0 76 120 107 0 0 0 0 144 0 72 113 0 0 0 0 0 0 0 152 113 113 0 101 113 72 0 0 0 0 0 0 0 0 0 0 0 0 0 0 0 0 0 0 0 0 0 0 0 0 0 0 0 0 0 0 0 0 0 0 0 0 0 0 0 0 0 0 0 0 0 0 0 0 0 211 123 167 0 0 0 167 237 74 152 152 0 0 0 0 0 0 0 0 0 0 0 0 0 0 0 0 0 0 72 0 0 0 0 0 0 0 76 0 120 161 152 169 161 0 0 76 0 0 76 0 0 0 161 169 76 107 161 0 0 161 161 0 0 76 120 120 169 152 152 152 152 152 152 120 120 76 0 0 161 169 120 0 0 0 0 0 167 237 0 237 167 0 0 0 0 0 0 74 224 237 106 106 237 237 167 0 167 167 167 74 237 149 224 237 106 106 149 74 74 106 106 106 74 106 0 224 237 224 167 0 0 74 106 74 106 106 74 149 167 74 224 167 167 106 74 224 149 149 106 167 149 167 167 167 0 0 0 0 0 0 0 0 106 0 106 0 0 0 0 0 0 0 0 0 0 0 0 0 0 0 0 0 0 0 0 0 0 0 0 0 0 0 0 0 0 0 0 167 224 167 74 212 212 0 0 0 0 0 0 0 0 0 0 0 0 0 0 0 0 0 0 0 0 0 0 0 0 0 0 0 0 0 0 0 0 0 0 0 0 0 0 0 0 0 0 0 74 224 224 74 0 0 0 0 0 0 0 0 0 0 0 0 0 0 0 0 0 0 0 0 0 0 169 120 0 0 190 0 150 137 217 74 0 0 0 0 74 106 74 0 0 74 106 74 0 0 0 0 0 0 0 0 0 0 0 0 0 0 0 0 0 0 0 0 0 0 0 0 0 0 0 0 0 0 0 0 0 0 0 0 0 0 0 0 0 0 0 212 252 0 0 0 0 0 0 0 0 0 0 0 0 0 0 0 0 0 0 0 0 0 0 0 0 0 0 0 0 0 0 0 0 0 0 0 0 0 0 0 0 0 0 0 0 0 0 0 0 0 0 113 212 218 120 0 0 0 0 0 0 0 0 0 0 0 0 0 0 0 0 0 0 0 0 0 0 
0 0 0 0 0 0 0 0 0 0 0 0 0 0 0 0 0 0 0 0 0 0 0 107 120 76 0 0 0 144 113 72 0 0 0 0 0 0 0 0 101 0 0 113 160 113 0 0 0 0 0 0 0 0 0 0 0 0 0 0 0 0 0 0 0 0 0 0 0 0 0 0 0 0 0 0 0 0 0 0 0 0 0 0 0 0 0 0 0 0 0 0 0 0 0 0 0 123 74 0 0 0 212 212 0 152 152 0 0 0 0 0 0 0 0 0 0 0 0 0 0 0 72 0 0 0 0 0 76 0 0 0 0 76 0 0 120 152 120 0 0 76 0 76 0 0 0 0 107 76 120 120 76 120 152 120 76 107 0 0 76 161 107 120 152 120 0 0 120 152 152 120 0 0 161 161 0 74 106 74 0 0 0 74 224 237 224 167 0 0 0 0 0 0 167 237 0 224 237 167 74 0 167 224 167 0 167 224 74 74 167 237 224 106 74 106 106 74 167 0 0 106 212 74 167 167 106 106 149 167 224 0 149 167 106 212 0 74 167 167 0 167 106 167 106 167 106 167 149 106 74 74 106 74 0 0 0 0 0 74 106 74 0 0 0 0 0 0 0 0 0 0 0 0 0 0 0 0 0 0 0 0 0 0 0 0 0 0 0 0 0 0 0 74 237 167 0 74 237 167 0 0 0 0 0 0 0 0 0 0 0 0 0 0 0 0 0 0 0 0 0 0 0 0 0 0 0 0 0 0 0 0 0 0 0 0 0 0 0 0 0 0 0 0 74 237 167 0 0 0 0 0 0 0 0 0 0 0 0 0 0 0 0 0 0 0 0 0 76 120 120 152 242 133 123 0 128 0 0 0 0 0 0 106 0 106 0 0 0 0 0 0 0 0 0 0 0 0 0 0 0 0 0 0 0 0 0 0 0 0 0 0 0 0 0 0 0 0 0 0 0 0 0 0 0 0 0 0 0 0 0 0 0 0 252 0 0 0 0 0 0 0 0 0 0 0 0 0 0 0 0 0 0 0 0 0 0 0 0 0 0 0 0 0 0 0 0 0 0 0 0 0 0 0 0 0 0 0 0 0 0 0 0 0 0 0 160 234 169 0 0 0 0 0 0 0 0 0 0 0 0 0 0 0 0 0 0 0 0 0 0 0 
0 0 0 0 0 0 0 0 0 0 0 0 0 0 0 0 0 0 0 0 0 0 0 120 169 0 0 0 0 144 144 0 0 0 0 0 0 0 0 101 101 113 144 113 0 72 0 0 0 0 0 0 0 0 0 0 0 0 0 0 0 0 0 0 0 0 0 0 0 0 0 0 0 0 0 0 0 0 0 0 0 0 0 0 0 0 0 0 0 0 0 0 0 0 0 0 108 108 0 0 0 74 237 167 0 120 169 0 0 0 0 0 0 0 0 0 0 0 0 0 0 72 0 104 0 0 0 76 0 76 0 0 120 76 120 0 0 0 76 0 76 0 76 0 0 120 152 169 76 107 120 0 0 76 0 0 76 120 76 120 161 120 0 0 0 161 120 120 76 0 0 0 0 161 161 0 0 106 0 106 0 0 0 0 74 167 167 74 0 0 0 0 0 0 167 224 237 224 74 0 0 74 237 106 74 106 167 0 106 74 74 74 149 149 74 74 74 74 167 74 0 74 224 167 74 74 167 167 0 149 106 149 0 224 167 167 0 0 0 74 224 237 237 106 149 224 149 106 74 0 0 106 74 149 74 0 0 0 0 0 0 0 0 0 0 0 0 0 0 0 0 0 0 0 0 0 0 0 0 0 0 0 0 0 0 0 0 0 0 0 0 74 167 237 224 0 167 237 224 74 0 0 0 0 0 0 0 0 0 0 0 0 0 0 0 0 0 0 0 0 0 0 0 0 0 0 0 0 0 0 0 0 0 0 0 0 0 0 0 0 0 0 0 0 0 167 237 74 0 0 0 0 0 0 0 0 0 0 0 0 0 0 0 0 0 0 0 0 0 167 0 108 100 0 74 0 0 0 0 0 0 0 0 74 106 74 0 0 0 0 0 0 0 0 0 0 0 0 0 0 0 0 0 0 0 0 0 0 0 0 0 0 0 0 0 0 0 0 0 0 0 0 0 0 0 0 0 0 0 0 0 0 0 0 72 0 185 0 0 0 0 0 0 0 0 0 0 0 0 0 0 0 0 0 0 0 0 0 0 0 0 0 0 0 0 0 0 0 0 0 0 0 0 0 0 0 0 0 0 0 0 0 0 0 0 152 206 218 120 0 0 0 0 0 0 0 0 0 0 0 0 0 0 0 0 0 0 0 0 0 0 0 
0 0 0 0 0 0 0 0 0 0 0 0 0 0 0 0 0 0 0 0 0 0 0 152 152 0 0 0 0 144 144 0 0 0 0 0 0 0 72 72 72 72 0 0 72 0 72 0 0 0 0 0 0 0 0 0 0 0 0 0 0 0 0 0 0 0 0 0 0 0 0 0 0 0 0 0 0 0 0 0 0 0 0 0 0 0 0 0 0 0 0 0 0 0 0 128 150 0 0 0 0 106 212 106 0 107 120 76 0 0 0 72 0 0 0 72 0 0 0 0 0 0 104 0 76 0 0 0 76 0 0 0 120 76 167 72 0 76 0 76 0 76 0 0 76 120 120 120 120 152 120 107 0 0 161 120 0 120 120 161 120 0 0 0 120 120 107 161 0 0 0 0 161 161 0 0 0 74 106 74 0 0 0 0 0 0 0 0 0 0 0 0 0 0 74 167 167 74 0 74 106 74 212 74 167 106 167 74 74 167 167 106 74 149 149 74 106 167 106 237 167 74 74 167 74 74 106 74 167 106 167 0 149 0 106 0 167 212 167 149 237 74 74 167 149 167 74 0 0 0 0 74 149 74 106 0 0 0 0 0 0 0 0 0 0 0 0 0 0 0 0 0 0 0 0 0 0 0 0 0 0 0 0 0 0 0 0 0 0 0 74 224 237 167 0 224 237 167 74 0 0 0 0 0 0 0 0 0 0 0 0 0 0 0 0 0 0 0 0 0 0 0 0 0 0 0 0 0 0 0 0 0 0 0 0 0 0 0 0 0 0 0 0 0 0 74 237 167 0 0 0 0 0 0 0 0 0 0 0 0 0 0 0 0 0 0 0 74 167 237 237 212 167 74 0 0 0 0 0 0 0 0 0 0 0 0 0 0 0 0 0 0 0 0 0 0 0 0 0 0 0 0 0 0 0 0 0 0 0 0 0 0 0 0 0 0 0 0 0 0 0 0 0 0 0 0 0 0 0 0 0 0 0 74 168 215 113 0 0 0 0 0 0 0 0 0 0 0 0 0 0 0 0 0 0 0 0 0 0 0 0 0 0 0 0 0 0 0 0 0 0 0 0 0 0 0 0 0 0 0 0 0 0 0 152 152 167 169 0 0 0 0 0 0 0 0 0 0 0 0 0 0 0 0 0 0 0 0 0 0 0 0 
0 0 0 0 0 0 0 0 0 0 0 0 0 0 0 0 0 0 0 0 0 0 0 152 152 0 0 0 0 113 152 113 0 0 0 0 113 113 0 101 101 113 144 113 0 72 0 0 0 0 0 0 0 0 0 0 0 0 0 0 0 0 0 0 0 0 0 0 0 0 0 0 0 0 0 0 0 0 0 0 0 0 0 0 0 0 0 0 0 0 0 0 0 0 0 0 150 128 0 0 74 74 167 167 120 161 120 0 0 0 72 0 72 0 72 0 72 0 0 0 0 0 0 76 0 0 0 0 0 0 0 0 0 76 116 0 158 76 0 0 0 0 0 76 0 161 169 152 107 107 161 107 76 107 169 76 0 76 152 120 0 0 0 76 76 120 161 0 0 0 120 169 161 0 0 0 0 0 0 0 0 0 0 0 0 0 0 0 0 74 167 167 74 0 0 120 120 0 0 106 74 106 167 74 149 74 74 106 74 74 106 106 167 149 149 237 167 106 149 0 167 237 167 106 149 74 106 74 224 224 0 149 0 149 74 106 167 167 237 167 167 0 0 212 212 0 0 0 0 0 0 0 74 106 74 74 106 74 0 0 0 0 0 0 0 0 0 0 0 0 0 0 0 0 0 0 0 0 0 0 0 0 0 0 0 0 0 0 0 74 224 224 74 0 167 237 74 0 0 0 0 0 0 0 0 0 0 0 0 0 0 0 0 0 0 0 0 0 0 0 0 0 0 0 0 0 0 0 0 0 0 0 0 0 0 0 0 0 0 0 0 0 0 0 0 0 167 237 74 0 0 0 0 0 0 0 0 0 0 0 0 0 0 0 0 74 167 237 237 167 74 0 0 0 74 106 74 0 0 0 0 0 0 0 0 0 0 0 0 0 0 0 0 0 0 0 0 0 0 0 0 0 0 0 0 0 0 0 0 0 0 0 0 0 0 0 0 0 0 0 0 0 0 0 0 0 0 0 0 0 0 0 0 167 236 114 0 0 0 0 0 0 0 0 0 0 0 0 0 0 0 0 0 0 0 0 0 0 0 0 0 0 0 0 0 0 0 0 0 0 0 0 0 0 0 0 0 0 0 0 0 0 0 113 160 104 169 120 0 0 0 0 0 0 0 0 0 0 0 0 0 0 0 0 0 0 0 0 0 0 0 0 
0 0 0 0 0 0 0 0 0 0 0 0 0 0 0 0 0 0 0 0 0 0 0 152 152 0 0 0 0 72 72 72 72 0 0 72 113 101 113 72 72 0 113 152 113 0 0 0 0 0 0 0 0 0 0 0 0 0 0 0 0 0 0 0 0 0 0 0 0 0 0 0 0 0 0 0 0 0 0 0 0 0 0 0 0 0 0 0 0 0 0 0 0 0 0 0 123 74 0 0 167 167 167 217 169 120 0 0 0 0 0 72 0 0 0 72 0 0 0 0 0 0 0 0 0 0 0 0 0 0 0 0 0 0 0 104 117 76 76 0 120 152 169 120 120 0 120 152 120 0 76 76 0 0 120 76 76 120 0 0 0 120 120 0 0 76 0 0 0 161 169 120 0 0 0 0 0 0 0 0 0 0 0 0 0 0 0 0 0 106 106 106 106 0 76 76 76 76 74 149 74 74 149 74 106 0 0 74 106 0 74 74 74 167 74 106 237 149 106 224 106 167 237 149 106 167 149 167 106 149 224 0 167 106 224 0 237 167 74 106 0 167 212 149 149 167 74 0 0 0 0 0 0 0 0 106 0 74 167 167 74 0 0 0 0 0 74 106 74 0 0 0 0 0 0 0 0 0 0 0 0 0 0 0 0 0 0 74 167 237 149 106 212 212 224 167 0 0 0 0 0 0 0 0 0 0 0 0 0 0 0 0 0 0 0 0 0 0 0 0 0 0 0 0 0 0 0 0 0 0 0 0 0 0 0 0 0 0 0 0 0 0 0 0 0 0 74 237 167 0 0 0 0 0 0 0 0 0 0 0 0 0 0 74 167 237 237 167 74 0 0 0 74 167 167 74 106 0 0 0 0 0 0 0 0 0 0 0 0 0 0 0 0 0 0 0 0 0 0 0 0 0 0 0 0 0 0 0 0 0 0 0 0 0 0 0 0 0 0 0 0 0 0 0 0 0 0 0 0 0 0 0 0 212 252 0 0 0 0 0 0 0 0 0 0 0 0 0 0 0 0 0 0 0 0 0 0 0 0 0 0 0 0 0 0 0 0 0 0 0 0 0 0 0 0 0 0 0 0 0 0 0 0 160 163 161 161 0 0 0 0 0 0 0 0 0 0 0 0 0 0 0 0 0 0 0 0 0 0 0 0 0 
0 0 0 0 0 0 0 0 0 0 0 0 0 0 0 0 0 0 0 0 0 0 0 152 152 0 0 0 0 72 113 101 0 0 0 0 152 113 113 113 152 152 113 113 160 0 0 0 0 0 0 0 0 0 0 0 0 0 0 0 0 0 0 0 0 0 0 0 0 0 0 0 0 0 0 0 0 0 0 0 0 0 0 0 0 0 0 0 0 0 0 0 0 0 0 211 123 167 0 0 212 167 148 182 76 120 152 120 0 0 0 0 0 0 0 0 0 0 0 0 0 0 0 0 0 0 0 0 0 0 0 0 0 0 76 0 120 120 0 76 76 0 0 0 107 152 120 0 76 76 0 120 120 76 107 76 76 120 0 0 107 0 0 107 0 0 0 0 120 169 0 0 0 0 0 0 0 0 0 0 0 0 0 0 0 0 0 0 0 74 167 167 74 0 0 120 120 0 106 167 106 0 149 74 167 74 74 0 74 74 0 149 74 106 74 149 0 224 237 224 106 167 106 149 224 0 167 212 237 149 167 167 167 167 149 237 224 167 74 167 237 237 212 167 106 167 237 167 74 0 0 0 0 0 0 74 106 74 167 167 224 74 0 0 0 0 167 167 224 74 0 0 0 0 0 0 0 0 0 0 0 0 0 0 0 0 74 224 237 106 149 237 212 212 167 74 0 0 0 0 0 0 0 0 0 0 0 0 0 0 0 0 0 0 0 0 0 0 0 0 0 0 0 0 0 0 0 0 0 0 0 0 0 0 0 0 0 0 0 0 0 0 0 0 0 0 0 212 212 0 0 0 0 0 0 0 0 0 0 0 0 0 74 224 237 167 74 0 0 0 0 0 106 106 74 149 74 0 0 0 0 0 0 0 0 0 0 0 0 0 0 0 0 0 0 0 0 0 0 0 0 0 0 0 0 0 0 0 0 0 0 0 0 0 0 0 0 0 0 0 0 0 0 0 0 0 0 0 0 0 0 0 0 212 252 0 0 0 0 0 0 0 0 0 0 0 0 0 0 0 0 0 0 0 0 0 0 0 0 0 0 0 0 72 0 0 0 0 0 0 0 0 0 0 0 0 0 0 0 0 0 0 152 152 167 169 0 0 0 0 0 0 0 0 0 0 0 0 0 0 0 0 0 0 0 0 0 0 0 0 0 0 
0 0 0 0 0 0 0 0 0 0 0 0 0 0 0 0 0 0 0 0 0 0 0 152 152 0 0 0 0 0 160 113 0 0 0 0 0 72 0 113 101 101 101 113 113 72 0 0 0 0 0 0 0 0 0 0 0 0 0 0 0 0 0 0 0 0 0 0 0 0 0 0 0 0 0 0 0 0 0 0 0 0 0 0 0 0 0 0 0 0 0 0 0 0 0 211 123 167 0 0 212 212 76 0 76 76 120 161 120 0 76 0 0 0 0 0 0 0 0 0 0 0 0 0 0 0 0 0 0 0 0 0 0 107 0 76 0 0 0 0 120 152 152 107 107 152 169 169 169 169 107 107 120 76 107 76 76 0 0 76 0 120 120 0 0 0 0 0 169 120 0 0 0 0 0 0 0 0 0 0 0 0 0 0 0 0 0 0 0 0 120 120 0 0 0 0 0 0 74 224 149 74 0 74 149 167 149 149 0 74 106 106 149 106 74 0 149 0 167 167 74 167 167 149 149 224 74 0 74 224 106 149 167 167 74 167 167 0 224 237 167 74 0 74 224 167 0 167 224 74 0 0 0 0 0 0 0 74 224 149 149 237 167 74 0 0 167 167 149 237 167 74 0 0 0 0 0 0 0 0 0 0 0 0 0 0 167 237 0 224 224 74 0 0 0 0 0 0 0 0 0 0 0 0 0 0 0 0 0 0 0 0 0 0 0 0 0 0 0 0 0 0 0 0 0 0 0 0 0 0 0 0 0 0 0 0 0 0 0 0 0 0 0 0 0 0 0 167 237 74 0 0 0 0 0 0 0 0 0 0 74 167 237 224 74 0 0 0 74 106 74 0 74 167 167 74 0 0 0 0 0 0 0 0 0 0 0 0 0 0 0 0 0 0 0 0 0 0 0 0 0 0 0 0 0 0 0 0 0 0 0 0 0 0 0 0 0 0 0 0 0 0 0 0 0 0 0 0 0 0 0 0 0 252 0 0 0 0 0 0 0 0 0 0 0 0 0 0 0 0 0 0 0 0 0 0 0 0 0 0 0 0 72 0 72 0 0 0 0 0 0 0 0 0 0 0 0 0 0 0 0 113 160 104 169 120 0 0 0 0 0 0 0 0 0 0 0 0 0 0 0 0 0 0 0 0 0 0 0 0 0 0 
0 0 0 0 0 0 0 0 0 74 106 74 0 0 0 0 0 0 0 0 0 0 0 152 152 0 0 0 0 0 144 144 0 0 0 0 0 72 0 0 72 72 113 144 113 0 0 0 0 72 0 0 0 0 0 0 0 0 0 0 0 0 0 0 0 0 0 0 0 0 0 0 0 0 0 0 0 0 0 0 0 0 0 0 0 0 0 0 0 0 0 0 0 0 0 80 100 74 0 74 237 167 0 76 0 0 120 161 120 76 0 76 0 0 0 0 0 0 0 0 0 0 0 0 0 0 0 0 72 0 0 0 76 0 107 0 0 0 0 0 0 0 0 152 120 120 120 0 76 76 120 169 0 76 0 0 0 0 0 0 76 0 0 0 0 0 0 161 161 0 0 0 0 0 0 0 0 0 0 0 0 0 0 0 0 0 0 0 0 120 107 120 76 0 0 74 106 74 0 74 224 149 74 74 0 0 74 149 74 74 149 74 167 149 149 149 74 106 0 0 74 237 106 224 149 149 224 74 0 74 167 149 212 167 74 0 74 224 224 74 0 74 106 74 74 167 237 167 106 167 167 74 0 74 167 167 74 0 74 224 167 0 167 224 74 0 74 224 149 106 224 167 0 0 0 0 0 0 0 74 106 74 0 0 0 74 237 106 224 224 74 0 0 0 0 74 106 74 0 0 74 106 106 106 74 0 0 0 0 0 0 0 0 0 0 0 0 0 0 0 0 0 0 0 0 0 0 0 0 0 0 0 0 0 74 106 74 0 0 0 0 0 0 0 0 0 0 74 237 167 0 0 0 0 0 0 0 74 167 212 237 237 167 74 0 0 0 0 106 0 106 0 0 0 0 0 0 0 0 0 0 0 0 0 0 0 0 0 0 0 0 0 0 0 0 0 0 0 0 0 0 0 0 0 0 0 0 0 0 0 0 0 0 0 0 0 0 0 0 0 0 0 0 0 0 0 0 0 0 0 0 0 0 72 0 185 0 0 0 0 0 0 0 0 0 0 0 0 0 0 0 0 0 0 0 0 0 0 0 0 0 0 0 72 0 0 0 0 0 0 0 0 0 0 0 0 0 0 0 0 0 160 163 161 161 0 0 0 0 0 0 0 0 0 0 0 0 0 0 0 0 0 0 0 0 0 0 0 0 0 0 0 
0 0 0 0 0 0 0 0 0 106 0 106 0 0 0 0 0 0 0 0 0 0 0 152 152 0 0 0 0 0 144 144 0 0 0 0 72 0 0 0 101 152 0 113 144 144 113 0 72 0 72 0 0 0 0 0 0 0 0 0 0 0 0 0 0 0 0 0 0 0 0 0 0 0 0 0 0 0 0 0 0 0 0 0 0 0 0 0 0 0 0 0 0 0 120 115 252 0 0 167 237 74 0 0 0 120 0 0 107 0 76 0 0 0 0 0 0 0 0 0 0 0 0 0 0 0 0 72 0 72 0 0 0 76 0 0 0 0 0 0 0 0 0 120 120 169 152 152 169 169 120 120 76 0 0 0 76 0 0 0 0 0 0 0 0 120 169 161 0 0 0 0 0 0 0 0 0 0 0 0 0 0 0 0 0 0 0 0 0 120 120 161 0 0 0 106 0 106 0 0 74 224 149 74 74 74 167 237 149 0 167 74 74 149 74 74 106 0 167 167 74 167 224 106 149 149 149 224 74 0 212 212 0 0 0 74 149 106 149 74 74 224 212 237 212 167 0 167 149 149 237 224 74 106 106 74 167 167 74 74 167 224 106 224 224 74 0 74 224 237 224 167 0 0 0 0 0 0 74 224 212 237 212 167 74 106 167 167 224 74 0 0 0 0 74 224 212 224 74 0 106 0 0 0 106 0 0 0 0 0 0 0 0 0 0 0 0 0 0 0 0 0 0 0 0 0 0 0 0 0 0 0 0 0 167 106 167 0 0 0 0 0 0 0 0 0 0 0 167 237 74 0 0 0 0 0 74 224 237 212 167 74 0 0 0 0 0 0 74 106 74 0 0 0 0 0 0 0 0 0 0 0 0 0 0 0 0 0 0 0 0 0 0 0 0 0 0 0 0 0 0 0 0 0 0 0 0 0 0 0 0 0 0 0 0 0 0 0 0 0 0 0 0 0 0 0 0 0 0 0 0 0 74 168 215 113 0 0 0 0 0 0 0 0 0 0 0 0 0 0 0 0 0 0 0 0 0 0 0 0 0 0 0 0 0 0 0 0 0 0 0 0 0 0 0 0 0 0 0 0 152 152 167 169 0 0 0 0 0 0 0 0 0 0 0 0 0 0 0 0 0 0 0 0 0 0 0 0 0 0 0 0 
0 0 0 0 74 106 74 0 0 74 106 74 0 0 0 0 0 0 0 0 0 0 0 120 169 0 0 0 0 0 144 144 0 0 72 0 0 72 0 72 144 72 72 72 0 0 72 72 0 72 0 0 0 0 0 0 0 0 0 0 0 0 0 0 0 0 0 0 0 0 0 0 0 0 0 0 0 0 0 0 0 0 0 0 0 0 0 0 0 0 0 0 0 0 152 108 212 0 0 167 237 74 0 0 0 169 0 107 120 76 0 0 0 0 0 0 0 0 0 0 0 0 0 0 0 113 113 0 72 0 0 0 0 0 0 0 0 0 0 0 120 152 120 0 76 0 0 76 0 120 152 120 0 0 0 107 0 76 0 76 0 0 0 0 161 169 120 0 0 0 0 0 0 0 0 0 0 0 0 0 0 0 0 0 0 0 0 120 120 0 76 0 0 0 0 74 106 74 0 0 0 74 224 224 0 149 167 74 167 74 106 74 74 74 0 0 0 106 167 167 224 0 167 224 106 224 149 149 224 106 237 167 0 0 74 224 167 74 74 149 74 212 0 106 74 167 224 74 167 224 106 149 224 0 167 167 106 167 224 74 0 167 224 106 149 224 74 0 74 167 167 74 0 0 0 74 106 106 224 224 106 167 167 167 106 74 167 167 74 0 0 74 106 74 106 167 106 167 106 0 74 106 106 106 74 0 0 0 0 0 0 0 0 0 0 0 0 0 0 0 0 0 0 0 0 0 0 0 0 0 0 0 0 0 167 106 167 0 0 0 0 0 0 0 0 0 0 0 74 224 224 74 0 0 0 74 224 224 74 0 0 0 0 0 0 0 0 0 0 0 0 0 0 0 0 0 0 0 0 0 0 0 0 0 0 0 0 0 0 0 0 0 0 0 0 0 0 0 0 0 0 0 0 0 0 0 0 0 0 0 0 0 0 0 0 0 0 0 0 0 0 0 0 0 0 0 0 0 0 0 0 0 167 236 114 0 0 0 0 0 0 0 0 0 0 0 0 0 0 0 0 0 0 0 0 0 0 0 0 0 0 0 0 0 0 0 0 0 0 0 0 0 0 0 0 0 0 0 0 113 160 104 169 120 0 0 0 0 0 0 0 0 0 0 0 0 0 0 0 0 0 0 0 0 0 0 0 0 0 0 0 0 
0 0 0 0 106 0 106 0 0 74 106 74 0 0 0 0 0 0 0 0 0 0 0 76 152 76 0 0 0 0 144 144 0 72 0 72 0 0 72 0 160 113 0 113 144 144 113 0 0 0 0 0 0 0 0 0 0 0 0 0 0 0 0 0 0 0 0 0 0 0 0 0 0 0 0 0 0 0 0 0 0 0 0 0 0 0 0 0 0 0 0 0 0 0 211 123 167 0 0 106 167 149 74 0 76 120 0 76 161 0 0 0 0 0 0 0 0 0 0 0 0 0 0 0 72 72 72 72 0 0 0 0 0 76 0 0 0 0 0 76 76 0 0 107 76 120 120 0 76 0 0 0 0 120 169 76 120 0 76 0 76 0 0 161 161 0 0 0 0 0 0 0 0 0 0 0 0 0 0 0 0 74 106 92 120 152 120 0 76 76 0 0 0 0 0 0 0 0 0 74 106 74 74 224 237 106 149 167 0 149 74 74 149 74 0 0 0 74 237 106 224 224 74 167 224 106 149 149 149 212 224 74 0 0 167 237 106 167 167 0 106 106 167 237 237 167 167 74 74 106 237 167 106 167 167 0 224 149 149 224 74 74 167 224 106 237 167 0 0 0 0 0 0 0 0 167 167 212 224 0 167 212 237 224 74 0 0 0 0 0 0 167 167 224 0 167 212 167 74 0 0 0 0 0 0 0 0 0 0 0 0 0 0 0 0 0 0 0 0 0 0 0 0 0 0 0 0 0 0 0 0 0 0 0 74 74 74 74 0 0 0 0 0 0 0 0 0 0 0 74 237 167 0 74 167 237 224 74 0 0 0 0 74 106 74 0 0 0 0 0 0 0 0 0 0 0 0 0 0 0 0 0 0 0 0 0 0 0 0 0 0 0 0 0 0 0 0 0 0 0 0 0 0 0 0 0 0 0 0 0 0 0 0 0 0 0 0 0 0 0 0 0 0 0 0 0 0 0 0 0 0 0 212 252 0 0 0 0 0 0 0 0 0 0 0 0 0 0 0 0 0 0 0 0 0 0 0 0 0 0 0 0 0 0 0 0 0 0 0 0 0 0 0 0 0 0 0 0 0 160 163 161 161 0 0 0 0 0 0 0 0 0 0 0 0 0 0 0 0 0 0 0 0 0 0 0 0 0 0 0 0 0 
0 0 0 0 74 106 74 0 0 106 0 106 0 0 0 0 0 0 0 0 0 0 0 120 169 0 0 0 0 0 113 160 72 101 0 72 0 72 0 72 144 113 72 0 0 72 0 0 0 0 0 0 0 0 0 0 0 0 0 0 0 0 0 0 0 0 0 0 0 0 0 0 0 0 0 0 0 0 0 0 0 0 0 0 0 0 0 0 0 0 0 0 0 0 80 100 74 0 0 167 74 74 167 0 0 120 107 76 0 0 0 0 0 0 0 0 0 0 0 0 0 0 0 0 0 113 113 0 0 0 0 0 76 0 76 0 0 0 0 0 120 152 107 0 0 76 0 107 0 0 0 120 169 169 120 120 152 0 0 76 0 0 161 161 0 0 0 0 0 0 0 0 0 0 0 0 0 0 0 0 0 106 0 223 161 120 76 120 120 0 0 0 0 0 0 0 0 0 0 167 106 167 0 74 167 237 149 74 167 106 74 149 0 167 167 74 0 0 212 212 74 224 224 0 167 224 74 212 74 106 74 74 167 212 149 167 106 167 106 74 74 0 106 106 74 167 167 106 167 224 0 167 167 106 167 224 0 224 167 106 149 74 0 167 237 167 212 0 0 0 0 0 0 0 0 167 167 74 74 167 224 212 167 74 0 0 0 0 0 0 0 212 167 237 167 0 0 0 0 0 0 0 0 0 0 0 0 0 0 0 0 0 0 0 0 0 0 0 0 0 0 0 0 0 0 0 0 0 0 0 0 0 0 0 0 106 0 106 0 0 0 0 0 0 0 0 0 0 0 0 167 224 212 237 237 167 74 0 0 0 0 0 106 0 106 0 0 0 0 0 0 0 0 0 0 0 0 0 0 0 0 0 0 0 0 0 0 0 0 0 0 0 0 0 0 0 0 0 0 0 0 0 0 0 0 0 0 0 0 0 0 0 0 0 0 0 0 0 0 0 0 0 0 0 0 0 0 0 0 0 0 0 252 0 0 0 0 0 0 0 0 0 0 0 0 0 0 0 0 0 0 0 0 0 0 0 0 0 0 0 0 0 0 0 0 0 0 0 0 0 0 0 0 0 0 0 0 0 152 152 167 169 0 0 0 0 0 0 0 0 0 0 0 0 0 0 0 0 0 0 0 0 0 0 0 0 0 0 0 0 0 0 
0 0 0 0 74 106 74 0 0 74 106 74 0 0 0 0 0 0 0 0 0 0 0 120 169 0 0 0 0 0 0 101 144 113 113 72 0 0 72 0 113 113 113 113 72 0 72 0 0 0 0 0 0 0 0 0 0 0 0 0 0 0 0 0 0 0 0 0 0 0 0 0 0 0 0 0 0 0 0 0 0 0 0 0 0 0 0 0 0 0 0 0 0 120 115 252 0 0 0 212 74 106 167 0 0 0 152 0 76 120 0 0 0 0 0 0 0 0 0 0 0 0 0 0 0 0 0 0 0 0 0 0 0 76 0 0 0 0 0 0 0 0 120 76 107 120 120 0 0 0 161 169 76 76 152 161 120 0 0 0 0 161 161 0 0 0 0 0 0 0 0 0 0 0 0 0 0 0 74 106 74 74 106 167 161 169 161 0 0 0 0 0 0 0 0 0 0 0 74 167 0 167 74 0 0 74 224 167 106 149 74 106 106 0 74 167 167 74 167 237 74 106 167 149 74 167 167 224 74 0 0 167 224 212 167 74 74 224 237 149 106 167 0 167 167 74 0 212 106 167 149 74 74 224 149 149 224 0 167 149 106 224 74 74 224 167 167 0 0 0 0 0 0 74 167 106 149 237 212 224 167 0 0 0 0 0 0 0 0 0 0 167 224 224 167 0 0 0 0 0 0 0 0 0 0 0 0 0 0 0 0 0 0 0 0 0 0 0 0 0 0 0 0 0 0 0 0 0 0 0 0 0 0 0 0 74 74 106 167 74 0 0 0 0 0 0 0 0 0 0 74 167 212 167 74 0 0 0 0 0 0 0 74 106 74 0 0 0 0 0 0 0 0 0 0 0 0 0 0 0 0 0 0 0 0 0 0 0 0 0 0 0 0 0 0 0 0 0 0 0 0 0 0 0 0 0 0 0 0 0 0 0 0 0 0 0 0 0 0 0 0 0 0 0 0 0 0 0 0 0 0 0 72 0 185 0 0 0 0 0 0 0 0 0 0 0 0 0 0 0 0 0 0 0 0 0 0 0 0 0 0 0 0 0 0 0 0 0 0 0 0 0 0 0 0 0 0 113 160 104 169 120 0 0 0 0 0 0 0 0 0 0 0 0 0 0 0 0 0 0 0 0 0 0 0 0 0 0 0 0 0 0 
0 0 0 0 167 106 167 0 0 0 0 0 0 0 0 0 0 0 0 0 0 0 0 76 152 76 0 0 0 72 0 0 0 113 101 72 113 0 0 0 0 72 101 160 0 72 0 0 0 0 0 0 0 0 0 0 72 0 0 0 0 72 0 0 0 0 0 0 0 0 0 0 0 0 0 0 0 0 0 0 0 0 0 0 0 0 0 0 0 0 0 0 0 152 108 212 0 0 0 212 167 74 74 74 0 0 152 0 0 152 0 0 0 0 0 0 0 0 0 0 0 0 0 0 0 0 0 0 0 0 0 0 0 0 0 0 0 0 0 0 120 152 76 0 0 0 0 0 0 120 120 76 169 120 0 76 76 0 0 0 161 161 0 0 0 0 0 0 0 0 0 0 0 0 0 0 0 0 106 0 106 0 120 120 0 107 0 0 0 0 0 0 0 0 0 0 0 0 106 74 106 74 106 0 0 0 74 167 167 0 149 149 149 74 0 74 167 224 0 224 224 74 74 149 167 74 106 74 0 74 106 106 224 167 0 106 167 212 74 224 224 0 149 74 106 106 0 212 74 149 0 167 167 0 224 149 149 224 74 167 167 149 237 167 0 106 74 0 0 0 0 0 0 106 106 106 74 167 212 167 74 0 0 0 0 0 0 0 0 0 0 74 167 167 74 0 0 0 0 0 0 0 0 0 0 0 0 0 0 0 0 74 167 167 74 0 0 0 0 0 0 0 0 0 74 106 74 0 0 0 0 0 0 0 0 0 167 224 224 167 0 0 74 106 74 0 0 0 0 0 0 0 0 0 0 0 0 0 0 0 0 0 0 0 0 0 0 0 0 0 0 0 0 0 0 0 0 0 0 0 0 0 0 0 0 0 0 0 0 0 0 0 0 0 0 0 0 0 0 0 0 0 0 0 0 0 0 0 0 0 0 0 0 0 0 0 0 0 0 0 0 0 0 0 0 0 0 0 0 0 0 74 123 202 144 0 0 0 0 0 0 0 0 0 0 0 0 0 0 0 0 0 0 0 0 0 0 0 0 0 0 0 0 0 0 0 0 0 0 0 0 0 0 0 0 0 113 152 113 120 169 0 0 0 0 0 0 0 0 0 0 0 0 0 0 0 0 0 0 0 0 0 0 0 0 0 0 0 0 0 0 0 
0 0 0 0 167 106 167 0 0 0 0 0 0 0 0 0 0 0 0 0 0 0 0 76 152 76 0 0 0 0 72 0 113 101 0 72 72 72 0 113 144 144 113 113 72 0 0 0 0 0 0 0 0 0 0 72 0 72 0 0 72 0 72 0 0 0 0 0 0 0 0 0 0 0 0 0 0 0 0 0 0 0 0 0 0 0 0 0 0 0 0 0 0 211 123 167 0 0 0 167 237 74 0 106 0 0 120 76 0 152 0 0 0 0 0 0 0 0 0 0 0 0 0 0 0 0 0 0 0 0 0 0 0 0 0 0 0 0 0 76 120 76 120 76 0 0 120 152 152 161 0 161 120 76 107 120 76 0 0 161 161 0 0 0 0 0 0 0 0 0 0 0 0 0 0 0 0 0 74 106 74 76 76 0 76 76 0 0 0 0 0 0 0 74 106 74 0 0 74 106 106 106 0 106 74 0 0 0 74 149 0 149 149 167 167 0 74 167 167 74 224 149 0 167 167 0 0 74 167 237 212 149 106 237 224 74 167 224 167 74 167 167 106 106 167 74 74 237 106 167 74 106 167 237 106 167 106 237 167 74 224 167 0 167 224 74 0 0 0 0 74 167 167 0 167 167 74 0 0 0 0 0 0 0 0 0 0 0 0 0 0 0 0 0 0 0 0 0 0 0 0 0 0 0 0 0 0 0 0 0 0 106 167 149 167 0 0 0 0 0 0 0 0 0 167 167 224 74 0 74 106 74 0 0 0 0 212 212 167 224 167 74 106 74 149 74 74 106 74 0 0 0 0 0 0 0 0 0 0 0 0 0 0 0 0 0 0 0 0 0 0 0 0 0 0 0 0 0 0 0 0 0 0 0 0 0 0 0 0 0 0 0 0 0 0 0 0 0 0 0 0 0 0 0 0 0 0 0 0 0 0 0 0 0 0 0 0 0 0 0 0 0 0 0 0 0 0 0 0 0 0 167 168 114 113 0 0 0 0 0 0 0 0 0 0 0 0 0 0 0 0 0 0 0 0 0 0 0 0 0 0 0 0 0 0 0 0 0 0 0 0 0 0 0 0 113 152 113 104 169 120 0 0 0 0 0 0 0 0 0 0 0 0 0 0 0 0 0 0 0 0 0 0 0 0 0 0 0 0 0 0 0 
0 0 0 0 74 106 0 106 74 0 0 0 0 0 0 0 0 0 0 0 0 0 0 0 169 120 0 0 0 0 72 0 144 72 0 113 113 0 72 72 0 0 113 72 0 0 0 0 0 0 0 0 0 0 0 0 72 0 0 0 0 72 0 0 0 0 0 0 0 0 0 0 0 0 0 0 0 0 0 0 0 0 0 0 0 0 0 0 0 0 0 0 0 0 123 74 0 0 74 74 149 149 74 74 0 0 76 0 76 152 0 0 0 0 0 0 0 0 0 0 0 0 0 0 0 0 0 0 0 0 0 0 0 76 0 0 0 0 0 0 161 152 161 0 0 76 120 120 152 76 76 120 0 120 120 161 0 0 161 161 0 0 0 0 0 0 0 0 0 0 0 0 0 0 0 0 0 0 120 152 152 76 76 152 120 0 0 0 0 0 0 0 0 167 167 224 74 0 0 0 0 0 106 0 106 0 0 74 106 0 149 167 106 0 74 149 74 74 237 74 74 224 212 224 74 0 0 167 224 167 106 237 149 74 149 237 106 106 237 212 167 106 167 237 167 74 167 237 74 167 74 149 149 106 237 167 167 167 224 212 106 106 237 149 167 167 0 0 0 0 106 167 149 167 0 0 0 0 0 0 0 0 0 0 0 0 0 0 0 0 0 0 0 0 0 0 0 0 0 0 0 0 0 0 0 0 0 0 0 0 0 74 224 106 149 167 74 0 0 0 0 0 0 0 167 167 167 167 0 167 167 224 74 0 74 167 224 167 74 167 224 167 74 167 74 167 106 0 106 0 0 0 0 74 167 212 167 74 0 0 0 0 0 0 0 0 0 0 0 0 0 0 0 0 0 0 0 0 0 0 0 0 0 0 0 0 0 0 0 0 0 0 0 0 0 0 0 0 0 0 0 0 0 0 0 0 0 0 0 0 0 0 0 0 0 0 0 0 0 0 0 0 0 0 0 0 0 0 0 0 0 252 229 0 0 0 0 0 0 0 0 0 0 0 0 0 0 0 0 0 0 0 0 0 0 0 0 0 0 0 0 0 0 0 0 0 0 0 0 0 0 0 0 0 0 144 144 0 161 161 0 0 0 0 0 0 0 0 0 0 0 0 0 0 0 0 0 0 0 0 0 0 0 0 0 0 0 0 0 0 0 0 
0 0 0 0 0 0 167 106 167 0 0 0 0 0 0 0 0 0 0 0 0 0 0 0 152 152 0 0 0 72 0 0 160 0 0 0 0 0 101 0 0 72 72 72 0 72 0 0 0 0 0 0 0 0 0 0 0 0 0 0 0 0 0 0 0 0 0 0 0 0 0 0 0 0 0 0 0 0 0 0 0 0 0 0 0 0 0 0 0 0 0 0 0 108 108 0 0 0 106 74 74 167 167 0 0 0 120 120 120 120 0 0 0 0 0 0 0 0 0 0 0 0 0 0 0 0 0 0 0 0 0 0 76 0 76 0 120 152 120 0 0 76 0 0 120 76 107 161 0 120 0 0 120 0 76 0 0 161 161 0 0 0 0 0 0 0 0 0 0 0 0 0 0 0 0 0 0 120 161 152 120 120 76 0 0 0 0 0 0 0 0 0 0 167 167 167 167 0 0 0 0 0 74 106 74 74 106 149 167 237 106 149 237 212 212 106 0 0 167 167 0 74 106 74 0 0 0 212 212 0 74 237 0 106 106 167 224 167 74 106 74 212 74 167 237 224 106 224 237 167 0 106 106 149 0 74 106 106 106 212 224 167 74 224 106 149 212 167 106 106 0 224 167 167 0 0 0 0 0 0 0 0 74 167 167 74 74 106 74 0 0 0 0 0 0 0 0 0 0 0 0 0 0 0 0 0 0 74 167 212 167 74 74 167 149 237 224 74 0 0 0 0 0 0 74 224 106 167 74 167 167 149 224 74 167 224 167 74 0 0 167 224 167 106 106 167 74 106 74 0 0 0 74 224 167 74 106 106 0 0 0 0 0 0 0 0 0 0 0 0 0 0 0 0 0 0 0 0 0 0 0 0 0 0 0 0 0 0 0 0 0 0 0 0 0 0 0 0 0 0 0 0 0 0 0 0 0 0 0 74 167 167 74 0 0 0 0 0 0 0 0 0 0 0 0 0 0 0 0 0 74 100 216 185 0 0 0 0 0 0 0 0 0 0 0 0 0 0 0 0 0 0 0 0 0 0 0 0 0 0 0 0 0 0 0 0 0 0 0 0 0 0 0 0 0 160 113 120 169 0 0 0 0 0 0 0 0 0 0 0 0 0 0 0 0 0 0 0 0 0 0 0 0 0 0 0 0 0 0 0 0 0 
0 0 0 0 74 106 106 106 167 0 0 0 0 0 0 0 0 0 0 0 0 0 0 0 152 152 0 0 0 72 0 101 113 0 0 0 0 72 113 72 0 0 113 72 0 0 0 0 0 0 0 0 0 0 0 0 0 0 0 0 0 0 0 0 0 0 0 0 0 0 0 0 0 0 0 0 0 0 0 0 0 0 0 0 0 0 0 0 0 0 0 0 0 108 108 0 0 0 74 167 74 74 212 0 0 0 120 107 0 0 120 120 0 0 76 0 0 0 0 0 0 0 0 0 0 0 0 0 0 0 0 0 0 76 0 120 107 0 76 76 0 0 0 161 120 120 0 152 76 120 0 0 120 0 0 0 120 169 0 0 0 0 0 0 0 0 0 0 0 0 0 0 0 0 0 0 0 169 76 120 169 161 0 76 0 0 0 0 0 0 0 0 0 74 224 167 167 0 0 0 0 0 74 106 74 106 0 74 149 0 167 149 106 212 212 237 167 106 149 167 0 0 0 74 106 74 0 167 237 74 106 167 74 74 106 167 149 167 74 0 106 167 149 74 74 224 149 106 167 74 106 74 106 0 167 167 74 106 74 167 149 149 212 106 74 74 74 149 74 0 106 74 106 74 0 0 0 0 0 0 0 0 106 167 167 224 74 0 106 0 0 0 0 0 0 0 0 0 0 0 0 0 0 0 0 0 0 106 167 167 237 237 167 106 237 0 224 224 74 0 0 0 0 0 0 74 167 106 224 0 237 106 237 149 237 167 0 0 0 0 74 149 167 74 106 74 0 0 0 0 74 106 74 167 167 237 167 74 0 0 0 0 0 0 0 0 0 0 0 0 0 0 0 0 0 0 0 0 0 0 0 0 0 0 0 0 0 0 0 0 0 0 0 0 0 0 0 0 0 0 0 0 0 0 0 0 0 74 167 237 237 237 224 74 0 0 0 0 0 0 0 0 0 0 0 0 0 0 0 0 167 168 114 113 0 0 0 0 0 0 0 0 0 0 0 0 0 0 0 0 0 0 0 0 0 0 0 0 0 0 0 0 0 0 0 0 0 0 0 0 0 0 0 0 113 160 104 169 120 0 0 0 0 0 0 0 0 0 0 0 0 0 0 0 0 0 0 0 0 0 0 0 0 0 0 0 0 0 0 0 0 0 
0 0 0 0 106 0 74 106 74 0 0 0 0 0 0 0 0 0 0 0 0 0 0 0 120 169 0 0 0 72 113 101 0 0 0 0 0 0 152 144 113 0 0 72 72 0 0 0 0 0 0 0 0 0 0 0 0 0 0 0 0 0 0 0 0 0 0 0 0 0 0 0 0 0 0 0 0 0 0 0 0 0 0 0 0 0 0 0 0 0 0 0 0 115 72 0 0 0 0 212 0 74 237 74 0 0 0 107 120 0 161 161 120 120 120 161 0 0 0 0 0 0 0 0 0 0 0 0 0 0 0 0 0 0 0 120 120 169 120 0 0 120 120 76 120 161 76 169 0 107 107 107 0 0 0 120 161 120 0 0 0 0 0 0 0 0 0 0 0 0 0 0 74 106 92 120 169 107 107 169 120 0 76 0 76 0 0 0 0 0 0 0 0 0 92 182 92 0 0 0 0 0 167 167 237 167 106 74 106 237 149 149 224 74 0 74 149 106 149 74 0 0 74 224 212 237 167 0 224 237 167 0 106 149 106 74 0 74 167 167 0 167 237 224 74 74 224 224 74 106 106 74 74 74 106 106 106 149 74 167 106 106 167 224 106 167 237 167 74 0 106 0 0 0 0 0 0 0 0 0 0 0 74 224 149 149 149 74 74 0 0 0 0 0 0 0 0 0 0 0 0 0 0 0 0 74 106 0 224 237 106 106 237 149 149 237 106 149 224 74 0 0 0 0 0 0 167 167 167 167 212 212 167 149 167 106 0 0 0 74 167 237 224 74 0 0 74 167 212 167 74 0 74 167 167 74 0 0 0 0 0 0 0 0 0 0 0 0 0 0 0 0 0 0 0 0 0 0 0 0 0 0 0 0 0 0 0 0 0 0 0 0 0 0 0 0 0 0 0 0 0 0 0 0 0 0 74 224 237 167 74 74 237 167 0 0 0 0 0 0 0 0 0 0 0 0 0 0 0 0 252 229 0 0 0 0 0 0 0 0 0 0 0 0 0 0 0 0 0 0 0 0 0 0 0 0 0 0 0 0 0 0 0 0 0 0 0 0 0 0 0 0 0 0 160 163 161 161 0 0 0 0 0 0 0 0 0 0 0 0 0 0 0 0 0 0 0 0 0 0 0 0 0 0 0 0 0 0 0 0 0 0 
0 0 0 0 74 106 74 0 0 0 0 0 0 0 0 0 0 0 0 0 0 0 0 0 0 169 120 0 0 0 160 113 0 0 0 0 0 0 0 0 101 113 72 0 0 0 0 0 0 0 0 0 0 0 0 0 0 0 0 0 0 0 0 0 0 0 0 0 0 0 0 0 0 0 0 0 0 0 0 0 0 0 0 0 0 0 0 0 0 0 0 0 120 115 252 0 0 0 0 167 106 74 212 106 0 0 0 76 120 107 76 169 76 169 0 152 76 0 0 0 0 0 0 0 0 0 0 0 0 0 0 0 0 0 0 0 76 0 0 0 76 76 0 120 120 0 169 76 161 169 120 0 0 0 161 169 120 0 0 0 0 0 0 0 0 0 0 76 0 0 0 0 106 0 247 169 76 107 161 0 0 0 0 76 0 0 0 0 0 0 0 0 0 0 76 0 76 0 0 0 0 0 167 167 106 212 212 237 224 0 224 167 106 149 74 0 74 106 74 0 0 74 224 149 0 106 237 224 0 167 212 237 149 106 149 149 167 74 74 167 224 74 74 224 237 167 0 224 224 0 149 74 74 74 167 74 212 106 74 224 149 149 224 106 224 167 0 106 74 0 106 0 0 0 0 0 0 0 0 0 0 0 0 74 224 149 149 224 74 0 0 0 0 0 0 0 0 0 0 0 0 74 106 74 0 106 0 106 74 167 237 237 106 149 167 0 167 149 149 237 167 74 0 0 0 0 74 237 0 237 167 212 74 149 74 106 0 74 167 237 237 167 74 0 0 74 224 237 212 224 106 106 74 0 0 0 0 0 0 0 0 0 0 0 0 0 0 0 0 0 0 0 0 0 0 0 0 0 0 0 0 0 0 0 0 0 0 0 0 0 0 0 0 0 0 0 0 0 0 0 0 0 0 0 0 0 167 237 74 0 0 0 167 224 167 74 0 0 0 0 0 0 0 0 0 0 0 0 0 74 100 216 185 0 0 0 0 0 0 0 0 0 0 0 0 0 0 0 0 0 0 0 0 0 0 0 0 0 0 0 0 0 0 0 0 0 0 0 0 0 0 0 0 113 160 167 169 0 0 0 0 0 0 0 0 0 0 0 0 0 0 0 0 0 0 0 0 0 0 0 0 0 0 0 0 0 0 0 0 0 0 0 
0 0 0 0 0 0 0 0 0 0 0 0 0 0 0 0 0 0 0 0 0 0 0 0 120 161 120 0 0 72 113 144 0 0 0 0 0 0 72 101 160 72 113 144 113 113 0 0 0 0 0 0 0 0 0 0 0 0 0 0 0 0 0 0 0 0 0 0 0 0 0 0 0 0 0 0 0 0 0 0 0 0 0 76 0 0 0 0 0 0 0 0 152 108 212 0 0 0 0 74 106 106 237 74 0 0 0 0 120 120 0 152 0 169 76 169 0 0 0 0 76 0 0 0 0 0 0 0 0 0 0 0 0 0 0 72 0 0 0 120 76 76 120 0 0 161 161 76 169 0 0 0 0 161 161 0 0 0 0 0 0 0 0 0 0 0 120 120 161 0 0 0 74 183 242 0 161 161 0 0 0 0 0 0 0 0 0 0 0 0 0 0 0 0 0 76 0 0 0 0 0 0 74 224 237 167 74 74 237 167 74 167 149 74 167 0 0 0 0 0 74 224 224 74 0 106 74 224 224 74 0 74 224 224 106 224 106 74 0 74 167 167 0 74 167 237 224 0 237 149 74 74 74 74 74 106 149 74 74 74 224 149 149 149 106 237 224 74 74 106 74 0 0 0 0 0 74 167 167 74 0 0 0 0 74 224 167 106 167 167 74 0 0 0 0 0 0 0 0 0 0 167 106 149 106 0 106 74 0 0 74 167 237 149 106 237 149 149 149 106 224 167 0 74 106 74 0 212 167 224 167 167 0 74 106 74 74 224 237 167 74 0 0 0 0 167 167 106 212 224 167 0 0 0 0 0 0 0 0 0 0 0 0 0 0 0 0 0 0 0 0 0 0 0 0 0 0 0 0 0 0 0 0 0 0 0 0 0 0 0 0 0 0 0 0 0 0 0 0 0 0 0 0 0 0 74 237 167 0 0 0 0 74 167 224 167 0 0 0 0 0 0 0 0 0 0 0 0 0 167 168 114 113 0 0 0 0 0 0 0 0 0 0 0 0 0 0 0 0 0 0 0 0 0 0 0 0 0 0 0 0 0 0 0 0 0 0 0 0 0 0 0 0 160 113 152 152 0 0 0 0 0 0 0 0 0 0 0 0 0 0 0 0 0 0 0 0 0 0 0 0 0 0 0 0 0 0 0 0 0 0 0 
0 0 0 0 0 0 0 0 0 0 0 0 0 0 0 0 0 0 0 0 0 0 0 76 120 107 0 0 72 0 0 160 0 0 0 0 0 72 0 72 144 113 101 72 101 113 0 0 0 0 0 0 0 0 0 0 0 0 0 0 0 0 0 0 0 0 0 0 0 0 0 0 0 0 0 0 0 0 0 0 0 0 76 0 76 0 0 0 0 0 0 0 152 108 212 0 0 0 0 74 167 224 167 0 0 0 0 0 0 0 0 169 0 161 161 120 0 0 0 120 76 120 0 0 0 0 0 0 0 0 0 0 0 0 72 0 72 0 76 76 76 76 0 0 107 76 120 161 120 0 0 0 120 169 0 0 0 0 0 0 0 0 0 0 0 0 120 107 120 76 0 0 120 161 76 161 161 0 0 0 0 0 0 0 0 0 0 0 0 0 0 0 0 0 0 0 0 0 0 0 0 74 106 0 167 224 167 0 167 237 74 0 167 106 167 0 0 0 74 167 237 224 74 106 0 106 74 149 106 167 167 74 74 237 106 167 237 149 74 74 106 212 0 0 0 74 224 224 106 149 106 106 74 74 106 149 167 212 224 74 74 224 167 167 74 74 149 224 106 106 74 0 74 167 167 74 106 106 74 149 74 0 0 0 0 74 167 149 149 224 167 0 0 0 0 0 0 0 0 0 0 167 106 0 167 224 106 106 74 74 106 74 74 224 237 106 149 149 149 224 106 237 74 106 74 149 74 167 237 0 106 74 0 0 74 167 237 224 74 0 0 0 74 167 167 106 167 237 212 167 74 0 0 0 0 0 0 0 0 0 0 0 0 0 0 0 0 0 0 0 0 0 0 0 0 0 0 0 0 0 0 0 0 0 0 0 0 0 0 0 0 0 0 0 0 0 0 0 0 0 0 0 0 0 74 224 224 74 0 0 0 0 0 0 212 212 0 0 74 167 212 167 74 0 0 0 0 0 0 252 229 0 0 0 0 0 0 0 0 0 0 0 0 0 0 0 0 0 0 0 0 0 0 0 0 0 0 0 0 0 0 0 0 0 0 0 0 0 0 0 0 0 113 160 104 169 120 0 0 0 0 0 0 0 0 0 0 0 0 0 0 0 0 0 0 0 0 0 0 0 0 0 0 0 0 0 0 0 0 0 0 0 
0 0 0 0 0 0 0 0 0 0 0 0 0 0 0 0 0 0 0 0 0 0 0 0 161 161 0 0 0 72 72 160 113 0 0 0 0 72 0 0 101 113 0 113 113 0 0 0 0 0 0 0 0 0 0 0 0 0 0 0 0 0 0 0 0 0 0 0 0 0 0 0 0 0 0 0 0 0 0 0 0 0 0 76 0 0 0 0 0 0 0 0 211 123 167 0 0 0 0 106 167 149 74 0 0 0 0 0 0 0 0 152 120 107 0 120 120 0 0 120 76 120 0 0 0 0 0 0 76 0 0 0 0 0 0 72 0 0 76 76 76 76 0 76 0 120 152 120 0 0 0 120 161 120 0 0 0 0 0 0 76 0 0 0 0 0 0 120 120 0 120 169 169 120 76 169 0 0 0 0 0 0 0 0 0 0 0 0 0 0 0 0 0 0 0 0 0 0 0 0 0 106 74 149 74 167 224 167 0 224 224 74 74 106 74 0 0 74 149 74 106 106 0 106 74 167 167 74 0 0 74 149 74 167 224 167 0 224 167 74 74 237 74 0 0 0 74 224 149 74 106 167 167 149 106 0 149 106 224 224 74 74 167 167 74 74 106 167 74 106 167 0 167 224 237 224 0 167 167 74 106 0 0 0 0 0 0 167 224 149 167 74 0 0 0 0 0 0 0 0 0 106 74 74 106 167 106 106 167 167 106 167 0 74 167 237 149 167 106 237 106 237 167 74 167 106 237 167 167 106 0 0 74 167 237 237 167 74 0 0 0 0 106 106 106 74 106 74 0 0 0 0 0 0 0 0 0 0 0 0 0 0 0 0 0 0 0 0 0 0 0 0 0 0 0 0 0 0 0 0 0 0 0 0 0 0 0 0 0 0 0 0 0 0 0 0 0 0 0 0 0 0 0 74 224 224 74 0 0 0 0 0 0 74 237 167 74 167 237 237 212 224 167 0 0 0 0 0 74 148 241 163 0 0 0 0 0 0 0 0 0 0 0 0 0 0 72 0 0 0 0 0 0 0 0 0 0 0 0 0 0 0 0 0 0 0 0 0 0 0 0 0 144 185 161 161 0 0 0 0 0 0 0 0 0 0 0 0 0 0 0 0 0 0 0 0 0 0 0 0 0 0 0 0 0 0 0 0 0 0 0 0 
0 0 0 0 0 0 0 0 0 0 0 0 0 0 0 0 0 0 0 0 0 0 0 0 107 120 76 0 0 113 144 152 113 0 0 0 0 72 72 0 72 72 101 101 72 0 0 0 0 0 0 0 0 0 0 0 0 0 0 0 0 0 0 0 0 0 0 0 0 0 0 0 0 0 0 0 0 0 0 0 0 0 0 0 0 0 0 0 0 0 0 0 0 123 74 0 0 0 74 74 149 224 74 0 0 0 0 76 0 0 0 152 152 120 161 152 169 169 120 0 76 0 0 0 0 0 0 76 0 76 0 0 0 0 0 76 0 0 120 161 169 169 120 0 76 0 0 0 0 0 161 169 120 0 0 0 0 0 0 76 0 76 0 0 0 0 0 0 0 120 161 120 0 0 169 120 0 0 0 0 0 0 0 0 0 0 0 0 0 0 0 0 0 0 0 0 0 0 0 0 0 74 149 0 149 0 167 237 237 106 167 167 0 0 0 74 106 74 106 0 74 167 212 167 74 74 106 74 0 74 106 0 149 0 167 237 237 167 0 167 167 106 167 212 167 74 0 74 237 106 106 74 74 167 212 237 224 74 74 237 167 0 0 0 74 149 106 74 167 106 224 212 224 167 74 224 224 74 74 106 74 74 106 74 0 0 0 74 167 167 0 149 74 0 0 0 0 0 0 0 0 106 167 106 74 106 74 106 167 212 0 212 0 0 0 74 237 0 237 167 212 167 237 74 167 167 106 212 167 74 74 167 237 237 167 74 0 74 106 74 0 0 74 167 167 74 0 0 0 0 0 0 0 0 0 0 0 0 0 0 0 0 0 0 0 0 0 0 0 0 0 0 0 0 0 0 0 0 0 0 0 0 0 0 0 0 0 0 0 0 0 0 0 0 0 0 0 0 0 0 0 0 0 167 237 74 0 0 0 0 0 0 0 167 237 0 224 237 167 74 0 212 212 0 0 0 0 0 217 0 95 0 0 0 0 0 0 0 0 0 0 0 0 0 0 72 0 72 0 0 0 0 0 0 0 0 0 0 0 0 0 0 0 0 0 0 0 0 0 0 0 113 152 234 169 0 0 0 0 0 0 0 0 0 0 0 0 0 0 0 0 0 0 0 0 0 0 0 0 0 0 0 0 0 0 0 0 0 0 0 0 0 
0 0 0 0 0 0 0 0 0 0 0 0 0 0 0 0 0 0 0 0 0 0 0 76 120 107 0 0 72 72 0 72 72 0 0 0 0 0 113 72 101 144 113 0 113 160 113 0 0 0 0 0 0 0 0 0 0 0 0 0 0 0 0 0 0 0 0 0 0 0 0 0 0 0 0 0 0 0 0 0 0 0 0 0 0 0 0 0 0 0 0 0 108 108 0 0 0 0 106 0 74 237 167 74 167 167 139 0 76 0 0 120 169 76 161 152 76 0 120 76 0 0 0 0 0 0 0 0 76 0 0 0 0 0 76 0 76 0 120 161 120 0 76 76 0 0 0 0 0 161 161 0 0 0 0 0 0 0 76 0 76 0 0 0 0 0 0 0 0 152 152 0 0 161 161 0 0 0 0 0 0 0 0 0 0 0 0 0 0 0 0 0 0 0 0 0 0 0 0 0 0 0 74 167 74 167 0 74 167 237 167 167 0 0 74 224 167 106 167 74 106 167 212 212 167 74 74 167 167 74 74 167 74 167 0 74 167 212 224 106 167 167 106 167 237 237 212 212 224 167 0 0 0 74 106 0 224 237 212 149 167 74 0 0 0 74 237 106 237 106 167 212 106 106 167 74 167 167 167 74 0 167 167 224 74 0 0 0 0 74 149 0 149 74 0 0 0 0 0 0 0 74 224 149 74 149 167 74 74 212 0 212 74 106 74 0 212 167 224 106 167 0 224 237 167 167 106 0 74 167 237 237 167 74 0 0 74 224 212 224 74 0 0 0 0 0 0 0 0 0 0 0 0 0 0 0 0 0 0 0 0 0 0 0 0 0 0 0 0 0 0 0 0 0 0 0 0 0 0 0 0 0 0 0 0 0 0 0 0 0 0 0 0 0 0 0 0 0 0 0 0 0 74 237 167 0 0 0 0 0 0 74 167 224 106 0 80 167 0 0 0 212 212 0 0 0 0 74 100 216 185 0 0 0 0 0 0 0 0 0 0 0 0 0 0 0 72 0 0 0 0 0 0 0 0 0 0 0 0 0 0 0 0 0 0 0 0 0 0 0 113 152 163 218 120 0 0 0 0 0 0 0 0 0 0 0 0 0 0 0 0 0 0 0 0 0 0 0 0 0 0 0 0 0 0 0 0 0 0 0 0 0 
0 0 0 0 0 0 0 0 0 0 0 0 0 0 0 0 0 0 0 0 0 0 0 0 169 120 0 0 0 113 113 101 101 0 0 0 0 0 0 101 113 0 72 101 101 0 72 72 0 0 0 0 0 0 0 0 0 0 0 0 0 0 0 0 0 0 0 0 0 0 0 0 0 0 0 0 0 0 0 0 0 0 0 0 0 0 0 0 0 0 0 0 79 168 74 0 0 0 74 74 106 224 167 167 149 167 148 76 0 120 120 0 161 120 0 0 76 0 169 0 0 0 0 0 0 0 0 0 0 0 0 0 0 0 0 76 0 0 0 120 152 152 120 0 0 0 0 0 161 161 0 0 0 0 0 76 0 76 0 76 0 0 0 0 0 0 0 120 152 161 76 120 169 161 0 0 0 0 0 0 0 0 0 0 0 0 0 0 0 0 0 0 0 0 0 0 0 0 0 0 0 0 76 217 74 167 74 0 0 74 106 74 0 0 167 237 149 224 224 0 237 74 0 0 74 106 74 74 74 74 74 167 106 167 74 106 74 0 167 224 167 0 224 224 0 167 212 212 106 74 74 74 106 74 74 149 0 167 212 149 106 237 212 167 74 0 167 106 167 0 74 167 167 149 149 106 74 149 237 224 74 167 167 149 224 74 0 0 0 0 74 149 0 167 167 74 0 0 0 74 106 106 149 106 149 0 224 237 167 106 106 167 106 74 167 167 167 212 74 167 74 167 74 167 212 167 0 167 237 237 167 74 0 74 167 167 74 167 106 167 106 0 0 0 0 0 0 0 0 0 0 0 0 0 0 0 0 0 0 0 0 0 0 0 0 0 0 0 0 0 0 0 0 0 0 0 0 0 0 0 0 0 0 0 0 0 0 0 0 0 0 0 0 0 0 0 0 0 0 0 0 74 224 224 74 0 0 0 0 0 0 167 224 106 203 130 190 120 76 0 74 237 167 0 0 0 0 217 199 95 113 0 0 0 0 0 0 0 0 0 0 0 0 0 0 0 0 0 0 0 0 0 0 0 0 0 0 0 0 0 0 0 0 0 0 0 0 0 0 0 160 163 161 161 0 0 0 0 0 0 0 0 0 0 0 0 0 0 0 0 0 0 0 0 0 0 0 0 0 0 0 0 0 0 0 0 0 0 0 0 0 0 
0 0 0 0 0 0 0 0 0 0 0 0 0 0 0 0 0 0 0 0 0 0 0 0 152 152 0 0 0 113 160 113 0 72 0 0 0 0 113 101 0 101 0 0 113 113 0 72 0 0 0 0 0 0 0 0 0 0 0 0 0 0 0 0 0 0 0 0 0 0 0 0 0 0 0 0 0 0 0 0 0 0 0 0 0 0 0 0 0 0 0 72 0 180 106 0 0 0 0 167 224 106 74 106 167 224 0 106 139 76 76 76 0 120 152 152 120 120 152 0 0 76 0 0 0 0 0 113 113 0 0 76 0 0 0 0 0 120 120 0 0 0 0 0 0 0 0 161 161 0 0 0 0 0 76 0 76 0 0 0 0 0 0 0 0 0 167 218 191 76 107 169 120 0 0 0 0 0 0 0 0 0 0 0 0 0 0 76 0 0 0 0 0 0 0 0 0 0 0 0 0 76 0 139 149 74 106 0 0 120 120 92 106 74 167 237 0 167 106 167 167 0 0 0 0 0 0 106 74 167 167 0 74 106 167 106 149 74 74 167 237 237 106 149 224 74 0 0 106 0 106 106 0 74 149 0 149 74 0 167 167 106 167 167 106 0 74 106 74 0 106 167 74 74 74 0 74 237 74 167 149 0 224 149 167 167 0 0 0 0 0 74 149 106 167 237 167 74 0 106 74 167 167 74 74 149 0 167 237 149 74 74 74 149 106 167 106 167 92 204 148 167 0 0 0 74 224 237 167 74 0 0 74 149 74 106 74 167 212 167 74 0 0 0 0 0 0 0 0 0 0 0 0 0 0 0 0 0 0 0 0 0 0 0 0 0 0 0 0 0 0 0 0 0 0 0 0 0 0 0 0 0 0 0 0 0 0 0 0 0 0 0 0 0 0 0 0 0 0 0 0 167 237 74 0 0 0 0 0 0 74 237 106 224 80 242 76 169 0 0 167 167 74 74 0 0 74 100 194 212 0 0 0 0 0 0 0 0 0 0 0 0 0 0 0 0 0 0 0 0 0 0 0 0 0 0 0 0 0 0 0 0 0 0 0 0 0 0 0 152 152 167 169 0 0 0 0 0 0 0 0 0 0 0 0 0 0 0 0 0 0 0 0 0 0 0 0 0 0 0 0 0 0 0 0 0 0 0 0 0 0 0 
0 0 0 0 0 0 0 0 0 0 0 0 0 0 0 0 0 0 0 0 0 0 0 0 152 152 0 0 72 72 72 0 72 0 0 0 0 0 113 113 0 0 72 0 0 72 0 72 0 0 0 0 0 0 0 0 0 0 0 0 0 0 0 0 0 0 0 0 0 0 0 0 0 0 0 0 0 0 0 0 0 0 0 0 0 0 0 0 0 0 0 0 79 168 74 0 0 74 106 106 237 74 0 74 106 74 106 0 148 76 120 0 0 76 0 0 0 120 169 76 107 0 76 0 0 0 113 101 113 72 76 0 76 0 0 0 76 76 76 76 0 0 0 0 0 0 161 161 0 0 0 0 0 0 0 0 76 120 0 0 76 0 0 0 0 120 218 120 72 120 169 0 0 0 0 0 0 0 0 0 0 0 0 0 0 0 76 0 76 0 0 0 0 0 0 0 0 0 0 76 0 0 76 0 74 106 74 0 76 76 76 182 0 106 74 224 237 167 74 212 106 0 74 106 74 0 0 74 149 74 106 106 106 167 74 74 0 149 74 0 74 167 237 149 149 224 74 0 74 106 74 74 106 74 74 149 74 106 0 74 224 237 237 224 74 0 0 0 0 0 74 224 167 74 74 74 106 149 212 106 106 224 74 212 74 237 74 0 0 0 0 0 74 237 106 167 237 224 74 74 167 106 149 106 74 74 106 0 74 237 167 0 74 149 167 74 149 74 182 74 130 74 0 0 74 224 224 74 0 0 74 106 74 74 167 106 74 74 0 0 0 0 0 0 0 0 0 0 0 0 0 0 0 0 0 0 0 0 0 0 0 0 0 0 0 0 0 0 0 0 0 0 0 0 0 0 0 0 0 0 0 0 0 0 0 0 0 0 0 0 0 0 0 0 0 0 0 0 0 0 74 237 167 0 0 0 0 0 74 167 237 149 149 0 242 120 152 152 0 0 167 167 167 167 0 0 167 168 114 113 0 0 0 0 0 0 0 0 0 0 0 0 0 0 0 0 0 0 0 0 0 0 0 0 0 0 0 0 0 0 0 0 0 0 0 0 0 0 152 152 104 169 120 0 0 0 0 0 0 0 0 0 0 0 0 0 0 0 0 0 0 0 0 0 0 0 0 0 0 0 0 0 0 0 0 0 0 0 0 0 0 0 
0 0 0 0 0 0 0 0 0 0 0 0 0 0 0 0 0 0 0 0 0 0 0 0 152 152 0 0 0 113 152 113 0 0 0 0 0 0 72 144 0 72 0 0 0 0 72 0 0 0 0 0 0 0 0 0 0 0 0 0 0 0 0 0 0 0 0 0 0 0 0 0 0 0 0 0 0 0 0 0 0 0 0 0 0 0 0 0 0 0 0 0 115 145 0 0 0 167 106 106 224 149 74 74 0 0 74 130 74 76 0 0 76 0 76 0 76 0 161 152 76 120 0 0 0 0 113 113 152 0 74 148 74 0 0 76 0 120 120 0 0 0 0 0 0 161 161 0 0 0 0 0 0 0 0 76 120 107 76 76 0 0 0 0 120 161 0 116 117 169 120 0 0 0 0 0 0 0 0 0 0 0 0 0 76 0 0 76 0 0 0 0 0 0 0 0 0 0 76 0 76 0 0 0 0 0 0 0 0 120 120 92 106 74 74 74 106 237 167 167 106 0 167 167 224 74 0 0 106 74 149 74 74 224 106 74 74 106 106 0 0 0 74 224 149 149 237 167 74 0 0 0 0 0 74 149 74 106 0 0 74 167 167 74 0 0 0 0 74 167 167 0 106 149 167 74 0 74 74 167 167 224 167 167 74 224 224 74 0 0 0 0 74 167 167 74 74 224 237 167 106 167 224 167 167 106 0 106 74 167 237 74 167 224 106 74 0 106 92 0 0 92 167 212 237 224 74 0 74 167 167 74 74 106 74 106 0 106 0 0 0 0 0 0 0 0 0 0 0 0 0 0 0 0 0 0 0 0 0 0 0 0 0 0 0 0 0 0 0 0 0 0 0 0 0 0 0 0 0 0 0 0 0 0 0 0 0 0 0 0 0 0 0 0 0 0 0 0 0 74 224 224 74 0 0 0 0 0 167 224 106 149 0 236 161 0 169 120 0 0 74 106 167 212 0 0 252 229 0 0 0 0 0 0 0 0 0 0 0 0 0 0 0 0 0 0 0 0 0 0 0 0 0 0 0 0 0 0 0 0 0 0 0 0 0 0 0 113 160 0 120 169 0 0 0 0 0 0 0 0 0 0 0 0 0 0 0 0 0 0 0 0 0 0 0 0 0 0 0 0 0 0 0 0 0 0 0 0 0 0 0 0 
0 0 0 0 0 0 0 0 0 0 0 0 0 0 0 0 0 0 0 0 0 0 0 0 152 152 0 0 0 0 144 144 0 0 0 0 0 0 113 160 0 0 72 0 0 0 0 0 0 0 0 0 0 0 0 0 0 0 0 0 0 0 0 0 0 0 0 0 0 0 0 0 0 0 0 0 0 0 0 0 0 0 0 0 0 0 0 0 0 0 0 113 115 217 0 0 0 167 106 167 106 212 106 0 0 0 74 197 240 92 0 0 0 76 0 120 76 120 0 0 120 120 0 0 0 0 0 72 0 0 113 72 113 0 76 0 76 0 0 0 0 0 0 0 161 161 0 0 0 0 76 0 0 0 0 0 161 120 120 0 0 0 0 120 161 120 76 0 120 161 0 0 0 0 0 0 0 0 0 0 0 0 0 76 0 107 0 0 0 0 0 0 0 0 0 0 0 0 0 76 0 0 0 0 0 0 0 0 74 106 74 0 0 0 106 74 149 0 167 167 74 74 167 106 149 237 167 74 106 0 74 106 74 74 149 74 74 149 74 0 0 0 0 74 224 167 0 167 224 74 0 0 0 74 224 167 167 106 0 0 0 0 0 0 0 74 106 74 167 224 224 167 0 74 237 106 167 106 224 106 237 0 167 106 224 0 224 224 74 0 0 74 149 0 167 224 74 74 167 237 149 74 0 237 167 0 167 167 224 0 237 167 167 237 74 0 106 0 74 130 106 0 237 212 167 74 74 167 237 167 106 149 74 0 0 74 106 74 0 0 0 0 0 0 0 0 0 0 0 0 0 0 0 0 0 0 0 0 0 0 0 0 0 0 0 0 0 0 0 0 0 0 0 0 0 0 0 0 0 0 0 0 0 0 0 0 0 0 0 0 0 0 0 0 0 0 0 0 0 167 237 74 0 0 0 0 0 74 167 149 237 0 236 107 76 169 161 0 0 0 0 0 212 212 0 0 72 0 185 0 0 0 0 0 0 0 0 0 0 0 0 0 0 0 0 0 0 0 0 0 0 0 0 0 0 0 0 0 0 0 0 0 0 0 0 0 0 144 144 0 169 120 0 0 0 0 0 0 0 0 0 0 0 0 0 0 0 0 0 0 0 0 0 0 0 0 0 0 0 0 0 0 0 0 0 0 0 0 0 0 0 0 
0 74 0 0 0 0 0 0 0 0 0 0 0 0 0 0 0 0 0 0 0 0 0 0 169 120 0 0 0 0 144 144 0 0 0 0 0 0 113 152 144 113 0 72 0 0 0 0 0 0 0 0 0 0 0 0 0 0 0 0 0 0 0 0 0 0 0 0 0 0 0 0 0 0 0 0 0 0 0 0 0 0 0 0 0 0 0 0 0 0 0 113 115 217 0 0 0 74 106 0 224 224 0 106 74 0 167 224 224 167 0 0 0 0 0 120 76 120 0 161 161 0 0 0 0 0 0 0 0 113 101 0 113 0 0 76 0 0 0 0 0 0 120 169 161 0 0 0 0 76 0 76 0 0 0 0 0 76 0 76 0 0 161 169 76 0 0 120 120 0 0 0 0 0 0 0 0 0 0 0 0 0 0 0 120 76 161 0 0 0 0 76 0 0 0 0 0 0 0 0 0 0 0 0 0 76 0 0 106 0 106 0 0 0 74 149 74 106 0 0 0 106 74 167 149 106 224 167 74 106 106 106 167 0 74 167 167 74 0 0 0 0 0 0 74 167 237 149 149 224 74 0 0 106 167 167 224 74 74 106 74 0 0 0 0 106 0 106 167 224 224 106 167 167 106 237 106 167 149 167 167 106 167 167 149 224 0 224 237 167 74 167 149 149 106 106 149 74 0 74 224 224 149 237 74 0 167 167 167 167 167 224 167 167 74 106 74 0 106 92 240 0 74 0 74 167 237 167 74 74 237 74 0 0 0 0 0 0 0 0 0 0 0 0 0 0 0 0 0 0 0 0 0 0 0 0 0 0 0 0 0 0 0 0 0 0 0 0 0 0 0 0 0 0 0 0 0 0 0 0 0 0 0 0 0 0 0 0 0 0 0 0 0 0 0 0 0 0 74 237 167 0 0 0 0 74 167 167 0 167 217 236 107 107 169 120 0 0 0 0 0 74 237 167 0 74 168 215 113 0 0 0 0 0 0 0 0 0 0 0 0 0 0 0 0 0 0 0 0 0 0 0 0 0 0 0 0 0 0 0 0 0 0 0 0 0 0 144 144 120 169 0 0 0 0 0 0 0 0 0 0 0 0 0 0 0 0 0 0 0 0 0 0 0 0 0 0 0 0 0 0 0 0 0 0 0 0 0 0 0 0 0 
0 106 0 0 0 0 0 0 0 0 0 0 0 0 0 0 0 0 0 0 0 0 0 76 152 76 0 0 0 0 144 144 0 0 0 0 0 0 72 0 113 101 113 0 0 0 0 0 0 72 0 0 0 0 0 0 0 0 0 0 0 0 0 0 0 0 0 0 0 0 0 0 0 0 0 0 0 0 0 0 0 0 0 0 0 0 0 0 0 0 0 0 115 145 0 0 0 0 74 149 167 106 106 0 106 0 167 224 224 167 0 0 0 0 76 0 76 0 120 169 0 0 0 0 0 0 0 0 72 72 0 101 0 0 0 0 0 0 0 0 0 120 161 120 0 0 0 0 0 0 0 76 120 0 0 0 0 0 76 0 120 169 161 0 76 0 120 161 120 0 0 0 0 0 0 0 0 0 0 0 0 76 0 0 120 107 120 76 0 0 120 120 161 0 0 0 0 0 0 0 0 0 0 0 76 0 76 0 74 106 74 0 0 0 0 74 106 74 0 0 0 74 106 106 237 149 167 167 74 0 167 106 167 0 0 0 0 0 0 0 0 0 74 106 74 0 74 224 149 149 224 74 0 74 167 167 74 0 167 167 224 74 0 0 0 74 106 74 74 167 167 74 167 167 149 149 149 149 149 106 106 74 0 224 149 149 224 0 167 237 237 224 149 167 212 149 74 167 0 0 74 237 0 237 74 0 74 224 106 167 0 167 212 167 74 0 74 167 167 149 149 74 74 167 237 237 167 106 167 167 167 0 0 0 0 0 0 0 0 0 0 0 0 0 0 0 0 0 0 0 0 0 0 0 0 0 0 0 0 0 0 0 0 0 0 0 0 0 0 0 0 0 0 0 0 0 0 0 0 0 0 0 0 0 0 0 0 0 0 0 0 0 0 0 0 0 0 0 167 237 74 0 0 0 0 106 106 74 149 128 107 76 120 161 0 0 0 0 0 0 74 224 224 74 0 217 0 95 0 0 0 0 0 0 0 0 0 0 0 0 0 0 0 0 0 0 0 0 0 0 0 0 0 0 0 0 0 0 0 0 0 0 0 0 113 144 144 152 163 169 120 0 0 0 0 0 0 0 0 0 0 0 0 0 0 0 0 0 0 0 0 0 0 0 0 0 0 0 0 0 0 0 0 0 0 0 0 0 0 0 0 0 
0 74 0 0 0 0 0 0 0 0 0 0 0 0 0 0 0 0 0 0 0 0 0 0 169 120 0 0 0 0 144 144 0 0 0 0 0 0 113 113 160 152 113 0 0 0 0 0 72 0 72 0 0 0 0 0 0 0 0 0 0 0 0 0 0 0 0 0 0 0 0 0 0 0 0 0 0 0 0 0 0 0 0 0 0 0 0 0 0 0 0 0 108 108 0 0 0 0 167 74 106 224 0 106 74 0 74 167 167 74 0 0 0 120 76 120 0 0 120 161 120 0 0 0 0 0 0 0 0 113 113 0 0 0 0 0 0 0 0 0 0 169 120 0 0 0 0 0 0 0 120 161 169 161 0 0 0 0 0 120 107 120 0 0 0 120 107 120 0 0 0 0 0 0 0 0 0 0 0 0 76 0 76 0 0 120 76 76 152 120 120 120 169 120 0 0 0 0 0 0 0 0 0 0 0 76 0 0 0 0 0 0 0 0 0 0 0 0 0 0 0 0 0 0 212 106 106 74 149 74 74 106 74 0 0 0 0 0 0 0 0 74 149 106 167 167 74 74 224 167 167 106 0 0 0 74 106 74 167 149 106 167 212 167 74 0 0 0 0 0 0 74 224 149 167 106 237 106 237 167 106 0 106 74 224 149 167 167 0 74 167 167 74 0 74 167 0 167 74 0 0 167 167 149 224 74 0 74 167 74 167 0 0 0 0 74 224 237 212 167 74 0 167 224 106 106 212 224 149 106 74 0 0 0 0 0 0 0 0 0 0 0 0 0 0 0 0 0 0 0 0 0 0 0 0 0 0 0 0 0 0 0 0 0 0 0 0 0 0 0 0 0 0 0 0 0 0 0 0 0 0 0 0 0 0 0 0 0 0 0 0 0 0 0 0 0 0 74 237 167 0 0 0 74 167 106 106 167 74 76 0 120 120 0 0 0 0 0 0 0 167 237 74 0 74 100 216 185 0 0 0 0 0 0 0 0 0 0 0 0 0 0 0 0 0 0 0 0 0 0 0 0 0 0 0 0 0 0 0 0 0 0 0 72 72 0 0 155 212 161 0 0 0 0 0 0 0 0 0 0 0 0 0 0 0 0 0 0 0 0 0 0 0 0 0 0 0 0 0 0 0 0 0 0 0 0 0 0 0 0 0 0 
0 0 0 0 0 0 0 0 0 0 0 0 0 74 106 74 0 0 0 0 0 0 0 0 152 152 0 0 0 0 144 144 0 0 0 0 0 0 113 101 0 101 0 0 0 72 0 0 0 0 0 0 0 0 0 0 0 0 0 0 0 0 0 0 0 0 0 0 0 0 0 0 0 0 0 0 0 0 0 0 0 0 0 0 0 0 0 0 0 0 0 0 108 108 0 0 74 106 167 0 106 212 106 0 0 0 0 0 0 0 0 0 0 120 76 76 76 0 0 107 120 76 0 0 0 0 0 0 0 0 0 0 0 0 0 0 0 0 0 120 169 161 0 0 0 0 0 0 0 76 76 161 76 120 120 0 0 120 152 161 120 0 120 152 152 161 120 0 0 0 0 0 0 0 0 0 0 0 0 0 0 76 0 0 76 0 76 120 120 161 0 161 161 120 0 0 0 0 0 0 0 0 0 0 0 74 106 74 0 0 0 0 0 0 0 0 0 0 0 0 0 0 0 0 167 149 149 106 74 106 0 0 0 0 0 74 106 74 0 0 0 167 74 74 106 167 224 74 74 167 167 74 0 0 0 167 167 237 106 106 167 74 74 149 167 0 0 0 0 0 0 0 74 224 106 167 106 237 106 237 0 106 0 106 0 224 167 106 106 74 0 0 0 0 106 106 0 106 74 106 74 74 224 149 167 167 0 0 167 106 167 0 0 0 74 224 224 74 0 74 167 167 106 224 237 237 212 167 74 0 0 0 0 0 0 0 0 0 0 0 0 0 0 0 0 0 0 0 0 0 0 0 0 0 0 0 0 0 0 0 0 0 0 0 0 0 0 0 0 0 0 0 0 0 0 0 0 0 0 0 0 0 0 0 0 0 0 0 0 0 0 0 0 0 0 0 74 224 224 74 0 0 0 167 149 167 106 0 0 0 76 0 0 0 0 0 0 0 0 0 212 212 0 0 167 168 114 113 0 0 0 0 0 0 0 0 0 0 0 0 0 0 0 0 0 0 0 0 0 0 0 0 0 0 0 0 0 0 0 0 0 0 0 0 101 0 72 189 169 0 0 0 0 0 0 0 0 0 0 0 0 0 0 0 0 0 0 0 0 0 0 0 0 0 0 0 0 0 0 0 0 0 0 0 0 0 0 0 0 0 0 0 
0 0 0 0 0 0 0 0 0 0 0 0 0 106 0 106 0 0 0 0 0 0 0 0 152 152 0 0 0 72 113 144 0 0 0 0 0 0 72 0 113 152 0 0 72 0 72 0 0 72 0 72 0 0 0 0 0 0 0 0 0 0 0 0 0 0 0 0 0 0 0 0 0 0 0 0 0 0 0 0 0 0 0 0 0 0 0 0 0 0 0 0 145 72 0 0 106 0 74 106 0 237 0 106 74 0 76 92 106 74 0 0 0 0 0 107 152 161 0 120 169 0 0 0 0 0 0 0 0 0 0 0 0 0 0 0 0 120 169 169 120 0 0 0 0 0 0 0 120 76 0 0 120 120 120 0 76 120 120 76 76 120 0 0 120 120 0 0 0 0 0 0 0 0 0 0 0 0 76 0 0 0 0 76 0 120 76 107 169 161 107 120 120 0 0 0 0 0 0 0 0 0 0 0 0 106 0 74 106 74 0 0 0 0 0 0 0 0 0 0 0 0 74 106 0 167 167 106 106 74 0 0 0 0 0 106 0 74 106 74 0 212 74 149 167 0 212 106 0 0 0 0 0 0 0 167 167 106 237 224 0 167 237 167 106 106 74 0 0 0 0 0 0 74 149 0 74 149 149 167 167 0 106 74 149 0 106 74 74 149 74 0 0 0 74 149 106 149 74 0 106 0 74 237 74 212 0 0 74 106 74 0 74 167 237 224 74 74 167 237 237 224 106 167 167 74 0 0 0 0 0 0 0 0 0 0 0 0 0 0 0 0 0 74 106 74 0 0 0 0 0 0 0 0 0 0 0 0 0 0 0 0 0 0 0 0 0 0 0 0 0 0 0 0 0 0 0 0 0 0 0 0 0 0 0 0 0 0 0 0 0 0 0 0 0 0 167 237 74 0 0 0 74 167 106 0 139 0 0 0 0 0 0 0 0 0 76 0 0 0 212 212 0 0 252 229 0 0 0 0 0 0 0 0 0 0 0 0 0 0 0 0 0 0 0 0 0 0 0 0 0 0 0 0 0 0 0 0 0 0 0 0 0 0 113 152 163 218 120 0 0 0 0 0 0 0 0 0 0 0 0 0 0 0 0 0 0 0 0 0 0 0 0 0 0 0 0 0 0 0 0 0 0 0 0 0 0 0 0 0 0 0 
0 0 0 0 0 0 0 0 0 0 0 0 0 74 106 74 0 0 0 0 0 0 0 0 120 169 0 0 72 0 72 144 0 0 0 0 0 0 113 113 113 72 101 0 0 72 0 0 0 0 72 0 0 0 0 0 0 0 0 0 0 0 0 0 0 0 0 0 0 0 0 0 0 0 0 0 0 0 0 0 0 0 0 0 0 0 0 0 0 0 113 118 217 252 0 0 74 106 106 106 149 224 167 74 106 76 0 182 0 106 0 0 0 0 107 76 76 120 76 152 120 76 0 0 0 0 0 0 0 0 0 0 0 0 0 0 120 161 120 0 0 0 0 0 0 0 0 0 120 76 0 0 0 76 0 120 120 120 76 120 107 76 76 120 76 0 0 0 0 0 0 0 0 0 0 0 0 76 0 76 0 0 76 0 120 107 161 76 120 120 0 0 0 0 0 0 0 0 76 0 0 0 0 0 0 74 106 74 0 106 0 0 0 0 0 0 0 74 106 74 0 0 106 0 106 0 0 0 0 0 0 0 0 74 106 0 106 106 167 224 74 167 149 74 74 167 224 128 76 0 0 0 74 106 74 74 224 224 74 212 106 0 74 106 74 0 74 106 74 0 0 0 0 0 74 167 74 106 224 106 167 74 74 149 0 149 74 74 149 74 106 0 0 0 0 74 106 74 74 106 74 0 0 167 106 167 0 0 0 0 0 74 224 237 167 74 0 167 149 74 106 212 212 0 0 0 0 0 0 0 0 0 0 0 0 0 0 0 0 0 0 0 0 106 0 106 0 0 0 0 0 0 0 0 0 0 0 0 0 0 0 0 0 0 0 0 0 0 0 0 0 0 0 0 0 0 0 0 0 0 0 0 0 0 0 0 0 0 0 0 0 0 0 0 0 74 237 167 0 0 0 0 106 74 203 182 0 76 0 0 0 0 0 0 120 120 0 76 0 74 237 167 0 74 100 216 185 0 0 0 0 0 0 0 0 0 0 0 0 0 0 0 0 0 0 0 0 0 0 0 0 0 0 0 0 0 0 0 0 0 0 0 0 0 144 144 120 169 0 0 0 0 0 0 0 0 0 0 0 0 0 0 0 0 0 0 0 0 0 0 0 0 0 0 0 0 0 0 0 0 0 0 0 0 0 0 0 0 0 0 0 0 
0 0 0 0 0 0 0 0 0 0 0 0 0 0 0 0 0 0 0 0 0 0 0 0 0 169 120 0 0 72 113 144 0 0 0 0 0 113 152 0 72 0 101 113 0 0 0 0 0 0 0 0 0 0 0 0 0 0 0 0 0 0 0 0 0 0 0 0 0 0 0 0 0 0 0 0 0 0 0 0 0 0 0 0 0 0 0 0 0 0 144 152 252 212 0 0 0 0 74 106 0 167 149 167 74 0 76 92 106 74 74 106 74 120 0 107 152 120 0 120 120 152 161 0 0 0 0 0 0 0 0 0 0 0 0 0 152 120 120 120 0 0 0 0 0 0 0 0 0 0 76 76 0 0 120 161 152 120 0 120 0 76 120 161 0 0 0 0 0 0 0 0 0 0 0 0 76 0 76 0 0 120 120 169 161 120 152 152 0 0 0 0 0 0 0 0 0 76 0 76 0 0 0 0 0 0 0 74 106 74 0 0 0 0 0 0 74 224 212 224 74 0 74 106 0 106 74 0 0 0 0 0 0 106 0 74 167 149 74 106 149 0 167 212 212 167 74 76 0 76 74 106 74 0 106 0 74 224 212 224 74 0 0 0 74 106 74 74 149 74 74 106 74 0 0 167 74 167 0 149 0 167 167 0 149 0 149 74 74 106 74 74 106 74 0 0 0 0 0 0 0 0 0 74 106 74 0 0 0 74 167 237 224 74 74 167 212 149 106 212 237 224 167 0 0 0 0 0 0 0 0 0 0 0 0 0 0 0 0 0 0 0 0 74 106 74 0 0 0 0 0 0 0 0 0 0 0 0 0 0 0 0 0 0 0 0 0 0 0 0 0 0 0 0 0 0 0 0 0 0 0 0 0 0 0 0 0 0 0 0 0 0 0 0 74 224 224 74 0 74 106 74 74 106 139 0 107 0 0 0 0 0 120 169 169 107 120 0 74 224 224 74 0 217 199 95 113 0 0 0 0 0 0 0 0 0 0 0 0 0 0 0 0 0 0 0 0 0 0 0 0 0 0 0 0 0 0 0 0 0 0 0 0 0 160 163 169 120 0 0 0 0 0 0 0 0 0 0 0 0 0 0 0 0 0 0 0 0 0 0 0 0 0 0 0 0 0 0 0 0 0 0 0 0 0 0 0 0 0 0 0 0 
0 0 0 0 0 0 0 0 0 0 0 0 0 0 0 0 0 0 0 0 0 0 0 0 0 152 152 0 0 0 113 160 0 0 0 0 113 152 72 101 113 0 101 113 0 0 0 0 0 0 0 0 0 0 0 0 0 0 0 0 0 0 0 0 0 0 0 0 0 0 0 0 0 0 0 0 0 0 0 0 0 0 0 0 0 0 0 0 0 0 160 241 0 167 0 0 0 0 106 0 106 0 167 237 74 0 0 0 0 0 106 0 106 120 76 120 0 0 0 0 0 0 120 0 76 0 0 0 0 0 0 0 0 0 0 120 161 0 161 169 161 0 0 0 76 76 76 0 0 107 0 0 0 120 161 120 0 0 76 0 76 76 107 0 0 0 0 0 0 0 0 0 0 0 0 76 0 76 0 0 120 161 107 120 76 76 161 120 0 0 0 0 0 0 0 120 120 0 76 0 0 0 0 0 0 0 0 0 0 0 0 0 0 0 0 0 106 212 74 224 224 74 0 0 106 0 106 0 0 0 0 76 76 139 148 74 106 74 167 167 74 106 0 0 0 0 0 0 76 0 106 74 74 74 0 106 74 74 106 74 0 0 0 0 0 0 74 149 74 106 167 106 167 0 0 74 149 0 149 0 149 106 149 167 74 149 0 149 74 0 0 106 74 149 74 0 0 0 0 0 0 0 0 0 0 0 0 74 167 237 237 167 74 74 224 237 212 149 167 106 167 167 74 0 0 0 0 0 0 0 0 0 0 0 0 0 0 0 0 0 0 0 0 0 0 0 0 0 0 0 0 0 0 0 0 0 0 0 0 0 0 0 0 0 0 0 0 0 0 0 0 0 0 0 0 0 0 0 0 0 0 0 0 0 0 0 0 0 0 0 0 0 0 0 167 237 74 0 0 106 0 106 0 0 0 76 0 0 0 120 152 169 169 120 0 152 152 74 224 224 74 0 0 72 229 212 0 0 0 0 0 0 0 0 0 0 0 0 0 0 0 0 0 0 0 0 0 0 0 0 0 0 0 0 0 0 0 0 0 0 0 0 0 113 160 167 169 0 0 0 0 0 0 0 0 0 0 0 0 0 0 0 0 0 0 0 0 0 0 0 0 0 0 0 0 0 0 0 0 0 0 0 0 0 0 0 0 0 0 0 0 0 
0 0 0 0 0 0 0 0 0 0 0 0 0 0 0 0 0 0 0 0 0 0 0 0 0 152 152 0 0 113 72 113 113 0 0 0 113 152 160 152 0 72 72 72 0 0 0 0 0 0 0 0 0 0 0 0 0 0 0 0 0 0 0 0 0 0 0 0 0 0 0 0 0 0 0 0 0 0 0 0 0 0 0 0 0 0 0 0 0 72 113 146 236 74 0 0 0 0 74 106 0 167 106 149 224 74 0 0 0 0 74 106 74 0 76 0 0 0 0 0 120 161 120 0 0 76 0 0 0 0 0 0 72 0 120 161 120 107 161 76 107 161 0 76 0 120 152 107 0 0 76 0 120 161 120 0 76 0 0 0 0 120 76 0 76 0 0 0 0 0 0 0 0 0 0 0 76 0 0 120 161 76 76 120 107 161 120 0 0 0 0 0 0 0 76 76 76 76 0 0 0 0 0 0 0 0 0 0 0 0 0 0 0 0 0 0 74 224 237 167 167 106 0 0 74 106 74 0 0 0 161 152 152 152 169 211 0 102 0 0 0 211 120 92 167 167 74 0 0 0 74 149 74 106 106 0 106 0 0 0 0 0 0 0 0 0 0 74 106 74 167 106 167 0 0 0 74 149 74 106 74 224 167 167 0 74 149 74 106 0 0 74 167 74 167 0 0 76 0 0 0 0 0 0 0 0 74 224 237 167 74 0 74 224 224 74 74 237 167 0 0 0 0 0 0 0 0 0 0 0 0 0 0 0 0 0 0 0 0 0 0 0 0 0 0 0 0 0 0 0 0 0 0 0 0 0 0 0 0 0 0 0 0 0 0 0 0 0 0 0 0 0 0 0 0 0 0 0 0 0 0 0 0 0 0 0 0 0 0 0 0 0 0 74 237 167 0 0 0 74 106 74 0 0 0 0 0 120 169 218 0 222 74 0 0 152 152 167 237 74 0 0 74 123 202 144 0 0 0 0 0 0 0 0 0 0 0 0 0 0 0 0 0 0 0 0 0 0 0 0 0 0 0 0 0 0 0 0 0 0 0 0 0 160 163 169 120 0 0 0 0 0 0 0 0 0 0 0 0 0 0 0 0 0 0 0 0 0 0 0 0 0 0 0 0 0 0 0 0 0 0 0 0 0 0 0 0 0 0 0 0 0 
0 0 0 0 0 0 0 0 0 0 0 0 0 0 0 0 0 0 0 0 0 0 0 0 0 152 152 0 72 72 0 101 113 0 0 0 0 113 72 0 0 72 72 72 0 0 0 0 72 0 0 0 0 0 0 0 0 0 0 0 0 0 0 0 0 0 0 0 0 0 0 0 0 0 0 0 0 0 0 0 0 0 0 0 0 0 0 0 0 0 113 158 145 0 0 0 0 0 0 74 149 74 106 74 237 149 106 74 0 0 0 0 0 0 0 0 0 0 0 0 120 161 120 0 76 0 0 0 0 0 0 101 74 158 161 120 0 0 120 161 76 161 161 0 107 120 0 152 0 76 0 0 169 120 0 161 120 120 0 161 169 120 0 76 0 107 0 0 0 0 0 0 0 0 0 0 0 0 120 161 120 120 161 169 120 120 0 0 0 0 0 0 0 120 76 76 120 0 0 0 0 0 0 0 0 0 0 0 0 0 0 0 0 0 0 0 0 92 240 252 167 74 0 0 0 0 0 0 0 120 169 0 0 76 0 0 0 158 152 191 0 0 0 0 106 106 106 0 0 0 0 74 106 74 74 106 74 0 0 74 167 167 74 0 0 0 0 0 0 0 74 106 74 0 0 0 0 74 106 74 0 74 106 74 74 106 0 106 74 0 0 0 167 74 167 74 76 0 76 0 0 0 0 0 0 74 224 224 74 74 167 167 149 237 0 167 237 224 74 0 0 0 0 0 0 0 0 0 0 0 0 0 0 0 0 0 0 0 0 0 0 0 0 0 0 0 0 0 0 0 0 0 0 0 0 0 0 0 0 0 0 0 0 0 0 0 0 0 0 0 0 0 0 0 0 0 0 0 0 0 0 0 0 0 0 0 0 0 0 0 0 0 0 167 237 74 0 0 0 0 0 0 0 0 0 120 218 236 189 206 160 152 113 0 0 152 152 212 212 0 0 0 217 199 95 113 0 0 0 0 0 0 0 0 0 0 0 0 0 0 0 0 0 0 0 0 0 0 0 0 0 0 0 0 0 0 0 0 0 0 0 0 113 160 167 169 0 0 0 0 0 0 0 0 0 0 0 0 0 0 0 0 0 0 0 0 0 0 0 0 0 0 0 0 0 0 0 0 0 0 0 0 0 0 0 0 0 0 0 0 0 0 
0 0 0 0 0 0 0 0 0 0 0 0 0 0 0 0 0 0 0 0 0 0 0 0 0 152 152 0 0 113 101 113 0 0 0 0 0 0 152 113 72 152 113 0 72 0 0 72 0 72 0 0 0 0 0 0 0 0 0 0 0 0 0 72 0 0 0 0 0 0 0 0 0 0 0 0 0 0 0 0 0 0 0 0 0 0 0 0 0 0 0 115 145 0 0 0 0 0 0 106 74 167 167 0 237 0 167 224 74 0 74 106 74 0 0 0 0 0 0 0 0 120 169 161 0 0 0 0 0 72 0 0 216 212 120 0 0 0 0 120 169 0 169 120 0 169 76 169 0 0 0 161 161 0 120 120 120 76 161 161 0 0 0 0 107 0 76 0 0 0 0 0 0 0 0 0 0 161 169 76 0 76 169 0 76 0 0 0 0 0 0 0 120 161 161 120 0 0 0 0 0 0 0 0 0 0 0 0 0 0 0 0 120 120 0 0 0 107 0 76 0 0 0 0 0 0 0 0 0 120 169 107 161 152 152 152 169 218 189 104 113 113 0 97 217 167 74 0 0 0 0 0 0 0 0 0 0 0 0 106 106 106 106 74 106 74 0 0 0 0 0 0 0 0 0 0 0 0 0 0 0 74 106 74 106 74 167 167 74 0 0 0 74 149 74 106 0 76 0 76 0 0 0 74 167 237 224 74 0 167 224 237 167 167 167 224 167 74 0 0 0 0 0 0 0 0 0 0 0 0 0 0 0 0 0 0 0 0 0 0 0 0 0 0 0 0 0 0 0 0 0 0 0 0 0 0 0 0 0 0 0 0 0 0 0 0 0 0 0 0 0 0 0 0 0 0 0 0 0 0 0 0 0 0 0 0 0 0 0 0 0 0 74 237 167 0 0 0 0 0 0 0 0 120 218 236 216 116 0 113 113 152 113 0 0 169 190 237 167 0 0 74 100 194 212 0 0 0 0 0 0 0 0 0 0 0 0 0 0 0 0 0 0 0 0 0 0 0 0 0 0 0 0 0 0 0 0 0 0 0 0 0 160 163 169 120 0 0 0 0 0 0 0 0 0 0 0 0 0 0 0 0 0 0 0 0 0 0 0 0 0 0 0 0 0 0 0 0 0 0 0 0 0 0 0 0 0 0 0 0 0 0 
0 0 0 0 0 0 0 0 0 0 0 0 0 0 0 0 0 0 0 0 0 0 0 0 0 152 152 0 0 0 144 144 0 0 0 0 0 72 113 101 0 144 0 72 0 72 0 0 72 0 0 0 0 0 0 0 0 0 0 0 0 0 72 0 72 0 0 0 0 0 0 0 0 0 0 0 0 0 0 0 0 0 0 0 0 0 0 0 0 0 113 115 217 0 0 0 0 0 0 74 106 74 74 149 167 74 149 167 106 0 106 0 106 0 0 0 0 0 0 0 0 0 0 161 169 120 0 0 72 0 0 116 218 76 76 0 0 0 0 0 169 120 120 161 120 76 76 120 0 0 161 161 0 0 169 0 120 107 161 0 0 0 0 0 0 76 0 0 0 0 0 0 0 0 76 76 161 107 76 169 152 120 76 107 0 0 0 0 0 0 76 0 120 161 161 120 0 0 0 0 0 0 0 0 0 0 0 0 0 120 152 169 169 169 169 152 169 120 107 120 152 152 152 120 0 0 0 0 0 0 169 0 152 0 0 0 0 120 169 212 206 152 146 0 120 0 74 106 106 106 74 0 0 0 0 0 0 0 0 92 0 0 92 106 0 106 0 0 0 0 0 0 0 0 0 0 0 0 0 0 0 106 0 148 167 0 148 167 224 74 0 0 0 92 139 0 74 0 120 76 120 0 74 224 237 167 0 167 212 224 167 106 74 167 224 167 0 0 0 0 0 0 0 0 0 0 0 0 0 0 0 0 0 0 0 0 0 0 0 0 0 0 0 0 0 0 0 0 0 0 0 0 0 0 0 0 0 0 0 0 0 0 0 0 0 0 0 0 0 0 0 0 0 0 0 0 0 0 0 0 0 0 0 0 0 0 0 0 0 0 0 74 224 224 74 0 0 0 0 0 0 120 169 218 0 185 72 0 101 113 113 0 116 120 169 236 0 224 74 0 0 217 199 95 113 0 0 0 0 0 0 0 0 0 0 0 0 0 0 0 0 0 0 0 0 0 0 0 0 0 0 0 0 0 0 0 0 0 0 0 0 113 212 212 161 0 0 0 0 0 0 0 0 0 0 0 0 0 0 0 0 0 0 0 0 0 0 0 0 0 0 0 0 0 0 0 0 0 0 0 0 0 0 0 0 0 0 0 0 0 0 0 
0 74 106 74 0 0 0 0 0 0 0 0 0 0 0 0 0 0 0 0 0 0 0 0 0 169 120 0 0 0 144 144 0 0 0 0 0 0 113 113 113 113 113 72 0 0 0 0 0 0 0 0 0 0 0 0 0 0 0 0 0 0 0 72 0 0 0 0 0 0 0 0 0 0 0 0 0 0 0 0 0 0 0 0 0 0 0 0 72 0 113 115 217 0 0 0 0 0 0 0 0 0 167 74 106 149 106 167 0 167 106 74 74 0 0 0 0 0 74 106 74 0 0 0 76 161 120 0 72 0 116 161 161 76 120 169 120 0 0 0 120 169 0 120 161 76 76 0 120 169 161 0 0 107 76 0 76 161 0 0 0 0 0 0 0 0 0 0 0 0 0 0 0 120 120 152 107 107 169 120 76 120 120 0 76 0 0 0 0 76 0 107 0 120 120 0 0 0 0 0 0 0 0 0 0 0 0 120 169 218 224 150 0 0 150 0 0 220 0 0 0 191 152 169 169 120 0 0 0 120 161 0 152 0 0 0 0 0 0 161 212 212 0 0 218 0 106 0 0 0 106 0 0 0 0 0 0 0 0 76 76 0 120 211 0 167 0 0 0 0 0 0 0 0 0 0 0 0 0 0 0 167 0 0 0 97 180 217 167 106 0 0 0 120 132 161 77 0 120 76 190 167 237 224 74 74 224 237 212 167 0 224 237 212 167 74 0 0 0 0 0 0 0 0 0 0 0 0 0 0 0 0 0 0 0 0 0 0 0 0 0 0 0 0 0 0 0 0 0 0 0 0 0 0 0 0 0 0 0 0 0 0 0 0 0 0 0 0 0 0 0 0 0 0 0 0 0 0 0 0 0 0 0 0 0 0 0 0 0 0 74 224 224 74 0 0 0 0 0 0 161 218 234 212 101 0 0 0 101 0 72 0 189 236 0 0 224 74 0 0 74 100 194 212 0 0 0 0 0 0 0 0 0 0 0 0 0 0 0 0 0 0 0 0 0 0 0 0 0 0 0 0 0 0 0 0 0 0 0 0 0 160 234 169 0 0 0 0 0 0 0 0 0 0 0 0 0 0 0 0 0 0 0 0 0 0 0 0 0 0 0 0 0 0 0 0 0 0 0 0 0 0 0 0 0 0 0 0 0 0 0 0 
0 106 0 106 0 0 0 0 0 0 0 0 0 0 0 0 0 0 0 0 0 0 0 0 76 152 76 0 0 0 144 144 0 0 0 0 0 0 0 72 113 72 113 101 113 0 113 113 0 0 0 0 0 0 0 0 0 0 0 0 0 0 0 0 0 0 0 0 0 0 0 0 0 0 0 0 0 0 0 0 0 0 0 0 0 0 0 72 0 72 0 115 145 0 0 0 0 0 0 0 74 106 167 0 167 237 167 0 167 149 167 106 0 74 106 74 0 0 106 0 106 0 76 0 0 169 120 0 72 0 148 120 120 107 0 0 120 169 120 76 0 107 161 76 169 120 0 120 161 120 0 0 76 76 0 0 120 0 0 0 0 0 0 0 0 0 0 0 0 76 0 0 0 169 107 76 76 169 0 0 76 0 0 76 0 0 0 0 0 0 107 0 107 0 0 0 0 0 0 0 0 0 0 0 120 191 0 0 222 104 0 158 152 152 158 104 76 0 0 0 72 0 113 163 167 169 161 0 120 161 120 120 152 0 0 0 0 0 0 0 161 0 163 155 0 218 211 0 0 223 92 0 0 0 0 0 74 167 167 128 120 120 0 0 0 0 120 120 76 76 92 106 74 0 76 92 106 74 0 0 161 169 191 0 212 212 136 194 0 92 0 0 0 120 0 183 109 0 0 139 0 237 167 0 167 237 224 74 0 74 224 224 74 0 0 0 0 0 0 0 0 0 0 0 0 0 0 0 0 0 0 0 0 0 0 0 0 0 0 0 0 0 0 0 0 0 0 0 0 0 0 0 0 0 0 0 0 0 0 0 0 0 0 0 0 0 0 0 0 0 0 0 0 0 0 0 0 0 0 0 0 0 0 0 0 0 0 0 0 0 167 237 74 0 0 0 0 120 152 218 0 212 160 72 101 160 113 0 72 72 0 116 218 0 224 167 74 0 0 0 167 123 97 144 0 0 0 0 0 0 0 0 0 0 0 0 0 0 0 0 0 0 0 0 0 0 0 0 0 0 0 0 0 0 0 0 0 0 0 0 113 160 191 152 0 0 0 0 0 0 0 0 0 0 0 0 0 0 0 0 0 0 0 0 0 0 0 0 0 0 0 0 0 0 0 0 0 0 0 0 0 0 0 0 0 0 0 0 0 0 0 0 
0 74 106 74 0 0 0 0 0 0 0 0 0 0 0 0 0 0 0 0 0 0 0 0 0 169 120 0 0 0 144 144 0 0 0 0 0 0 113 72 0 101 113 72 144 72 72 72 72 0 0 0 0 0 0 0 0 0 0 0 0 0 0 0 0 0 0 0 0 0 0 0 0 0 0 0 0 0 0 0 0 0 0 0 0 0 0 0 72 0 113 158 145 0 0 0 0 0 0 0 106 0 74 106 106 237 167 0 167 167 224 74 0 106 0 106 74 106 0 106 74 0 0 76 76 169 0 0 0 72 117 76 0 0 0 0 0 76 169 152 120 76 161 152 161 0 0 152 152 0 0 76 0 107 0 107 120 0 0 0 0 0 0 0 0 0 0 0 76 0 76 0 161 161 0 120 107 107 120 0 0 76 0 0 0 0 0 0 120 120 0 107 0 76 0 0 0 0 0 0 0 0 0 161 169 216 0 146 146 167 236 218 152 152 212 187 220 232 0 0 146 0 113 113 160 163 212 169 161 167 72 191 152 0 74 106 74 0 0 0 0 212 0 234 113 158 191 0 0 218 169 152 152 152 152 120 148 167 167 224 74 0 120 152 211 223 139 120 191 0 82 104 106 120 120 247 92 167 151 177 107 76 168 209 155 0 163 0 0 212 0 0 0 0 169 0 169 92 167 237 224 0 106 149 224 167 74 0 0 167 237 74 0 0 0 0 0 0 0 0 0 0 0 0 0 0 0 0 0 0 0 0 0 0 0 0 0 0 0 0 0 0 0 0 0 0 0 0 0 0 0 0 0 0 0 0 0 0 0 0 0 0 0 0 0 0 0 0 0 0 0 0 0 0 0 0 0 0 0 0 0 0 0 0 0 0 0 0 0 74 237 167 0 0 0 0 161 218 0 234 155 101 0 113 160 0 0 113 113 0 0 120 169 252 212 0 0 0 0 74 0 128 0 113 0 0 0 0 0 0 0 0 0 0 0 0 0 0 0 0 0 0 0 0 0 0 0 0 0 0 0 0 0 0 0 0 0 0 0 0 160 163 169 120 0 0 0 0 0 0 0 0 0 0 0 0 0 0 0 0 0 0 0 0 0 0 0 0 0 0 0 0 0 0 0 0 0 0 0 0 0 0 0 0 0 0 0 0 0 0 0 0 
0 0 0 0 0 0 0 0 0 0 0 0 0 0 0 0 0 0 0 0 0 0 0 0 0 169 120 0 0 0 144 144 0 0 0 0 0 0 144 0 101 0 72 72 144 0 113 113 0 0 0 0 0 0 0 0 0 0 0 0 0 0 0 0 0 0 0 0 0 0 0 0 0 0 0 0 0 0 0 0 0 0 0 0 0 0 0 0 0 152 160 228 217 0 0 0 0 0 74 106 0 106 106 74 149 224 0 106 0 106 74 0 0 74 148 139 197 106 167 0 0 0 0 0 152 152 0 0 120 120 0 120 120 107 0 76 120 161 0 76 107 169 0 76 0 120 152 161 120 0 161 120 120 76 120 107 0 0 0 0 0 0 0 0 0 0 0 0 0 76 0 161 161 0 161 169 107 107 161 76 76 0 0 0 0 0 0 161 169 161 120 0 76 0 0 0 0 0 0 0 0 0 120 218 163 101 101 212 0 218 120 0 0 0 120 0 0 0 120 120 169 167 213 187 74 0 163 0 0 163 74 236 120 0 106 0 106 74 106 106 106 128 167 0 0 150 116 72 72 116 120 191 0 0 191 169 242 80 217 167 106 0 0 0 106 92 0 190 104 146 0 153 204 120 120 236 0 128 182 0 0 120 150 0 0 212 113 0 206 0 167 0 0 0 120 107 190 0 237 167 0 224 212 167 167 0 0 74 167 224 167 0 0 0 0 0 0 0 0 0 0 0 0 0 0 0 0 0 0 0 0 0 0 0 0 0 0 0 0 0 0 0 0 0 0 0 0 0 0 0 0 0 0 0 0 0 0 0 0 0 0 0 0 0 0 0 0 0 0 0 0 0 0 0 0 0 0 0 0 0 0 0 0 0 0 0 0 74 167 237 224 74 0 120 152 169 212 206 160 101 72 152 72 160 113 0 0 0 0 0 120 161 190 237 167 0 0 0 74 0 180 132 206 0 0 0 0 0 0 0 0 0 0 0 0 0 0 0 0 0 0 0 0 0 0 0 0 0 0 0 0 0 0 0 0 0 0 0 0 113 212 212 161 0 0 0 0 0 0 0 0 0 0 0 0 0 0 0 0 0 0 0 0 0 0 0 0 0 0 0 0 0 0 0 0 0 0 0 0 0 0 0 0 0 0 0 0 0 0 0 0 0 
0 106 74 0 0 0 0 0 0 0 0 0 0 0 0 0 0 0 0 0 0 0 0 0 120 169 0 0 0 0 144 144 0 0 0 0 0 0 113 113 72 144 160 113 113 0 0 0 0 0 0 0 0 0 113 113 0 0 0 0 0 0 0 0 0 0 0 0 0 0 0 0 0 0 0 0 0 0 0 0 0 0 0 0 0 0 0 0 72 113 113 228 217 0 0 0 0 0 106 0 106 0 74 224 149 74 74 0 106 0 0 0 0 0 76 0 240 106 167 0 0 0 0 0 152 152 0 76 120 120 107 107 169 107 0 76 76 76 120 120 0 169 120 0 120 161 191 189 74 76 120 0 107 169 161 0 0 0 0 0 0 0 0 0 0 0 0 0 0 0 161 161 0 120 169 0 120 161 161 120 0 0 0 0 0 0 161 107 76 161 120 0 0 0 0 0 0 0 0 0 0 120 161 189 72 104 234 0 212 0 0 0 0 0 0 107 120 0 161 120 0 76 0 113 162 113 72 113 144 101 234 218 128 167 106 74 74 106 0 0 0 106 0 0 107 120 117 113 113 0 0 72 0 104 0 74 222 97 128 0 211 120 0 0 74 149 92 183 191 0 215 104 0 222 158 146 97 194 0 239 163 0 212 0 218 209 152 113 0 0 0 104 0 0 92 0 100 0 74 74 224 224 106 106 74 0 74 224 237 167 74 0 0 0 0 0 0 0 0 0 0 0 0 0 0 0 0 0 0 0 0 0 0 0 0 0 0 0 0 0 0 0 0 0 0 0 0 0 0 0 0 0 0 0 0 0 0 0 0 0 0 0 0 0 0 0 0 0 0 0 0 0 0 0 0 0 0 0 0 0 0 0 0 0 0 74 167 237 237 167 128 120 169 169 191 234 212 152 0 160 101 160 72 160 0 0 0 0 0 120 161 190 0 224 74 0 0 0 217 137 85 212 0 0 0 0 0 0 0 0 0 0 0 0 0 0 0 0 0 0 0 0 0 0 0 0 0 0 0 0 0 0 0 0 0 0 0 0 0 160 234 169 0 0 0 0 0 0 0 0 0 0 0 0 0 0 0 0 0 0 0 0 0 0 0 0 0 0 0 0 0 0 0 0 0 0 0 0 0 0 0 0 0 0 0 0 0 0 0 0 0 0 
0 0 106 0 0 0 0 0 0 0 0 0 0 0 0 0 0 0 0 0 0 0 0 0 120 169 0 0 0 0 144 144 0 0 0 0 0 0 0 152 152 0 0 72 0 0 0 0 0 0 0 0 0 72 72 72 72 0 0 0 0 0 0 0 0 0 0 0 0 0 0 0 0 0 0 0 0 0 0 0 0 0 0 0 0 0 0 0 0 113 113 91 192 74 0 0 0 0 74 106 74 0 106 167 167 212 149 74 74 0 0 0 0 0 0 76 92 106 74 0 0 0 0 0 120 161 120 0 161 120 76 0 76 120 76 120 152 120 0 76 0 169 120 0 152 152 72 0 72 0 120 107 107 120 0 0 0 0 0 0 0 0 0 76 0 0 0 120 152 169 161 0 76 120 152 0 0 76 76 0 0 0 0 0 0 120 169 76 161 120 0 0 0 0 0 0 0 0 0 0 120 161 120 74 146 0 218 120 0 0 0 0 120 152 152 120 120 76 0 120 152 120 76 76 0 0 152 152 0 113 0 191 106 106 106 106 0 74 74 74 74 148 120 152 169 107 76 152 152 152 120 104 115 113 0 72 113 163 0 0 0 0 0 0 224 0 111 241 152 107 165 155 0 187 185 160 185 0 0 234 155 163 0 0 169 167 160 113 0 104 0 0 0 74 224 237 167 0 167 237 224 74 0 0 74 167 237 224 74 0 0 0 0 0 0 0 0 0 0 0 0 0 0 0 0 0 0 0 0 0 0 0 0 0 0 0 0 0 0 0 0 0 0 0 0 0 0 0 0 0 0 0 0 0 0 0 0 0 0 0 0 0 0 0 0 0 0 0 0 0 0 0 0 0 0 0 0 0 0 0 0 0 0 0 74 224 237 167 128 120 169 169 120 104 152 160 113 0 113 160 0 113 0 113 0 0 0 0 0 169 190 224 224 74 0 0 0 74 100 128 212 113 0 0 0 0 0 0 0 0 0 0 0 0 0 0 0 0 0 0 0 0 0 0 0 0 0 0 0 0 0 0 0 0 0 0 0 0 113 160 191 152 0 0 0 0 0 0 0 0 0 0 0 0 0 0 0 0 0 0 0 0 0 0 0 0 0 0 0 0 0 0 0 0 0 0 0 0 0 0 0 0 0 0 0 0 0 0 0 0 0 0 
0 106 74 0 0 0 0 0 0 0 0 0 0 0 0 0 0 0 0 0 0 0 0 0 0 169 120 0 0 0 144 144 0 0 0 0 0 0 0 0 152 152 0 0 0 0 0 0 0 0 0 0 0 0 113 113 0 0 0 0 0 0 0 0 0 0 0 0 0 0 0 0 0 0 0 0 0 0 0 0 0 0 0 0 0 0 0 0 0 0 113 240 236 167 0 0 0 0 0 0 0 0 74 167 167 74 212 74 167 167 74 0 0 0 0 0 0 0 0 0 0 0 0 0 0 120 169 161 0 120 107 76 161 0 76 0 0 0 107 0 120 107 76 152 161 120 74 148 74 0 0 169 120 0 0 0 0 0 0 0 0 0 76 0 76 0 120 161 152 120 0 161 152 76 120 107 76 107 107 0 76 0 0 0 120 107 107 161 120 0 0 0 0 0 0 0 0 0 0 0 152 120 120 152 169 161 0 0 0 0 120 169 169 152 152 152 120 0 0 113 144 144 144 144 144 113 0 160 113 0 0 0 92 0 0 0 167 212 167 74 148 247 169 152 120 76 161 152 152 152 161 120 0 76 0 0 160 72 113 144 113 116 189 235 0 0 0 0 0 0 0 163 113 0 72 0 0 0 113 113 0 0 163 0 0 212 152 0 0 0 163 74 204 224 224 0 167 237 237 167 74 0 0 0 167 224 167 74 0 0 0 0 0 0 0 0 0 0 0 0 0 0 0 0 0 0 0 0 0 0 0 0 0 0 0 0 0 0 0 0 0 0 0 0 0 0 0 0 0 0 0 0 0 0 0 0 0 0 0 0 0 0 0 0 0 0 0 0 0 0 0 0 0 0 0 0 0 0 0 0 0 74 167 212 0 80 211 152 169 169 167 163 144 160 101 72 144 144 152 113 0 0 101 0 72 0 0 120 169 236 0 224 74 0 0 0 0 217 199 83 152 0 0 0 0 0 0 0 0 0 0 0 0 0 0 0 0 0 0 0 0 0 0 0 0 0 0 0 0 0 0 0 0 0 0 0 0 0 160 163 169 120 0 0 0 0 0 0 0 0 0 0 0 0 0 0 0 0 0 0 0 0 0 0 0 0 0 0 0 0 0 0 0 0 0 0 0 0 0 0 0 0 0 0 0 0 0 0 0 0 0 0 
0 0 0 0 0 0 0 0 0 0 0 0 0 0 0 0 0 0 0 0 0 0 0 0 0 152 152 0 0 0 160 113 0 0 0 0 0 0 0 0 72 144 72 0 0 0 0 0 0 0 0 0 0 0 0 0 0 0 0 0 0 0 0 0 0 0 0 0 0 0 0 0 0 0 0 0 0 0 0 0 0 0 0 0 0 0 0 0 0 0 144 152 252 212 0 0 0 0 0 74 106 74 0 0 74 224 224 106 224 224 167 74 106 74 0 0 76 0 0 0 0 74 167 167 74 0 107 120 76 0 120 107 120 76 0 0 0 0 161 169 120 0 120 120 120 0 76 0 76 0 120 169 0 0 0 0 0 0 0 0 76 0 0 76 0 0 169 120 0 120 169 161 76 107 0 0 0 0 0 107 0 76 0 76 120 76 76 107 0 0 0 0 76 0 0 0 0 0 0 167 218 0 161 152 120 0 0 0 76 107 161 120 104 113 113 0 0 0 113 152 144 144 144 144 144 160 160 152 113 0 0 0 0 76 76 182 106 0 74 167 0 242 0 76 0 120 161 152 152 152 161 120 0 113 144 113 72 152 144 144 160 113 0 0 101 0 0 113 144 113 72 113 113 0 0 0 0 0 0 0 72 0 0 0 113 113 0 0 0 0 72 97 158 224 74 167 224 167 74 0 74 167 212 212 224 167 0 0 0 0 0 0 0 0 0 0 0 0 0 0 0 0 0 0 0 0 0 0 0 0 0 0 0 0 0 0 0 0 0 0 0 0 0 0 0 0 0 0 0 0 0 0 0 0 0 0 0 0 0 0 0 0 0 0 0 0 0 0 0 0 0 0 0 0 0 0 0 0 0 74 167 237 0 72 80 242 191 224 150 104 152 113 72 0 101 160 144 144 113 0 0 0 0 72 0 0 161 169 190 0 224 74 0 0 0 0 74 100 194 212 0 0 0 0 0 0 0 0 0 0 0 0 0 0 0 0 0 0 0 0 0 0 0 0 0 0 0 0 0 0 0 0 0 0 0 0 0 113 160 167 169 0 0 0 0 0 0 0 0 0 0 0 0 0 0 0 0 0 0 0 0 0 0 0 0 0 0 0 0 0 0 0 0 0 0 0 0 0 0 0 0 0 0 0 0 0 0 0 0 0 0 0 
0 74 0 0 0 0 0 0 0 0 0 0 0 0 0 0 0 0 0 0 0 0 0 0 0 152 152 0 0 72 144 72 0 0 0 0 0 0 72 0 72 113 101 0 0 0 0 0 0 0 0 0 0 0 0 0 0 0 0 0 0 0 0 0 0 0 0 0 0 0 0 0 0 0 0 0 0 0 0 0 0 0 0 0 0 0 0 0 0 0 144 152 252 212 0 0 0 0 0 106 0 106 0 0 106 167 167 149 167 106 237 74 0 106 0 120 76 120 0 0 0 167 224 224 167 120 161 120 0 0 0 120 76 0 0 0 0 120 169 0 120 120 120 76 0 0 0 76 0 120 161 120 0 0 0 76 0 0 0 76 0 76 0 0 120 169 161 0 120 161 120 0 0 0 0 0 76 0 76 0 120 120 169 120 76 76 120 76 0 0 0 76 0 76 0 0 0 0 167 0 222 234 152 0 0 0 0 120 120 120 120 0 152 113 113 72 0 0 144 144 0 0 0 72 0 0 113 72 0 0 185 0 120 0 107 92 167 252 0 211 107 120 0 0 76 0 150 224 224 0 222 116 152 160 144 160 113 0 113 144 72 113 101 72 0 72 0 0 0 72 0 72 0 0 0 0 0 0 0 0 0 0 0 0 0 0 0 0 0 0 163 241 148 74 74 237 167 0 0 74 224 237 212 212 167 74 0 0 0 0 0 0 0 0 0 0 0 0 0 0 0 0 0 0 0 0 0 0 0 0 0 0 0 0 0 0 0 0 0 0 0 0 0 0 0 0 0 0 0 0 0 0 0 0 0 0 0 0 0 0 0 0 0 0 0 0 0 0 0 0 0 0 0 0 0 0 74 167 212 237 0 0 0 236 189 116 101 72 113 72 113 113 144 144 101 0 0 0 0 0 0 0 0 0 0 161 161 0 106 212 106 0 0 0 0 74 0 184 95 113 0 0 0 0 0 0 0 0 0 0 0 0 0 0 0 0 0 0 0 0 0 0 0 0 0 0 0 0 0 0 0 0 0 0 0 0 0 160 163 169 120 0 0 0 0 0 0 0 0 0 0 0 0 0 0 0 0 0 0 0 0 0 0 0 0 0 0 0 0 0 0 0 0 0 0 0 0 0 0 0 0 0 0 0 0 0 0 0 0 0 0 0 
0 167 0 0 0 0 0 0 0 0 0 0 0 0 0 0 0 0 0 0 0 0 0 0 0 152 152 0 0 0 160 113 0 0 0 0 0 152 144 160 113 0 72 72 0 0 0 0 0 0 0 0 0 0 0 0 0 0 0 0 0 0 0 0 0 0 0 0 0 0 0 0 0 0 0 0 0 0 0 0 0 0 0 0 0 0 0 0 0 0 144 120 0 252 0 0 0 0 0 74 106 74 74 106 0 167 212 149 106 167 106 74 74 128 76 76 76 120 0 76 0 167 224 0 0 161 120 0 0 0 0 0 120 120 169 120 76 169 76 161 169 191 189 74 0 0 0 120 169 169 120 0 76 0 76 0 76 0 0 0 76 0 0 161 169 120 0 0 169 120 0 120 120 0 0 107 0 76 0 0 169 107 120 120 76 120 120 0 0 0 0 0 76 0 76 0 0 120 218 222 101 0 152 0 0 0 120 161 107 117 163 160 101 101 152 0 0 0 160 72 113 144 160 144 160 144 113 101 113 160 206 163 76 169 169 152 152 169 169 152 107 0 76 76 0 0 152 144 144 160 160 144 152 0 0 0 101 113 72 0 113 160 0 0 113 113 152 0 0 0 72 0 0 0 0 0 0 0 0 0 0 0 0 0 0 0 0 0 104 0 225 234 148 167 0 0 92 0 74 224 224 74 0 0 0 0 0 0 0 0 0 0 0 0 0 0 0 0 0 0 0 0 0 0 0 0 0 0 0 0 0 0 0 0 0 0 0 0 0 0 0 0 0 0 0 0 0 0 0 0 0 0 0 0 0 0 0 0 0 0 0 0 0 0 0 0 0 0 0 0 0 0 0 0 74 167 237 0 72 0 242 169 158 104 113 113 0 72 113 72 0 101 72 0 101 113 113 0 0 0 0 0 0 0 161 236 148 106 149 167 106 0 0 0 74 0 180 132 206 0 0 0 0 0 0 0 0 0 0 0 0 0 0 0 0 0 0 0 0 0 0 0 0 0 0 0 0 0 0 0 0 0 0 0 0 0 113 160 167 169 0 0 0 0 0 0 0 0 0 0 0 0 0 0 0 0 0 0 0 0 0 0 0 0 0 0 0 0 0 0 0 0 0 0 0 0 0 0 0 0 0 0 0 0 0 0 0 0 0 0 0 0 
0 212 0 0 0 0 0 0 0 0 0 0 0 0 0 0 0 0 0 0 0 0 0 0 0 152 152 0 0 0 144 144 0 0 0 0 72 144 0 0 113 144 113 0 0 0 0 0 0 0 0 0 0 0 0 0 0 0 0 0 0 0 0 0 0 0 0 0 0 0 0 0 0 0 0 0 0 0 0 0 0 0 0 0 0 0 0 0 0 0 144 74 0 113 0 0 0 0 0 0 0 0 106 0 106 0 0 167 167 106 167 74 148 161 120 76 0 76 169 120 120 74 167 0 236 120 0 0 0 0 0 0 120 107 0 107 76 169 76 169 0 72 0 72 0 0 120 161 120 0 0 76 0 76 0 0 0 0 0 0 0 0 120 169 0 0 120 169 107 0 0 120 0 120 0 0 76 0 0 76 152 76 0 120 169 0 0 0 0 0 0 0 0 76 0 120 169 169 107 113 234 212 120 0 0 120 161 120 104 152 113 0 113 152 0 0 0 113 113 101 212 220 146 72 113 144 152 0 113 72 155 0 117 116 167 152 152 120 0 76 76 76 120 0 0 152 152 72 72 0 0 72 0 0 0 113 160 152 0 0 160 113 0 0 113 113 113 113 0 0 0 0 0 0 0 0 0 0 0 0 0 0 0 0 0 0 0 163 136 0 213 194 149 0 0 92 76 74 224 224 74 0 0 0 0 0 0 0 0 0 0 0 0 0 0 0 0 0 0 0 0 0 0 0 0 0 0 0 0 0 0 0 0 0 0 0 0 0 0 0 0 0 0 0 0 0 0 0 0 0 0 0 0 0 0 0 0 0 0 0 0 0 0 0 0 0 0 0 0 0 0 0 74 167 0 100 0 242 218 0 0 185 113 101 101 101 113 0 0 72 0 72 0 72 113 101 113 0 0 0 0 0 120 169 161 217 167 212 237 167 74 0 0 74 0 180 132 206 0 0 0 0 0 0 0 0 0 0 0 0 0 0 0 0 0 0 0 0 0 0 0 0 0 0 0 0 0 0 0 0 0 0 0 0 0 0 144 144 152 152 0 0 0 0 0 0 0 0 0 0 0 0 0 0 0 0 0 0 0 0 0 0 0 0 0 0 0 0 0 0 0 0 0 0 0 0 0 0 0 0 0 0 0 0 0 0 0 0 0 0 0 0 
0 167 0 0 0 0 0 0 0 0 0 0 0 0 0 0 0 0 0 0 0 0 0 0 0 152 152 0 0 0 144 144 0 0 0 0 0 160 72 113 160 144 113 0 0 0 0 0 0 0 0 0 0 0 0 0 0 0 0 0 0 0 0 0 0 0 0 0 0 0 0 0 0 0 0 0 0 0 0 0 0 0 0 0 0 0 0 0 0 0 113 113 217 217 0 0 0 0 0 0 0 0 74 106 74 0 0 74 237 167 74 106 139 120 107 76 161 120 0 107 120 0 0 169 120 0 0 0 0 0 0 0 0 120 161 0 0 161 161 120 0 0 116 117 76 76 120 152 0 0 0 0 76 0 76 0 0 107 0 0 0 120 161 120 0 120 161 120 0 0 0 169 0 161 152 120 0 0 0 76 152 76 0 169 120 0 0 0 0 0 0 0 0 0 120 107 167 116 74 161 169 120 0 0 0 152 152 0 101 72 113 212 234 150 0 0 0 113 146 0 218 152 161 0 0 0 144 113 152 160 163 117 163 72 101 113 113 0 76 0 0 117 163 144 113 72 101 0 0 0 0 0 0 0 152 160 72 72 144 160 152 0 0 0 0 160 0 144 0 0 0 0 0 0 0 0 0 0 0 0 0 0 0 0 163 0 114 241 247 254 106 237 224 139 0 107 128 224 224 74 0 0 0 0 0 0 0 0 0 0 0 0 0 0 0 0 0 0 0 0 0 0 0 0 0 0 0 0 0 0 0 0 0 0 0 0 0 0 0 0 0 0 0 0 0 0 0 0 0 0 0 0 0 0 0 0 0 0 0 0 0 0 0 0 0 0 0 0 0 0 74 167 0 100 128 97 0 0 212 160 144 144 113 0 72 0 160 113 0 0 72 0 0 0 113 113 0 0 0 0 120 169 169 120 128 237 149 106 74 0 74 167 252 148 243 136 206 0 0 0 0 0 0 0 0 0 0 0 0 0 0 0 0 0 0 0 0 0 0 0 0 0 0 0 0 0 0 0 0 0 0 0 0 0 0 0 160 163 169 120 0 0 0 0 0 0 0 0 0 0 0 0 0 0 0 0 0 0 0 0 0 0 0 0 0 0 0 0 0 0 0 0 0 0 0 0 0 0 0 0 0 0 0 0 0 0 0 0 0 0 0 0 
0 74 0 0 0 0 0 0 0 0 0 0 0 0 0 0 0 0 0 0 0 0 0 0 0 152 152 0 0 0 144 144 0 0 0 0 0 113 72 101 113 144 152 113 0 0 0 0 0 0 0 0 0 0 0 0 0 0 0 0 0 0 0 0 0 0 0 0 0 0 0 0 0 0 0 0 0 0 0 0 0 0 0 0 0 0 0 0 0 0 72 144 130 0 74 0 0 0 0 0 0 0 0 0 0 0 0 0 212 212 0 0 0 120 76 107 107 107 169 120 0 0 120 169 0 76 0 0 0 0 0 0 0 0 152 0 120 76 120 0 0 0 76 0 0 76 0 152 0 0 0 76 0 120 76 76 107 0 0 76 107 161 120 0 120 161 120 0 0 76 0 120 107 0 0 76 76 0 0 161 161 0 161 161 0 0 0 0 0 0 0 0 120 152 161 120 72 0 148 152 76 0 0 0 0 169 167 152 72 155 234 167 0 76 76 0 0 0 158 212 120 0 152 76 0 0 113 113 0 113 152 113 144 0 113 113 113 72 0 117 116 101 152 144 113 0 72 72 0 0 0 0 0 152 101 72 160 160 144 113 0 0 0 0 0 113 72 113 0 0 0 0 0 0 0 0 0 0 0 0 0 0 0 113 0 97 206 78 0 167 237 167 74 0 76 128 224 224 74 0 0 0 0 0 0 0 0 0 0 0 0 0 0 0 0 0 0 0 0 0 0 0 0 0 0 0 0 0 0 0 0 0 0 0 0 0 0 0 0 0 0 0 0 0 0 0 0 0 0 0 0 0 0 0 0 0 0 0 0 0 0 0 0 0 0 0 0 0 74 167 0 148 194 70 167 163 113 144 72 72 144 144 160 113 113 0 160 113 0 0 0 0 0 0 0 0 0 0 0 161 169 120 0 74 224 224 74 0 0 74 0 148 229 241 95 163 0 0 0 0 0 0 0 0 0 0 0 0 0 0 0 0 0 0 0 0 0 0 0 0 0 0 0 0 0 0 0 0 0 0 0 0 0 0 0 113 160 167 169 0 0 0 0 0 0 0 0 0 0 0 0 0 0 0 0 0 0 0 0 0 0 0 0 0 0 0 0 0 0 0 0 0 0 0 0 0 0 0 0 0 0 0 0 0 0 0 0 0 0 0 0 0 
0 0 0 0 0 0 0 0 0 0 0 0 0 0 0 0 0 0 0 0 0 0 0 0 0 152 152 0 0 0 144 144 0 0 0 0 0 0 72 0 0 0 144 144 0 0 0 0 72 72 72 0 0 0 0 0 0 0 0 0 0 0 0 0 0 0 0 0 0 0 0 0 0 0 0 0 0 0 0 0 0 0 0 0 0 0 0 0 0 0 72 144 255 0 217 0 0 0 0 0 0 0 0 0 0 0 0 0 212 212 0 0 0 120 169 161 0 120 120 152 152 120 120 152 76 0 0 76 0 0 0 0 0 0 120 120 120 120 0 0 0 76 0 0 120 76 76 76 76 0 76 0 107 76 76 120 0 76 76 120 120 120 0 76 76 0 107 0 0 0 0 0 120 152 120 0 120 152 120 120 0 161 161 0 0 0 0 0 0 0 0 76 120 120 120 0 74 189 167 76 107 76 120 152 169 161 163 113 113 234 161 107 158 189 74 0 0 0 120 161 152 169 161 0 0 152 113 0 113 113 72 152 152 101 0 101 152 0 0 101 0 72 144 0 0 113 113 0 0 113 113 72 152 101 101 160 113 0 0 0 0 0 0 0 0 0 72 0 0 0 0 0 0 0 0 0 0 0 0 0 0 0 0 185 116 80 149 149 237 217 190 120 92 167 212 237 224 74 0 0 0 0 0 0 0 0 0 0 0 0 0 0 0 0 0 0 0 0 0 0 0 0 0 0 0 0 0 0 0 0 0 0 0 0 0 0 0 0 0 0 0 0 0 0 0 0 0 0 0 0 0 0 0 0 0 0 0 0 0 0 0 0 0 0 0 0 0 74 0 100 128 136 234 101 0 144 72 0 152 160 144 144 113 101 152 160 152 0 0 0 0 0 0 0 0 0 0 120 169 161 128 167 212 237 224 74 0 0 74 0 180 136 0 163 0 0 0 0 0 0 0 0 0 0 0 0 72 0 0 0 0 0 0 0 0 0 0 0 0 0 0 0 0 0 0 0 0 0 0 0 0 0 0 0 0 144 185 169 120 0 0 0 0 0 0 0 0 0 0 0 0 0 0 0 0 0 0 0 0 0 0 0 0 0 0 0 0 0 0 0 0 0 0 0 0 0 0 0 0 0 0 0 0 0 0 0 0 0 0 0 0 0 
0 0 0 0 0 0 0 0 0 0 0 0 0 0 0 0 0 0 0 0 0 0 0 0 0 152 152 0 0 0 144 144 0 0 0 72 0 0 0 72 0 0 144 144 0 0 0 113 72 0 0 72 0 0 0 0 0 0 0 0 0 0 0 0 0 0 0 0 0 0 0 0 0 0 0 0 0 0 0 0 0 0 0 0 0 0 0 0 0 0 0 152 101 217 72 0 0 0 0 0 0 0 0 0 0 0 0 74 167 149 167 74 76 120 0 0 0 120 152 120 0 76 0 161 76 0 76 120 161 76 76 0 0 0 0 107 120 120 0 0 76 0 0 107 120 0 76 0 0 107 0 120 76 107 0 0 76 0 152 120 76 0 0 0 0 0 76 0 76 76 120 120 0 0 76 120 120 152 120 0 120 161 0 0 0 0 0 0 0 0 0 0 169 120 0 0 120 161 152 120 0 0 161 152 120 0 113 113 206 218 76 169 189 0 116 76 0 0 0 120 191 234 185 144 160 152 72 101 0 72 0 113 113 0 113 160 0 0 101 0 101 101 152 144 144 144 144 144 160 160 160 144 101 101 152 0 0 0 0 0 0 0 0 0 0 0 72 0 0 0 0 0 0 0 0 0 0 0 0 0 0 0 104 136 234 203 149 0 190 169 120 120 240 224 212 167 74 0 0 0 0 0 0 0 0 0 0 0 0 0 0 0 0 0 0 0 0 0 0 0 0 0 0 0 0 0 0 0 0 0 0 0 0 0 0 0 0 0 0 0 0 0 0 0 0 0 0 0 0 0 0 0 0 0 0 0 0 0 0 0 0 0 0 0 0 74 167 0 130 0 0 206 72 160 0 113 113 160 152 0 0 0 113 72 72 113 0 0 0 0 0 0 0 0 120 152 169 169 120 128 224 237 212 167 74 0 0 74 0 180 132 206 0 0 0 0 0 0 0 0 0 0 0 0 0 72 0 72 0 0 0 0 0 0 0 0 0 0 0 0 0 0 0 0 0 0 0 0 0 0 0 0 0 0 0 212 0 161 0 0 0 0 0 0 0 0 0 0 0 0 0 0 0 0 0 0 0 0 0 0 0 0 0 0 0 0 0 0 0 0 0 0 0 0 0 0 0 0 0 0 0 0 0 0 0 0 0 0 0 0 0 0 
0 0 0 0 0 0 0 0 0 0 0 0 0 0 0 0 0 0 0 0 0 0 0 0 0 152 152 0 0 0 144 144 0 0 72 0 72 0 72 0 113 144 152 113 0 0 0 113 72 101 72 0 0 0 0 0 0 0 0 0 0 0 0 0 0 0 0 0 0 0 0 0 0 0 0 0 0 0 0 0 0 0 0 0 0 0 0 0 0 0 0 0 0 145 108 0 0 0 0 0 0 0 0 0 0 0 0 106 74 106 167 106 76 152 0 76 120 0 0 161 169 76 0 76 161 120 120 107 120 0 76 120 0 76 0 0 117 116 0 0 0 76 0 0 107 120 0 0 107 0 76 120 107 76 120 120 76 120 161 76 76 0 120 120 152 169 120 0 0 0 76 0 107 76 0 107 161 0 76 120 107 0 0 0 0 0 0 0 0 0 0 120 161 120 0 0 120 107 120 0 0 76 152 0 0 72 0 189 218 107 107 161 74 72 117 0 117 113 144 144 160 160 144 144 113 0 0 0 113 113 0 0 0 113 152 113 0 72 0 101 0 72 0 113 144 144 144 144 113 0 72 0 113 101 72 144 113 0 0 0 0 0 0 0 0 163 148 163 0 0 0 0 0 0 0 0 0 0 0 0 0 236 224 0 254 149 0 236 169 76 182 0 0 167 0 0 0 0 0 0 0 0 0 0 0 0 0 0 0 0 0 0 0 0 0 0 0 0 0 0 0 0 0 0 0 0 0 0 0 0 0 0 0 0 0 0 0 0 0 0 0 0 0 0 0 0 0 0 0 0 0 0 0 0 0 0 0 0 0 0 0 0 0 0 74 224 0 0 236 116 144 72 144 144 0 113 144 113 0 0 0 72 72 0 113 113 0 0 0 0 0 0 120 169 169 152 120 128 167 237 224 74 0 0 0 0 0 167 148 136 206 0 0 0 0 0 0 0 0 0 0 0 0 0 72 0 72 0 0 0 72 0 0 0 0 0 0 0 0 0 0 0 0 0 0 0 0 0 0 0 0 0 0 0 152 0 218 0 0 0 0 0 0 0 0 0 0 0 0 0 0 0 0 0 0 0 0 0 0 0 0 0 0 0 0 0 0 0 0 0 0 0 0 0 0 0 0 0 0 0 0 0 0 0 0 0 0 0 0 0 0 0 
0 0 0 0 0 0 0 0 0 0 0 0 0 0 0 0 0 0 0 0 0 0 0 0 0 152 152 0 0 0 144 144 0 0 0 72 0 72 0 101 72 113 113 0 0 113 113 0 72 0 0 0 0 0 0 0 0 0 0 0 0 0 0 0 0 0 0 0 0 0 0 0 0 0 0 0 0 0 0 0 0 0 0 0 0 0 0 0 0 0 72 0 72 108 108 0 0 0 0 0 0 0 0 0 0 0 0 74 74 149 224 74 76 120 107 0 152 0 120 169 0 76 0 107 0 237 74 120 76 120 76 169 0 0 76 0 72 0 72 0 0 0 76 0 0 120 0 0 0 76 0 0 120 120 76 76 76 120 120 76 120 169 107 76 0 0 76 0 0 0 76 107 0 76 120 107 120 107 161 161 0 0 0 0 0 0 0 0 120 120 107 161 167 116 74 161 120 0 76 0 0 76 152 0 72 0 148 76 0 120 161 0 0 0 146 220 212 160 144 144 113 0 0 0 0 0 0 0 0 0 0 0 72 113 101 0 0 0 72 0 0 101 0 72 0 0 0 0 0 0 152 113 0 113 160 113 113 72 0 0 0 0 0 0 0 0 76 0 0 0 0 0 0 0 0 0 0 0 0 104 83 0 175 104 167 0 236 161 0 236 130 0 167 74 0 0 0 0 74 106 74 0 0 0 0 0 0 0 0 0 0 0 0 0 0 0 0 0 0 0 0 0 0 0 0 0 0 0 0 0 0 0 0 0 0 0 0 0 0 0 0 0 0 0 0 0 0 0 0 0 0 0 0 0 0 0 0 0 0 0 0 74 167 212 0 80 242 161 0 72 113 113 152 113 0 0 0 0 0 0 0 72 72 0 0 72 72 0 0 120 152 169 169 120 0 0 0 106 167 149 74 0 0 0 0 0 74 0 194 0 0 0 0 0 0 0 0 0 0 0 0 0 0 72 0 72 0 0 0 72 0 72 0 0 0 0 0 0 0 0 0 0 0 0 0 0 0 0 0 0 0 0 0 113 160 191 152 0 0 0 0 0 0 0 0 0 0 0 0 0 0 0 0 0 0 0 0 0 0 0 0 0 0 0 0 0 0 0 0 0 0 0 0 0 0 0 0 0 0 0 0 0 0 0 0 0 0 0 0 0 0 0 
0 0 0 0 0 0 74 106 74 0 0 0 0 0 0 0 0 0 0 0 0 0 0 0 0 169 120 0 0 0 144 144 0 0 0 0 113 72 113 72 144 72 0 0 72 72 72 0 72 0 0 0 0 0 0 0 0 0 0 0 0 0 0 0 0 0 0 0 0 0 0 0 0 0 0 0 0 0 0 0 0 0 0 0 0 0 0 0 0 0 0 72 0 0 123 74 0 0 0 0 0 0 0 0 0 0 0 0 167 237 74 0 0 120 76 120 120 0 152 152 0 0 120 76 197 107 247 0 76 120 0 120 120 0 0 0 0 72 0 0 0 120 169 169 120 0 107 0 0 0 0 76 0 0 169 76 0 76 152 107 0 0 0 107 120 120 76 120 76 0 0 169 0 0 120 161 120 0 169 0 0 0 0 0 0 0 0 120 161 169 120 120 72 0 148 152 0 120 120 76 76 107 169 0 0 72 74 120 152 120 104 72 0 113 152 144 113 0 0 0 0 0 0 0 0 0 0 0 0 0 0 0 72 144 72 0 0 0 0 0 152 113 101 113 144 144 113 0 0 152 101 101 160 113 0 113 160 0 0 0 72 0 0 0 0 0 76 0 0 0 0 0 0 0 0 0 0 0 104 132 0 131 77 224 217 236 161 0 236 130 0 74 0 0 0 0 0 74 224 167 167 0 0 0 0 0 0 0 0 0 0 0 0 0 0 0 0 0 0 0 0 0 0 0 0 0 0 0 0 0 0 0 0 0 0 0 0 0 0 0 0 0 0 0 0 0 0 0 0 0 0 0 0 0 0 0 0 0 0 74 167 0 100 108 80 242 120 0 76 116 0 113 113 0 0 0 0 0 0 72 0 72 72 0 113 113 104 120 169 169 152 120 0 0 0 0 0 74 224 237 167 74 0 0 74 167 0 180 136 163 0 0 0 0 0 0 0 0 0 0 0 0 0 0 72 0 0 0 0 0 72 0 0 0 0 0 0 0 0 0 0 0 0 0 0 0 0 0 0 0 0 0 0 160 163 169 120 0 0 0 0 0 0 0 0 0 0 0 0 0 0 0 0 0 0 0 0 0 0 0 0 0 0 0 0 0 0 0 0 0 0 0 0 0 0 0 0 0 0 0 0 0 0 0 0 0 0 0 0 0 0 0 
0 0 0 0 0 0 106 0 106 0 0 0 0 0 0 0 0 0 0 0 0 0 0 0 76 120 107 0 0 0 113 160 0 0 0 0 144 0 144 72 144 72 0 0 0 113 113 0 0 72 0 0 0 0 0 0 0 0 0 0 0 0 0 0 0 0 0 0 0 72 0 0 0 0 0 0 0 0 0 0 0 0 0 0 0 0 0 0 0 0 0 0 0 238 238 0 0 0 0 0 0 0 0 0 0 0 0 0 212 212 0 0 0 76 0 120 120 152 161 120 0 0 152 120 242 130 177 161 0 120 169 120 120 0 0 0 0 0 0 0 120 161 76 0 0 107 0 107 0 0 76 0 76 0 169 120 76 76 0 0 107 120 0 107 120 120 76 120 0 0 107 161 107 76 120 76 0 107 120 0 0 0 0 0 0 0 0 120 120 0 148 74 0 72 74 161 161 0 0 0 0 76 152 76 0 0 0 0 113 144 160 144 160 152 113 0 0 0 0 0 0 0 0 0 0 0 0 0 0 0 0 0 152 152 0 0 0 0 0 113 113 0 0 113 144 144 152 113 113 160 72 160 0 0 72 113 113 113 144 160 113 113 0 0 0 231 0 220 0 0 0 0 0 0 0 0 0 163 136 0 254 106 224 217 161 161 0 236 130 0 74 0 0 0 0 0 0 106 167 149 167 0 0 0 0 0 0 0 0 0 0 0 0 0 0 0 0 0 0 0 0 0 0 0 0 0 0 0 0 0 0 0 0 0 0 0 0 0 0 0 0 0 0 0 0 0 0 0 0 0 0 0 0 0 0 0 0 74 167 237 0 113 97 0 117 76 120 0 0 117 72 0 0 0 0 0 0 0 113 72 113 0 113 113 104 120 169 169 120 0 0 0 0 0 0 74 167 212 106 74 167 106 0 0 167 0 113 132 206 0 0 0 0 0 0 0 0 0 0 0 0 0 0 0 0 0 0 0 0 0 0 0 0 0 0 0 0 0 0 0 0 0 0 0 0 0 0 0 0 0 0 0 113 212 212 161 0 0 0 0 0 0 0 0 0 0 0 0 0 0 0 0 0 0 0 0 0 0 0 0 0 0 0 0 0 0 0 0 0 0 0 0 0 0 0 0 0 0 0 0 0 0 0 0 0 0 0 0 0 0 0 0 
0 0 0 0 0 0 74 106 74 0 0 0 0 0 0 0 0 0 0 0 0 0 0 0 0 120 161 120 0 0 72 144 72 0 0 0 113 72 113 0 152 152 0 0 113 113 0 0 72 0 0 0 0 0 0 0 0 0 0 0 0 0 0 0 0 0 0 0 72 0 72 0 0 0 0 0 0 0 0 0 0 0 0 0 0 0 0 0 0 0 0 0 72 0 186 143 0 0 0 0 0 0 0 0 0 0 0 0 167 237 74 0 120 76 76 120 152 152 120 0 120 120 76 169 76 169 0 161 169 120 0 76 0 0 0 0 0 0 0 0 169 120 120 120 161 0 107 0 76 0 0 76 0 161 161 0 0 107 107 0 120 107 107 0 76 0 76 0 120 169 161 0 0 76 0 161 169 120 0 0 0 76 0 0 0 0 120 107 0 187 72 146 76 76 120 76 107 161 0 0 0 161 161 0 0 0 113 160 160 144 113 72 101 0 113 144 113 72 72 0 0 0 0 0 0 0 0 0 0 0 0 152 152 0 0 0 0 0 0 160 0 72 72 72 0 0 113 160 72 160 113 144 0 152 144 72 72 160 113 0 101 113 0 0 113 231 113 220 0 0 0 0 0 0 0 0 206 136 234 254 149 237 217 236 107 76 242 130 0 74 0 0 0 0 0 0 0 74 167 167 74 0 0 0 0 0 0 0 0 0 0 0 0 0 0 0 0 0 0 0 0 0 0 0 0 0 0 0 0 0 0 0 0 0 0 0 0 0 0 0 0 0 0 0 0 0 0 0 0 0 0 0 0 0 0 74 167 0 100 0 0 0 212 152 222 107 120 0 0 0 0 0 0 0 0 0 0 0 113 72 163 120 152 152 169 169 120 0 0 0 0 0 0 0 0 106 106 0 74 167 224 74 74 167 73 157 0 206 0 0 0 0 0 0 0 0 0 0 0 0 0 0 0 0 0 0 0 0 0 0 0 0 0 0 0 0 0 0 0 0 0 0 0 0 0 0 0 0 0 0 0 0 160 234 169 0 0 0 0 0 0 0 0 0 0 0 0 0 0 0 0 0 0 0 0 0 0 0 0 0 0 0 0 0 0 0 0 0 0 0 0 0 0 0 0 0 0 0 0 0 0 0 0 0 0 0 0 0 0 0 0 0 
0 0 0 0 0 0 0 0 0 0 0 0 0 0 0 0 0 0 0 0 0 0 0 0 0 0 152 152 0 0 72 144 72 0 0 0 0 72 0 113 72 101 152 0 72 72 72 0 0 0 72 0 0 0 0 0 0 0 0 0 0 0 0 0 0 0 0 0 0 72 0 0 0 0 0 0 0 0 0 0 0 0 0 0 0 0 0 0 0 0 0 0 0 101 91 192 74 0 0 0 0 0 0 0 0 0 0 0 74 237 167 0 120 76 120 0 0 0 76 0 120 107 139 247 182 120 120 0 107 120 76 0 0 0 0 0 0 0 0 161 161 0 120 76 107 161 0 76 0 0 76 76 161 161 0 0 120 120 0 0 107 0 76 0 76 0 0 76 120 107 0 0 0 0 120 169 0 0 76 0 76 0 0 120 120 0 120 120 0 185 0 0 152 152 169 169 107 107 169 152 169 161 0 0 113 160 160 113 0 0 0 0 113 152 113 0 72 0 0 72 0 0 0 0 0 0 0 0 0 0 152 152 0 0 0 0 0 0 152 152 72 113 113 0 0 0 0 160 0 113 0 101 160 101 0 101 101 0 152 160 113 0 0 0 113 212 155 185 0 0 0 0 0 0 0 0 213 113 148 167 0 190 169 107 107 242 80 0 74 0 0 0 0 0 74 167 167 74 0 0 0 0 0 0 0 0 0 0 0 0 0 0 0 0 0 0 0 0 0 0 0 0 0 0 0 0 0 0 0 0 0 0 0 0 0 0 0 0 0 0 0 0 0 0 0 0 0 0 0 0 0 0 0 0 74 224 0 113 97 0 167 146 113 152 0 76 120 107 0 0 76 0 0 0 0 0 0 0 150 224 218 169 152 152 120 0 0 0 0 0 0 0 0 0 0 74 167 167 106 149 74 74 0 100 164 132 163 0 0 0 0 0 0 0 0 0 0 0 0 0 0 0 0 0 0 0 0 0 0 0 0 0 0 0 0 0 0 0 0 0 0 0 0 0 0 0 0 0 0 0 0 113 160 191 152 0 0 0 0 0 0 0 0 0 0 0 0 0 0 0 0 0 0 0 0 0 0 0 0 0 0 0 0 0 0 0 0 0 0 0 0 0 0 0 0 0 0 0 0 0 0 0 0 0 0 0 0 0 0 0 0 0 
0 0 0 0 0 74 106 74 0 0 0 0 0 0 0 0 0 0 0 0 0 0 0 0 0 0 169 120 0 0 72 144 72 0 0 0 0 0 152 113 101 72 113 0 113 113 0 0 0 72 0 72 0 0 0 0 0 0 0 0 0 0 0 0 0 0 0 0 0 0 0 0 0 0 0 0 0 0 0 0 0 0 0 0 0 0 0 0 0 0 0 0 72 101 233 0 217 0 0 0 0 0 0 0 74 106 74 0 74 237 167 0 0 76 0 120 120 107 120 107 107 76 223 74 0 139 107 120 0 152 76 0 0 0 0 0 0 0 120 169 0 76 0 120 107 107 161 0 0 161 152 152 161 0 0 161 169 107 0 107 107 76 120 0 0 76 0 0 169 120 0 0 0 0 152 152 0 76 0 76 0 76 0 120 107 107 0 120 120 144 76 0 0 0 0 0 161 107 76 152 167 163 113 101 152 113 0 0 0 113 144 144 152 72 152 160 113 72 72 0 0 0 0 0 0 0 0 0 0 152 206 117 0 0 0 0 0 113 160 0 0 0 0 0 0 0 0 160 0 72 0 113 113 72 152 113 0 152 152 0 0 0 0 0 72 144 72 144 0 0 0 0 0 0 0 0 113 77 167 217 236 169 76 107 236 0 224 74 0 0 0 0 0 0 106 106 106 106 0 0 0 0 0 0 0 0 0 0 0 0 0 0 0 0 0 0 0 0 0 0 0 0 0 0 0 0 0 0 0 0 0 0 0 0 0 0 0 0 0 0 0 0 0 0 0 0 0 0 0 0 0 74 167 212 0 131 97 0 212 152 72 113 144 113 150 120 76 169 107 0 76 152 120 76 120 152 152 169 169 152 120 0 0 0 0 0 0 0 0 0 0 0 0 0 0 0 74 224 224 74 74 0 180 97 0 163 0 0 0 0 0 0 0 0 0 0 0 0 0 0 0 0 0 0 0 0 0 0 0 0 0 0 0 0 0 0 0 0 0 0 0 0 0 0 0 0 0 0 0 0 0 160 113 152 152 0 0 0 0 0 0 0 0 0 0 0 0 0 0 0 0 0 0 0 0 0 0 0 0 0 0 0 0 0 0 0 0 0 0 0 0 0 0 0 0 0 0 0 0 0 0 0 0 0 0 0 0 0 0 0 0 0 
0 0 0 0 0 106 0 106 0 0 0 0 0 0 0 0 0 0 0 0 0 0 0 0 0 161 161 0 0 0 152 152 0 0 0 0 0 72 113 113 113 72 101 0 113 113 0 0 0 0 72 0 0 0 0 0 0 0 0 0 0 0 0 0 0 0 0 0 0 0 0 0 0 0 0 0 0 0 0 0 0 0 0 0 0 0 0 0 0 0 0 72 0 0 0 229 113 0 0 0 0 0 0 0 106 0 106 0 167 167 106 167 74 0 76 120 120 76 0 120 0 120 128 0 0 0 139 120 120 120 76 0 0 76 0 0 0 0 169 76 76 0 76 76 161 107 120 120 120 169 76 76 0 0 120 169 0 152 120 107 0 76 120 76 76 0 76 0 120 169 0 0 0 0 169 120 0 0 76 0 0 0 0 169 0 76 0 76 191 160 117 220 0 107 76 120 120 120 117 113 160 160 160 113 113 0 0 0 152 160 144 113 0 113 152 0 0 0 0 0 0 0 0 0 0 0 0 0 113 160 117 0 76 0 0 0 0 160 113 0 0 0 0 0 0 0 113 160 0 113 101 0 0 144 144 0 113 160 0 0 0 0 0 0 113 160 101 160 0 0 0 0 104 83 0 106 96 224 128 161 107 76 242 0 0 224 74 0 0 0 0 0 0 0 74 167 167 74 74 106 74 0 0 0 0 0 0 0 0 0 0 0 0 0 0 0 0 0 0 0 0 0 0 0 0 0 0 0 0 0 0 0 0 0 0 0 0 0 0 0 0 0 0 0 0 0 0 0 0 74 167 237 0 72 80 82 0 163 0 160 113 0 0 0 0 161 169 76 107 152 169 152 169 152 169 152 152 120 0 0 0 0 0 0 0 0 0 0 0 0 0 0 0 0 0 74 224 224 74 74 0 180 132 212 113 0 0 0 0 0 0 0 0 0 0 0 0 0 0 0 0 0 0 0 0 0 0 0 0 0 0 0 0 0 0 0 0 0 0 0 0 0 0 0 0 0 0 0 0 0 113 160 104 169 120 0 0 0 0 0 0 0 0 0 0 0 0 0 0 0 0 0 0 0 0 0 0 0 0 0 0 0 0 0 0 0 0 0 0 0 0 0 0 0 0 0 0 0 0 0 0 0 0 0 0 0 0 0 0 0 0 0 
0 0 0 0 0 74 106 74 0 0 0 0 0 0 0 0 0 0 0 0 0 0 0 0 76 120 107 0 0 72 113 101 0 0 0 0 72 0 113 113 72 160 113 72 72 72 0 72 0 0 72 0 0 0 0 0 0 0 0 0 0 0 0 0 0 0 0 0 0 0 0 0 0 0 0 0 0 0 0 0 0 0 0 0 0 0 0 0 0 0 0 0 113 0 0 102 236 74 0 0 0 0 0 0 74 106 74 0 167 167 237 224 167 0 0 169 76 120 107 120 0 152 0 242 203 92 0 76 120 120 104 72 150 76 120 0 0 161 161 76 76 120 0 0 0 107 76 120 120 152 0 0 0 76 76 161 152 107 120 107 107 0 0 107 0 76 0 0 76 120 107 0 0 161 161 0 76 0 0 0 0 0 0 120 76 107 76 107 236 185 189 0 120 0 120 169 191 234 212 160 113 0 0 72 0 0 0 152 152 0 0 152 160 113 0 0 0 0 0 0 0 0 0 0 0 0 0 0 160 113 0 76 0 0 0 113 160 152 0 0 0 0 0 0 0 0 160 113 113 160 0 0 0 160 72 113 152 113 0 0 0 0 0 0 144 113 0 113 113 0 0 104 132 0 0 96 0 190 169 107 107 242 80 0 167 74 0 0 0 0 0 0 0 0 0 0 0 0 106 0 106 0 0 0 0 0 0 0 0 0 74 106 74 0 74 106 106 106 74 0 0 0 0 0 0 0 0 0 0 0 0 0 0 0 0 0 0 0 0 0 0 0 0 0 0 0 0 0 74 0 100 102 97 0 222 116 160 0 72 144 72 0 0 0 0 0 120 161 76 76 0 0 0 76 0 0 0 0 0 0 0 0 0 0 0 0 0 0 0 0 0 0 74 167 212 237 224 74 0 167 148 136 206 0 0 0 0 0 0 0 0 0 0 0 0 0 0 0 0 0 0 0 0 0 0 0 0 0 0 0 0 0 0 0 0 0 0 0 0 0 0 0 0 0 0 0 0 0 0 0 160 113 120 169 0 0 0 0 0 0 0 0 0 0 0 0 0 0 0 0 0 0 0 0 0 0 0 0 0 0 0 0 0 0 0 0 0 0 0 0 0 0 0 0 0 0 0 0 0 0 0 0 0 0 0 0 0 0 0 0 0 0 
0 106 74 0 0 0 74 106 74 0 0 0 0 0 0 0 0 0 0 0 0 0 0 0 0 107 120 76 0 0 101 113 72 0 0 72 0 72 0 0 0 113 101 72 0 0 0 0 72 72 0 72 0 0 0 0 0 0 0 0 0 0 0 0 0 0 0 0 0 0 0 0 0 0 0 0 0 0 0 0 0 0 0 0 0 0 0 0 0 0 0 0 113 72 72 168 238 217 0 0 0 0 0 0 0 0 0 0 74 106 0 237 167 74 167 0 242 76 169 0 0 120 120 107 236 148 167 169 0 0 72 0 189 76 76 120 169 161 0 120 76 120 0 76 0 0 0 0 107 120 0 0 120 120 107 0 0 0 120 120 0 76 0 0 120 120 0 0 161 76 76 169 169 161 0 76 0 120 120 0 0 0 0 0 76 0 0 76 191 231 150 0 0 120 120 0 72 113 101 0 0 0 0 0 0 0 152 152 0 113 160 152 0 0 0 0 0 0 0 0 0 0 0 0 0 0 0 113 160 0 0 0 0 76 146 152 113 0 0 0 0 0 0 0 113 160 152 0 160 113 0 0 152 101 101 160 113 0 0 0 0 0 0 0 160 0 113 72 113 0 104 132 0 254 149 224 190 161 76 107 236 0 224 74 0 0 0 0 0 0 0 0 0 0 0 74 106 74 74 106 74 0 0 0 0 0 0 0 0 0 106 0 106 0 106 0 0 0 106 0 0 0 0 0 0 0 0 0 0 0 0 0 0 0 0 0 0 0 0 0 0 0 0 0 0 0 74 167 0 130 0 0 0 185 152 72 152 160 72 101 152 0 0 113 113 74 76 76 169 0 0 0 0 0 0 0 0 0 0 0 0 0 0 0 0 0 0 0 0 0 0 74 224 237 212 167 74 0 74 0 194 0 0 0 0 0 0 0 0 0 0 0 0 0 0 0 0 0 0 0 0 0 0 0 0 0 0 0 0 0 0 0 0 0 0 0 0 0 0 0 0 0 0 0 0 0 0 0 0 113 160 104 169 120 0 0 0 0 0 0 0 0 0 0 0 0 0 0 0 0 0 0 0 0 0 0 0 0 0 0 0 0 0 0 0 0 0 0 0 0 0 0 0 0 0 0 0 0 0 0 0 0 0 0 0 0 0 0 0 0 0 0 
0 0 106 0 0 0 106 0 106 0 0 0 0 0 0 0 0 0 0 0 0 0 0 0 0 76 152 76 0 0 113 160 0 0 0 0 72 0 0 0 72 0 113 152 0 0 0 0 0 0 72 0 0 0 0 0 0 0 0 0 0 0 0 0 0 0 0 0 0 0 0 0 0 0 0 0 0 0 0 0 0 0 0 0 0 0 0 0 0 0 0 0 0 72 72 0 128 148 74 0 0 0 0 0 0 0 0 0 0 0 106 167 149 74 106 128 0 182 107 161 0 92 247 182 107 161 0 120 107 0 0 72 74 76 76 161 120 0 0 0 76 0 76 0 120 76 120 107 107 0 0 0 120 76 120 0 120 107 76 76 0 0 120 107 107 169 169 169 161 107 107 0 107 0 0 0 107 0 76 76 0 120 120 0 0 0 0 120 169 185 0 0 107 169 120 0 101 113 72 0 0 0 0 0 113 160 101 72 160 160 113 0 0 0 0 0 0 0 0 0 0 0 0 0 0 0 0 144 144 0 0 72 117 0 220 144 0 0 0 0 0 0 0 152 212 187 0 152 152 0 0 113 113 101 152 0 0 0 0 0 0 0 0 163 206 163 113 101 0 146 136 0 254 149 0 190 161 76 161 236 0 224 74 0 0 0 0 0 0 0 0 0 0 0 0 106 0 106 0 0 0 0 0 0 0 0 0 0 74 106 0 106 74 74 74 74 106 106 74 74 106 74 0 0 0 0 0 0 0 0 0 0 0 0 0 0 0 0 0 0 0 0 0 0 74 167 0 148 194 97 212 152 0 0 144 144 0 113 160 113 113 72 72 113 101 222 120 120 120 76 0 0 0 0 0 0 0 0 0 0 0 0 0 0 0 0 0 0 0 74 167 237 224 74 0 0 74 217 148 243 132 163 0 0 0 0 0 0 0 0 0 0 0 0 0 0 0 0 0 0 0 0 0 0 0 0 0 0 0 0 0 0 0 0 0 0 0 0 0 0 0 0 0 0 0 0 0 0 0 144 144 120 169 0 0 0 0 0 0 0 0 0 0 0 0 0 0 0 0 0 0 0 0 0 0 0 0 0 0 0 0 0 0 0 0 0 0 0 0 0 0 0 0 0 0 0 0 0 0 0 0 0 0 0 0 0 0 0 0 0 0 0 
0 106 74 0 74 106 0 106 74 0 0 0 0 0 0 0 0 0 0 0 0 0 0 0 0 76 152 76 0 0 113 160 0 0 0 0 0 0 0 0 0 0 0 144 113 72 0 72 0 72 0 0 0 0 0 0 0 0 0 0 0 0 0 0 0 72 0 0 0 0 0 0 0 0 0 0 0 0 0 0 0 0 0 0 0 0 0 0 0 0 0 0 0 0 0 113 240 236 167 0 0 0 0 0 0 0 0 0 0 0 74 167 237 149 106 167 0 0 182 120 120 167 148 80 0 120 120 120 0 76 0 76 0 0 152 152 0 0 0 76 0 76 0 107 120 120 120 120 0 0 0 120 0 76 76 76 120 120 0 76 107 76 120 152 152 0 120 120 0 0 150 0 0 0 191 152 120 0 107 0 76 76 0 107 0 0 0 152 152 144 0 0 167 212 163 160 160 113 0 0 0 0 0 152 113 0 113 160 113 0 0 0 0 0 0 0 0 0 0 0 0 0 0 0 0 0 0 160 113 0 113 113 206 148 212 113 0 0 0 0 0 0 113 160 117 0 187 160 0 0 113 101 72 152 0 0 0 0 0 0 0 0 0 0 115 0 113 72 163 85 160 194 167 0 236 169 76 107 236 0 224 74 0 0 0 0 0 0 0 0 0 74 167 167 74 74 106 74 0 0 0 0 0 0 0 74 106 74 167 106 167 0 74 149 74 106 0 0 0 106 0 106 0 0 0 0 0 0 0 0 0 0 0 0 0 0 0 0 0 0 0 0 0 74 0 100 128 136 0 146 0 101 0 0 144 185 76 0 0 113 113 0 0 152 72 234 167 76 120 0 0 0 0 0 0 0 0 0 0 0 0 0 0 0 0 0 0 0 74 224 237 167 74 0 0 0 167 80 157 83 163 0 0 0 0 0 0 0 0 0 0 0 0 0 0 0 0 0 0 0 0 0 0 0 0 0 0 0 0 0 0 0 0 0 0 0 0 0 0 0 0 0 0 0 0 0 0 0 0 160 163 169 120 0 0 0 0 0 0 0 0 0 0 0 0 0 0 0 0 0 0 0 0 0 0 0 0 0 0 0 0 0 0 0 0 0 0 0 0 0 0 0 0 0 0 0 0 0 0 0 0 0 0 0 0 0 0 0 0 0 0 0 
0 0 0 0 106 0 106 74 106 74 0 0 0 0 0 0 0 0 0 0 0 0 0 0 0 120 169 0 0 0 0 160 113 0 0 0 0 0 0 113 72 113 0 144 144 0 0 0 72 0 0 0 0 0 0 0 0 0 0 0 0 0 0 0 72 0 72 0 0 0 0 0 0 0 0 0 0 0 0 0 0 0 0 0 0 0 0 0 0 0 0 0 0 0 0 144 120 0 252 0 0 0 0 0 0 0 0 0 0 0 0 0 74 237 167 74 167 148 130 139 120 217 74 0 182 0 107 76 76 0 120 76 120 0 169 120 0 0 76 0 76 0 107 0 107 120 0 0 0 0 76 76 0 76 76 76 76 107 169 120 0 76 76 169 76 76 0 0 0 0 118 118 0 118 191 0 0 0 0 191 76 76 120 0 76 0 0 152 152 144 113 206 213 155 152 113 0 0 0 0 0 0 113 113 101 160 113 0 0 0 0 0 0 0 0 0 0 0 0 0 0 0 0 0 0 0 113 160 0 0 160 101 152 144 152 0 0 0 0 0 0 113 152 113 74 148 116 152 144 160 160 101 113 0 0 0 0 0 0 0 0 0 0 0 0 0 0 83 153 0 92 217 0 242 107 76 242 0 0 149 74 74 0 0 0 0 0 0 0 0 0 106 106 106 106 0 0 0 0 0 0 0 0 0 0 106 0 106 167 74 167 74 106 74 74 106 212 167 74 74 106 74 0 0 0 0 0 0 0 0 0 0 0 0 0 0 0 0 0 0 0 74 167 0 180 97 0 206 0 152 160 152 113 0 144 0 120 161 0 0 0 0 0 0 101 74 236 120 0 0 0 0 0 0 0 0 0 0 0 0 0 0 0 74 106 74 74 167 237 224 74 0 0 0 0 74 0 128 0 113 0 0 0 0 0 0 0 0 0 0 0 0 0 0 0 0 0 0 0 0 0 0 0 0 0 0 0 0 0 0 0 0 0 0 0 0 0 0 0 0 0 0 0 0 0 0 0 0 113 160 167 169 0 0 0 0 0 0 0 0 0 0 0 0 0 0 0 0 0 0 0 0 0 0 0 0 0 0 0 0 0 0 0 0 0 0 0 0 0 0 0 0 0 0 0 0 0 0 0 0 0 0 0 0 0 0 0 0 0 0 0 0 
0 106 74 0 74 106 74 167 106 167 0 0 0 0 0 0 0 0 0 0 0 0 0 0 0 120 169 0 0 0 113 152 113 0 0 0 0 0 0 144 0 144 0 144 144 0 0 0 0 0 0 0 0 0 0 0 0 0 0 0 0 0 0 0 0 72 0 0 0 0 0 0 0 0 0 0 0 0 0 0 0 0 0 0 0 0 0 0 0 0 0 0 0 0 0 144 0 0 72 0 0 0 0 0 0 0 74 106 74 0 0 74 167 149 149 167 106 167 203 80 0 190 167 128 0 120 0 0 0 0 120 0 107 169 161 0 0 0 76 0 107 0 0 120 120 0 0 0 0 76 0 0 76 76 120 107 120 107 120 120 76 0 76 120 0 0 76 0 120 169 192 0 0 0 191 158 0 0 167 0 0 0 150 76 107 0 0 169 120 144 144 0 152 113 113 0 0 0 0 0 0 0 113 72 152 0 0 0 0 0 0 0 0 0 0 0 0 0 0 0 0 0 0 0 0 0 160 113 0 152 152 0 0 72 0 0 0 0 0 0 113 152 113 0 152 113 72 113 144 113 0 160 113 0 0 0 0 113 113 0 0 0 0 0 72 0 136 0 0 77 106 190 161 120 76 161 0 0 167 74 0 106 0 0 0 0 0 0 0 0 0 74 167 167 74 0 0 0 0 0 0 0 0 0 0 74 74 74 74 167 149 167 74 74 149 237 167 167 106 0 0 0 0 0 0 0 0 0 0 0 0 0 0 0 0 0 0 0 0 0 74 224 0 113 132 212 113 0 113 160 0 113 160 0 113 0 167 107 161 0 0 0 0 0 0 72 191 152 0 0 0 0 0 0 0 0 0 0 0 0 0 0 74 224 167 167 106 167 149 74 0 0 74 167 212 0 180 132 206 0 0 0 0 0 0 0 0 0 0 0 0 0 0 0 0 0 0 0 0 0 0 0 0 0 0 0 0 0 0 0 0 0 0 0 0 0 0 0 0 0 0 0 0 0 0 0 0 0 160 113 152 152 0 0 0 0 0 0 0 0 0 0 0 0 0 0 0 0 0 0 0 0 0 0 0 0 0 0 0 0 0 0 0 0 0 0 0 0 0 0 0 0 0 0 0 0 0 0 0 0 0 0 0 0 0 0 0 0 0 0 0 0 
0 0 106 0 0 0 0 167 106 167 0 0 0 0 0 0 0 0 0 0 0 0 0 0 0 76 152 76 0 72 72 72 72 0 0 0 0 0 0 144 0 144 0 113 152 144 144 113 0 0 0 0 0 0 0 0 0 0 0 0 0 0 0 0 0 0 0 0 0 0 0 0 0 0 0 0 0 0 0 0 0 0 0 0 0 0 0 0 0 0 0 0 0 0 0 113 72 163 123 74 0 0 0 0 0 0 106 0 106 0 0 167 224 167 106 167 149 149 149 0 217 120 217 106 0 152 0 0 0 0 0 0 76 107 0 0 0 0 76 76 76 76 0 152 152 0 0 0 0 0 120 76 76 76 0 0 152 152 0 152 0 161 107 76 107 0 0 120 161 120 0 0 0 120 191 0 0 0 234 104 74 234 0 0 218 161 0 120 107 163 160 0 0 72 0 0 0 0 0 0 0 72 0 101 0 0 0 0 0 0 0 0 0 0 0 0 0 0 0 0 0 0 0 0 0 113 160 0 113 160 0 0 0 0 0 0 0 0 0 0 160 72 113 160 101 113 113 0 0 0 152 152 0 0 0 104 213 146 113 72 0 0 113 0 116 0 234 254 217 0 152 107 107 152 161 190 237 167 0 74 106 74 0 0 0 0 0 0 0 0 0 0 0 0 0 0 0 0 74 167 167 74 0 0 0 74 224 167 106 237 167 212 0 167 237 0 224 224 74 0 0 0 0 0 0 0 0 0 0 0 0 0 0 0 0 0 0 0 74 167 0 80 0 0 206 0 0 0 144 144 0 0 152 152 0 206 0 117 161 161 0 0 0 0 76 0 120 161 120 0 0 0 0 0 0 0 0 0 0 0 0 0 167 237 167 212 74 237 167 0 0 74 224 0 113 194 136 206 0 0 0 0 0 0 0 0 0 0 0 0 0 0 0 0 0 0 0 0 0 0 0 0 0 0 0 0 0 0 0 0 0 0 0 0 0 0 0 0 0 0 0 0 0 0 0 0 0 113 160 0 152 152 0 0 0 0 0 0 0 0 0 0 0 0 0 0 0 0 0 0 0 0 0 0 0 0 0 0 0 0 0 0 0 0 0 0 0 0 0 0 0 0 0 0 0 0 0 0 0 0 0 0 0 0 0 0 0 0 0 0 0 0 
0 106 74 0 0 0 0 74 106 74 0 0 0 0 0 0 0 0 0 0 0 0 0 0 0 120 169 0 0 0 101 113 72 0 0 0 0 0 0 144 0 144 0 0 72 113 0 72 72 0 0 0 0 0 0 0 0 0 0 0 0 0 0 0 0 0 0 0 0 0 0 0 0 0 0 0 0 0 0 0 0 0 0 0 0 0 0 0 0 0 0 0 0 0 0 0 72 210 150 217 0 0 0 0 0 0 74 106 74 0 74 237 167 74 224 149 167 106 224 77 0 74 182 148 211 152 0 0 0 120 120 107 107 169 120 0 0 0 0 107 0 0 120 161 120 0 0 76 76 76 76 120 76 76 169 152 161 120 0 120 76 120 120 107 120 76 0 152 152 0 0 0 76 0 0 76 76 0 167 0 0 234 0 113 212 0 167 0 76 148 144 72 0 113 113 0 0 0 0 0 0 0 72 0 0 0 0 0 0 0 0 0 0 0 0 0 0 0 0 0 0 0 0 0 72 72 160 72 160 113 0 0 0 0 0 0 0 0 0 152 152 72 152 72 101 152 0 0 0 113 160 0 0 0 0 0 213 189 160 0 0 0 185 0 182 0 203 203 130 242 152 107 107 152 190 0 224 74 0 0 0 0 0 0 0 0 0 0 0 0 0 0 0 0 0 0 0 0 106 106 106 106 0 0 0 167 167 106 74 167 212 167 106 106 224 167 106 167 167 74 0 0 0 0 0 0 0 0 0 0 0 0 0 0 0 74 167 212 237 0 0 0 0 206 0 0 0 0 113 160 0 0 74 213 206 0 0 0 0 161 161 74 72 150 76 120 74 189 212 120 0 0 0 0 0 0 0 0 0 0 0 0 167 224 224 106 167 224 167 0 74 224 0 0 0 0 163 0 0 0 0 0 0 0 0 0 0 0 0 0 0 0 0 0 0 0 0 0 0 0 0 0 0 0 0 0 0 0 0 0 0 0 0 0 0 0 0 0 0 0 0 0 0 0 0 0 0 144 144 0 152 152 0 0 0 0 0 0 0 0 0 0 0 0 0 0 0 0 0 0 0 0 0 0 0 0 0 0 0 0 0 0 0 0 0 0 0 0 0 0 0 0 0 0 0 0 0 0 0 0 0 0 0 0 0 0 0 0 0 0 0 0 
0 167 74 0 0 0 0 0 0 0 0 0 0 0 0 0 0 0 0 0 0 0 0 0 0 120 169 0 0 0 113 160 0 0 0 0 0 0 0 144 0 152 160 144 160 160 160 113 0 0 0 0 0 0 0 0 0 0 0 0 72 0 0 0 0 0 0 0 0 0 0 0 0 0 0 0 0 0 0 0 0 0 0 0 0 0 0 0 0 0 0 0 0 0 0 0 0 74 114 148 74 0 0 0 0 0 0 0 0 0 167 237 74 0 74 237 0 237 0 204 74 0 76 169 161 120 0 0 76 120 120 161 120 0 120 161 0 0 0 107 76 120 169 120 0 0 107 0 0 76 76 169 0 120 76 120 0 76 0 0 76 0 0 120 120 0 0 120 120 0 0 76 0 76 0 76 167 189 167 0 0 163 0 163 0 163 0 0 0 212 152 0 72 72 72 72 0 0 0 0 0 0 0 0 0 0 0 0 0 0 0 0 113 113 0 0 0 0 0 0 0 0 0 72 0 0 160 72 160 0 0 0 0 0 0 0 0 0 113 160 0 160 113 113 160 0 0 0 113 152 113 0 0 0 206 0 0 0 113 0 0 0 95 83 74 204 197 80 242 0 0 169 190 167 237 224 74 0 0 0 0 0 0 0 0 0 0 0 0 0 0 0 0 0 0 0 0 0 74 167 167 74 0 74 106 167 106 106 106 106 167 149 74 74 167 149 149 212 237 224 74 0 0 0 0 0 0 0 0 0 0 0 0 0 74 224 237 212 217 236 212 155 113 0 113 113 0 0 0 152 152 0 76 0 213 152 116 0 212 0 161 218 0 224 0 169 116 0 189 169 0 0 0 0 0 0 0 0 0 0 0 0 74 167 106 149 237 167 0 167 0 131 97 0 206 0 0 0 0 0 0 0 0 0 0 0 0 0 0 0 0 0 0 0 0 0 0 0 0 0 0 0 0 0 0 0 0 0 0 0 0 0 0 0 0 0 0 0 0 0 0 0 0 0 0 0 0 160 113 0 169 120 0 76 76 76 76 76 0 0 0 0 0 0 0 0 0 0 0 0 0 0 0 0 0 0 0 0 0 0 0 0 0 0 0 0 0 0 0 0 0 0 0 0 0 0 0 0 0 0 0 0 0 0 0 0 0 0 0 0 0 0 
0 106 106 0 0 0 0 0 0 0 0 0 0 0 0 0 0 0 0 0 0 0 0 0 0 0 169 120 0 0 113 160 0 0 0 0 0 0 0 113 101 0 0 0 72 113 0 0 0 72 0 0 0 0 0 0 0 0 0 72 0 72 0 0 0 0 0 0 0 0 0 0 0 0 0 0 0 0 0 0 0 0 0 0 0 0 0 0 0 0 0 0 0 0 0 0 0 72 182 248 0 0 0 0 0 0 0 0 0 0 212 212 0 0 74 167 106 149 0 106 139 0 190 117 189 74 0 120 120 120 120 0 120 161 76 161 161 0 76 76 0 107 0 0 0 120 0 76 120 0 152 120 120 120 120 76 0 120 120 0 0 0 0 0 0 120 169 120 0 76 0 0 76 0 0 0 166 107 117 0 0 0 116 104 160 101 72 144 144 113 0 0 0 113 113 0 0 113 144 113 0 0 0 0 0 0 0 0 0 0 0 152 113 113 72 0 0 0 0 0 0 0 0 0 72 0 144 0 144 0 0 0 0 0 0 0 0 0 113 152 160 152 0 113 152 113 0 113 152 113 0 0 0 206 0 117 234 212 0 0 0 163 172 167 190 0 0 236 120 0 161 236 0 237 167 74 0 0 0 0 0 0 0 0 0 0 0 0 0 0 0 0 0 0 0 0 0 0 0 0 0 0 74 224 212 106 106 74 74 106 74 149 167 74 167 149 167 74 106 212 106 0 0 0 0 0 0 0 0 0 0 74 167 167 74 167 167 167 139 120 166 104 113 113 101 113 160 113 0 0 152 152 104 76 74 152 101 155 0 212 0 218 158 150 107 76 158 104 104 218 120 0 0 0 0 0 0 0 0 0 74 106 106 167 237 224 74 74 224 0 113 136 0 163 0 0 0 0 0 0 0 0 0 0 0 0 0 0 0 0 0 0 0 0 0 0 0 0 0 0 0 0 0 0 0 0 0 0 0 0 0 0 0 0 0 0 0 0 0 0 0 0 0 0 0 0 113 160 104 161 161 0 161 120 76 120 120 0 76 0 0 0 0 0 0 0 0 0 0 0 0 0 0 0 0 0 0 0 0 0 0 0 0 0 0 0 0 0 0 0 0 0 0 0 0 0 0 0 0 0 0 0 0 0 0 0 0 0 0 0 0 0 
0 167 74 0 0 0 0 0 0 0 0 0 0 0 0 0 0 0 0 0 0 0 0 0 0 0 152 152 0 0 0 160 113 0 0 0 0 0 0 0 113 152 72 72 113 0 0 0 72 0 72 0 0 0 0 0 0 0 0 0 72 0 0 0 0 0 0 0 0 0 0 0 0 0 0 0 0 0 0 0 0 0 0 0 0 0 0 0 0 0 0 0 0 0 0 0 0 0 70 128 213 74 0 0 0 0 0 0 0 0 167 237 74 0 167 74 106 149 203 210 148 128 0 218 0 72 0 152 120 76 0 0 0 120 169 0 161 169 120 107 107 0 0 0 0 152 0 76 152 76 152 0 161 76 120 0 107 0 0 107 0 0 120 120 107 161 120 76 76 0 0 0 0 0 120 120 78 118 117 113 113 185 231 185 113 113 72 0 0 0 0 0 0 0 0 0 152 113 0 72 72 0 0 0 0 0 0 0 0 0 152 101 101 152 0 0 0 0 0 0 0 0 0 113 113 0 113 72 113 0 0 0 0 0 0 0 0 0 72 0 101 0 0 0 113 152 101 160 113 0 0 0 163 0 158 120 0 144 0 0 0 0 0 106 242 107 120 76 76 169 236 0 224 74 0 0 0 0 0 0 0 0 0 0 0 0 0 0 0 0 0 0 0 0 0 0 0 0 0 0 0 0 167 237 106 149 74 74 106 0 167 167 167 74 224 149 74 167 167 237 74 0 0 0 0 0 0 0 0 0 0 167 149 167 74 167 212 237 0 190 218 218 116 113 72 101 72 160 160 113 0 152 152 72 113 72 101 101 155 0 167 152 152 0 120 120 0 148 0 189 169 0 0 0 0 0 0 0 0 0 167 167 212 237 167 74 74 0 80 0 0 206 0 0 0 0 0 0 0 0 0 0 0 0 0 0 0 0 0 0 0 0 0 0 0 0 0 0 0 0 0 0 0 0 0 0 0 0 0 0 0 0 0 0 0 0 0 0 0 0 0 0 0 0 0 0 144 144 76 152 76 120 120 76 0 107 107 120 76 0 0 0 0 0 0 0 0 0 0 0 0 0 0 0 0 0 0 0 0 0 0 0 0 0 0 0 0 0 0 0 0 0 0 0 0 0 0 0 0 0 0 0 0 0 0 0 0 0 0 0 0 0 
0 0 0 0 0 0 0 0 0 0 0 0 0 0 0 0 0 0 0 0 0 0 0 0 0 0 152 152 0 0 0 144 144 0 0 0 0 0 0 0 0 144 0 72 113 0 0 0 72 0 101 0 0 0 0 0 0 0 0 0 0 0 0 0 0 0 0 0 0 0 0 0 0 0 0 0 0 0 0 0 0 0 0 0 0 0 0 0 0 0 0 0 0 0 0 0 0 0 144 190 0 0 74 0 0 0 0 0 0 0 74 237 167 0 167 106 149 237 106 237 0 106 197 218 158 0 0 152 152 0 0 120 120 0 169 107 107 0 120 120 0 0 0 0 0 152 0 107 120 0 161 152 76 0 0 120 76 76 120 0 107 0 76 0 107 120 0 0 76 76 120 152 152 152 212 215 0 0 163 113 72 0 0 113 144 113 0 0 0 0 0 0 0 0 72 0 113 113 160 113 0 0 0 0 0 0 0 0 0 113 160 72 160 0 0 0 0 0 0 0 0 0 113 152 152 113 0 72 0 0 0 0 0 0 0 0 0 0 72 0 72 0 0 0 0 160 0 160 0 0 0 0 0 0 76 218 212 113 0 0 152 232 169 169 161 0 0 120 236 0 0 224 74 0 0 0 0 0 0 0 0 0 0 0 0 0 0 0 0 0 0 0 0 0 0 0 0 0 0 0 0 0 167 237 74 74 106 74 0 167 224 212 167 167 212 212 74 224 224 167 0 0 0 0 0 0 0 74 106 74 0 167 167 224 74 0 0 74 237 149 148 242 120 113 113 101 160 72 116 231 206 0 160 0 113 113 101 101 101 216 0 0 169 0 0 0 76 74 72 74 169 120 0 0 0 0 0 0 74 167 224 149 106 74 74 167 0 180 97 0 206 0 0 0 0 0 0 0 0 0 0 0 0 0 0 0 0 0 0 0 0 0 0 0 0 0 0 0 0 0 0 0 0 0 0 0 0 0 0 0 0 0 0 0 0 0 0 0 0 0 0 0 0 0 0 0 144 144 0 169 120 152 76 0 107 0 76 152 76 0 0 0 0 0 0 0 0 0 0 0 0 0 0 0 0 0 0 0 0 0 0 0 0 0 0 0 0 0 0 0 0 0 0 0 0 0 0 0 0 0 0 0 0 0 0 0 0 0 0 0 0 0 
0 74 106 74 0 0 0 0 0 0 0 0 0 0 0 0 0 0 0 0 0 0 0 0 0 0 152 152 0 0 0 144 144 0 0 0 0 0 0 0 113 152 101 72 0 0 113 113 0 72 72 72 0 0 0 0 0 0 0 0 0 0 0 0 0 0 0 0 0 0 0 0 0 0 0 0 0 0 0 0 0 0 0 0 0 0 0 0 0 0 0 0 0 0 0 0 0 0 113 0 85 187 217 0 0 0 0 0 0 0 0 167 237 74 74 106 74 167 237 106 167 74 179 0 165 0 0 169 120 0 161 120 120 76 120 107 0 76 76 0 0 0 0 0 0 120 76 76 120 76 120 152 169 107 0 76 120 161 0 107 0 0 76 120 120 76 0 120 120 191 0 0 0 0 167 116 0 0 0 72 72 0 72 0 0 0 72 0 0 0 0 0 0 113 72 72 113 113 0 0 0 0 0 0 0 0 0 0 0 160 113 144 144 0 0 0 0 0 0 0 0 0 113 160 113 144 0 0 0 0 0 0 0 0 0 0 0 0 0 72 0 0 0 0 113 160 113 144 0 0 0 0 0 0 191 0 152 0 113 212 213 0 120 120 0 0 0 211 93 237 167 74 0 0 0 0 0 0 0 0 0 0 0 0 0 0 0 0 0 0 0 0 0 0 0 0 0 0 0 0 0 0 74 237 167 0 0 0 0 212 212 0 0 167 224 224 149 167 167 74 0 0 0 0 0 0 74 149 74 106 0 74 106 74 0 0 0 0 167 149 74 0 152 0 152 113 0 113 213 0 213 152 72 113 101 113 72 0 101 0 0 215 107 161 0 0 0 0 0 0 169 120 0 0 0 74 167 212 237 237 167 74 74 167 237 0 113 132 212 113 0 0 0 0 0 0 0 0 0 0 0 0 0 0 0 0 0 0 0 0 0 0 0 0 0 0 0 0 0 0 0 0 0 0 0 0 0 0 0 0 0 0 0 0 0 0 0 0 0 0 0 0 0 0 0 0 160 113 0 169 120 152 120 76 0 0 120 169 0 0 0 0 0 0 0 0 0 0 0 0 0 0 0 0 0 0 0 0 0 0 0 0 0 0 0 0 0 0 0 0 0 0 0 0 0 0 0 0 0 0 0 0 0 0 0 0 0 0 0 0 0 0 
0 106 0 106 0 0 0 0 0 0 0 0 0 0 0 0 0 0 0 0 0 0 0 0 0 0 169 120 0 0 0 144 144 0 0 0 0 0 0 72 72 0 101 0 0 72 72 72 0 113 113 0 0 0 0 0 0 0 0 0 0 0 0 0 0 0 0 0 0 0 0 0 0 0 0 0 0 0 0 0 0 0 0 0 0 0 0 0 0 0 0 0 0 0 0 0 0 0 0 101 74 127 137 128 0 0 0 0 0 0 0 74 224 224 74 0 0 106 212 74 237 167 189 236 72 104 107 120 76 169 107 107 161 0 0 107 76 107 0 0 0 0 0 0 120 107 0 76 0 0 120 152 76 107 107 107 107 120 120 0 107 0 120 120 120 76 0 152 120 104 116 0 0 72 0 113 144 144 144 160 160 160 113 101 72 0 0 72 0 0 0 0 0 113 72 113 0 0 0 0 0 0 0 0 0 0 0 0 152 152 0 144 144 0 0 0 0 0 0 0 0 0 0 160 0 144 0 0 0 0 0 0 0 0 0 0 0 0 0 0 0 0 0 0 144 144 144 144 0 0 0 0 0 222 236 0 0 206 0 0 150 150 72 0 0 0 0 80 100 74 0 0 0 0 0 0 0 0 0 0 0 0 0 0 0 0 0 0 0 0 0 0 0 0 0 0 0 0 0 0 0 74 106 167 212 0 0 0 74 237 167 0 0 74 167 167 74 0 0 0 0 0 0 0 74 167 167 0 149 74 0 0 0 0 0 0 0 0 74 149 167 223 169 0 0 113 160 101 155 213 0 232 234 0 0 72 113 0 0 101 101 0 76 169 120 0 0 0 0 76 152 76 0 0 0 167 224 212 167 74 0 74 224 0 0 0 0 206 0 0 0 0 0 0 0 0 0 0 0 0 0 0 0 0 0 0 0 0 0 0 0 0 0 0 0 0 0 0 0 0 0 0 0 0 0 0 0 0 0 0 0 0 0 0 0 0 0 0 0 0 0 0 0 0 0 152 152 104 161 107 76 161 120 0 0 0 152 152 0 0 0 0 0 0 0 0 0 0 0 0 0 0 0 0 0 0 0 0 0 0 0 0 0 0 0 0 0 0 0 0 0 0 0 0 0 0 0 0 0 0 0 0 0 0 0 0 0 0 0 0 0 0 
0 74 106 74 0 0 0 0 0 0 0 0 0 0 0 0 0 0 0 0 0 0 0 0 0 76 152 76 0 0 0 160 113 0 0 0 0 0 0 0 113 144 152 113 0 0 113 113 0 72 0 0 0 0 0 0 0 0 0 0 0 0 0 0 0 0 0 0 0 0 0 0 0 0 0 0 0 0 0 0 0 0 0 0 0 0 0 0 0 0 0 0 0 0 0 0 0 0 0 0 72 128 181 131 74 0 0 0 0 0 0 0 74 224 237 167 106 224 224 0 237 167 191 216 209 167 76 76 169 76 107 161 0 0 0 0 169 120 0 0 0 0 0 0 120 76 0 0 0 76 76 0 120 107 107 107 107 76 120 0 0 107 76 120 120 0 120 107 107 167 163 144 144 113 0 0 0 0 0 0 113 113 101 113 113 72 72 0 0 0 0 72 0 0 72 0 0 0 0 0 0 0 0 0 0 0 0 113 160 0 0 144 144 0 0 0 0 0 0 0 0 0 0 113 72 113 0 0 0 0 0 0 0 0 0 0 0 0 0 0 0 0 0 0 144 144 144 144 0 0 0 113 0 107 169 152 0 0 218 120 120 0 72 113 0 76 107 115 252 0 0 0 0 0 0 0 0 0 0 0 0 0 0 0 0 0 0 74 106 74 0 0 74 106 74 0 0 0 0 0 0 167 167 167 106 106 74 74 224 224 74 0 0 0 0 0 0 0 0 0 0 0 0 0 106 106 74 149 74 0 0 0 0 0 0 0 0 0 0 74 237 217 161 161 0 0 0 152 101 101 206 118 189 0 74 72 0 113 0 72 0 167 218 76 169 0 0 0 0 0 169 120 0 0 0 167 237 74 0 74 167 237 0 0 0 0 206 0 0 0 0 0 0 0 0 0 0 0 0 0 0 0 0 0 0 0 0 0 0 0 0 0 0 0 0 0 0 0 0 0 0 0 0 0 0 0 0 0 0 0 0 0 0 0 0 0 0 0 0 0 0 0 0 0 113 160 0 120 169 76 161 120 0 0 0 0 169 120 0 0 0 0 0 0 0 0 0 0 0 0 0 0 0 0 0 0 0 0 0 0 0 0 0 0 0 0 0 0 0 0 0 0 0 0 0 0 0 0 0 0 0 0 0 0 0 0 0 0 0 0 0 0 
0 0 0 0 0 0 0 74 106 74 0 0 0 0 0 0 0 0 0 0 0 0 0 0 0 0 169 120 0 0 113 160 0 0 0 0 0 0 0 0 72 0 144 144 0 72 0 0 72 0 72 0 0 0 0 0 0 0 0 0 0 0 0 0 0 0 0 0 0 0 0 0 0 0 0 0 0 0 0 0 0 0 0 0 0 0 0 0 0 0 0 0 0 0 0 0 0 0 0 0 0 72 190 216 217 0 0 0 0 0 0 0 0 74 167 237 212 224 74 167 0 190 212 158 191 120 120 120 0 76 120 107 0 0 0 76 120 152 0 0 0 76 0 120 107 0 76 0 76 0 120 169 120 76 0 107 120 107 120 169 152 76 107 169 120 0 76 0 120 161 107 120 120 0 0 0 0 0 0 72 0 0 101 72 101 113 0 0 0 0 113 72 113 0 0 0 0 0 0 0 0 0 0 0 0 0 0 144 144 0 0 144 144 0 0 0 0 0 0 0 0 0 0 0 72 0 0 0 0 0 0 0 0 0 0 0 0 0 0 0 0 0 0 0 160 113 113 160 0 0 0 212 163 0 0 107 218 167 0 0 152 0 0 185 161 152 120 72 212 0 0 0 0 0 0 0 0 0 0 0 0 0 0 0 0 0 0 167 167 224 74 0 106 74 149 74 0 0 74 106 74 212 167 106 106 106 167 167 237 74 0 0 0 0 0 0 0 0 0 0 74 106 74 0 74 167 167 74 0 0 0 0 0 0 0 0 0 0 0 0 212 212 0 169 120 0 0 0 152 113 0 0 215 158 218 0 72 72 0 113 101 116 0 76 169 120 0 0 0 0 120 169 0 0 0 74 224 237 212 237 0 0 0 0 212 113 0 0 0 0 0 0 0 0 0 0 0 0 0 0 0 0 0 0 0 0 0 0 0 0 0 0 0 0 0 0 0 0 0 0 0 0 0 0 0 0 0 0 0 0 0 0 0 0 0 0 0 0 0 0 0 0 0 0 144 144 0 120 161 107 120 0 0 0 0 120 169 0 0 0 0 0 0 0 0 0 0 0 0 0 0 0 0 0 0 0 0 0 0 0 0 0 0 0 0 0 0 0 0 0 0 0 0 0 0 0 0 0 0 0 0 0 0 0 0 0 0 0 0 0 0 0 
0 0 0 0 0 0 0 106 0 106 0 0 0 0 74 106 74 0 0 0 0 0 0 0 0 0 169 120 0 0 113 160 0 0 0 0 0 0 0 72 0 72 144 144 113 72 113 0 0 0 0 0 0 0 0 0 0 0 0 0 0 0 0 0 0 0 0 0 0 0 0 0 0 0 0 0 0 0 0 0 0 0 0 0 0 0 0 0 0 0 0 0 0 0 0 0 0 0 0 0 0 0 0 113 187 128 0 0 0 0 0 0 0 0 0 74 106 74 74 237 0 212 216 0 236 120 120 169 0 0 120 169 161 0 120 120 120 120 0 0 120 120 161 120 120 76 0 161 152 161 0 0 120 107 76 107 76 76 0 0 120 169 120 0 150 189 0 107 0 120 120 120 120 76 0 113 144 144 160 113 101 152 160 144 113 0 0 0 0 72 113 0 160 0 0 0 0 0 0 0 0 0 0 0 0 0 0 144 144 0 0 160 113 0 0 0 0 0 0 72 0 0 0 0 0 0 0 0 0 0 0 0 113 144 144 144 113 72 113 113 0 0 0 113 160 0 101 113 72 0 113 231 0 117 72 191 152 0 76 76 218 0 0 68 0 240 139 252 212 0 0 0 0 0 0 0 0 0 0 0 0 0 0 0 0 0 0 212 106 212 106 0 74 167 74 149 106 74 167 106 167 212 167 106 167 74 237 106 237 74 0 0 0 0 0 0 0 0 0 74 149 74 106 0 0 0 0 0 0 0 0 0 0 0 0 0 0 0 0 0 167 237 74 120 169 0 0 72 0 113 152 0 0 215 0 218 74 0 72 72 113 72 0 218 76 169 0 0 0 0 0 169 120 0 0 0 74 167 212 217 0 0 0 206 0 0 0 0 0 0 0 0 0 0 0 0 0 0 0 0 0 0 0 0 0 0 0 0 0 0 0 0 0 0 0 0 0 0 0 0 0 0 0 0 0 0 0 0 0 0 0 0 0 0 0 0 0 0 0 0 0 0 0 0 144 185 76 0 120 120 0 76 0 0 0 152 152 0 0 0 0 0 0 0 0 0 0 0 0 0 0 0 0 0 0 0 0 0 0 0 0 0 0 0 0 0 0 0 0 0 0 0 0 0 0 0 0 0 0 0 0 0 0 0 0 0 0 0 0 0 0 0 
0 0 0 0 0 74 106 0 106 74 0 0 0 0 106 0 106 0 0 0 0 0 0 0 0 76 152 76 0 0 72 144 72 0 0 0 0 0 0 0 72 0 113 152 101 0 113 0 0 113 72 113 0 0 0 0 0 0 0 0 0 0 0 0 0 0 0 0 0 0 0 0 0 0 0 0 0 0 0 0 0 0 0 0 0 0 0 0 0 0 0 0 0 0 0 0 0 0 0 0 0 0 72 128 216 0 0 0 0 0 0 0 0 0 74 106 74 0 167 237 211 224 0 216 218 0 0 120 120 0 0 0 107 161 120 120 0 0 76 120 107 76 120 0 161 120 0 152 0 161 169 152 152 161 107 161 169 169 169 169 169 120 104 104 155 222 74 0 191 120 76 120 161 0 113 152 144 144 113 113 72 144 72 0 0 0 72 72 152 144 72 72 113 113 0 0 0 0 0 0 0 0 0 0 0 0 0 144 113 72 101 160 0 0 0 0 0 0 113 72 113 0 0 0 0 0 0 0 0 0 0 72 113 113 144 144 160 144 160 160 160 113 0 144 144 72 72 72 72 0 144 185 76 116 0 216 212 120 76 120 218 113 0 234 0 167 74 237 167 0 0 0 74 106 74 0 0 0 0 0 0 0 0 0 74 167 167 167 74 237 74 74 106 167 0 74 106 149 237 74 212 167 149 106 149 149 237 106 224 224 74 0 0 0 0 74 167 167 74 106 74 149 74 0 0 0 0 0 0 0 0 0 0 0 0 0 0 0 0 0 74 237 167 0 161 161 116 0 72 0 113 113 116 0 0 107 0 0 72 72 0 72 206 0 117 161 161 0 0 76 0 120 169 0 0 0 0 120 152 169 0 206 113 0 0 0 0 0 0 0 0 0 0 0 0 0 0 0 0 0 0 0 0 0 0 0 0 0 0 0 0 0 0 0 0 0 0 0 0 0 0 0 0 0 0 0 0 0 0 0 0 0 0 0 0 0 0 0 0 0 0 0 0 0 160 234 120 161 0 0 76 0 0 0 0 152 152 0 0 0 0 0 0 0 0 0 0 0 0 0 0 0 0 0 0 0 0 0 0 0 0 0 0 0 0 0 0 0 0 0 0 0 0 0 0 0 0 0 0 0 0 0 0 0 0 0 0 0 0 0 0 0 
0 0 0 0 0 106 0 106 0 0 0 0 0 0 74 106 74 0 0 0 0 0 0 0 0 0 169 107 76 0 72 144 72 0 0 0 0 0 0 0 0 0 0 113 113 113 0 72 0 113 72 113 0 0 0 72 0 0 0 0 0 0 0 0 0 0 0 0 0 0 0 0 0 0 0 0 0 0 0 0 0 0 0 0 0 0 0 0 0 0 0 0 0 0 0 0 0 0 0 0 0 0 0 0 78 199 128 0 0 0 0 0 0 0 106 0 106 0 167 237 211 167 255 0 109 76 0 107 120 0 76 0 0 161 120 120 76 0 0 161 107 0 0 120 76 161 76 169 120 0 120 152 152 120 0 0 120 120 0 107 0 0 72 0 158 155 74 167 0 0 224 189 116 113 101 113 0 0 0 113 101 113 72 0 72 0 0 0 160 72 101 0 101 113 0 0 0 0 0 0 0 0 0 0 0 0 0 144 0 72 0 160 0 0 0 0 0 0 113 72 113 0 0 0 0 0 0 0 0 0 0 0 152 160 144 144 113 72 113 113 0 72 0 160 113 72 72 0 101 0 144 144 0 0 101 74 158 107 0 120 117 238 234 0 96 224 106 237 74 0 0 74 224 167 167 0 0 0 0 0 0 0 74 167 237 237 237 167 106 237 74 167 106 74 0 0 0 74 237 167 212 74 167 74 167 74 167 149 167 167 106 0 0 74 106 74 106 106 106 74 106 74 0 0 0 0 0 0 0 0 0 0 0 0 0 0 0 0 0 0 0 167 237 74 0 169 167 72 0 0 0 160 113 104 0 0 166 0 0 0 72 0 0 0 0 120 120 76 120 76 120 0 169 120 0 0 120 161 152 120 146 160 0 0 0 0 0 0 0 0 0 0 0 0 0 0 0 0 0 0 0 0 0 0 0 0 0 0 0 0 0 0 0 0 0 0 0 0 0 0 0 0 0 0 0 0 0 0 0 0 0 0 0 0 0 0 0 0 0 0 0 0 0 152 152 191 120 169 120 0 0 0 0 0 120 161 120 0 0 0 0 0 0 0 0 0 0 0 0 0 0 0 0 0 0 0 0 0 0 0 0 0 0 0 0 0 0 0 0 0 0 0 0 0 0 0 0 0 0 0 0 0 0 0 0 0 0 0 0 0 0 0 
0 74 0 0 0 74 106 74 0 0 0 0 0 0 0 0 0 0 0 0 0 0 0 0 0 0 152 76 0 117 101 113 72 0 0 0 0 0 0 0 0 0 113 144 113 113 0 72 113 0 72 0 0 0 72 0 72 0 0 0 0 0 0 0 0 0 0 0 0 0 0 0 0 0 0 0 0 0 0 0 0 0 0 0 0 0 0 0 0 0 0 0 0 0 0 0 0 0 0 0 0 0 0 72 128 216 0 0 0 0 0 0 0 0 74 106 74 0 106 212 0 0 0 223 167 0 0 120 76 0 0 76 0 0 76 0 0 76 107 161 107 0 107 169 120 120 161 161 120 0 0 0 0 0 0 0 120 152 120 107 120 152 191 224 236 0 0 163 0 72 0 113 144 160 113 0 72 0 0 0 113 113 0 152 113 72 72 113 113 113 72 72 113 0 0 0 0 0 0 0 0 0 0 0 0 0 0 144 0 0 113 113 113 0 0 0 0 0 0 72 0 0 0 0 0 0 0 0 0 0 0 0 0 113 144 144 144 144 144 144 144 113 0 113 113 160 160 113 0 72 113 160 0 0 0 0 104 169 0 152 76 0 0 167 224 74 212 212 0 0 74 224 224 167 212 0 0 0 0 0 0 74 224 237 167 74 74 106 106 224 224 106 74 74 106 106 74 0 167 237 167 0 167 149 106 167 106 149 212 106 106 212 212 237 167 106 167 167 74 0 0 0 0 0 0 0 0 0 0 0 0 0 0 0 0 0 0 0 0 0 0 74 237 167 0 152 152 0 0 0 113 101 113 0 104 0 166 0 0 0 0 0 0 163 0 167 0 76 120 0 107 120 120 152 0 0 152 152 0 0 0 160 113 0 0 0 0 0 0 0 0 0 0 0 0 0 0 0 0 0 0 0 0 0 0 0 0 0 0 0 0 0 0 0 0 0 0 0 0 0 0 0 0 0 0 0 0 0 0 0 0 0 0 0 0 0 0 0 0 0 0 0 113 160 0 152 120 169 120 0 0 0 0 76 120 107 0 0 0 0 0 0 0 0 0 0 0 0 0 0 0 0 0 0 0 0 0 0 0 0 0 0 0 0 0 0 0 0 0 0 0 0 0 0 0 0 0 0 0 0 0 0 0 0 0 0 0 0 0 0 0 0 
0 106 74 106 74 0 0 0 0 0 0 0 74 106 74 0 0 0 0 0 0 0 0 0 0 0 152 120 76 116 113 101 0 0 0 0 0 0 0 0 0 113 152 144 144 113 101 72 113 0 0 0 0 0 0 72 0 0 0 0 0 0 0 0 0 0 0 0 0 0 0 0 0 0 0 0 0 0 0 0 0 0 0 0 0 0 0 0 0 0 0 0 0 0 0 0 0 0 0 0 0 0 0 0 72 91 123 74 0 0 0 0 0 0 0 0 0 0 167 237 167 0 0 148 0 120 120 76 107 0 0 0 0 0 0 0 0 0 0 120 107 76 0 120 152 0 120 120 0 0 0 0 0 0 0 161 169 152 107 76 161 76 120 120 0 120 169 218 234 146 113 113 72 0 0 72 0 0 0 0 0 0 113 113 113 113 0 144 0 152 160 113 113 0 0 0 0 0 0 0 0 0 0 0 0 0 0 113 72 101 160 0 144 0 0 0 0 0 0 0 0 0 0 0 0 0 0 0 0 0 0 0 0 0 0 0 0 0 0 0 0 0 0 113 144 113 0 0 72 0 0 160 113 113 113 152 117 120 120 161 0 190 0 197 74 0 167 237 74 0 167 237 74 212 212 0 74 106 74 0 74 224 224 0 106 74 0 0 74 149 167 0 167 149 106 106 167 0 74 237 0 167 106 106 149 167 167 212 74 224 237 212 167 0 149 167 0 0 0 0 0 0 0 0 0 0 0 0 0 0 0 0 0 0 0 0 0 0 0 0 0 0 212 212 0 152 152 0 0 113 152 113 0 101 0 163 0 189 222 104 113 152 0 0 160 222 76 120 0 120 107 169 120 120 0 0 152 152 0 0 0 144 144 0 0 0 0 0 0 0 0 0 0 0 0 0 0 0 0 0 0 0 0 0 0 0 0 0 0 0 0 0 0 0 0 0 0 0 0 0 0 0 0 0 0 0 0 0 0 0 0 0 0 0 0 0 0 0 0 0 0 0 160 113 0 120 120 107 76 120 0 0 0 76 152 76 0 0 0 0 0 0 0 0 0 0 0 0 0 0 0 0 0 0 0 0 0 0 0 0 0 0 0 0 0 0 0 0 0 0 0 0 0 0 0 0 0 0 0 0 0 0 0 0 0 0 0 0 0 0 0 0 
0 149 74 0 106 0 0 0 0 0 0 0 167 106 167 0 0 0 0 0 0 0 0 0 0 0 152 152 0 0 160 113 0 0 0 0 0 0 0 0 0 113 160 0 0 0 0 0 72 144 113 0 0 0 0 0 0 0 0 0 0 0 0 0 0 0 0 0 0 0 0 0 0 0 0 0 0 0 0 0 0 0 0 0 0 0 0 0 0 0 0 0 0 0 0 0 0 0 0 0 0 0 0 0 72 0 123 167 0 0 0 0 0 0 0 0 0 0 212 167 148 182 92 130 211 120 120 107 0 120 0 0 0 0 0 0 0 0 0 76 120 0 120 120 120 0 0 0 0 0 0 0 0 120 169 161 0 0 152 120 161 152 218 0 0 167 0 0 107 120 113 160 0 0 0 0 0 0 0 0 0 0 113 113 152 0 0 144 0 144 0 72 0 0 0 0 0 0 0 0 0 0 0 0 0 0 0 0 72 0 144 0 144 0 0 0 0 0 0 0 0 0 0 0 0 0 0 0 0 0 0 0 0 0 0 0 0 0 0 0 0 0 0 0 0 0 0 0 0 113 113 113 144 144 113 160 155 189 150 0 0 0 169 120 0 0 74 237 167 0 212 212 74 237 167 0 106 0 106 74 224 224 0 224 167 167 0 0 167 224 106 74 167 74 167 212 224 106 106 106 224 237 224 167 212 212 212 167 224 224 74 74 224 237 167 74 0 0 0 0 0 0 0 0 0 0 0 0 0 0 0 0 0 0 0 0 0 0 0 0 0 0 167 237 74 120 169 0 0 113 152 72 72 72 152 0 163 0 189 0 0 113 72 0 113 0 104 120 0 120 169 0 76 0 0 0 152 152 0 0 0 160 113 0 0 0 0 0 0 0 0 0 0 0 0 0 0 0 0 0 0 0 0 0 0 0 0 0 0 0 0 0 0 0 0 0 0 0 0 0 0 0 0 0 0 0 0 0 0 0 0 0 0 0 0 0 0 0 0 0 0 152 152 0 0 107 0 0 107 120 76 0 0 120 169 0 0 0 0 0 0 0 0 0 0 0 0 0 0 0 0 0 0 0 0 0 0 0 0 0 0 0 0 0 0 0 0 0 0 0 0 0 0 0 0 0 0 0 0 0 0 0 0 0 0 0 0 0 0 0 0 0 
0 106 74 106 74 0 0 0 0 0 0 0 167 106 167 0 0 0 0 0 0 0 0 0 0 0 152 152 0 0 113 160 0 0 0 0 0 0 0 0 0 72 144 72 0 0 0 72 72 0 72 72 0 0 0 0 0 0 0 0 0 0 0 0 0 0 0 0 0 0 0 0 0 0 0 0 0 0 0 0 0 0 0 0 0 0 0 0 0 0 0 0 0 0 0 0 0 0 0 0 0 0 0 72 0 224 108 212 0 0 0 0 0 0 0 0 0 0 167 167 212 0 128 76 161 76 76 76 0 120 0 0 0 0 0 0 0 0 76 0 76 0 120 76 0 0 0 76 0 0 0 0 161 169 120 0 0 76 76 161 76 104 206 146 209 212 120 0 76 152 0 160 113 0 0 0 0 0 0 0 0 0 0 72 0 0 0 144 0 160 0 0 72 0 0 0 0 0 0 0 0 0 0 0 0 0 0 0 0 0 144 0 152 144 113 0 0 0 0 0 0 0 0 0 0 0 0 0 0 0 0 0 0 0 0 0 0 0 0 0 0 0 0 0 0 0 0 0 206 231 206 0 144 144 144 144 116 120 118 76 120 152 161 120 74 167 212 224 167 0 167 224 237 224 74 0 74 106 0 224 224 74 106 167 149 167 0 0 212 212 167 74 106 212 237 212 167 106 106 106 237 0 237 167 212 212 167 167 224 74 74 224 224 74 0 0 0 0 0 0 0 0 0 0 0 0 0 0 0 0 0 0 0 0 0 0 0 0 0 0 0 0 74 237 167 0 169 120 0 0 113 152 0 101 113 72 0 0 101 0 0 0 0 0 0 206 0 0 107 0 107 161 0 0 0 0 152 152 0 0 113 160 0 0 0 0 0 0 0 0 0 0 0 0 0 0 0 0 0 0 0 0 0 0 0 0 0 0 0 0 0 0 0 0 0 0 0 0 0 0 0 0 0 0 0 0 0 0 0 0 0 0 0 0 0 0 0 0 0 0 113 160 0 0 161 169 161 0 120 161 0 0 0 152 152 0 0 0 0 0 0 0 0 0 0 0 0 0 0 0 0 0 0 0 0 0 0 0 0 0 0 0 0 0 0 0 0 0 0 0 0 0 0 0 0 0 0 0 0 0 0 0 0 0 0 0 0 0 0 0 0 0 
0 167 74 0 0 74 106 74 0 0 0 0 74 106 74 0 0 0 0 0 0 0 0 0 0 76 120 152 0 0 0 160 113 0 0 0 0 0 0 0 0 72 113 113 113 0 0 72 0 113 113 0 0 0 0 0 0 0 0 0 0 0 0 0 0 0 0 0 0 0 0 0 0 0 0 0 0 0 0 0 0 0 0 0 0 0 0 0 0 0 0 0 0 0 0 0 0 0 0 0 0 0 0 0 72 191 108 212 0 0 0 0 0 0 0 0 0 0 74 74 74 167 223 161 120 0 0 0 120 0 120 0 0 0 0 0 0 0 107 76 0 0 120 0 0 0 120 76 120 0 0 161 161 0 0 0 76 0 0 120 169 218 185 0 160 74 107 107 107 120 0 144 144 0 0 0 0 0 0 0 0 0 0 0 0 0 0 144 113 160 113 72 0 72 0 0 0 0 0 0 0 0 0 0 0 0 0 0 0 0 144 113 113 144 152 113 0 0 0 0 0 0 0 0 0 0 0 0 0 0 0 0 0 0 0 0 0 0 0 0 0 0 0 0 0 113 144 160 213 0 220 0 144 144 144 185 0 236 169 76 236 0 0 92 167 224 212 167 74 0 74 167 167 74 0 0 0 0 167 237 74 0 74 167 167 74 0 0 212 212 212 0 167 106 74 74 106 106 167 224 167 167 237 0 237 167 74 106 0 167 237 224 74 0 0 0 0 0 0 0 0 0 0 0 0 0 0 0 0 0 0 0 0 0 0 0 0 0 0 0 0 0 0 212 212 0 152 152 0 0 0 144 72 0 101 0 0 0 0 113 72 144 113 113 0 0 234 155 0 0 0 169 120 0 0 0 152 152 0 0 144 144 0 0 0 0 0 0 0 0 0 0 0 0 0 0 0 0 0 0 0 0 0 0 0 0 0 0 0 0 0 0 0 0 0 0 0 0 0 0 0 0 0 0 0 0 0 0 0 0 0 0 0 0 0 0 0 0 0 0 144 144 0 161 161 0 152 76 0 107 0 0 0 169 120 0 0 0 0 0 0 0 0 0 0 0 0 0 0 0 0 0 0 0 0 0 0 0 0 0 0 0 0 0 0 0 0 0 0 0 0 0 0 0 0 0 0 0 0 0 0 0 0 0 0 0 0 0 0 0 0 0 
0 106 74 0 0 106 0 106 0 0 0 0 0 0 0 0 0 0 0 0 0 0 0 0 76 0 76 152 0 0 0 160 113 0 0 0 0 0 0 0 0 101 0 72 113 72 0 72 0 72 0 0 0 0 0 0 0 0 0 72 0 0 0 0 0 0 0 0 0 0 0 0 0 0 0 0 0 0 0 0 0 0 0 0 0 0 0 0 0 0 0 0 0 0 0 0 0 0 0 0 0 0 0 0 0 152 108 212 0 0 0 0 0 0 0 0 0 0 0 167 224 217 242 120 0 0 0 0 120 0 107 120 0 0 0 0 76 0 76 0 0 107 0 0 0 0 120 76 76 120 169 161 0 76 0 0 76 0 107 76 107 150 231 0 144 0 0 120 167 163 144 152 113 0 113 113 0 0 0 0 0 0 0 0 0 0 0 113 152 152 113 0 72 0 0 0 0 0 0 0 0 0 0 0 0 0 0 0 0 0 113 152 113 0 144 113 72 0 0 0 0 0 0 0 0 0 0 0 0 0 0 0 0 0 0 0 0 0 0 0 0 0 0 0 113 152 185 187 0 148 116 72 113 144 113 95 83 74 169 92 93 237 237 224 167 212 0 0 0 0 0 0 0 0 0 0 0 0 212 212 0 0 0 0 0 0 0 0 167 224 224 74 212 0 0 167 106 106 224 167 74 167 224 237 224 74 0 74 224 237 167 74 0 0 0 0 0 0 0 0 0 0 0 0 0 0 0 0 0 0 0 0 0 0 0 0 0 0 0 0 0 0 74 237 167 0 120 169 0 0 0 144 72 0 72 0 0 0 0 113 113 0 113 144 72 0 116 185 0 0 0 120 169 0 0 0 120 169 0 0 144 144 0 0 0 0 0 0 0 0 0 0 0 0 0 0 0 0 0 0 0 0 0 0 0 0 0 0 0 0 0 0 0 0 0 0 0 0 0 0 0 0 0 0 0 0 0 0 0 0 0 0 0 0 0 0 0 0 0 0 160 113 120 169 0 0 152 76 76 76 76 0 161 161 0 0 0 0 0 0 0 0 0 0 0 0 0 0 0 0 0 0 0 0 0 0 0 0 0 0 0 0 0 0 0 0 0 0 0 0 0 0 0 0 0 0 0 0 0 0 0 0 0 0 0 0 0 0 0 0 0 0 
0 0 106 0 0 74 106 74 74 106 74 74 106 74 0 0 0 0 0 0 0 0 0 0 0 76 107 169 0 0 72 144 72 0 0 0 0 0 0 0 72 72 0 113 152 0 0 0 72 0 0 0 0 0 0 0 0 0 72 0 72 0 0 0 0 0 0 0 0 0 0 0 0 0 0 0 0 0 0 0 0 0 0 0 0 0 0 0 0 0 0 0 0 0 0 0 0 0 0 0 0 0 0 0 0 152 108 212 0 0 0 0 0 0 0 0 0 0 74 237 167 120 169 0 76 0 0 76 0 107 0 76 0 120 120 107 76 76 120 152 120 0 0 0 0 0 76 0 120 169 120 0 107 0 76 0 76 120 120 152 169 120 185 0 144 0 0 0 72 113 113 113 0 72 72 72 72 0 0 0 0 0 0 0 0 0 0 0 113 113 0 0 0 0 0 0 0 113 113 0 0 0 0 0 0 0 0 0 0 0 72 72 72 72 113 101 0 72 0 0 0 0 0 0 0 0 0 0 0 0 0 0 0 0 0 0 0 0 0 0 0 0 0 0 144 185 107 74 213 144 101 0 104 155 163 192 235 0 120 223 72 106 74 224 167 167 0 0 0 0 0 0 0 0 0 0 74 167 224 167 0 0 0 0 0 0 0 0 74 167 167 167 212 0 0 167 106 74 212 0 0 74 167 167 0 167 212 237 224 74 0 0 0 0 0 0 0 0 0 0 0 0 0 0 0 0 0 0 0 0 0 0 0 0 0 0 0 0 0 0 0 0 106 212 106 0 76 152 76 0 0 144 113 72 0 0 0 0 0 0 152 160 152 113 0 72 101 0 107 161 0 0 169 120 0 0 0 169 120 0 160 113 0 0 0 0 0 0 0 0 0 0 0 0 0 0 0 0 0 0 0 0 0 0 0 0 0 0 0 0 0 0 0 0 0 0 0 0 0 0 0 0 0 0 0 0 0 0 0 0 0 0 0 0 0 0 0 0 0 113 160 0 152 152 0 0 169 107 120 120 0 161 161 0 0 0 0 0 0 0 0 0 0 0 0 0 0 0 0 0 0 0 0 0 0 0 0 0 0 0 0 0 0 0 0 0 0 0 0 0 0 0 0 0 0 0 0 0 0 0 0 0 0 0 0 0 0 0 0 0 0 0 
0 106 0 106 74 0 74 106 74 0 106 106 0 106 0 0 0 0 0 0 0 0 0 0 0 0 76 152 76 0 0 160 113 0 0 0 0 0 0 0 0 113 101 72 72 113 0 0 72 0 0 0 0 0 0 0 0 0 0 72 0 0 0 0 0 0 0 0 0 0 0 0 0 0 0 0 0 0 0 0 0 0 0 0 0 0 0 0 0 0 0 0 0 0 0 0 0 0 0 0 0 0 0 0 0 152 108 212 0 0 0 0 0 0 0 0 0 0 167 0 190 161 120 0 0 0 107 120 120 0 120 120 0 76 76 0 76 120 0 0 0 0 0 0 0 0 120 161 120 0 120 120 0 107 0 0 0 169 76 76 0 0 113 0 113 0 0 113 113 113 72 0 0 0 72 113 0 0 0 0 0 0 0 0 0 0 0 0 0 0 0 0 0 0 0 0 72 113 101 113 0 0 0 0 0 0 0 0 0 0 72 113 101 0 74 164 163 72 0 0 0 0 0 0 0 0 0 0 0 0 0 0 0 0 0 0 0 0 0 0 0 0 0 113 152 187 0 215 212 72 160 146 161 167 158 91 185 0 0 0 252 74 106 0 106 74 0 0 0 0 0 0 0 0 0 0 106 167 149 74 0 0 0 0 0 0 0 0 0 0 0 212 212 0 0 106 74 149 167 0 0 0 0 74 224 237 212 167 74 0 0 0 0 0 0 0 0 0 0 0 0 0 0 0 0 0 0 0 0 0 0 0 0 0 0 0 0 0 0 0 0 0 74 237 167 0 120 169 0 0 0 113 160 0 0 0 0 0 0 0 0 101 0 72 0 0 0 0 234 107 161 0 152 152 0 0 0 152 191 152 152 0 0 0 0 0 0 0 0 0 0 0 0 0 0 0 0 0 0 0 0 0 0 0 0 0 0 0 0 0 0 0 0 0 0 0 0 0 0 0 0 0 0 0 0 0 0 0 0 0 0 0 0 0 0 0 0 0 0 160 113 0 169 120 0 76 120 107 0 0 120 169 0 0 0 0 0 0 0 0 0 0 0 0 0 0 0 0 0 0 0 0 0 0 0 0 0 0 0 0 0 0 0 0 0 0 0 0 0 0 0 0 0 0 0 0 0 0 0 0 0 0 0 0 0 0 0 0 0 0 0 0 
0 0 106 0 106 0 167 106 106 106 74 106 0 106 74 106 74 0 0 0 0 0 0 0 0 0 161 161 0 0 0 160 113 0 0 0 0 0 0 0 0 0 160 0 152 160 152 0 0 72 0 0 0 0 0 0 0 0 0 0 0 0 0 0 0 0 0 0 0 0 0 0 0 0 0 0 0 0 0 0 0 0 0 0 0 0 0 0 0 0 0 0 0 0 0 0 0 0 0 0 0 0 0 0 0 168 145 212 0 0 0 0 0 0 0 0 0 74 237 0 161 120 0 0 0 120 120 76 120 0 0 0 0 120 120 76 76 0 0 0 0 0 0 0 120 152 161 120 0 76 120 76 120 0 120 152 120 120 152 0 0 0 101 101 113 160 160 160 144 113 0 0 152 113 113 0 0 0 0 0 0 0 0 0 0 0 0 0 0 0 113 113 0 0 0 0 0 152 72 113 0 0 0 0 0 0 0 0 0 0 0 160 113 0 76 74 0 206 0 0 0 0 0 0 0 0 0 0 0 0 0 0 0 0 0 0 0 0 0 0 0 0 206 231 146 74 76 185 113 113 206 85 247 182 169 167 185 167 76 0 237 74 0 106 0 0 0 0 0 0 0 0 0 0 0 0 106 212 106 0 0 0 0 0 0 0 0 0 0 0 74 237 167 0 0 167 224 167 74 0 0 0 74 224 224 74 0 0 0 0 0 0 0 0 0 0 0 0 0 0 0 0 0 0 0 0 0 0 0 0 0 0 0 0 0 0 0 0 0 0 0 0 0 212 212 0 120 169 0 0 0 0 160 113 0 0 0 0 0 0 0 72 0 72 0 0 0 163 74 117 169 120 152 152 0 0 0 152 0 160 0 0 0 0 0 0 0 0 0 0 0 0 0 0 0 0 0 0 0 0 0 0 0 0 0 0 0 0 0 0 0 0 0 0 0 0 0 0 0 0 0 0 0 0 0 0 0 0 0 0 0 0 0 0 0 0 0 0 113 160 104 161 161 0 0 0 120 161 120 0 169 120 0 0 0 0 0 0 0 0 0 0 0 0 0 0 0 0 0 0 0 0 0 0 0 0 0 0 0 0 0 0 0 0 0 0 0 0 0 0 0 0 0 0 0 0 0 0 0 0 0 0 0 0 0 0 0 0 0 0 0 0 
0 74 74 106 74 0 167 106 167 0 0 106 0 106 106 0 106 0 0 0 0 0 0 0 0 76 120 107 0 0 113 160 0 0 0 0 0 0 0 0 0 113 160 101 152 113 113 0 72 0 0 0 0 0 0 0 0 0 0 0 0 0 0 0 0 0 0 0 0 0 0 0 0 0 0 0 0 0 0 0 0 0 0 0 0 0 0 0 0 0 0 0 0 0 0 0 0 0 0 0 0 0 0 0 72 120 186 252 0 0 0 0 0 0 0 0 74 224 0 242 120 0 0 0 0 152 0 107 0 76 0 0 0 0 0 76 0 0 0 0 0 0 0 76 120 120 120 0 76 0 161 120 120 0 161 152 169 76 107 120 0 113 152 113 72 113 113 0 0 0 0 72 113 101 113 0 0 0 0 0 0 0 0 0 0 0 0 0 0 72 72 72 72 0 0 0 0 0 101 0 72 0 0 0 0 0 0 0 0 0 0 113 160 0 0 120 104 0 152 0 0 0 0 0 0 0 0 0 0 0 0 0 0 0 0 0 0 0 0 0 0 206 0 150 120 0 0 113 113 212 85 106 92 148 169 0 152 0 139 0 167 74 106 74 0 0 0 0 0 0 0 0 0 0 0 74 224 224 74 0 0 0 0 0 0 0 0 74 106 106 224 224 74 0 0 212 212 0 0 0 74 167 237 224 74 0 0 0 0 0 0 0 0 0 0 0 0 0 0 0 0 0 0 0 0 0 0 0 0 0 0 0 0 0 0 0 0 0 0 0 0 0 0 167 237 74 0 161 161 0 0 0 144 144 0 0 0 0 0 0 0 0 72 0 0 0 0 0 0 0 120 169 120 152 0 0 0 152 0 144 0 0 0 0 0 0 0 0 0 0 0 0 0 0 0 0 0 0 0 0 0 0 0 0 0 0 0 0 0 0 0 0 0 0 0 0 0 0 0 0 0 0 0 0 0 0 0 0 0 0 0 0 0 0 0 0 0 0 144 144 120 169 0 0 0 0 76 120 152 120 169 0 0 0 0 0 0 0 0 0 0 0 0 0 0 0 0 0 0 0 0 0 0 0 0 0 0 0 0 0 0 0 0 0 0 0 0 0 0 0 0 0 0 0 0 0 0 0 0 0 0 0 0 0 0 0 0 0 0 0 0 0 
0 106 0 0 0 0 74 106 74 0 0 74 106 74 106 0 106 0 0 0 0 0 0 0 0 0 107 120 76 0 144 144 0 0 0 0 0 0 0 0 0 113 152 72 72 144 113 0 0 0 0 0 0 0 0 0 0 0 0 0 0 0 0 0 0 0 0 0 0 0 0 0 0 0 0 0 0 0 0 0 0 0 0 0 0 0 0 0 0 0 0 0 0 0 0 0 0 0 0 0 0 0 0 0 0 0 145 72 0 0 0 0 0 0 0 0 167 237 190 169 0 0 0 0 0 120 76 107 76 0 0 0 0 76 107 76 120 0 0 0 0 0 0 107 120 76 0 161 152 161 0 120 76 120 120 0 0 107 0 76 76 144 144 0 0 0 0 0 0 0 0 0 113 113 0 0 0 0 0 0 0 0 0 0 0 0 0 0 0 0 101 0 101 0 0 0 0 0 72 0 72 0 0 0 0 0 72 0 0 0 0 0 152 152 0 152 0 218 206 160 113 0 0 0 0 0 0 0 0 0 0 0 0 0 0 0 0 0 0 104 0 0 158 120 120 0 72 0 116 0 0 0 149 74 152 0 169 0 167 237 74 74 167 212 167 74 0 0 0 0 0 0 0 74 167 237 224 74 0 0 0 0 0 0 0 0 0 106 74 167 224 74 0 74 167 224 167 0 0 74 224 237 167 74 0 0 0 0 0 0 0 0 0 0 0 0 0 0 0 0 0 0 0 0 0 0 0 0 0 0 0 0 0 0 0 0 0 0 0 0 0 0 0 74 224 224 74 0 169 120 0 0 144 144 0 0 0 0 0 0 0 0 0 0 0 0 0 0 0 0 0 161 120 120 0 0 0 152 0 144 0 0 0 0 0 0 0 0 0 0 0 0 0 0 0 0 0 0 0 0 0 0 0 0 0 0 0 0 0 0 0 0 0 0 0 0 0 0 0 0 0 0 0 0 0 0 0 0 0 0 0 0 0 0 0 0 0 0 160 163 169 120 0 0 0 161 152 120 120 152 152 0 0 0 0 0 0 0 0 0 0 0 0 0 0 0 0 0 0 0 0 0 0 0 0 0 0 0 0 0 0 0 0 0 0 0 0 0 0 0 0 0 0 0 0 0 0 0 0 0 0 0 0 0 0 0 0 0 0 0 0 0 
0 74 0 0 0 0 0 0 0 0 0 0 0 0 106 0 106 0 0 0 0 0 0 0 0 0 120 169 0 0 113 160 0 0 0 0 0 0 0 0 0 0 113 152 113 0 0 72 0 0 0 0 0 0 0 0 0 0 0 0 0 0 0 0 0 0 0 0 0 0 0 0 0 0 0 0 0 0 0 0 0 0 0 0 0 0 0 0 0 0 0 0 0 0 0 0 0 0 0 0 0 0 0 0 0 0 108 108 0 0 0 0 0 0 0 0 212 252 169 120 0 0 0 0 0 0 76 0 0 0 0 0 76 0 0 76 120 0 0 0 0 120 120 0 0 120 169 161 76 161 161 76 161 161 0 0 120 76 76 120 104 160 113 0 0 0 0 0 0 0 0 0 0 0 0 0 0 0 0 0 0 0 0 0 0 0 0 0 0 0 72 72 72 72 0 0 0 0 72 0 72 0 0 0 0 113 72 113 0 0 0 0 0 152 152 191 120 169 167 113 160 160 144 144 144 113 0 0 0 0 0 0 0 0 0 0 0 0 0 0 0 167 76 169 0 113 72 146 236 0 0 149 74 0 152 120 161 161 252 212 0 106 167 167 224 167 0 0 0 0 0 0 0 167 224 167 74 0 0 0 0 0 0 0 0 0 74 74 106 167 74 0 74 224 237 167 74 0 74 224 224 74 0 0 0 0 0 0 0 0 0 0 0 0 0 0 0 0 0 0 0 0 0 0 0 0 0 0 0 0 0 0 0 0 0 0 0 0 0 0 0 0 0 0 74 237 167 0 152 152 0 0 113 160 0 0 0 0 0 0 0 0 0 0 0 0 0 0 185 0 120 76 0 76 0 0 0 152 0 144 0 0 0 0 0 0 0 0 0 0 0 0 0 0 0 0 0 0 0 0 0 0 0 0 0 0 0 0 0 0 0 0 0 0 0 0 0 0 0 0 0 0 0 0 0 0 0 0 0 0 0 0 0 0 0 0 0 113 160 167 169 0 0 0 76 152 0 76 0 169 120 0 0 0 0 0 0 0 0 0 0 0 0 0 0 0 0 0 0 0 0 0 0 0 0 0 0 0 0 0 0 0 0 0 0 0 0 0 0 0 0 0 0 0 0 0 0 0 0 0 0 0 0 0 0 0 0 0 0 0 0 0 
0 0 0 0 0 0 0 0 0 0 0 74 167 167 74 0 106 0 0 0 0 0 0 0 0 0 152 152 0 0 0 160 113 0 0 0 0 0 0 0 0 0 0 160 113 0 72 0 72 0 0 0 0 0 0 0 0 0 0 0 0 0 0 0 0 0 0 0 0 0 0 0 0 0 0 0 0 0 0 0 0 0 0 0 0 0 0 0 0 0 0 0 0 0 0 0 0 0 0 0 0 0 0 0 0 72 102 123 74 0 0 0 0 0 0 74 237 0 169 0 0 0 0 0 0 0 0 0 0 0 0 0 0 76 76 76 0 0 0 0 161 169 120 0 0 120 120 0 0 0 161 152 161 0 0 76 76 0 107 0 72 144 72 0 0 0 0 0 0 0 0 0 0 0 0 0 0 0 0 0 0 0 0 0 0 0 0 0 0 0 0 101 0 113 113 0 0 0 72 0 72 0 0 0 0 144 0 160 0 0 0 0 0 0 152 0 218 120 191 113 113 0 0 0 0 72 72 0 0 0 0 0 0 0 0 0 0 0 206 0 167 0 169 120 0 101 255 164 0 0 149 74 0 0 120 169 0 169 0 237 74 74 224 224 106 237 74 0 0 0 0 0 0 212 212 0 0 0 0 0 0 0 0 0 0 0 167 167 167 167 0 74 224 224 74 0 0 74 224 224 74 0 0 0 0 0 0 0 0 0 0 0 0 0 0 0 0 0 0 0 0 0 0 0 0 0 0 0 0 0 0 0 0 0 0 0 0 0 0 0 0 0 0 0 0 167 237 74 152 152 0 72 0 160 113 0 0 0 0 0 0 0 0 0 72 0 0 0 144 0 152 76 0 76 0 0 0 152 0 144 0 0 0 0 0 0 0 0 0 0 0 0 0 0 0 0 0 0 0 0 0 0 0 0 0 0 0 0 0 0 0 0 0 0 0 0 0 0 0 0 0 0 0 0 72 0 0 0 0 0 0 0 0 0 0 0 0 160 113 152 152 0 0 0 0 169 120 0 161 161 0 0 0 0 0 0 0 0 0 0 0 0 0 0 0 0 0 0 0 0 0 0 0 0 0 0 0 0 0 0 0 0 0 0 0 0 0 0 0 0 0 0 0 0 0 0 0 0 0 0 0 0 0 0 0 0 0 0 0 0 0 0 
0 0 0 0 0 0 0 0 0 0 0 106 106 106 0 74 149 74 0 0 0 0 0 0 0 0 152 152 0 0 0 160 113 0 0 0 0 0 0 0 0 0 113 160 0 0 0 72 0 0 0 0 0 0 0 0 0 0 0 0 0 0 0 0 0 0 0 0 0 0 0 0 0 0 0 0 0 0 0 0 0 0 0 0 0 0 0 0 0 0 0 0 0 0 0 0 0 0 0 0 0 0 0 0 72 0 255 150 217 0 0 0 0 0 0 167 0 242 120 0 0 0 0 0 0 0 0 0 0 0 0 0 0 0 0 0 0 0 0 161 107 0 0 107 120 0 76 74 72 0 0 76 0 0 0 0 120 120 0 76 0 160 113 0 0 0 0 0 0 0 0 0 0 0 0 0 0 0 0 0 0 0 0 0 0 0 0 0 0 0 0 72 72 0 72 72 0 0 72 0 72 0 0 0 0 144 113 160 113 0 0 0 0 0 0 212 0 0 0 152 144 144 144 144 144 113 0 0 0 0 0 0 0 0 0 0 0 206 0 212 0 161 161 0 0 241 193 148 159 167 74 0 0 0 0 169 120 120 242 0 224 74 74 237 106 237 167 0 0 0 74 106 74 212 212 0 0 0 0 0 0 0 0 0 0 0 167 167 74 0 167 237 224 74 0 0 0 167 237 0 106 74 0 0 0 0 0 0 0 0 0 0 0 0 0 0 0 0 0 0 0 0 0 0 0 0 0 0 0 0 0 0 0 0 0 0 0 0 0 0 0 0 0 0 0 74 237 167 152 152 72 0 72 113 160 0 0 0 0 0 0 0 0 72 0 72 0 0 113 0 218 0 76 0 0 0 0 152 0 144 0 0 0 0 0 0 0 0 0 0 0 0 0 0 0 0 0 0 0 0 0 0 0 0 0 0 0 0 0 0 0 0 0 0 0 0 0 0 0 0 0 0 0 72 0 72 0 0 0 0 0 0 0 0 0 0 113 160 104 169 120 0 0 120 120 120 152 120 169 0 0 0 0 0 0 0 0 0 0 0 0 0 0 0 0 0 0 0 0 0 0 0 0 0 0 0 0 0 0 0 0 0 0 0 0 0 0 0 0 0 0 0 0 0 0 0 0 0 0 0 0 0 0 0 0 0 0 0 0 0 0 0 
0 0 74 106 74 0 0 0 0 0 0 74 167 106 0 74 0 149 74 0 0 0 0 0 0 0 169 120 0 0 72 144 72 0 72 0 0 0 0 0 72 0 144 113 72 0 0 0 0 0 0 0 0 0 0 0 0 0 0 0 0 0 0 0 0 0 0 0 0 0 0 0 0 0 0 0 0 0 0 0 0 0 0 0 0 0 0 0 0 0 0 0 0 0 0 0 0 0 0 0 0 0 0 0 0 72 74 115 72 0 0 0 0 0 0 212 72 169 0 0 0 0 0 0 0 0 0 0 0 0 0 0 0 0 0 0 0 120 169 107 107 120 107 107 120 0 120 218 74 101 0 0 0 0 0 0 0 0 117 116 72 160 113 0 0 0 0 0 0 113 144 113 0 0 0 0 0 0 0 0 0 0 0 0 0 0 0 0 0 0 0 0 113 113 0 72 0 0 0 72 0 0 0 0 0 144 113 160 113 0 0 0 0 0 0 144 0 0 0 144 0 0 0 0 0 0 0 0 0 0 0 0 0 0 0 0 0 140 224 0 161 161 0 0 236 130 0 0 237 167 0 0 0 0 0 120 169 0 169 190 224 237 167 167 212 212 212 0 0 74 149 74 74 237 106 106 74 74 167 167 74 0 0 0 0 0 106 212 74 224 237 167 74 0 74 167 167 167 212 106 0 106 0 0 0 0 0 0 0 0 0 0 0 0 0 0 0 0 0 0 0 0 0 0 0 0 0 0 0 0 0 0 0 0 0 0 0 0 0 0 0 0 0 0 0 0 212 212 120 169 104 72 0 0 160 113 0 0 0 0 0 0 0 0 72 0 0 0 0 206 0 167 0 0 0 0 0 152 0 144 0 0 0 0 0 0 0 0 0 0 0 0 0 0 0 0 0 0 0 0 0 0 0 0 0 0 0 0 0 0 0 0 0 0 0 0 0 0 0 0 0 0 0 0 72 0 0 0 0 0 0 0 0 0 0 0 160 113 120 169 0 0 76 76 76 76 152 152 152 0 0 0 0 0 0 0 0 0 0 0 0 0 0 0 0 0 0 0 0 0 0 0 0 0 0 0 0 0 0 0 0 0 0 0 0 0 0 0 0 0 0 0 0 0 0 0 0 0 0 0 0 0 0 0 0 0 0 0 0 0 0 0 
0 0 106 0 106 0 0 0 0 0 0 0 0 106 0 74 149 74 106 0 0 0 0 0 0 76 120 107 0 0 0 160 113 113 72 113 0 0 0 152 113 113 113 113 113 113 0 0 113 113 0 0 0 0 0 0 0 0 0 0 0 0 0 0 0 0 0 0 0 0 0 0 0 0 0 0 0 0 0 0 0 0 0 0 0 0 0 0 0 0 0 0 0 0 0 0 0 0 0 0 0 0 0 0 0 0 0 0 123 74 0 0 0 0 0 212 108 152 0 0 0 0 0 0 0 0 0 0 0 0 0 0 0 0 0 0 161 169 76 107 161 107 120 120 0 107 0 191 164 0 72 0 0 0 0 0 0 113 160 144 144 152 0 0 0 0 0 0 113 101 0 72 72 0 0 0 0 0 0 0 0 0 0 0 0 0 0 0 0 0 0 0 0 72 0 72 0 0 0 0 0 0 0 0 0 144 0 160 0 0 0 0 0 0 0 144 0 0 0 185 0 0 0 0 0 0 0 0 0 0 0 0 0 0 0 206 140 212 106 161 161 0 0 161 0 0 0 224 224 74 0 0 0 0 0 0 161 169 161 120 74 167 237 167 106 237 167 0 0 167 74 167 106 237 74 0 106 106 106 106 106 0 0 0 74 106 149 167 149 224 74 0 0 0 106 106 106 106 212 74 106 74 0 0 0 0 0 0 0 0 0 0 0 0 0 0 0 0 0 0 0 0 0 0 0 0 0 0 0 0 0 0 0 0 0 0 0 0 0 0 0 0 0 0 0 0 212 212 0 169 120 0 0 0 144 144 0 0 0 0 0 0 0 0 0 0 0 0 0 0 0 0 0 0 0 0 0 152 0 160 0 0 0 0 0 0 0 0 0 0 0 0 0 0 0 0 0 0 0 0 0 0 0 0 0 0 0 0 0 0 0 0 0 0 0 0 0 0 0 0 0 0 0 0 0 0 0 0 0 0 0 0 0 0 0 113 160 0 152 152 0 120 76 76 76 76 107 161 120 0 0 0 0 0 0 0 0 0 0 0 0 0 0 0 0 0 0 0 0 0 0 0 0 0 0 0 0 0 0 0 0 0 0 0 0 0 0 0 0 0 0 0 0 0 0 0 0 0 0 0 0 0 0 0 0 0 0 0 0 0 0 0 
0 0 74 106 74 0 74 106 74 0 0 74 106 0 74 74 0 106 74 0 0 0 0 0 0 0 120 161 120 0 0 144 144 113 72 113 0 0 72 113 101 113 72 0 101 113 0 72 72 72 72 0 0 0 0 0 0 0 0 0 0 0 0 0 0 0 0 0 0 0 0 0 0 0 0 0 0 0 0 0 0 0 0 0 0 0 120 120 0 0 0 0 0 0 0 0 0 0 0 0 0 0 0 0 0 0 0 190 150 217 0 0 0 0 74 0 80 120 0 0 0 0 0 0 0 0 0 0 0 0 0 0 0 0 0 120 169 0 120 169 0 0 76 76 107 107 120 161 116 0 113 144 144 144 144 144 160 160 113 72 72 0 0 0 0 0 0 0 144 0 152 113 0 0 0 0 0 0 0 0 0 0 0 0 0 0 0 0 0 0 0 0 0 0 72 0 0 0 0 0 0 0 0 0 0 113 72 113 0 0 0 0 0 0 0 113 0 167 0 0 0 0 0 0 0 0 0 0 0 0 0 0 0 0 206 0 224 77 190 169 0 0 161 236 0 106 224 224 74 0 0 0 0 0 0 0 0 76 120 128 167 167 0 106 106 237 74 0 0 212 0 167 237 167 74 106 74 106 74 149 74 0 0 74 149 74 74 167 224 74 0 0 0 0 74 149 0 149 106 106 74 0 0 0 0 0 0 0 0 0 0 0 0 0 0 0 0 0 0 0 0 0 0 0 0 0 0 0 0 0 0 0 0 0 0 0 0 0 0 0 0 0 0 0 0 0 167 237 74 120 169 0 0 0 144 144 0 0 0 0 0 0 0 0 0 0 0 0 72 0 0 0 0 0 0 0 0 152 191 160 113 0 0 0 0 0 0 0 0 0 0 0 0 0 0 0 0 0 0 0 0 0 0 0 0 0 0 0 0 0 0 0 0 0 0 0 0 0 0 0 0 0 0 0 0 0 0 0 0 0 0 0 0 0 0 144 144 0 152 152 76 76 0 120 120 0 120 120 0 0 0 0 0 0 0 0 0 0 0 0 0 0 0 0 0 0 0 0 0 0 0 0 0 0 0 0 0 0 0 0 0 0 0 0 0 0 0 0 0 0 0 0 0 0 0 0 0 0 0 0 0 0 0 0 0 0 0 0 0 0 0 0 
0 0 0 0 0 0 106 0 106 0 0 106 0 106 106 0 106 0 0 0 0 0 0 0 0 0 0 169 120 0 0 113 113 0 72 0 0 0 0 113 113 0 113 101 0 72 0 0 113 113 0 0 0 0 0 0 0 0 0 0 0 0 0 0 0 0 0 0 0 0 0 0 0 0 0 0 0 0 0 0 0 0 0 0 0 161 169 161 120 0 0 0 0 0 0 0 0 0 0 0 0 0 0 0 0 0 0 0 80 100 74 0 0 0 167 100 190 0 0 0 0 0 0 120 120 0 0 0 0 0 0 0 0 0 0 120 120 0 152 152 0 76 0 0 146 0 0 185 160 160 144 144 144 113 0 0 101 0 113 144 144 144 144 113 0 0 0 0 160 0 144 0 0 0 0 0 0 0 0 0 0 0 0 0 0 0 0 0 0 0 0 0 0 0 0 0 0 0 0 0 0 0 0 0 0 72 0 101 0 0 0 72 0 0 0 0 206 0 116 0 0 0 0 0 0 0 0 0 0 0 0 0 0 206 0 212 0 0 169 120 0 236 0 217 106 167 224 74 0 0 0 0 0 0 0 76 0 76 74 224 167 167 106 0 212 212 0 0 0 167 106 0 237 74 0 0 0 106 0 106 0 0 74 149 0 149 106 106 74 0 0 0 74 167 212 167 149 149 74 0 106 0 0 0 0 0 0 0 0 0 0 0 0 0 0 0 0 0 0 0 0 0 0 0 0 0 0 0 0 0 0 0 0 0 0 0 0 0 0 0 0 0 0 0 0 0 106 212 106 0 169 120 0 0 144 144 0 0 0 0 0 0 0 0 0 0 0 113 72 113 185 0 120 0 0 0 0 152 152 144 144 0 0 0 0 0 0 0 0 0 0 0 0 0 0 0 0 0 0 0 0 0 0 0 0 0 0 0 0 0 0 0 0 0 0 0 0 0 0 0 0 0 0 0 0 0 0 0 0 0 0 0 0 0 0 144 144 0 169 120 0 120 120 76 76 120 76 0 0 0 0 0 0 0 0 0 0 0 0 0 0 0 0 0 0 0 0 0 0 0 0 0 0 0 0 0 0 0 0 0 0 0 0 0 0 0 0 0 0 0 0 0 0 0 0 0 0 0 0 0 0 0 0 0 0 0 0 0 0 0 0 0 
0 0 0 0 0 0 74 106 74 0 0 74 106 74 74 106 74 0 0 0 0 0 0 0 0 0 120 169 0 0 72 72 72 72 0 0 0 0 0 0 113 113 113 72 0 72 0 0 0 0 0 0 0 0 0 0 0 0 0 0 0 0 0 0 0 0 0 0 0 0 0 0 0 0 0 0 0 0 0 0 0 0 0 0 236 247 92 152 152 0 0 0 0 0 0 0 0 0 0 0 0 0 0 0 0 0 0 0 190 150 217 0 0 0 212 108 76 0 76 0 0 0 76 76 76 76 0 0 0 0 0 0 0 0 161 120 0 120 161 76 161 152 161 146 152 144 113 0 72 72 0 0 0 113 101 113 72 72 72 0 0 0 0 72 72 0 0 113 160 113 144 0 0 0 0 0 0 0 0 0 0 0 0 0 0 0 0 0 0 0 0 0 0 0 0 0 0 0 0 0 0 0 0 0 0 113 206 231 206 72 152 113 113 0 0 0 0 0 72 0 113 0 0 0 0 0 0 0 0 0 0 0 163 0 212 0 0 161 107 76 169 0 0 149 149 106 106 167 74 0 0 0 0 0 0 0 76 0 167 237 106 237 74 74 237 167 0 0 0 74 106 167 212 0 0 0 0 74 106 74 0 0 106 74 149 74 0 0 0 0 0 0 106 106 74 74 74 167 74 106 74 0 0 0 0 0 0 0 0 0 0 0 0 0 0 0 0 0 0 0 0 0 0 0 0 0 0 0 0 0 0 0 0 0 0 0 0 0 0 0 0 0 0 0 0 0 106 212 106 0 152 152 0 0 113 160 0 0 0 0 0 0 0 0 0 0 0 113 72 113 113 0 191 0 0 0 0 152 152 144 144 0 0 0 0 0 0 0 0 0 0 0 0 0 0 0 0 0 0 0 0 0 0 0 0 0 0 0 0 0 0 0 0 0 0 0 0 0 0 0 0 0 0 0 0 0 0 0 0 0 0 0 0 0 0 160 163 161 161 0 0 0 0 169 76 169 120 0 0 0 0 0 0 0 0 0 0 0 0 0 0 0 0 0 0 0 0 0 0 0 0 0 0 0 0 0 0 0 0 0 0 0 0 0 0 0 0 0 0 0 0 0 0 0 0 0 0 0 0 0 0 0 0 0 0 0 0 0 0 0 0 0 
0 0 0 0 0 0 0 0 0 0 0 0 0 0 0 0 0 0 0 0 0 0 0 0 0 0 152 152 0 0 0 101 113 72 0 0 0 0 0 72 72 72 72 72 0 0 113 113 0 0 0 0 0 0 0 0 0 0 0 0 0 0 0 0 0 0 0 0 0 0 0 0 0 0 0 0 0 0 0 0 0 0 0 161 247 0 183 161 120 0 0 0 0 0 0 0 0 0 0 0 0 0 0 0 0 0 0 0 0 115 72 0 0 0 212 108 120 76 0 0 0 0 0 120 120 0 0 0 0 0 0 0 0 120 169 76 120 107 120 0 152 0 161 0 0 0 185 160 160 160 113 0 0 113 113 152 0 0 113 144 144 144 144 113 0 0 0 144 144 144 144 0 0 0 0 0 0 0 0 0 0 0 0 0 0 0 0 0 0 0 0 0 0 0 0 0 0 0 0 0 0 0 0 0 0 144 220 0 213 144 152 113 144 0 0 0 0 0 144 0 144 0 0 0 0 0 0 0 0 0 0 104 0 0 0 0 161 161 76 161 190 0 106 237 167 167 224 224 167 0 0 0 0 0 0 0 0 0 167 224 224 167 74 224 224 74 0 0 0 0 0 212 212 0 0 0 0 0 74 106 74 0 74 106 74 0 0 0 0 0 0 0 74 149 167 74 106 167 0 0 0 0 0 0 0 0 0 0 0 0 0 0 0 0 0 0 0 0 0 0 0 0 0 0 0 0 0 0 0 0 0 0 0 0 0 0 0 0 0 0 0 0 0 0 0 0 74 237 167 0 152 152 0 0 72 144 72 0 0 0 0 0 0 0 0 0 0 0 0 0 0 0 0 0 0 0 0 152 152 113 160 0 0 0 0 0 0 0 0 0 0 0 0 0 0 0 0 0 0 0 0 0 0 0 0 0 0 0 0 0 0 0 0 0 0 0 0 0 0 0 0 0 0 0 0 0 0 0 0 0 0 0 0 0 113 160 167 169 0 0 0 0 0 152 120 169 120 0 0 0 0 0 0 0 0 0 0 0 0 0 0 0 0 0 0 0 0 0 0 0 0 0 0 0 0 0 0 0 0 0 0 0 0 0 0 0 0 0 0 0 0 0 0 0 0 0 0 0 0 0 0 0 0 0 0 0 0 0 0 0 0 0 
0 0 0 0 0 0 0 74 106 74 0 0 0 0 0 0 0 0 0 0 0 0 0 0 0 0 152 152 0 0 0 101 113 72 0 0 0 0 0 72 0 101 113 0 72 0 72 72 72 0 0 0 0 0 0 0 0 0 0 0 0 0 0 0 0 0 0 0 0 0 0 0 0 0 0 0 0 0 0 0 0 0 161 161 74 247 242 120 0 0 0 0 0 0 0 0 0 0 0 0 0 0 0 0 0 0 0 0 0 0 150 128 0 0 167 123 211 0 0 0 0 0 0 0 0 0 0 0 0 0 0 120 120 76 161 120 76 161 120 0 169 120 0 167 234 214 115 0 0 113 160 152 0 0 72 0 0 0 0 0 0 0 0 0 0 0 0 113 160 113 144 0 0 0 0 0 0 0 0 0 0 0 0 0 0 0 0 0 0 0 0 0 0 0 0 0 0 0 0 0 0 0 0 0 0 113 212 117 116 0 72 113 160 0 0 0 0 0 185 0 212 0 0 0 0 0 0 0 0 0 0 0 0 104 0 161 161 0 152 211 224 149 149 149 106 224 167 167 224 167 74 74 167 212 167 74 0 0 74 167 167 74 106 212 106 0 0 0 0 0 74 237 167 0 0 0 0 0 106 0 106 0 0 0 0 0 0 0 0 0 0 74 167 237 224 106 106 74 0 0 0 0 0 0 0 0 0 0 0 0 0 0 0 0 0 0 0 0 0 0 0 0 0 0 0 0 0 0 0 0 0 0 0 0 0 0 0 0 0 0 0 0 0 0 0 0 0 212 212 0 152 152 0 0 72 144 72 0 0 0 0 0 0 0 0 0 0 0 113 72 113 0 93 77 74 0 0 152 152 0 160 113 0 0 0 0 0 0 0 0 0 0 0 0 0 0 0 0 0 0 0 0 0 0 0 0 0 0 0 0 0 0 0 0 0 0 0 0 0 0 0 0 0 0 0 0 0 0 0 0 0 0 0 0 160 163 169 120 0 0 0 0 0 120 120 161 0 0 0 0 0 0 0 0 0 0 0 0 0 0 0 0 0 0 0 0 0 0 0 0 0 0 0 0 0 0 0 0 0 0 0 0 0 0 0 0 0 0 0 0 0 0 0 0 0 0 0 0 0 0 0 0 0 0 0 0 0 0 0 0 0 0 
0 0 0 0 0 0 0 167 106 149 167 167 74 74 106 106 106 74 0 0 0 0 0 0 0 0 152 152 0 0 72 72 72 72 0 0 72 0 0 72 0 0 160 72 72 0 72 72 72 0 0 0 0 0 0 0 0 0 0 0 0 0 0 0 0 0 0 0 0 0 0 0 0 0 0 0 0 0 0 0 0 120 169 0 161 161 0 0 0 0 0 0 0 0 0 0 0 0 0 0 0 0 0 76 0 0 0 0 0 138 181 131 74 0 74 100 80 0 0 0 0 0 0 0 0 0 0 0 76 76 161 169 161 76 120 169 107 76 161 120 120 169 76 120 169 161 0 0 0 0 0 152 160 113 0 0 0 0 0 0 0 0 0 0 0 0 0 0 160 0 144 0 0 0 0 0 0 0 0 0 0 0 0 0 0 0 0 0 0 0 0 0 0 0 0 0 0 0 0 0 0 0 0 0 0 0 160 113 113 72 113 0 152 152 0 0 0 0 0 212 0 206 0 0 0 0 0 0 0 0 0 133 106 120 169 161 0 120 236 80 149 149 224 106 224 106 74 0 167 237 224 74 167 167 224 167 0 0 0 0 0 0 74 237 167 0 0 0 0 0 167 237 74 0 0 0 0 0 74 106 74 0 0 0 0 0 0 0 0 0 0 106 167 149 0 106 74 0 0 0 0 0 0 0 0 0 0 0 0 0 0 0 0 0 0 0 0 0 0 0 0 0 0 0 0 0 0 0 0 0 0 0 0 0 0 0 0 0 0 0 0 0 0 0 0 0 0 167 237 74 152 152 0 0 0 160 113 0 0 0 0 0 0 0 0 0 0 0 144 0 144 163 172 167 106 0 0 152 152 0 144 144 0 0 0 0 0 0 0 0 0 0 0 0 0 0 0 0 0 0 0 0 0 0 0 0 0 0 0 0 0 0 0 0 0 0 0 0 0 0 0 0 0 0 0 0 0 0 0 0 0 0 0 113 160 167 169 0 0 0 0 0 120 76 0 0 0 0 0 0 0 0 0 0 0 0 0 0 0 0 0 0 0 0 0 0 0 0 0 0 0 0 0 0 0 0 0 0 0 0 0 0 0 0 0 0 0 0 0 0 0 0 0 0 0 0 0 0 0 0 0 0 0 0 0 0 0 0 0 0 0 0 
0 0 0 0 0 0 0 167 106 74 106 106 106 106 0 0 0 106 0 0 0 0 0 0 0 0 120 169 0 0 72 72 72 72 0 72 0 72 0 0 0 0 72 0 0 0 72 72 72 0 0 0 0 0 0 0 0 0 0 0 0 0 0 0 0 0 0 0 0 0 0 0 0 0 0 0 0 0 0 0 0 120 161 169 161 0 0 0 0 0 0 0 0 0 0 0 0 76 0 0 0 0 107 0 76 0 0 0 0 72 190 216 217 0 0 252 115 120 0 0 76 0 0 0 0 0 0 76 0 0 120 76 107 107 120 0 161 161 76 169 0 161 152 169 120 0 0 0 0 0 0 101 0 72 72 0 0 0 0 0 0 0 0 0 0 0 0 0 144 0 144 0 0 0 0 0 0 0 0 0 0 0 0 0 0 0 0 0 0 72 0 0 0 0 0 0 0 0 0 0 0 0 0 0 113 113 72 160 113 0 152 113 0 152 160 144 144 0 0 76 191 231 113 0 0 0 0 0 0 0 207 224 182 161 120 0 120 236 80 0 106 237 74 212 212 106 0 106 0 74 237 74 212 106 212 212 0 0 0 0 0 0 0 212 212 0 0 0 0 0 212 212 0 0 0 0 0 0 0 0 0 0 0 0 0 0 0 0 0 74 167 167 167 106 106 0 106 0 0 0 0 0 0 0 0 0 0 0 0 0 0 0 0 0 0 0 0 0 0 0 0 0 0 0 0 0 0 0 0 0 0 0 0 0 0 0 0 0 0 0 0 0 0 0 0 0 0 74 237 167 120 169 0 0 0 144 144 0 0 0 0 0 0 0 0 0 0 0 113 0 113 0 114 0 74 0 0 152 152 0 144 144 0 0 0 0 0 0 0 0 0 0 0 0 0 0 0 0 0 0 0 0 0 0 0 0 0 0 0 0 0 0 0 0 0 0 0 0 0 0 0 0 0 0 0 0 0 0 0 0 0 0 0 160 163 169 120 0 0 0 0 161 120 120 76 0 0 0 0 0 0 0 0 0 0 0 0 0 0 0 0 0 0 0 0 0 0 0 0 0 0 0 0 0 0 0 0 0 0 0 0 0 0 0 0 0 0 0 0 0 0 0 0 0 0 0 0 0 0 0 0 0 0 0 0 0 0 0 0 0 0 0 
0 0 0 0 0 0 0 74 106 106 167 167 74 74 106 106 106 74 0 0 0 0 0 0 0 0 0 169 120 0 72 113 101 0 0 0 0 0 0 0 72 0 113 152 113 0 113 113 0 0 0 0 0 0 0 0 0 0 0 0 0 0 0 0 0 0 0 0 0 0 0 0 0 0 0 0 0 0 0 0 0 0 120 120 0 0 0 0 0 0 0 0 0 0 0 0 120 76 120 0 0 76 0 107 0 0 0 0 0 0 0 145 72 0 0 212 108 120 120 120 0 76 0 0 0 0 0 76 0 107 0 120 76 76 120 161 0 161 120 76 107 0 76 0 0 0 0 0 0 0 152 160 144 113 0 0 0 0 0 0 0 0 0 0 0 0 0 0 144 0 160 0 0 0 0 0 0 0 0 0 0 0 0 0 0 0 0 0 72 0 72 0 0 0 0 0 0 0 0 0 0 0 0 72 113 113 101 113 0 113 72 160 160 113 0 0 0 189 0 81 248 212 113 0 0 0 0 0 206 140 224 149 242 120 0 120 161 223 167 167 224 167 0 167 237 0 106 74 0 0 167 167 224 74 212 212 0 0 76 0 0 0 0 212 212 0 0 0 0 0 212 212 0 0 0 0 0 0 0 0 0 0 0 0 0 0 0 0 0 167 149 106 149 74 74 106 74 74 106 74 0 0 0 0 0 0 0 0 0 0 0 0 0 0 0 0 0 0 0 0 0 0 0 0 0 0 0 0 0 0 0 0 0 0 0 0 0 0 0 0 0 0 0 0 0 0 0 0 212 212 0 169 120 0 0 113 160 0 0 0 0 0 0 0 0 0 0 0 0 113 0 113 0 0 0 0 0 152 152 0 144 144 0 0 0 0 0 0 0 0 0 0 0 0 0 0 0 0 0 0 0 0 0 0 0 0 0 0 0 0 0 0 0 0 0 0 0 0 0 0 0 0 0 0 0 0 0 0 0 0 0 0 113 160 167 169 0 0 0 0 120 169 76 169 0 0 0 0 0 0 0 0 0 0 0 0 0 0 0 0 0 0 0 0 0 0 0 0 0 0 0 0 0 0 0 0 0 0 0 0 0 0 0 0 0 0 0 0 0 0 0 0 0 0 0 0 0 0 0 0 0 0 0 0 0 0 0 0 0 0 0 0 
0 0 0 0 0 0 0 0 0 0 0 0 0 0 0 74 106 74 0 0 0 0 0 0 0 0 0 152 152 0 0 160 113 0 0 0 72 0 0 72 0 0 72 152 113 0 0 0 0 0 0 0 0 0 0 0 0 0 0 0 0 0 0 0 0 0 0 0 0 0 0 0 0 0 0 0 0 0 0 0 0 0 0 0 0 0 0 0 0 0 0 0 0 0 0 0 120 76 120 0 0 0 76 0 0 0 0 0 0 0 0 0 150 128 0 212 72 107 0 0 107 0 0 0 0 0 0 161 120 0 76 120 0 169 76 161 161 0 120 107 76 161 0 0 0 0 0 0 0 113 160 0 0 0 0 0 0 72 0 0 0 0 0 0 0 0 0 0 144 113 160 113 0 0 0 0 0 0 0 0 0 0 0 0 0 0 0 0 0 72 0 0 0 0 0 0 0 0 0 0 0 0 0 0 160 72 160 0 113 160 113 0 113 144 144 144 144 212 153 0 112 185 0 0 0 0 0 206 0 224 106 236 161 0 120 236 0 148 106 212 167 74 0 74 237 167 0 0 0 0 74 106 74 74 237 167 0 120 76 167 106 74 74 237 167 0 0 0 74 167 224 167 0 0 0 0 0 0 0 0 0 0 0 0 0 0 0 74 106 167 106 0 106 0 0 0 0 106 0 106 0 0 0 0 0 0 0 0 0 0 0 0 0 0 0 0 0 0 0 0 0 0 0 0 0 0 0 0 0 0 0 0 0 0 0 0 0 0 0 0 0 0 0 0 0 0 0 0 212 212 0 120 169 0 0 0 160 113 0 0 0 0 0 0 0 0 0 0 0 144 0 144 0 0 0 0 74 183 0 0 113 144 0 0 0 0 0 0 0 0 0 0 0 0 0 0 0 0 0 0 0 0 0 0 0 0 0 0 0 0 0 0 0 0 0 0 0 0 0 0 0 0 0 0 0 0 0 0 0 0 0 0 144 185 169 120 0 0 0 0 152 120 169 120 0 0 0 0 0 0 0 0 0 0 0 0 0 0 0 0 0 0 0 0 0 0 0 0 0 0 0 0 0 0 0 0 0 0 0 0 0 0 0 0 0 0 0 0 0 0 0 0 0 0 0 76 0 0 0 0 0 0 0 0 0 0 0 0 0 0 0 0 
0 0 0 0 0 0 0 0 0 74 106 74 0 0 0 106 0 106 0 0 0 0 0 0 0 0 0 152 152 0 0 144 144 0 0 0 0 72 0 0 101 101 152 113 0 0 0 0 0 0 0 0 0 0 0 0 0 0 0 0 0 0 0 0 0 0 0 0 0 0 0 0 0 0 0 0 0 0 0 0 0 0 0 76 0 0 0 0 0 0 0 0 0 0 0 0 0 76 0 0 0 0 120 120 0 0 0 0 0 0 0 128 133 80 74 212 252 107 76 107 0 0 0 0 0 0 120 169 0 120 120 120 0 169 76 0 107 161 0 120 120 120 120 0 72 0 0 0 0 160 113 0 0 0 0 0 113 72 113 0 0 0 0 0 0 0 0 0 113 160 72 160 0 0 0 0 0 0 0 0 0 0 0 0 0 0 0 0 0 0 0 0 0 0 0 0 0 0 0 0 0 0 0 0 144 144 144 0 152 152 113 0 0 0 0 0 0 0 95 0 0 0 0 0 0 0 206 0 212 0 120 169 0 0 169 223 106 106 106 0 0 74 167 167 167 212 0 0 0 0 0 0 0 106 212 106 0 152 0 0 106 149 224 224 74 0 0 0 167 224 167 74 0 0 0 0 0 0 0 0 0 0 0 0 0 0 74 224 167 74 167 106 74 0 0 0 0 74 106 74 0 0 0 0 0 0 0 0 0 0 0 0 0 0 0 0 0 0 0 0 0 0 0 0 0 0 0 0 0 0 0 0 0 0 0 0 0 0 0 0 0 0 0 0 0 0 0 0 212 212 0 0 169 120 0 0 113 160 0 0 0 0 0 0 0 0 0 0 0 144 0 160 116 74 167 0 167 148 173 118 0 144 0 0 0 0 0 0 0 0 0 0 0 0 0 0 0 0 0 0 0 0 0 0 0 0 0 0 0 0 0 0 0 0 0 0 0 0 0 0 0 0 0 0 0 0 0 0 0 0 0 0 160 187 152 76 0 0 0 0 152 0 169 0 0 0 0 0 0 0 0 0 0 0 0 0 0 0 0 0 0 0 0 0 0 0 0 0 0 0 0 0 0 0 0 0 0 0 0 0 0 0 0 0 0 0 0 0 0 0 0 0 0 0 76 0 76 0 120 120 0 0 0 0 0 0 0 0 0 0 0 0 
0 0 0 0 0 0 0 0 0 106 0 106 0 0 0 74 106 74 0 0 0 0 0 0 0 0 0 169 120 0 0 160 113 0 0 0 0 0 0 113 0 0 144 0 72 72 72 0 0 0 0 0 0 0 0 0 0 0 0 0 0 0 0 0 0 0 0 0 0 0 0 0 0 0 0 0 0 0 0 0 0 0 120 120 161 0 0 0 0 0 0 0 0 0 0 0 0 0 0 0 0 76 120 107 120 0 0 0 0 0 0 0 190 150 217 212 212 0 169 120 0 0 0 0 0 0 169 76 0 107 161 0 76 152 0 76 76 161 161 0 161 120 120 113 113 160 144 144 160 152 0 0 0 0 113 144 152 0 144 0 0 0 0 0 0 0 0 0 0 160 72 160 113 0 0 0 0 0 0 0 0 0 0 0 0 0 0 0 0 0 0 0 0 0 0 0 0 0 0 0 0 0 0 0 113 152 152 101 113 113 0 0 0 0 0 0 0 0 163 74 0 0 206 0 0 206 0 212 0 120 107 120 76 236 0 148 106 167 74 0 0 167 224 237 167 167 0 0 0 0 0 0 0 74 237 167 0 191 72 145 0 74 237 74 0 0 74 167 224 167 0 0 0 0 0 0 0 0 0 0 0 0 0 0 0 0 167 237 167 0 212 0 0 0 0 0 0 0 0 0 0 0 0 0 0 0 0 0 0 0 0 0 0 0 0 0 0 0 0 0 0 0 0 0 0 0 0 0 0 0 0 0 0 0 0 0 0 0 0 0 0 0 0 0 0 0 0 0 167 237 74 0 152 152 0 0 0 160 113 0 0 0 0 0 0 0 0 0 0 113 113 113 72 0 0 0 167 106 163 191 0 113 0 0 0 0 0 0 0 0 0 0 0 0 0 0 0 0 0 0 0 0 0 0 0 0 0 0 0 0 0 0 0 0 0 0 0 0 0 0 0 0 0 0 0 0 0 0 0 0 0 152 152 74 169 120 0 0 0 0 152 0 152 0 0 0 0 0 0 0 0 0 0 0 0 0 0 0 0 0 0 0 0 0 0 0 0 0 0 0 0 0 0 0 0 0 0 0 0 0 0 0 0 0 0 0 0 0 0 0 0 0 0 0 0 76 0 76 76 76 76 0 0 0 0 0 0 0 0 0 0 0 
0 0 0 0 0 0 0 0 0 74 106 74 0 0 0 0 0 0 0 0 0 0 0 0 0 0 120 169 0 0 72 144 72 0 0 0 0 0 0 113 72 0 144 113 113 144 113 113 0 0 0 0 0 0 0 0 0 0 0 0 0 0 0 0 0 0 0 0 0 0 0 0 0 0 0 0 0 0 0 0 0 0 120 120 120 120 0 0 0 0 0 0 0 0 0 0 0 120 152 152 152 76 107 120 120 0 0 0 0 0 0 0 0 80 100 167 252 120 161 76 120 120 0 0 0 161 107 107 120 76 161 169 76 120 0 76 120 0 161 161 0 76 0 113 113 72 144 144 113 0 0 0 0 113 152 144 72 113 113 0 0 0 0 0 0 0 0 0 0 113 152 101 113 0 0 0 0 0 0 0 0 0 0 0 0 0 0 0 0 0 0 0 0 0 0 0 0 0 0 72 0 0 0 0 0 113 113 0 0 0 0 72 0 0 0 0 0 0 0 0 234 167 0 113 163 136 0 74 161 169 120 0 120 247 148 106 106 0 0 0 0 167 237 0 106 74 0 0 0 0 0 0 0 0 212 212 0 224 0 148 148 74 212 0 0 74 224 237 167 74 0 0 0 0 0 0 0 0 0 0 0 0 0 0 0 0 212 212 167 106 106 167 167 74 0 0 0 0 0 0 0 0 0 0 0 0 0 0 0 0 0 0 0 0 0 0 0 0 0 0 0 0 0 0 0 0 0 0 0 0 0 0 0 0 0 0 0 0 0 0 0 0 0 0 0 0 0 0 74 237 167 0 152 152 0 0 0 144 144 0 0 0 0 0 0 0 0 0 0 0 160 0 144 0 0 0 74 106 241 0 113 0 0 0 0 0 0 0 0 0 0 0 0 0 0 0 0 0 0 0 0 0 0 0 0 0 0 0 0 0 0 0 0 0 0 0 0 0 0 0 0 0 0 0 0 0 0 0 0 0 113 160 0 0 152 152 0 0 0 0 120 76 120 0 0 0 0 0 0 0 0 0 0 0 0 0 0 0 0 0 0 0 0 0 0 0 0 0 0 0 0 0 0 0 0 0 0 0 0 0 0 0 0 0 0 0 0 0 0 0 0 0 0 0 0 0 0 0 120 120 0 0 0 0 0 0 0 0 0 0 0 0 
0 0 0 0 0 0 0 0 0 0 0 0 0 0 0 0 0 0 0 0 0 0 0 0 0 0 152 152 0 0 0 160 113 0 0 0 0 0 0 0 72 113 144 113 101 72 101 113 0 0 0 0 0 0 0 0 0 0 0 0 0 0 0 0 0 0 0 0 0 0 0 0 0 0 0 0 0 0 0 0 0 0 0 169 0 152 0 0 0 0 0 0 0 0 0 0 120 107 0 0 76 120 0 76 0 0 0 0 0 0 0 0 0 190 133 197 0 161 120 0 76 76 76 0 161 161 0 120 0 107 76 76 161 0 120 0 76 152 120 120 76 0 113 113 113 72 0 0 0 0 0 0 0 113 152 144 160 152 0 0 0 0 0 0 0 0 0 0 0 0 113 101 0 113 0 0 0 0 0 0 0 0 0 0 0 0 0 0 0 0 0 0 0 0 0 0 0 0 113 72 113 0 0 0 0 0 0 0 0 0 152 113 113 0 0 0 0 0 0 163 0 150 187 213 0 126 0 223 169 0 0 120 190 128 106 167 74 0 0 0 0 74 224 224 74 0 0 0 0 0 0 0 0 0 167 237 74 191 104 241 130 167 212 0 74 149 167 106 0 0 0 0 0 0 0 0 0 0 0 0 0 0 0 0 0 0 212 212 74 106 106 149 167 106 0 0 0 0 0 0 0 0 0 0 0 0 0 0 0 0 0 0 0 0 0 0 0 0 0 0 0 0 0 0 0 0 0 0 0 0 0 0 0 0 0 0 0 0 0 0 0 0 0 0 0 0 0 0 0 167 237 74 152 152 0 0 0 113 160 0 0 0 0 0 0 0 0 0 0 0 113 72 113 0 0 0 0 0 152 0 144 0 0 0 0 0 0 0 0 0 0 0 0 0 0 0 0 0 0 0 0 0 0 0 0 0 0 0 0 0 0 0 0 0 0 0 0 0 0 0 0 0 0 0 0 0 0 0 0 0 144 144 0 120 161 120 0 0 0 0 0 76 0 0 0 0 0 0 0 0 0 0 0 0 0 0 0 0 0 0 0 0 0 0 0 0 0 0 0 0 0 0 0 0 0 0 0 0 0 0 0 0 0 0 0 0 0 0 0 0 0 0 0 0 0 0 0 0 0 0 0 0 0 0 0 0 0 0 0 0 0 0 
0 0 0 0 0 0 0 74 106 74 0 0 0 0 0 0 0 0 0 0 0 0 0 0 0 0 152 152 0 0 0 144 144 0 0 0 0 0 0 0 0 113 101 113 0 0 101 0 0 72 0 0 0 0 0 0 0 0 0 0 0 0 0 0 0 0 0 0 0 0 0 0 0 0 0 0 0 0 0 0 0 0 0 120 76 120 0 0 0 0 0 0 0 0 0 76 120 0 161 169 152 107 0 76 76 76 76 0 0 120 152 152 152 120 167 130 211 152 0 0 120 120 0 120 169 0 0 120 120 0 76 76 120 120 107 152 169 152 152 120 0 113 152 144 113 0 0 0 0 0 0 0 0 0 113 144 113 0 0 0 0 0 0 0 0 0 0 0 0 0 0 113 72 72 72 0 0 0 113 113 0 0 0 0 0 0 0 0 0 0 0 0 0 0 0 0 0 0 113 72 113 0 0 0 0 0 0 0 0 113 160 113 144 0 0 0 0 0 0 0 212 164 0 189 234 204 148 242 120 0 0 242 80 167 167 0 0 0 0 0 0 0 74 224 237 167 74 0 0 0 0 0 0 0 74 224 224 190 120 236 217 224 167 74 224 167 74 106 0 0 0 0 0 0 0 0 74 106 74 0 0 0 0 0 0 74 237 167 0 0 167 167 224 74 0 0 0 0 0 0 0 0 0 0 0 0 0 0 0 0 0 0 0 0 0 0 0 0 0 0 0 0 0 0 0 0 0 0 0 0 0 0 0 0 0 0 0 0 0 0 0 0 0 0 0 0 0 0 0 74 237 167 152 152 0 0 0 0 160 113 0 0 0 0 0 0 0 0 0 0 0 72 0 185 0 120 0 74 185 69 152 113 0 0 0 0 0 0 0 0 0 0 0 0 0 0 0 0 0 0 0 0 0 0 0 0 0 0 0 0 0 0 0 0 0 0 0 0 0 0 0 0 0 0 0 0 0 0 0 0 160 113 120 161 120 0 0 0 120 120 0 0 0 0 0 0 0 0 0 0 0 0 0 0 0 0 0 0 0 0 0 0 0 0 0 0 0 0 0 0 0 0 0 0 0 0 0 0 0 0 0 0 0 0 0 0 0 0 0 0 0 0 0 0 0 0 0 0 0 0 0 0 0 0 0 0 0 0 0 0 0 0 
0 0 0 0 0 0 0 106 0 106 0 74 106 74 0 0 74 106 74 0 0 0 0 0 0 0 120 169 0 0 113 152 113 0 0 0 0 0 0 72 101 0 101 144 113 113 72 0 72 0 72 0 0 0 0 0 0 0 0 0 0 0 0 0 0 0 0 0 0 0 0 0 0 0 0 0 0 0 0 0 0 0 0 0 76 0 0 0 0 0 0 0 0 0 76 0 0 76 120 0 76 0 0 0 0 72 0 0 161 169 152 120 0 0 74 166 0 169 0 0 0 0 0 169 76 120 120 0 0 120 120 0 107 120 0 76 0 0 0 0 113 152 113 0 0 0 0 72 0 0 0 0 0 0 0 72 0 0 0 0 0 0 0 0 0 0 0 0 0 0 0 0 72 0 0 72 0 113 101 113 72 0 0 0 0 0 0 0 0 0 0 0 0 0 72 0 0 0 0 72 0 0 0 0 0 0 0 0 0 144 185 155 212 0 0 0 0 0 0 0 113 101 167 189 0 0 161 161 0 0 161 247 197 149 167 0 0 0 0 0 0 0 0 74 149 167 106 0 0 0 0 74 106 74 0 74 237 217 76 217 224 167 0 224 224 106 106 74 0 0 0 0 0 0 0 0 106 0 106 0 0 0 0 74 106 74 212 106 0 0 74 106 74 0 0 0 0 0 0 0 0 0 0 0 0 0 0 0 0 0 0 0 0 0 0 0 0 0 0 0 0 0 0 0 0 0 0 0 0 0 0 0 0 0 0 0 0 0 0 0 0 0 0 0 0 0 0 0 0 0 167 237 190 169 0 0 0 0 144 144 0 0 0 0 0 0 0 0 0 0 0 0 0 113 0 191 0 106 120 0 163 152 113 0 0 0 0 0 0 0 0 0 0 0 0 0 0 0 0 0 0 0 0 0 0 0 0 0 0 0 0 0 0 0 0 0 0 0 0 0 0 0 0 0 0 0 0 0 0 113 160 104 169 120 0 0 0 120 161 161 120 0 0 0 0 0 0 0 0 0 0 0 0 0 0 0 0 0 0 0 0 0 0 0 0 0 0 0 0 0 0 0 0 0 0 0 0 0 0 0 0 0 0 0 0 0 0 0 0 0 0 0 0 0 0 0 0 0 0 0 0 0 0 0 0 0 0 0 0 0 0 0 
0 0 0 0 0 0 0 74 106 74 0 106 0 106 0 0 106 0 106 0 0 0 0 0 0 0 76 152 76 72 72 72 72 0 0 0 0 0 72 0 0 72 113 0 152 152 0 72 0 72 0 0 0 0 0 0 0 0 0 0 0 0 0 0 0 0 0 0 0 0 0 0 0 0 0 0 0 0 0 0 0 0 0 0 0 0 0 0 0 0 0 0 0 0 0 76 76 76 0 0 0 0 117 148 117 76 104 0 152 76 0 120 161 191 235 218 166 120 120 0 0 0 161 161 76 161 161 120 0 0 120 169 169 120 0 0 0 0 113 160 160 113 0 0 0 0 72 0 72 0 0 0 0 0 113 113 152 0 0 0 0 0 0 0 0 0 0 0 0 0 0 0 0 0 72 0 113 152 0 160 0 0 0 0 0 0 0 0 0 0 0 0 0 113 72 113 0 0 0 0 72 0 0 0 0 0 0 0 0 144 220 72 220 72 0 0 0 0 0 0 0 113 146 161 236 192 161 0 0 236 247 0 167 167 74 0 0 0 0 0 0 0 0 0 106 212 106 0 0 0 0 106 0 106 0 0 212 212 74 237 106 167 167 167 106 0 0 0 0 0 0 0 0 0 74 106 0 74 74 74 74 106 74 167 106 106 237 149 106 74 0 0 0 0 0 0 0 0 0 0 0 0 0 0 0 0 0 0 0 0 0 0 0 0 0 0 0 0 0 0 0 0 0 0 0 0 0 0 0 0 0 0 0 0 0 0 0 0 0 0 0 0 0 0 0 0 0 0 0 0 106 212 148 169 120 0 0 0 144 144 0 0 0 0 0 0 0 0 0 0 0 0 0 0 0 0 74 74 92 206 120 144 144 0 0 0 0 0 0 0 0 0 0 0 0 0 0 0 0 0 0 0 0 0 0 0 0 0 0 0 0 0 0 0 0 0 0 0 0 0 0 0 0 0 0 0 0 0 0 144 144 120 169 0 0 0 0 152 152 152 152 0 0 0 0 0 0 0 0 0 0 0 0 0 0 0 0 0 0 0 0 0 0 0 0 0 0 0 0 0 0 0 0 0 0 0 0 0 0 0 0 0 0 0 0 0 0 0 0 0 0 0 0 0 0 0 0 0 0 0 0 0 0 0 0 0 0 0 0 0 0 0 
0 0 0 0 0 0 0 0 0 0 0 74 106 0 106 106 149 74 106 0 0 0 0 0 0 0 161 161 0 0 113 152 113 0 0 0 0 0 0 72 72 72 0 152 152 0 113 72 113 0 0 0 0 0 0 0 0 0 0 0 0 0 0 0 0 0 0 0 0 0 0 0 0 0 0 0 0 0 0 0 0 0 0 0 0 0 0 0 0 0 76 76 76 76 76 0 0 120 120 0 0 0 72 0 104 189 150 0 169 120 0 169 167 152 113 155 0 117 120 74 72 150 120 0 76 161 161 76 120 169 169 120 0 0 0 0 76 116 72 0 113 113 0 0 0 0 101 0 72 0 0 0 0 0 144 113 160 113 0 0 0 0 0 0 0 0 0 0 0 0 0 0 0 0 113 113 101 0 113 113 0 0 0 0 0 0 0 0 0 0 0 0 0 144 0 144 0 0 0 72 0 72 0 0 0 0 0 0 0 144 163 213 206 0 0 0 0 0 0 0 0 212 209 115 148 165 0 0 236 130 197 167 0 0 0 0 0 0 0 0 0 0 0 0 74 237 167 0 0 0 0 74 106 74 0 74 237 167 167 237 106 224 149 74 167 0 0 0 0 0 0 0 0 0 167 167 224 149 106 167 167 167 237 224 106 224 224 74 0 106 0 0 0 0 0 0 0 0 0 0 0 0 0 0 0 0 0 0 0 0 0 0 0 0 0 0 0 0 0 0 0 0 0 0 0 0 0 0 0 0 0 0 0 0 0 0 0 0 0 0 0 0 0 0 0 0 0 0 0 0 167 237 74 152 152 0 0 0 160 113 0 0 0 0 0 0 0 0 0 0 0 0 0 0 0 97 149 74 106 152 191 160 113 0 0 0 0 0 0 0 0 0 0 0 0 0 0 0 0 0 0 0 0 0 0 0 0 0 0 0 0 0 0 0 0 0 0 0 0 0 0 0 0 0 0 0 0 0 0 160 113 120 169 0 0 0 76 120 152 120 169 0 0 0 0 0 0 0 0 0 0 0 0 0 0 0 0 0 0 0 0 0 0 0 0 0 0 0 0 0 0 0 0 0 0 0 0 0 0 0 0 0 0 0 0 0 0 0 0 0 0 0 0 0 0 0 0 0 0 0 0 0 0 0 0 0 0 0 0 0 0 0 
0 0 0 0 0 0 0 0 0 0 74 167 167 149 106 106 149 167 106 0 0 0 0 0 0 76 152 76 0 0 0 113 160 0 0 0 0 0 0 0 0 0 72 144 72 0 113 72 113 0 0 0 0 0 0 0 0 0 0 0 0 0 0 0 0 0 0 0 0 0 0 0 0 0 0 0 0 0 0 0 0 0 0 0 0 0 0 0 0 76 0 76 0 0 0 120 169 120 120 76 0 0 74 189 167 0 0 120 107 118 0 0 212 101 104 167 158 166 107 189 0 189 107 0 0 120 76 107 169 76 0 0 0 0 0 120 76 167 113 144 144 152 113 0 0 113 152 152 113 0 0 0 0 0 144 144 144 144 0 0 0 0 0 0 0 0 0 0 0 0 0 0 0 152 160 101 72 144 152 0 0 0 0 0 0 0 0 0 0 0 0 0 0 113 72 113 0 0 0 0 0 72 113 0 0 0 0 0 0 113 113 152 0 0 0 0 0 0 0 0 206 0 167 234 117 113 74 161 0 217 167 167 0 0 74 106 74 0 0 0 0 0 0 0 74 237 167 0 0 0 0 0 0 0 0 167 237 0 237 106 167 149 149 74 167 0 0 0 0 0 0 0 0 0 212 167 237 74 0 212 212 167 149 74 74 167 167 106 106 74 0 0 0 0 0 0 0 0 0 0 0 0 0 0 0 0 0 0 0 0 0 0 0 0 0 0 0 0 0 0 0 0 0 0 0 0 0 0 0 0 0 0 0 0 0 0 0 0 0 0 0 0 0 0 0 0 0 0 0 0 212 212 0 152 152 0 0 113 160 0 0 0 0 0 0 0 0 0 0 0 0 0 0 0 0 153 148 106 106 152 0 113 0 0 0 0 0 0 0 0 0 0 0 0 0 0 0 0 0 0 0 0 0 0 0 0 0 0 0 0 0 0 0 0 0 0 0 0 0 0 0 0 0 0 0 0 0 0 152 152 104 107 120 76 0 120 76 0 152 76 152 76 0 0 0 0 0 0 0 0 0 0 0 0 0 0 0 0 0 0 0 0 0 0 0 0 0 0 0 0 0 0 0 0 0 0 0 0 0 0 0 0 0 0 0 0 0 0 0 0 0 0 0 0 0 0 0 0 0 0 0 0 0 0 0 0 0 0 0 0 0 0 
0 0 0 0 0 74 167 167 74 0 167 149 167 106 0 74 167 224 74 0 0 0 0 0 0 0 161 161 0 0 0 0 160 113 0 0 0 0 0 0 72 0 0 152 152 0 0 72 0 0 0 0 0 0 0 0 0 0 0 0 0 0 0 0 0 0 0 0 0 0 0 0 0 0 0 0 0 0 0 0 0 0 0 0 0 0 0 0 0 0 107 0 76 0 76 0 0 120 161 0 0 0 76 76 0 120 107 107 167 181 237 104 0 163 0 0 69 78 0 106 186 74 107 120 76 0 161 161 0 76 0 76 0 0 0 120 76 120 0 0 113 152 113 0 0 160 113 144 144 0 0 0 0 0 144 144 113 152 113 0 0 0 0 0 0 0 0 0 0 0 0 0 152 152 0 144 113 72 0 0 0 0 0 0 0 0 0 0 0 0 0 0 0 0 72 0 0 0 0 0 113 152 152 113 0 0 0 0 72 0 72 0 0 0 0 0 0 0 0 206 0 158 107 169 115 104 0 0 203 106 224 74 0 0 167 106 167 0 0 0 0 0 0 0 106 212 106 0 0 0 0 0 0 0 0 167 224 237 224 74 106 0 74 149 74 0 76 0 0 0 0 0 0 0 167 224 224 74 74 237 167 212 167 106 167 0 0 0 0 0 0 0 0 0 0 0 0 0 0 0 0 0 0 0 0 0 0 0 0 0 0 0 0 0 0 0 0 0 0 0 0 0 0 0 0 0 0 0 0 0 0 0 0 0 0 0 0 0 0 0 0 0 0 0 0 0 0 0 0 0 212 212 0 152 152 0 0 160 113 0 0 0 0 0 0 0 0 0 0 0 0 0 0 0 185 116 0 74 106 120 0 116 0 72 0 0 0 0 0 0 0 0 0 0 0 0 0 0 0 0 0 0 0 0 0 0 0 0 0 0 0 0 0 0 0 0 0 0 0 0 0 0 0 0 0 0 0 72 144 72 120 161 120 0 0 120 76 0 120 161 161 0 0 0 0 0 0 0 0 0 0 0 0 0 0 0 0 0 0 0 0 0 0 0 0 0 0 0 0 0 0 0 0 0 0 0 0 0 0 0 0 0 0 0 0 0 0 0 0 0 0 0 0 0 0 0 0 0 0 0 0 0 0 0 0 0 0 0 0 0 0 0 
0 0 0 0 0 106 106 74 167 167 106 167 224 167 0 106 0 106 0 0 0 0 0 0 0 0 76 152 76 0 0 0 160 113 0 0 0 0 0 113 113 160 144 113 113 72 0 0 0 0 0 0 0 0 0 0 0 0 0 0 0 0 0 0 0 0 0 0 0 0 0 0 0 0 0 0 0 0 0 0 0 0 0 0 0 0 0 0 0 0 0 107 0 0 76 0 0 107 0 120 152 120 0 107 0 76 152 152 151 0 0 116 0 0 212 0 167 224 252 130 0 0 0 161 169 169 161 0 120 76 0 0 0 0 0 107 0 76 0 152 160 113 0 0 72 144 0 160 113 0 0 0 0 0 144 144 0 101 113 72 0 0 0 0 0 0 0 0 0 0 0 152 152 0 113 152 113 0 0 0 0 0 0 0 0 0 0 0 0 0 0 0 0 72 0 0 0 0 0 0 144 113 160 113 0 0 0 113 72 113 0 0 0 0 0 0 0 0 206 0 158 107 161 0 0 233 184 0 149 167 74 74 106 74 212 74 237 74 0 0 0 0 0 74 149 167 106 0 0 0 0 0 0 0 0 74 167 167 74 106 167 217 0 211 152 169 120 107 76 0 0 0 0 0 74 167 167 149 149 167 106 212 167 106 167 0 0 0 0 0 0 0 0 0 0 0 0 0 0 0 0 0 0 0 0 0 0 0 0 0 0 0 0 0 0 0 0 0 0 0 0 0 0 0 0 0 0 0 0 0 0 0 0 0 0 0 0 0 0 0 0 0 0 0 0 0 0 0 0 0 212 212 0 152 152 0 113 160 0 0 0 0 0 0 72 0 0 0 0 0 0 0 72 0 144 0 0 0 106 0 0 234 0 0 0 0 0 0 0 0 0 0 0 0 0 0 0 0 0 0 0 0 0 0 0 0 0 0 0 0 0 0 0 0 0 0 0 0 0 0 0 0 0 0 0 0 0 72 144 116 169 120 0 0 76 0 0 107 0 152 76 0 0 0 0 0 0 0 0 0 0 0 0 0 0 0 0 0 0 0 0 0 0 0 0 0 0 0 0 0 0 0 0 0 0 0 0 0 0 0 0 0 0 0 0 0 0 0 0 0 0 0 0 0 0 0 0 0 0 0 0 0 0 0 0 0 0 0 0 0 0 0 
0 0 0 0 0 74 167 167 106 149 106 106 74 167 106 74 0 106 0 0 0 0 0 0 0 0 76 152 76 0 0 113 160 0 0 0 0 0 0 113 113 72 144 144 113 0 0 72 0 0 0 0 0 0 0 0 0 0 0 0 0 0 0 0 0 0 0 0 0 0 0 0 0 0 0 0 0 0 0 0 0 0 0 0 0 0 0 0 0 0 0 0 76 76 107 0 76 76 76 76 0 76 76 76 0 76 120 169 217 149 233 234 117 107 0 76 217 224 167 197 89 169 120 0 120 120 0 120 107 120 76 0 0 0 161 169 161 120 113 160 0 0 0 0 0 160 72 160 0 0 0 0 0 0 144 144 0 152 152 0 0 0 0 0 0 0 0 0 0 0 113 113 72 160 160 113 0 0 0 0 0 0 0 0 0 0 0 0 0 0 0 0 113 72 113 0 0 0 0 0 144 0 160 0 0 0 0 160 0 144 0 0 0 0 0 0 0 163 0 212 76 169 0 0 0 80 100 0 237 167 0 106 0 74 237 149 237 167 0 0 0 0 0 106 167 149 74 0 0 0 0 0 0 0 0 0 0 74 167 237 0 236 169 191 224 150 107 120 152 161 0 0 0 0 0 0 0 74 167 167 149 224 106 0 74 74 0 0 0 0 0 0 0 0 0 0 0 0 0 0 0 0 0 0 0 0 0 0 0 0 0 0 0 0 0 0 0 0 0 0 0 0 0 0 0 0 0 0 0 0 0 0 0 0 0 0 0 0 0 0 0 0 0 0 0 0 0 0 0 74 237 167 0 169 120 0 160 113 0 0 0 0 0 72 0 72 0 0 0 0 0 113 72 113 144 0 0 106 167 0 192 0 113 0 0 0 0 0 0 0 0 0 0 0 0 0 0 0 0 0 0 0 0 0 0 0 0 0 0 0 0 0 0 0 0 0 0 0 0 0 0 0 0 0 0 0 0 113 160 167 169 0 0 76 0 0 107 0 76 120 76 0 0 0 0 0 0 0 0 0 0 0 0 0 0 0 0 0 0 0 0 0 0 0 0 0 0 0 0 0 0 0 0 0 0 0 0 0 0 0 0 0 0 0 0 0 0 0 0 0 0 0 0 0 0 0 0 0 0 0 0 0 0 0 0 0 0 0 0 0 0 0 
0 0 0 74 167 212 212 106 149 167 167 74 106 0 106 106 106 74 0 0 0 0 0 0 0 0 0 169 120 0 0 113 113 0 0 0 0 0 0 0 152 152 72 113 113 0 113 72 101 72 0 0 0 0 0 0 0 0 0 0 0 0 0 0 0 0 0 113 113 0 0 0 0 0 0 0 0 0 0 0 0 0 0 0 0 0 0 0 0 0 0 0 0 0 0 120 120 0 76 0 120 76 76 120 139 223 139 120 190 197 0 0 0 0 192 152 236 240 77 0 167 107 120 76 0 0 0 120 107 120 76 0 0 76 120 107 120 191 160 113 0 0 0 0 113 152 0 144 0 0 0 0 0 0 144 185 115 185 0 0 0 0 0 0 0 0 0 0 0 0 113 113 160 113 0 0 0 0 0 0 0 0 0 0 0 0 0 0 0 0 0 0 144 0 144 0 0 0 0 0 160 0 144 0 0 0 113 113 113 113 0 0 0 0 0 0 104 0 0 0 152 152 0 0 236 137 148 224 149 74 74 74 74 149 224 74 212 212 0 0 0 0 0 74 237 167 0 0 0 0 0 0 0 0 0 0 74 224 0 0 0 0 185 113 0 72 0 76 76 161 169 152 152 152 152 152 152 120 0 0 74 167 237 167 74 106 0 0 0 0 0 0 0 0 0 0 0 0 0 0 0 0 0 0 0 0 0 0 0 0 0 0 0 0 0 0 0 0 0 0 0 0 0 0 0 0 0 0 0 0 0 0 0 0 0 0 0 0 0 0 0 0 0 0 0 0 0 74 167 237 224 128 161 161 104 152 152 0 0 0 0 0 0 0 72 0 0 0 0 0 0 144 0 144 144 0 108 74 237 167 169 146 160 0 0 0 0 0 0 0 0 0 0 0 0 0 0 0 0 0 0 0 0 0 0 0 0 0 0 0 0 0 0 0 0 0 0 0 0 0 0 0 0 0 0 0 0 160 113 152 152 0 0 0 76 120 0 107 76 107 0 0 0 0 0 0 0 0 0 0 0 0 0 0 0 0 0 0 0 0 0 0 0 0 0 0 0 0 0 0 0 0 0 0 0 0 0 0 0 0 0 0 0 0 0 0 0 0 0 0 0 0 0 0 0 0 0 0 0 0 0 0 0 0 0 0 0 0 0 0 0 0 
0 0 0 106 106 0 0 106 74 106 74 167 106 149 106 74 0 0 0 0 0 0 0 0 0 0 0 152 152 0 113 101 0 72 0 0 0 0 0 0 72 144 0 72 0 101 72 72 0 0 72 0 0 0 0 0 0 0 0 0 0 0 0 0 0 0 72 72 72 72 0 0 0 0 0 0 0 0 0 0 0 0 0 0 0 0 0 0 0 0 76 0 0 0 0 0 0 0 76 0 76 190 0 108 123 108 133 167 76 212 0 0 231 0 0 220 0 0 93 126 224 0 152 76 0 0 0 0 0 0 76 0 0 0 120 169 120 234 160 0 0 0 72 0 113 101 113 144 0 0 0 0 0 0 160 187 144 220 0 0 0 0 0 0 0 0 0 0 0 0 0 72 0 0 0 0 0 0 0 0 0 0 0 0 0 0 0 0 0 0 0 0 113 72 113 0 0 0 0 72 113 0 113 0 0 0 113 72 152 0 0 0 0 0 0 0 0 0 0 120 212 158 74 236 130 203 149 224 74 0 74 106 149 237 74 0 212 212 0 0 0 0 0 74 237 167 0 0 0 0 0 0 0 0 0 74 224 0 0 0 0 163 0 0 101 0 0 0 0 0 120 152 152 152 152 152 152 169 169 120 0 0 74 149 149 149 74 74 106 74 0 0 0 0 0 0 0 0 0 0 0 0 0 0 0 0 0 0 0 0 0 0 0 0 0 0 0 0 0 0 0 0 0 0 0 0 0 0 0 0 0 0 0 0 0 0 0 0 0 0 0 0 0 0 74 167 212 237 237 217 190 169 161 0 113 160 0 0 0 0 0 0 0 0 0 0 0 0 0 0 0 113 72 113 113 0 145 167 237 0 161 167 212 113 0 0 0 0 0 0 0 0 0 0 0 0 0 0 0 0 0 0 0 0 0 0 0 0 0 0 0 0 0 0 0 0 0 0 0 0 0 0 0 0 0 0 113 160 0 152 152 0 0 0 0 152 0 107 0 76 0 0 0 0 0 0 0 0 0 0 0 0 0 0 0 0 0 0 0 0 0 0 0 0 0 0 0 0 0 0 0 0 0 0 0 0 0 0 0 0 0 0 0 0 0 0 0 0 0 0 0 0 0 0 0 0 0 0 0 0 0 0 0 0 0 0 0 0 0 0 0 0 
0 0 0 74 167 212 212 167 74 0 0 167 106 74 0 74 106 74 0 0 0 0 0 0 0 0 0 152 152 0 113 113 0 0 0 0 0 0 72 0 72 113 72 0 0 101 72 72 72 72 0 0 0 0 0 0 0 0 0 0 0 0 0 0 0 0 0 113 113 0 0 0 0 0 0 0 0 0 0 0 0 0 0 0 0 0 0 0 0 76 0 76 0 0 0 0 0 0 76 0 0 80 80 212 106 74 197 130 76 0 206 113 0 0 113 144 185 220 185 213 0 0 161 169 152 120 107 76 76 76 0 0 0 0 0 146 220 206 113 0 0 113 72 72 160 101 160 113 0 0 0 0 0 113 160 74 162 185 0 0 0 0 0 0 0 0 0 0 0 0 0 0 0 0 0 0 0 0 0 0 0 0 0 0 0 0 0 0 0 0 0 0 0 72 0 0 0 0 0 72 0 0 0 113 0 113 0 113 0 0 0 0 0 0 0 206 0 117 161 169 158 0 218 0 0 106 237 0 74 74 106 167 167 167 0 0 212 212 0 0 0 0 0 167 237 74 0 0 0 0 0 0 0 0 74 224 0 0 0 163 0 113 160 163 167 120 0 0 0 0 0 0 0 0 0 113 113 104 120 169 169 152 120 128 167 237 237 167 74 106 0 0 0 0 0 0 0 0 0 0 0 0 0 0 0 0 0 0 0 0 0 0 0 0 0 0 0 0 0 0 0 0 0 0 0 0 0 0 0 0 0 0 0 0 0 0 0 0 0 0 0 0 0 74 224 237 212 167 74 76 120 107 0 0 144 144 0 0 0 0 0 0 0 0 0 0 0 0 0 0 0 0 72 0 0 0 194 0 224 197 120 161 0 144 0 0 0 0 0 0 0 0 0 0 0 0 0 0 0 0 0 0 0 0 0 0 0 0 0 0 0 0 0 0 0 0 0 0 0 0 0 0 0 0 0 0 144 144 0 169 120 0 0 0 0 152 76 120 107 0 0 0 0 0 0 0 0 0 0 0 0 0 0 0 0 0 0 0 0 0 0 0 0 0 0 0 0 0 0 0 0 0 0 0 0 0 0 0 0 0 0 0 0 0 0 0 0 0 0 0 0 0 0 0 0 0 0 0 0 0 0 0 0 0 0 0 0 0 0 0 0 0 
0 0 0 0 0 0 0 0 0 0 0 74 74 0 74 106 106 167 0 0 0 0 0 0 0 0 0 152 152 0 0 152 152 0 0 0 0 72 0 72 0 101 0 0 0 0 101 113 0 0 0 0 0 0 0 0 0 0 0 0 0 0 0 0 0 0 0 0 0 0 0 0 0 0 0 0 0 0 0 0 0 0 0 0 0 0 0 0 76 0 76 0 0 0 0 0 120 120 0 0 0 115 252 74 0 148 172 97 0 0 113 0 0 0 0 0 0 0 0 0 0 0 92 0 108 80 139 0 120 0 0 0 0 0 113 152 144 113 0 0 0 144 0 113 113 72 152 0 0 0 0 0 0 144 144 0 144 144 0 0 0 0 0 0 0 0 0 0 0 0 0 0 0 0 0 0 0 0 0 0 0 0 0 0 0 0 0 0 0 0 0 0 72 0 0 0 0 0 0 113 72 0 0 144 0 144 0 144 0 0 0 0 0 0 163 0 212 76 169 0 0 158 0 217 149 224 167 106 74 167 224 149 106 74 0 74 237 167 0 0 0 0 74 237 167 0 0 0 0 0 0 0 74 167 0 80 242 218 113 234 0 0 191 169 169 169 161 0 0 0 0 0 0 0 113 152 160 160 113 104 120 152 169 169 152 211 0 217 149 167 167 74 0 0 0 0 0 0 0 0 0 0 0 0 0 0 0 0 0 0 0 0 0 0 0 0 0 0 0 0 0 0 0 0 0 0 0 0 0 0 0 0 0 0 0 0 0 0 0 0 0 74 167 237 224 74 0 120 152 120 120 76 0 0 144 144 0 0 0 0 0 0 0 0 0 0 0 0 0 0 0 0 0 0 0 185 116 0 74 106 0 152 0 144 0 0 0 0 0 0 0 0 0 0 0 0 0 0 0 0 0 0 0 0 0 0 0 0 0 0 0 0 0 0 0 0 0 0 0 0 0 0 0 0 0 0 144 144 120 169 0 0 0 120 152 161 0 152 76 0 0 0 0 0 0 0 0 0 0 0 0 0 0 0 0 0 0 0 0 0 0 0 0 0 0 0 0 0 0 0 0 0 0 0 0 0 0 0 0 0 0 0 0 0 0 0 0 0 0 0 0 0 0 0 0 0 0 0 0 0 0 0 0 0 0 0 0 0 0 0 0 0 
0 0 0 0 0 0 0 0 0 0 0 0 167 106 167 167 106 167 0 0 0 0 0 0 0 0 0 152 152 0 0 0 160 113 0 0 0 72 0 101 0 72 113 113 144 113 0 72 0 72 0 0 0 0 0 0 0 0 0 0 0 0 0 0 0 0 0 0 0 0 0 0 0 0 0 0 0 0 0 0 0 0 0 0 0 0 0 76 0 76 0 0 0 0 0 76 120 107 76 76 120 108 212 167 100 85 0 0 0 163 0 0 0 0 0 0 0 0 0 0 235 120 197 224 212 0 0 120 0 0 0 113 113 0 144 144 0 0 0 0 0 113 72 0 0 113 0 0 0 0 0 0 0 144 144 0 162 185 0 0 0 0 0 0 0 0 0 0 0 0 0 0 0 0 0 0 0 0 0 0 0 0 0 0 0 0 0 0 0 0 0 113 113 160 113 0 0 0 0 113 72 0 0 144 0 144 0 144 0 0 0 0 0 0 0 0 0 169 167 72 74 242 80 106 149 167 74 74 167 149 167 74 0 0 0 167 237 74 0 0 0 0 167 237 74 0 0 0 0 0 0 74 224 237 0 236 76 117 0 0 191 152 152 120 0 0 161 169 152 152 120 0 0 0 113 160 0 113 160 160 144 144 185 0 0 191 169 236 217 212 237 237 167 74 0 0 0 0 0 0 0 0 74 106 74 0 0 0 0 0 0 0 0 0 0 0 0 0 0 0 0 0 0 0 0 0 0 0 0 0 0 0 0 0 0 0 0 74 167 212 212 237 237 217 190 152 169 218 224 224 189 116 113 144 152 113 0 0 0 72 0 0 0 0 0 0 0 0 0 0 0 0 0 0 0 144 0 0 0 106 0 120 0 185 0 0 0 0 0 0 0 0 0 0 0 0 0 0 0 0 0 0 0 0 0 0 0 0 0 0 0 0 0 0 0 0 0 72 0 0 0 0 0 0 0 0 160 113 152 152 0 0 76 120 76 0 76 120 76 0 0 0 0 0 0 0 0 0 0 0 0 0 0 0 0 0 0 0 0 0 0 0 0 0 0 0 0 0 0 0 0 0 0 0 0 0 0 0 0 0 0 0 0 0 0 0 0 0 0 0 0 0 0 0 0 0 0 0 0 0 0 0 0 0 0 0 0 0 0 0 0 0 
0 0 0 0 0 0 74 106 106 106 106 106 106 106 167 74 106 74 0 0 0 0 0 0 0 0 0 152 152 0 0 72 113 144 0 0 0 113 101 113 72 72 113 113 113 0 113 113 72 72 113 0 0 0 0 0 0 0 0 0 0 0 0 0 0 0 0 0 0 0 0 0 0 0 0 0 0 0 0 0 0 0 0 0 0 0 0 0 76 0 0 0 76 0 0 0 161 120 120 0 152 108 212 212 72 0 212 0 0 0 0 0 0 0 0 0 0 113 212 206 74 120 240 224 212 224 0 152 0 0 152 160 160 160 152 113 0 0 0 0 0 0 0 113 0 144 0 0 0 0 0 0 0 113 113 150 162 0 0 0 0 0 0 0 0 0 0 0 0 0 0 0 0 0 0 0 0 0 0 0 0 0 0 0 0 0 0 0 0 0 0 113 113 72 152 113 0 0 0 0 72 113 0 160 0 113 72 113 0 0 0 0 0 206 0 167 120 169 116 0 0 130 203 167 167 0 74 167 224 167 0 0 0 0 74 237 167 0 0 0 0 0 212 212 0 0 0 0 0 0 74 224 0 190 107 107 169 169 120 0 0 0 0 0 0 0 0 120 152 152 169 169 152 120 104 152 160 113 0 101 72 113 144 144 160 152 104 161 169 152 190 217 237 237 167 74 0 0 0 0 0 0 167 106 167 0 0 0 0 0 0 0 0 0 0 0 0 0 0 0 0 0 0 0 0 0 0 0 0 0 0 0 0 0 0 74 167 237 237 252 72 0 211 169 218 0 0 212 144 144 113 72 152 144 113 0 113 144 160 144 152 0 0 0 0 0 0 0 0 0 0 0 0 0 0 144 97 0 74 106 76 0 215 0 0 0 0 0 0 0 0 0 0 0 0 0 0 0 0 0 0 0 0 0 0 0 0 0 0 0 0 0 0 0 0 0 72 0 72 0 0 0 0 0 0 113 160 104 169 120 0 0 76 152 0 120 120 120 0 0 0 0 0 0 0 0 0 0 0 0 0 0 0 0 0 0 0 0 0 0 0 0 0 0 0 0 0 0 0 0 0 0 0 0 0 0 0 0 0 0 0 0 0 0 0 0 0 0 0 0 0 0 0 0 0 0 0 0 0 0 0 0 0 0 0 0 0 0 0 0 0 0 
0 0 0 0 0 0 106 0 74 106 106 167 149 0 74 106 106 74 0 0 0 0 0 0 0 0 0 169 120 0 72 0 101 113 0 0 0 113 113 152 0 113 101 72 113 152 0 0 113 72 113 0 0 0 0 0 0 0 0 0 0 0 0 0 0 0 0 0 0 0 0 0 0 0 0 0 0 0 0 0 0 0 0 0 0 0 0 0 0 0 0 76 0 76 0 0 0 0 76 120 120 0 224 224 197 212 0 163 0 0 0 0 0 0 0 0 72 113 164 0 0 169 74 0 180 91 236 120 0 152 152 0 0 113 113 0 0 0 0 0 113 113 101 113 113 113 0 0 0 0 0 0 101 0 101 234 115 0 0 0 0 0 0 0 0 0 0 0 0 0 0 0 0 0 0 0 0 0 0 0 0 0 0 0 0 0 0 0 0 0 0 0 152 152 72 160 0 0 0 72 0 113 113 113 113 0 72 0 0 0 0 0 163 136 0 74 169 120 74 0 180 203 149 224 74 0 167 224 167 74 0 0 0 0 167 237 74 0 0 0 0 74 237 167 0 0 0 0 0 74 224 0 236 169 107 107 120 0 0 0 0 0 0 0 0 0 0 0 0 0 0 120 152 169 161 104 113 160 160 160 144 152 0 0 0 152 160 185 0 0 218 169 190 217 237 224 74 74 167 212 212 167 106 106 167 0 0 0 0 0 0 0 0 0 0 0 0 0 0 0 0 0 0 0 0 0 0 0 0 0 0 0 74 167 212 237 237 217 190 169 169 191 224 189 206 113 72 0 0 0 113 116 213 185 144 160 160 144 113 72 160 113 0 0 0 0 0 0 0 0 0 0 0 0 0 144 202 0 167 106 76 0 118 0 113 0 0 0 0 0 0 0 0 0 0 0 0 0 0 0 0 0 0 0 0 0 0 0 0 0 0 0 0 0 0 0 0 72 0 0 0 0 0 0 0 144 144 120 169 0 0 0 76 120 76 120 76 0 0 0 0 0 0 0 0 0 0 0 0 0 0 0 0 0 0 0 0 0 0 0 0 0 0 0 0 0 0 0 0 0 0 0 0 0 0 0 0 0 0 0 0 0 0 0 0 0 0 0 0 0 0 0 0 0 0 0 0 0 0 0 0 0 0 0 0 0 0 0 0 0 0 0 
0 0 0 0 0 0 74 106 149 106 106 167 167 106 106 106 106 167 0 0 0 0 0 0 0 0 76 152 76 0 72 72 72 72 0 0 0 0 72 0 0 113 101 113 0 144 72 0 0 72 0 0 0 0 0 0 0 0 0 0 0 0 0 0 0 0 0 0 0 0 0 0 0 0 0 0 0 0 0 0 0 0 0 0 0 0 0 0 0 0 0 76 0 76 0 76 76 161 169 169 120 167 197 240 92 0 0 0 113 0 0 0 0 0 0 0 0 152 206 117 120 152 120 0 0 0 222 74 113 160 0 0 0 113 113 0 0 0 0 152 113 113 0 113 152 0 0 0 0 0 0 152 72 113 101 231 0 231 113 0 0 0 0 0 0 0 0 0 0 0 0 0 0 0 0 0 0 0 0 0 0 0 0 0 0 0 0 0 0 0 0 0 0 152 113 72 101 72 152 113 113 0 160 0 144 0 0 0 0 0 0 0 95 170 92 223 169 0 120 80 0 106 237 74 0 74 237 167 0 0 0 0 0 74 237 167 0 0 0 0 74 224 224 74 0 0 0 74 167 0 80 242 107 76 161 120 0 0 0 0 0 0 0 0 120 120 0 0 0 0 0 0 0 0 161 169 152 167 163 113 72 152 160 144 113 0 113 144 144 160 212 234 218 161 128 224 224 149 224 212 212 224 106 74 74 74 0 0 0 0 0 0 0 0 0 0 0 0 0 0 0 0 0 0 0 0 0 0 0 0 0 74 224 237 212 217 190 169 218 234 185 113 0 0 113 113 144 144 144 144 206 218 0 0 0 146 0 0 0 0 144 144 0 0 0 0 0 0 0 0 0 0 0 0 0 144 202 0 167 106 76 120 107 185 144 0 0 0 0 0 0 0 0 0 0 0 0 0 0 0 0 0 0 0 0 0 0 0 0 0 0 0 0 0 0 0 0 0 0 0 0 0 0 0 0 144 185 169 120 0 0 0 76 76 0 107 0 0 0 0 0 0 0 0 0 0 0 0 0 0 0 0 0 0 0 0 0 0 0 0 0 0 0 0 0 0 0 0 0 0 0 0 0 0 0 0 0 0 0 0 0 0 0 0 0 0 0 0 0 0 0 0 0 0 0 0 0 0 0 0 0 0 0 0 0 0 0 0 0 0 0 0 
0 0 0 0 0 0 0 0 74 74 0 167 74 74 106 74 0 212 0 0 0 0 0 0 0 0 0 169 120 0 72 72 72 72 0 0 0 0 0 0 0 0 101 0 113 152 0 0 0 0 0 0 0 0 0 0 0 0 0 0 0 0 0 0 0 0 0 0 0 0 0 0 0 0 0 0 0 0 0 0 0 0 0 0 0 0 0 0 0 0 0 76 0 76 76 0 120 161 0 0 76 0 76 0 76 0 191 235 113 72 0 0 0 0 0 0 0 72 144 72 120 161 161 222 101 0 101 101 160 113 0 0 113 101 113 72 0 0 113 113 101 152 72 72 0 0 0 0 0 0 113 113 113 113 0 0 115 0 144 0 0 0 0 0 0 0 0 0 0 0 0 0 0 0 0 0 0 0 0 0 0 0 0 0 0 0 0 0 0 0 0 0 0 0 113 113 0 163 213 163 144 0 144 0 160 0 0 0 0 0 0 163 172 204 149 211 152 0 242 100 106 237 167 0 0 167 237 74 0 0 0 0 0 167 237 74 0 0 74 106 149 237 74 0 0 0 74 224 0 0 242 120 76 161 120 0 76 0 0 0 0 0 0 76 120 120 161 0 0 0 0 0 0 0 0 76 152 161 120 0 0 0 113 144 160 160 144 144 144 72 0 113 116 169 120 74 237 74 212 0 0 167 237 74 74 167 167 74 0 0 0 0 0 0 0 0 0 0 0 0 0 0 0 0 0 0 0 0 0 74 106 149 237 74 0 161 169 120 163 101 0 0 155 148 163 113 72 116 148 116 167 169 0 76 76 76 0 0 0 0 160 113 0 0 0 0 0 0 0 0 0 0 0 0 0 144 97 0 74 167 0 169 120 144 144 0 0 0 0 0 0 0 0 0 0 0 0 0 0 0 0 0 0 0 0 0 0 0 0 0 0 0 0 0 0 0 0 0 0 0 0 0 0 0 0 160 234 169 0 0 0 76 107 161 161 120 0 0 0 0 0 0 0 0 0 0 0 0 0 0 0 0 0 0 0 0 0 0 0 0 0 0 0 0 0 0 0 0 0 0 0 0 0 0 0 0 0 0 0 0 0 0 0 0 0 0 0 0 0 0 0 0 0 0 0 0 0 0 0 0 0 0 0 0 0 0 0 0 0 0 0 0 
0 0 74 106 74 74 167 212 212 167 74 74 106 149 74 167 74 212 0 0 0 0 0 0 0 0 0 152 152 0 72 113 101 0 0 0 0 0 0 0 0 113 113 0 72 72 0 0 0 0 0 0 0 0 0 0 0 0 0 0 0 0 0 0 0 0 0 0 0 0 0 0 0 0 0 0 0 0 0 0 0 0 0 0 0 0 0 0 0 0 0 76 0 0 107 107 107 0 0 0 0 0 0 76 0 0 218 0 152 0 0 0 0 0 0 0 0 72 185 104 0 107 0 148 72 72 72 72 113 101 0 0 113 113 152 0 0 0 144 0 160 0 0 0 0 0 0 0 0 0 113 72 152 0 0 0 185 234 212 0 0 0 0 0 0 0 0 0 0 0 0 0 0 0 0 0 0 72 0 0 0 0 0 0 0 0 0 0 0 0 0 0 0 0 0 0 101 187 116 232 185 0 113 101 113 72 0 0 0 0 104 0 0 106 190 161 76 236 130 203 149 149 74 106 106 167 212 0 0 0 0 0 74 237 167 0 0 0 167 167 167 167 0 0 0 74 224 0 236 161 0 120 161 120 0 76 0 76 0 0 0 0 0 0 169 117 218 212 0 0 0 0 0 120 76 120 0 169 120 0 0 0 0 0 0 113 144 144 144 160 144 152 0 120 161 120 217 106 167 0 0 74 224 167 149 167 237 224 74 0 0 0 0 0 0 0 0 0 0 0 0 0 0 0 0 0 0 74 106 149 167 167 167 0 161 161 0 0 113 113 212 234 218 120 120 0 0 76 0 76 120 161 169 169 167 163 113 0 0 152 152 0 0 0 0 0 0 0 0 0 0 0 0 0 0 144 0 108 0 212 0 169 120 144 144 0 0 0 0 0 0 0 0 0 0 0 0 0 0 0 0 0 0 0 0 0 0 0 0 0 0 0 0 0 0 0 0 0 0 0 0 0 0 0 152 152 191 152 0 0 76 0 76 120 169 120 0 0 0 0 0 0 0 0 0 0 0 0 0 0 0 0 0 0 0 0 0 0 0 0 0 0 0 0 0 0 0 0 0 0 0 0 0 0 0 0 0 0 0 0 0 0 0 0 0 0 0 0 0 0 0 0 0 0 0 0 0 0 0 0 0 0 0 0 0 0 0 0 0 0 0 0 
0 0 106 0 106 106 167 106 74 74 149 106 106 74 106 167 149 167 0 0 0 0 0 0 0 0 0 152 152 0 72 144 72 0 0 0 0 0 0 0 101 0 0 72 113 72 0 0 0 0 0 0 0 0 0 0 0 0 0 0 0 0 0 0 0 0 0 0 0 0 0 0 0 0 0 0 0 0 0 0 0 0 0 0 0 0 0 0 0 0 0 76 0 120 169 120 0 0 0 0 0 0 0 0 0 77 0 220 72 0 0 113 144 113 0 0 0 0 231 113 76 120 120 218 146 101 101 113 72 160 152 0 0 72 0 0 0 0 160 72 152 113 0 0 0 0 0 0 0 152 72 113 0 0 0 185 0 104 0 113 0 104 148 104 0 0 0 72 0 0 0 0 0 0 0 0 113 113 160 113 0 0 0 0 0 0 0 0 0 0 0 0 0 0 0 0 0 206 0 155 187 0 0 113 113 0 0 0 0 0 0 0 0 161 169 76 182 130 0 106 237 74 0 0 74 149 167 0 0 0 0 0 167 237 74 0 0 0 167 167 74 74 0 0 74 0 80 242 161 0 76 76 0 107 0 76 0 76 0 0 0 0 0 0 169 234 116 0 120 0 0 0 120 161 0 152 120 169 0 0 0 120 120 0 0 0 0 0 0 0 72 0 0 0 107 120 139 106 74 0 0 0 74 167 167 74 74 224 237 167 74 0 0 0 0 0 0 0 0 0 0 0 0 0 0 0 0 106 74 149 149 106 74 120 169 0 120 120 104 72 117 76 0 107 120 0 0 74 148 74 0 120 120 0 113 152 152 101 152 152 0 0 0 0 0 0 0 0 0 0 0 0 0 0 0 144 0 108 0 212 120 169 0 113 160 0 0 0 0 0 0 0 0 0 0 0 0 0 0 0 0 0 0 0 0 0 0 0 0 0 0 0 0 0 0 0 0 0 0 0 0 0 0 113 160 104 169 120 0 0 0 0 120 0 169 0 0 0 0 0 0 0 0 0 0 0 0 0 0 0 0 0 0 0 0 0 0 0 0 0 0 0 0 0 0 0 0 0 0 0 0 0 0 0 0 0 0 0 0 0 0 0 0 0 0 0 0 0 0 0 0 0 0 0 0 0 0 0 0 0 0 0 0 0 0 0 0 0 0 0 0 0 
0 0 74 106 74 74 237 106 224 167 74 0 0 74 149 0 74 74 74 0 0 0 0 0 0 0 0 169 120 0 0 152 152 0 0 0 0 0 0 101 0 0 0 113 152 0 0 0 0 0 0 0 0 0 0 0 0 0 0 0 0 0 0 0 0 0 0 0 0 0 0 0 0 0 0 0 0 0 0 0 0 0 0 0 0 0 0 0 0 0 0 76 120 107 0 0 0 0 0 0 0 0 0 76 167 217 180 132 206 0 113 0 109 95 206 0 0 0 185 115 0 152 120 212 0 206 0 152 160 113 113 72 0 0 0 0 0 113 160 72 113 152 113 0 0 0 0 0 152 152 113 144 0 0 0 113 0 104 0 185 0 148 0 148 0 0 72 0 72 0 0 0 0 0 0 0 144 113 113 152 113 0 0 0 0 0 0 0 0 0 0 0 0 0 0 0 0 0 163 187 0 101 0 0 0 0 0 0 0 206 0 117 161 161 0 236 130 0 0 237 167 74 106 74 167 149 74 0 0 0 0 0 212 212 0 0 0 74 149 167 106 0 0 74 0 180 0 150 0 0 0 120 152 169 169 169 152 169 152 152 152 152 152 169 212 212 72 0 218 0 0 161 218 234 215 212 161 120 0 0 120 161 161 120 0 0 76 0 0 0 0 0 0 0 120 169 0 0 0 0 0 0 0 0 0 0 0 74 149 167 106 0 0 0 0 0 0 0 0 0 0 0 0 0 0 0 0 74 167 167 74 0 0 120 169 107 161 161 120 0 0 120 152 167 163 144 144 160 144 160 144 144 144 144 152 113 113 113 152 0 0 0 0 0 0 0 0 0 0 0 0 0 0 0 0 144 0 108 0 212 152 152 0 0 160 113 0 0 0 0 0 0 0 0 0 0 0 0 0 0 0 0 0 0 0 0 0 0 0 0 0 0 0 0 0 0 0 0 0 0 0 0 0 144 144 120 169 0 0 0 0 120 169 120 152 0 0 0 0 0 0 0 0 0 0 0 0 0 0 0 0 0 0 0 0 0 0 0 0 0 0 0 0 0 0 0 0 0 0 0 0 0 0 0 0 0 0 0 0 0 0 0 0 0 0 0 0 0 0 0 0 0 0 0 0 0 0 0 0 0 0 0 0 0 0 0 0 0 0 0 0 0 
0 0 0 74 167 167 167 0 212 0 0 0 74 224 237 224 106 106 167 0 0 0 0 0 0 0 76 152 76 0 0 72 144 72 0 0 0 0 72 0 72 72 113 113 0 0 0 0 0 0 0 0 0 0 0 0 0 0 0 0 0 0 0 0 0 0 0 0 0 0 0 0 0 0 0 0 0 0 0 0 0 0 0 0 0 0 0 0 0 0 0 120 169 0 0 0 0 0 0 0 0 0 0 0 225 217 0 187 250 191 199 80 161 0 0 0 185 160 152 0 0 120 169 0 212 0 206 0 72 0 101 0 0 0 0 0 0 144 144 0 113 152 113 0 0 0 0 152 152 0 144 144 0 0 0 0 206 0 116 231 0 104 148 104 0 0 0 0 0 0 0 0 0 0 0 0 144 144 0 113 160 0 0 0 0 0 0 0 0 0 0 0 0 0 0 0 0 0 0 0 101 0 101 0 0 0 0 0 163 0 212 76 169 0 190 133 0 0 224 224 74 0 0 167 237 74 0 0 0 0 0 0 167 237 74 0 0 106 167 149 74 74 167 0 180 81 74 72 0 0 0 0 0 0 120 120 76 120 152 152 152 152 152 167 206 152 72 212 0 169 169 161 163 152 212 0 189 163 113 0 152 152 152 152 0 161 152 169 120 0 0 76 0 0 152 152 0 0 0 0 0 0 0 0 0 0 0 0 167 237 74 0 0 0 0 0 0 0 0 0 0 0 0 0 0 0 0 74 237 167 0 0 0 76 152 0 161 161 167 113 144 144 144 160 160 144 144 113 72 113 144 144 144 144 113 0 0 72 0 0 0 0 0 0 0 0 0 0 0 0 0 0 0 0 0 113 0 145 74 237 211 152 0 0 144 144 0 0 0 0 0 0 0 0 0 0 0 0 0 0 0 0 0 0 0 0 0 0 0 0 0 0 0 0 0 0 0 0 0 0 0 0 0 144 144 152 152 0 0 0 0 152 120 169 120 0 0 0 0 0 0 0 0 0 0 0 0 0 0 0 0 0 0 0 0 0 0 0 0 0 0 0 0 0 0 0 0 0 0 0 0 0 0 0 0 0 0 0 0 0 0 0 0 0 0 0 0 0 0 0 0 0 0 0 0 0 0 0 0 0 0 0 0 0 0 0 0 0 0 0 0 0 
0 106 106 224 167 149 149 74 212 0 0 0 106 212 106 212 0 0 212 0 0 0 0 0 0 0 76 152 76 0 0 72 144 72 0 0 0 0 0 72 72 152 160 113 0 0 0 0 0 0 0 0 0 0 0 0 0 0 0 0 0 0 0 0 0 0 0 0 0 0 0 0 0 0 0 0 0 0 0 0 0 0 0 0 0 0 0 0 0 120 152 161 120 0 0 0 0 0 0 0 0 0 0 0 167 237 0 217 113 243 138 106 109 148 167 0 0 0 150 74 72 104 161 169 120 189 220 0 72 72 72 0 0 0 0 113 144 152 113 113 152 113 0 0 0 0 72 144 72 0 160 113 0 0 0 0 0 206 164 146 113 0 0 0 0 72 0 101 0 0 0 0 0 0 0 0 113 152 113 0 160 113 0 0 0 0 0 0 0 0 0 0 0 0 0 0 0 0 0 0 0 101 0 72 0 0 0 0 0 0 0 169 120 0 80 100 0 224 224 74 0 74 167 224 167 0 0 0 0 0 0 0 74 237 149 106 106 149 167 106 74 224 0 113 81 0 101 0 0 0 0 0 0 0 0 0 113 144 144 144 144 144 144 160 152 0 0 113 206 0 0 185 152 113 0 152 144 160 152 113 152 120 169 120 120 169 76 120 161 107 161 152 161 76 169 120 0 0 0 0 0 0 0 0 0 0 0 0 212 212 0 0 0 0 0 0 0 0 0 0 0 0 0 0 0 0 74 224 224 74 0 120 152 169 161 117 222 0 212 160 144 144 144 113 0 0 0 0 0 0 0 0 0 0 0 0 0 0 0 0 0 0 0 0 0 0 0 0 0 0 0 0 0 0 0 0 0 172 149 167 223 169 0 0 144 144 0 0 0 0 0 0 72 0 0 0 0 0 0 0 0 0 0 0 0 0 0 0 0 0 0 0 0 0 0 0 0 0 0 0 0 0 0 160 113 152 152 0 0 0 0 152 0 169 0 0 0 0 0 0 0 0 0 0 0 0 0 0 0 0 0 0 0 0 0 0 0 0 0 0 0 0 0 0 0 0 0 0 0 0 0 0 0 0 0 0 0 0 0 0 0 0 0 0 0 0 0 0 0 0 0 0 0 0 0 0 0 0 0 0 0 0 0 0 0 0 0 0 0 0 0 0 
0 0 0 212 74 74 167 167 212 0 0 0 74 237 167 212 74 106 167 0 0 0 0 0 0 0 76 152 76 0 0 72 144 72 0 0 0 0 0 0 0 0 113 160 152 0 0 0 0 0 0 0 0 0 0 0 0 0 0 0 0 0 0 0 0 0 0 0 0 0 0 0 0 0 0 0 0 0 0 0 0 0 0 0 0 0 0 0 161 169 152 120 0 0 0 0 0 0 0 0 0 0 0 0 74 224 237 212 212 231 109 0 159 167 0 76 76 0 155 206 144 160 185 0 0 0 206 72 113 113 0 0 0 0 72 113 113 113 0 160 113 0 0 0 0 0 0 160 113 113 160 0 0 0 0 0 0 0 160 0 144 0 0 0 0 0 113 0 113 0 0 0 0 0 0 0 0 113 152 113 113 160 0 0 0 0 0 0 0 0 0 0 0 0 0 0 0 0 0 0 0 0 72 0 0 0 0 206 0 117 161 161 0 236 137 148 224 224 74 0 0 167 224 167 74 0 0 0 0 0 0 74 167 149 74 74 74 224 167 0 224 0 0 0 0 101 0 0 0 0 0 113 144 144 144 160 160 144 144 144 144 144 144 113 0 0 0 0 113 144 144 144 113 0 0 0 72 0 113 160 167 120 161 0 169 120 0 0 120 120 161 76 161 152 161 0 0 0 0 0 0 0 0 0 0 0 0 0 212 212 0 0 0 0 0 0 0 0 0 0 0 0 0 0 0 0 167 237 128 120 169 218 0 0 185 160 160 144 113 0 0 0 0 0 0 0 0 0 0 0 0 0 0 0 0 0 0 0 0 0 0 0 0 0 0 0 0 0 0 0 0 0 0 0 0 0 0 97 149 74 148 169 120 0 144 144 0 0 0 0 0 72 0 72 0 0 0 0 0 0 0 0 0 0 0 0 0 0 0 0 0 0 0 0 0 0 0 0 0 0 0 0 113 160 104 169 120 0 0 0 0 169 0 152 0 0 0 0 0 0 0 0 0 0 0 0 0 0 0 0 0 0 0 0 0 0 0 0 0 0 0 0 0 0 0 0 0 0 0 0 0 0 0 0 0 0 0 0 0 0 0 0 0 0 0 0 0 0 0 0 0 0 0 0 0 0 0 0 0 0 0 0 0 0 0 0 0 0 0 0 0 0 
0 106 106 224 167 106 224 224 106 167 212 167 106 237 167 212 167 106 74 0 0 0 0 0 0 0 0 169 120 0 0 72 144 72 0 0 0 0 0 0 72 0 0 101 113 72 0 0 0 0 0 0 0 0 0 0 0 0 0 0 0 0 0 0 0 0 0 0 0 0 0 0 0 0 0 0 0 0 0 0 0 0 0 0 0 0 120 169 161 0 0 0 0 0 0 0 0 0 0 0 0 0 0 0 0 74 167 252 72 0 0 80 197 167 0 212 0 0 0 163 72 113 144 144 144 113 0 0 0 0 0 0 0 0 0 160 113 0 113 160 0 0 0 72 72 72 0 144 144 144 144 0 0 0 0 0 0 0 113 0 113 0 0 0 0 0 144 0 144 0 0 0 0 0 0 0 0 0 144 144 0 152 152 0 0 0 0 0 0 0 0 0 0 0 0 0 0 0 0 0 0 0 0 0 0 0 163 136 0 139 169 0 120 80 0 106 237 0 167 167 74 212 212 0 0 0 0 0 0 0 0 106 167 74 0 106 167 167 74 0 80 0 0 116 113 0 0 0 0 113 160 160 144 144 144 113 0 0 0 0 0 0 0 0 0 0 0 0 0 0 0 0 0 0 0 0 0 0 0 152 212 220 146 150 169 0 0 0 0 76 0 0 0 76 0 0 0 0 0 0 0 0 0 0 0 0 0 74 237 167 0 0 0 0 0 0 0 0 0 0 0 0 0 0 0 74 237 167 120 161 167 206 160 144 144 113 0 0 0 0 0 0 0 0 0 0 0 0 0 0 0 0 0 0 0 0 0 0 0 0 0 0 0 0 0 0 0 0 0 0 0 0 0 0 0 0 0 0 167 106 167 152 152 0 113 160 0 0 0 0 0 0 72 0 0 0 0 0 0 0 0 0 0 0 0 0 0 0 0 0 0 0 0 0 0 0 0 0 0 0 0 0 144 185 161 161 0 0 0 0 76 120 107 120 0 0 0 0 0 0 0 0 0 0 0 0 0 0 0 0 0 0 0 0 0 0 0 0 0 0 0 0 0 0 0 0 0 0 0 0 0 0 0 0 0 0 0 0 0 0 0 0 0 0 0 0 0 0 0 0 0 0 0 0 0 0 0 0 0 0 0 0 0 0 0 0 0 0 0 0 0 0 
0 0 0 74 106 106 167 167 74 106 0 106 0 167 167 224 167 0 74 106 74 0 0 0 0 0 0 120 169 0 0 72 144 72 0 0 0 0 0 72 0 72 113 152 113 0 0 0 0 0 0 0 0 0 0 0 0 0 0 0 0 0 0 0 0 0 0 0 0 0 0 0 0 0 0 0 0 0 0 0 0 0 120 152 152 169 242 223 74 120 120 0 0 0 0 0 0 0 0 0 0 0 0 0 0 0 0 120 161 152 152 242 247 92 120 236 163 101 0 0 0 0 0 0 0 0 0 0 0 0 0 0 0 0 113 152 113 0 160 113 0 0 72 0 0 72 113 144 144 144 144 0 0 0 0 0 0 72 0 101 0 101 0 0 0 0 144 0 144 0 0 0 0 0 0 0 0 0 113 160 74 117 206 160 113 0 0 0 0 0 0 0 0 0 0 0 0 0 0 0 0 0 0 0 0 0 95 170 74 0 120 0 242 100 106 237 167 167 224 224 149 237 167 0 0 0 0 0 0 0 0 74 224 106 74 0 237 0 0 180 97 0 206 101 152 144 144 144 160 160 113 0 0 0 0 0 0 0 0 0 0 0 0 0 0 0 0 0 0 0 0 0 0 0 0 0 0 0 0 0 113 144 160 0 212 120 0 0 0 0 0 0 0 0 0 0 0 0 0 0 0 0 0 0 0 0 0 106 167 149 74 0 0 0 0 0 0 0 0 0 0 0 0 0 74 224 0 190 161 167 152 152 0 0 0 0 0 0 0 0 0 0 0 0 0 0 0 0 0 0 0 0 0 0 0 0 0 0 0 0 0 0 0 0 0 0 0 0 0 0 0 0 0 0 0 0 0 0 212 0 212 152 152 0 72 144 72 0 0 0 0 0 0 0 0 0 0 0 0 0 0 0 0 0 0 0 0 0 0 0 0 0 0 0 0 0 0 0 0 0 0 0 144 0 169 0 0 0 0 0 76 76 76 76 0 0 0 0 0 0 0 0 0 0 0 0 0 0 0 0 0 0 0 0 0 0 0 0 0 0 0 0 0 0 0 0 0 0 0 0 0 0 0 0 0 0 0 0 0 0 0 0 0 0 0 0 0 0 0 0 0 0 0 0 0 0 0 0 0 0 0 0 0 0 0 0 0 0 0 0 0 0 
0 74 106 74 74 167 167 74 74 149 74 74 74 106 167 74 106 0 106 0 106 0 0 0 0 0 0 76 152 76 0 113 160 0 0 0 0 0 0 0 72 0 113 160 0 0 0 72 0 0 0 0 0 0 0 0 0 0 0 0 0 0 0 0 0 0 0 0 0 0 0 0 0 0 0 0 0 0 0 0 0 120 161 152 152 190 0 212 0 139 76 76 0 0 0 0 0 0 0 0 0 0 0 0 0 0 0 120 169 0 0 74 218 218 161 189 144 72 0 0 0 0 0 0 0 0 0 113 144 144 113 72 113 160 160 113 0 72 144 72 0 0 0 0 72 0 72 160 113 144 144 0 0 0 0 0 72 0 72 0 113 0 113 0 0 0 160 0 144 0 0 0 0 0 0 0 0 0 0 152 213 74 158 163 160 152 0 0 0 0 0 0 0 0 0 0 0 0 0 0 0 0 0 0 0 163 172 165 0 0 72 241 130 0 106 237 74 167 224 224 0 237 74 0 0 0 0 0 0 0 0 0 106 106 74 149 106 224 80 97 206 113 0 72 72 0 113 144 113 0 0 0 0 0 0 0 0 0 0 0 0 0 0 0 0 0 0 0 0 0 0 0 0 0 0 0 0 0 0 0 0 0 0 206 0 218 161 0 0 0 0 0 0 0 0 0 0 0 0 0 0 0 0 0 0 0 0 74 167 224 167 0 0 0 0 0 0 0 0 0 0 0 0 74 224 0 236 218 234 212 152 0 0 0 0 0 0 0 0 0 0 0 72 0 0 0 0 0 0 0 0 0 0 0 0 0 0 0 0 0 0 0 0 0 0 0 0 0 0 0 0 0 0 0 0 0 0 0 212 0 212 152 191 72 0 144 72 0 0 0 0 0 0 0 0 0 0 0 0 0 0 0 0 0 0 0 0 0 0 0 0 0 0 0 0 0 0 0 0 0 0 0 144 0 152 0 0 0 0 0 120 107 120 76 0 0 0 0 0 0 0 0 0 0 0 0 0 0 0 0 0 0 0 0 0 0 0 0 0 0 0 0 0 0 0 0 0 0 0 0 0 0 0 0 0 0 0 0 0 0 0 0 0 0 0 0 0 0 0 0 0 0 0 0 0 0 0 0 0 0 0 0 0 0 0 0 0 0 0 0 0 0 
0 167 106 167 167 224 224 167 74 149 74 74 167 224 74 0 106 0 74 106 74 0 0 0 0 0 0 120 169 0 0 144 144 0 0 0 0 0 0 0 0 0 72 144 72 0 72 0 72 0 0 0 0 0 0 0 0 0 0 0 0 0 0 0 0 0 0 0 0 0 0 0 0 0 0 0 0 0 0 0 0 152 152 0 74 224 224 74 0 148 107 0 0 0 0 0 0 0 0 0 0 0 0 0 0 0 0 107 120 117 113 160 185 0 222 104 144 72 0 0 0 0 0 0 0 0 152 160 144 144 152 0 113 101 0 0 0 0 101 152 0 0 113 113 0 101 72 160 0 144 144 0 0 0 0 0 0 72 0 0 113 72 113 0 0 72 185 104 185 0 0 0 0 0 0 0 0 0 0 0 206 0 74 76 0 152 160 113 0 0 0 0 0 0 0 0 0 0 0 0 0 0 0 0 104 136 85 139 242 72 236 183 0 0 237 167 0 74 167 106 167 167 0 0 0 0 0 0 0 0 0 0 106 74 167 106 203 80 0 234 113 0 0 72 72 72 72 0 0 0 0 0 0 0 0 0 0 0 0 0 0 0 0 0 0 0 0 0 0 163 0 0 185 113 0 0 0 0 0 0 0 0 0 0 152 206 212 161 0 0 76 0 0 0 0 0 0 0 0 0 0 0 0 0 0 0 0 0 0 212 212 0 0 0 0 0 0 0 0 0 0 0 0 167 0 0 0 212 160 113 0 0 0 0 0 0 0 0 0 0 0 206 220 212 113 0 0 0 0 0 0 0 0 0 0 0 0 0 0 0 0 0 0 0 0 0 0 0 0 0 0 0 0 0 0 0 0 0 212 0 212 152 0 113 101 113 113 0 0 0 0 0 0 0 0 0 0 0 0 0 0 0 0 0 0 0 0 0 0 0 0 0 0 0 0 0 0 0 0 0 0 113 152 0 152 0 0 0 0 0 120 120 161 0 0 0 0 0 0 0 0 0 0 0 0 0 0 0 0 0 0 0 0 0 0 0 0 0 0 0 0 0 0 0 0 0 0 0 0 0 0 0 0 0 0 0 0 0 0 0 0 0 0 0 0 0 0 0 0 0 0 0 0 0 0 0 0 0 0 0 0 0 0 0 0 0 0 0 0 0 0 0 
0 212 0 212 212 212 212 167 224 106 149 224 106 237 106 74 74 74 0 0 0 0 0 0 0 0 0 152 152 0 0 113 160 0 0 0 0 0 0 0 0 113 160 152 0 0 101 0 72 0 0 0 0 0 0 0 0 0 0 0 0 0 0 0 0 0 0 0 0 0 0 0 0 0 0 0 0 0 72 74 190 0 206 106 224 224 74 167 100 139 120 0 0 0 0 0 0 0 0 0 0 0 0 0 0 0 120 212 234 212 160 113 72 113 152 72 160 113 0 0 0 0 0 0 0 152 152 0 0 113 152 101 160 113 0 113 160 144 101 113 113 72 113 0 113 0 160 163 76 185 144 0 0 0 0 0 0 0 0 0 0 72 0 72 0 0 0 0 0 0 0 0 0 0 0 0 0 0 0 0 0 206 213 74 0 0 113 160 160 113 0 0 0 0 0 0 0 0 0 0 0 0 0 0 0 153 0 0 167 78 128 81 74 167 237 0 106 74 0 167 237 74 0 0 0 0 0 0 0 0 0 0 74 106 0 0 130 0 0 116 0 113 0 0 113 113 0 0 0 0 0 0 0 0 0 0 0 0 0 0 0 0 0 0 0 0 0 72 155 132 216 0 216 95 212 113 0 0 0 0 0 0 0 0 0 152 206 218 120 76 0 0 76 0 0 0 0 0 0 0 0 0 0 0 0 0 0 0 0 167 237 74 0 0 0 0 0 0 0 0 0 74 167 0 0 0 206 113 0 0 0 0 0 0 0 0 0 163 187 104 163 0 224 0 0 212 113 0 0 0 0 0 0 0 0 0 0 0 0 0 0 0 0 0 0 0 0 0 0 0 0 0 0 0 0 0 0 0 212 0 212 152 0 113 160 0 160 0 0 0 0 0 0 0 0 0 0 0 0 0 0 0 0 0 0 0 0 0 0 0 0 0 0 0 0 0 0 0 0 0 113 152 163 218 120 0 0 0 0 0 0 76 0 0 0 0 0 0 0 0 0 0 0 0 0 0 0 0 0 0 0 0 0 0 0 0 0 0 0 0 0 0 0 0 0 0 0 0 0 0 0 0 0 0 0 0 0 0 0 0 0 0 0 0 0 0 0 0 0 0 0 0 0 0 0 0 0 0 0 0 0 0 0 0 0 0 0 0 0 0 0 0 
0 212 0 212 212 212 212 74 237 167 212 212 212 167 224 237 167 167 0 0 0 0 0 0 0 0 0 152 152 0 0 0 160 113 0 0 0 0 0 0 101 0 0 101 0 72 72 72 72 0 0 0 0 0 0 0 0 0 0 0 0 0 0 0 0 0 0 0 0 0 0 0 0 0 0 0 0 72 0 0 133 100 0 212 224 74 74 0 80 0 152 0 0 0 0 0 0 0 0 0 0 0 0 0 120 152 107 166 158 116 72 0 0 0 113 152 152 113 0 0 0 0 0 0 152 152 0 113 160 160 113 0 160 113 113 152 113 72 160 0 160 0 152 113 113 113 212 158 0 220 144 0 0 0 0 0 0 0 0 0 0 0 113 113 152 0 0 0 0 0 0 0 0 0 0 0 0 0 0 0 0 0 152 152 0 0 0 0 72 160 160 113 0 0 0 0 0 0 0 0 0 0 0 163 74 165 247 236 72 242 167 106 167 224 167 106 0 106 0 212 212 74 106 74 0 0 0 0 0 0 0 0 0 74 0 180 85 212 152 113 0 144 0 0 0 0 0 0 0 0 0 0 0 0 0 0 0 0 0 0 0 0 0 0 0 0 113 163 0 175 0 252 100 184 97 0 0 104 0 0 0 0 0 0 0 0 160 234 161 76 0 76 120 161 0 0 0 0 0 0 0 0 0 0 0 0 0 0 0 74 237 167 0 0 0 0 0 0 0 0 0 167 0 0 0 212 113 0 0 0 0 0 0 0 0 0 113 0 0 0 163 97 148 190 218 0 206 113 0 0 0 0 0 0 0 0 0 0 0 0 0 0 0 0 0 0 0 0 0 0 0 0 0 0 0 0 0 0 167 106 167 152 0 144 144 113 160 113 0 0 0 0 0 0 0 0 0 0 0 0 0 0 0 0 0 0 0 0 0 0 0 0 0 0 0 0 0 0 0 0 144 144 120 169 0 0 0 0 0 0 0 0 0 0 0 0 0 0 0 0 0 0 0 0 0 0 0 0 0 0 0 0 0 0 0 0 0 0 0 0 0 0 0 0 0 0 0 0 0 0 0 0 0 0 0 0 0 0 0 0 0 0 0 0 0 0 0 0 0 0 0 0 0 0 0 0 0 0 0 0 0 0 0 0 0 0 0 0 0 0 0 0 
0 212 74 224 224 167 167 74 167 106 224 224 167 106 74 74 167 167 0 0 0 0 0 0 0 0 0 152 152 0 0 0 144 144 0 0 0 0 0 101 0 113 113 113 72 0 113 113 0 0 0 0 0 0 0 0 0 0 0 0 0 0 0 0 0 0 0 0 0 0 0 0 0 72 0 0 0 0 239 184 0 74 74 106 74 0 167 0 167 107 120 0 0 0 0 0 0 0 0 0 0 0 120 120 0 0 0 72 148 148 72 0 72 0 0 113 113 0 0 0 0 0 0 206 213 0 152 160 113 0 0 113 113 72 152 113 0 0 113 113 101 152 0 72 0 144 220 0 158 212 113 0 0 0 0 0 0 0 0 0 0 0 113 101 113 72 0 115 0 113 0 0 0 0 0 0 0 0 0 0 0 0 0 152 160 144 160 144 160 72 72 160 152 0 0 0 0 0 0 0 0 0 0 95 83 139 169 0 107 114 81 106 224 106 74 0 74 74 74 212 212 106 0 106 0 0 0 0 0 0 0 0 74 0 180 132 163 0 113 152 72 160 0 0 0 0 0 0 0 0 0 0 0 0 0 0 0 0 0 0 0 0 0 0 113 113 72 187 191 69 212 0 74 0 100 145 225 136 163 0 0 0 0 113 113 0 144 185 120 169 169 161 0 152 0 76 0 0 0 0 0 0 0 0 0 0 0 0 0 74 237 167 0 0 0 0 0 0 0 0 74 0 0 212 206 152 0 0 0 0 0 0 0 0 0 0 113 0 120 74 76 208 153 167 0 169 234 160 0 0 0 0 0 0 0 0 0 0 0 0 0 0 0 0 0 0 0 0 0 0 0 0 0 0 0 0 0 0 74 106 74 152 0 144 144 144 144 144 0 0 72 0 0 0 0 0 0 0 0 0 0 0 0 0 0 0 0 0 0 0 0 0 0 0 0 0 0 0 0 0 144 144 152 152 0 0 0 0 0 0 0 0 0 0 0 0 0 0 0 0 0 0 0 0 0 0 0 0 0 0 0 0 0 0 0 0 0 0 0 0 0 0 0 0 0 0 0 0 0 0 0 0 0 0 0 0 0 0 0 0 0 0 0 0 0 0 0 0 0 0 0 0 0 0 0 0 0 0 0 0 0 0 0 0 0 0 0 0 0 0 0 0 
0 212 167 167 167 74 106 167 149 106 167 167 0 224 167 106 237 74 0 0 0 0 0 0 0 0 0 152 152 0 0 0 144 144 0 0 0 0 72 72 0 113 160 101 0 0 0 0 0 0 0 0 0 0 0 0 0 0 0 0 0 0 0 0 0 0 0 0 0 0 0 0 113 72 113 0 72 0 81 145 106 74 106 74 0 74 237 240 76 76 76 0 0 0 0 0 0 0 0 0 0 212 0 234 104 0 0 158 158 116 0 152 113 113 0 0 0 0 0 0 0 0 152 213 0 213 152 0 0 0 0 160 0 152 113 0 0 0 0 152 101 101 160 113 72 160 146 76 163 160 0 0 0 0 0 0 0 0 0 0 0 0 0 113 113 0 185 185 185 185 0 0 0 0 0 0 0 0 0 0 0 0 0 0 113 144 113 72 113 160 160 113 113 72 0 0 0 0 0 0 0 0 163 172 167 0 152 0 211 123 106 237 167 167 106 149 224 212 237 149 167 0 106 74 0 0 0 0 0 0 0 74 0 180 132 206 72 152 113 0 0 144 72 0 0 0 0 0 0 0 0 0 72 0 0 0 0 0 0 0 0 0 0 72 113 101 72 206 0 135 252 0 0 74 167 212 73 157 0 206 0 0 163 0 0 212 152 113 0 0 120 120 0 120 120 120 120 0 0 0 0 0 0 0 0 0 0 0 0 167 237 74 0 0 0 0 0 0 0 74 224 80 0 206 152 0 0 0 0 0 0 0 0 0 0 0 0 0 0 0 189 202 247 167 0 120 218 206 152 0 0 0 0 0 0 0 0 0 0 0 0 0 0 0 0 0 0 0 0 0 0 0 0 0 0 0 0 0 0 74 106 190 0 212 72 152 101 113 0 72 0 72 0 0 0 0 0 0 0 0 0 0 0 0 0 0 0 0 0 0 0 0 0 0 0 0 0 0 0 0 144 144 152 152 0 0 0 0 0 0 0 0 0 0 0 0 0 0 0 0 0 0 0 0 0 0 0 0 0 0 0 0 0 0 0 0 0 0 0 0 0 0 0 0 0 0 0 0 0 0 0 0 0 0 0 0 0 0 0 0 0 0 0 0 0 0 0 0 0 0 0 0 0 0 0 0 0 0 0 0 0 0 0 0 0 0 0 0 0 0 0 0 
0 212 212 0 74 106 74 212 106 167 167 167 74 212 106 0 167 106 74 0 0 0 0 0 0 0 0 152 152 0 0 0 160 113 0 0 0 0 0 101 72 113 113 0 0 72 0 0 0 0 0 0 0 0 0 0 0 0 0 0 0 0 0 0 0 0 0 0 0 0 0 72 72 72 113 0 0 101 241 192 167 167 106 167 74 224 0 236 169 161 120 0 0 0 0 0 0 0 0 0 120 0 155 163 166 0 76 117 101 113 0 113 101 113 0 0 0 0 0 0 0 152 101 116 231 206 0 0 0 0 152 101 113 113 0 0 0 0 0 72 144 0 113 152 0 144 72 0 160 113 0 0 0 0 0 0 0 0 0 0 0 0 0 0 0 0 113 0 115 0 0 0 0 0 0 0 0 0 0 0 0 0 0 0 0 0 0 0 0 0 113 144 113 0 0 0 0 0 0 0 0 0 0 0 106 242 120 128 133 80 106 237 0 237 106 167 224 106 167 167 74 106 0 0 0 0 0 0 0 0 74 224 80 97 163 72 152 72 152 144 144 152 0 0 0 0 0 0 0 0 0 113 113 152 0 0 0 113 113 0 0 0 0 0 160 0 144 0 212 229 72 0 0 0 0 0 167 0 0 0 206 0 220 0 167 0 116 0 0 0 0 0 0 120 76 120 120 0 0 0 0 0 0 0 0 0 0 0 74 237 167 0 0 0 0 0 0 0 0 167 0 242 234 160 0 0 0 0 0 0 0 0 0 0 0 0 0 116 209 216 104 97 247 74 0 0 169 167 160 113 0 0 0 0 0 0 0 0 0 0 0 0 0 0 0 0 0 0 0 0 0 0 0 0 0 0 185 0 120 167 106 217 218 0 72 101 72 101 113 0 72 0 0 0 0 0 0 0 0 0 0 0 0 0 0 0 0 0 0 0 0 0 0 0 0 0 0 0 0 0 160 113 152 152 0 0 0 0 0 0 0 0 0 0 0 0 0 0 0 0 0 0 0 0 0 0 0 0 0 0 0 0 0 0 0 0 0 0 0 0 0 0 0 0 0 0 0 0 0 0 0 0 0 0 0 0 0 0 0 0 0 0 0 0 0 0 0 0 0 0 0 0 0 0 0 0 0 0 0 0 0 0 0 0 0 0 0 0 0 0 0 0 
0 212 212 0 167 167 149 167 0 167 237 224 106 237 0 74 106 167 167 0 0 0 0 0 0 0 0 152 152 0 0 113 160 0 0 0 0 0 0 72 144 72 0 0 0 0 0 0 0 0 0 0 0 0 0 0 0 0 0 0 0 0 0 0 0 0 0 0 0 0 72 0 0 72 0 0 0 0 118 103 0 106 106 167 106 167 210 211 0 169 120 0 0 0 0 0 0 0 0 0 152 0 113 206 212 169 161 150 152 152 72 113 113 0 0 0 0 0 0 0 113 160 72 152 113 0 0 0 0 113 113 101 152 0 0 0 0 0 0 113 160 0 0 113 72 113 113 72 144 72 0 0 0 0 0 0 0 0 0 0 0 0 0 0 0 0 0 0 0 0 0 0 0 0 0 0 0 0 0 0 0 0 0 0 0 0 0 0 0 0 0 0 0 0 0 0 0 0 113 113 0 163 74 117 161 161 0 0 137 128 212 212 106 167 74 74 0 106 74 74 106 74 0 0 0 0 0 0 0 0 167 0 0 234 72 160 113 0 113 0 0 0 0 0 0 0 0 0 0 0 0 160 101 160 113 0 72 113 113 152 0 0 0 0 212 148 212 0 185 0 72 0 0 0 0 0 74 224 0 0 0 152 116 0 158 120 189 0 72 0 0 0 0 0 76 120 120 120 0 0 0 0 0 0 0 0 0 0 167 237 74 0 0 0 0 0 0 0 0 212 72 169 185 144 0 72 0 0 0 0 72 0 0 0 0 0 72 0 0 101 0 97 247 74 0 0 169 120 144 144 0 0 0 0 0 0 0 0 0 0 0 0 0 0 0 0 0 0 0 0 0 0 0 0 0 0 144 0 152 212 0 212 152 0 144 113 160 113 144 0 0 0 0 0 0 0 0 0 0 0 0 0 0 0 0 0 0 0 0 0 0 0 0 0 0 0 0 0 0 113 212 167 161 120 0 0 0 0 0 76 0 0 0 0 0 0 0 0 0 0 0 0 0 0 0 0 0 0 0 0 0 0 0 0 0 0 0 0 0 0 0 0 0 0 0 0 0 0 0 0 0 0 0 0 0 0 0 0 0 0 0 0 0 0 0 0 0 0 0 0 0 0 0 0 0 0 0 0 0 0 0 0 0 0 0 0 0 0 0 0 0 0 
0 167 212 74 167 74 106 149 149 106 0 237 167 212 167 149 149 149 167 0 0 0 0 0 0 0 0 152 152 0 0 113 160 0 0 0 0 0 0 152 152 0 101 0 72 0 0 72 0 0 0 0 0 0 0 0 0 0 0 0 0 0 0 0 0 0 0 0 0 0 0 72 0 0 0 0 0 0 146 82 148 74 74 149 0 167 0 137 0 177 0 0 0 0 0 0 0 0 0 0 152 191 116 212 161 0 152 0 160 0 113 113 0 0 0 0 0 72 0 0 113 101 152 113 0 0 0 0 0 113 113 152 0 0 0 0 0 0 0 144 144 0 113 101 0 72 185 117 212 113 0 0 0 0 0 0 0 0 0 0 0 0 0 0 0 0 0 0 115 0 113 0 0 0 0 0 0 0 0 0 0 0 0 0 0 0 0 0 0 0 0 0 0 0 0 0 0 72 72 72 0 0 0 76 169 0 236 137 148 167 224 167 74 167 237 237 237 167 167 0 0 0 0 0 0 0 0 0 0 74 0 113 0 0 101 0 0 0 113 152 113 0 0 0 0 0 0 0 0 0 72 144 116 155 212 0 0 160 72 152 160 144 144 160 164 0 187 0 95 0 217 0 0 0 0 0 0 74 224 80 0 212 72 212 0 0 218 116 0 0 0 0 0 0 0 120 120 120 76 0 0 0 0 0 0 0 0 0 212 212 0 0 0 0 0 0 0 0 74 237 0 191 160 72 152 144 152 0 0 113 113 152 0 0 0 113 113 101 0 0 163 172 167 106 0 120 169 0 144 144 0 0 0 0 0 0 0 0 0 0 0 0 0 0 0 0 0 0 0 0 0 0 72 0 0 0 144 0 152 212 0 212 152 0 144 144 144 144 144 0 0 0 72 0 0 0 0 0 0 0 0 0 0 0 0 0 0 0 0 0 0 0 0 0 0 0 0 0 0 160 234 161 120 0 0 0 0 0 107 0 76 0 0 0 0 0 0 0 0 0 0 0 0 0 0 0 0 0 0 0 0 0 0 0 0 0 0 0 0 0 0 0 0 0 0 0 0 0 0 0 0 0 0 0 0 0 0 0 0 0 0 0 0 0 0 0 0 0 0 0 0 0 0 0 0 0 0 0 0 0 0 0 0 0 0 0 0 0 0 0 0 0 
0 106 212 167 74 74 106 149 74 0 106 212 106 167 224 167 74 106 106 0 0 0 0 0 0 0 0 169 120 0 0 0 160 113 0 0 0 0 113 113 72 160 72 113 0 0 72 0 72 0 0 0 0 0 0 0 0 0 0 0 0 0 0 0 0 0 0 0 0 0 0 0 0 0 0 0 113 160 160 0 217 92 131 192 148 217 0 217 0 231 74 0 0 0 0 0 0 0 0 0 152 152 120 169 0 0 218 0 113 72 72 72 72 0 0 0 113 113 160 113 0 113 113 0 0 0 0 0 0 0 72 0 0 0 0 0 0 0 0 144 144 0 144 113 0 113 234 0 0 113 0 0 0 0 0 0 0 0 0 0 0 0 0 0 0 0 0 185 162 146 160 0 0 0 0 0 0 0 0 0 0 0 0 0 0 0 0 0 0 0 0 0 0 0 0 0 0 0 113 72 101 232 161 0 165 150 80 217 149 237 167 128 120 120 128 167 106 167 167 0 0 0 0 0 0 0 0 0 74 0 130 0 74 101 0 0 0 0 0 113 152 144 144 144 113 0 0 0 0 113 72 113 187 74 0 206 0 113 152 72 0 72 113 72 115 231 116 155 225 148 74 0 0 0 0 0 0 0 106 252 0 234 160 113 0 120 161 161 0 0 0 0 0 0 0 0 161 161 0 0 0 0 0 0 0 0 0 0 212 212 0 0 0 0 0 0 0 0 167 0 242 189 113 113 206 189 0 206 0 113 113 101 160 144 113 72 101 113 72 0 0 126 0 106 0 120 169 74 160 113 0 0 0 0 0 0 0 0 0 0 0 0 0 0 0 0 0 0 0 0 0 113 72 113 0 0 113 0 191 212 0 212 152 0 144 144 144 144 144 0 0 72 0 72 0 0 0 0 0 0 0 0 0 0 0 0 0 0 0 0 0 0 0 0 0 0 0 0 113 160 191 152 0 0 0 0 0 76 0 107 0 0 0 0 0 0 0 0 0 0 0 0 0 0 0 0 0 0 0 0 0 0 0 0 0 0 0 0 0 0 0 0 0 0 0 0 0 0 0 0 0 0 0 0 0 0 0 0 0 0 0 0 0 0 0 0 0 0 0 0 0 0 0 0 0 0 0 0 0 0 0 0 0 0 0 0 0 0 0 0 0 0 
0 167 212 212 74 167 224 0 167 212 167 167 106 74 167 167 106 149 167 0 0 0 0 0 0 0 76 120 107 0 0 0 144 144 0 0 0 0 144 0 101 0 101 113 0 0 0 72 0 0 0 0 0 0 0 0 0 0 0 0 0 0 0 0 0 0 0 0 0 0 0 0 0 0 0 113 152 113 0 0 252 76 184 0 241 0 236 78 0 224 237 167 74 0 0 0 0 0 0 120 161 167 165 0 224 0 0 206 0 72 0 101 0 0 0 0 144 113 113 101 113 0 0 0 0 0 0 0 0 0 0 0 0 0 0 0 0 0 0 144 144 0 144 144 113 212 218 146 0 0 0 0 0 0 0 0 0 0 0 0 0 0 0 0 0 0 0 113 160 0 160 113 0 0 0 0 0 0 0 0 0 0 0 0 0 0 0 0 0 0 0 0 0 0 0 0 0 0 0 113 212 104 155 0 161 0 0 167 0 139 0 76 0 204 225 212 237 224 74 0 0 0 0 0 0 0 0 74 0 130 236 74 72 0 0 120 152 120 0 0 113 144 144 144 152 113 0 0 72 113 113 113 146 107 0 0 206 0 113 160 113 0 0 152 152 0 163 136 187 217 0 0 0 0 0 0 0 0 167 237 167 212 0 146 222 169 0 169 120 0 0 0 76 0 0 76 120 107 0 0 0 0 0 0 0 0 0 74 237 167 0 0 0 0 0 0 0 0 212 72 169 74 113 113 167 161 212 0 152 0 160 72 101 0 72 0 113 113 0 206 136 0 74 106 0 0 169 222 160 0 0 0 0 0 0 0 0 0 0 0 0 0 0 0 0 0 0 0 0 0 0 144 0 144 0 0 0 0 0 212 0 212 152 0 144 113 160 113 144 0 0 0 72 0 0 0 0 0 0 0 0 0 0 0 0 0 0 0 0 0 0 0 0 0 0 0 0 0 144 144 152 152 0 0 0 0 0 0 76 0 0 0 0 0 0 0 0 0 0 0 0 0 0 0 0 0 0 0 0 0 0 0 0 0 0 0 0 0 0 0 0 0 0 0 0 0 0 0 0 0 0 0 0 0 0 0 0 0 0 0 0 0 0 0 0 0 0 0 0 0 0 0 0 0 0 0 0 0 0 0 0 0 0 0 0 0 0 0 0 0 0 0 
0 212 212 212 167 106 0 224 237 212 212 167 74 0 0 167 106 0 237 74 0 0 0 0 0 0 0 120 161 120 0 0 144 113 72 0 0 0 113 72 0 152 113 0 0 0 0 0 0 0 0 0 0 0 0 0 0 0 0 0 0 0 0 0 0 0 0 0 0 0 0 0 0 0 113 152 113 0 0 234 0 90 0 0 116 68 215 0 180 0 167 237 237 212 167 74 0 0 120 212 234 212 185 0 0 0 163 0 0 72 0 72 0 0 0 0 160 72 113 152 113 0 0 0 0 0 0 0 0 0 0 0 0 72 0 0 0 0 0 144 185 76 163 160 113 0 169 234 0 0 0 0 0 0 0 0 0 0 0 0 0 0 0 0 0 0 0 0 160 113 144 144 0 0 0 0 0 0 0 0 0 0 0 0 0 0 0 0 0 0 0 0 0 0 0 0 0 0 0 212 0 120 0 113 212 97 190 74 139 0 139 148 230 80 252 212 167 74 0 0 0 0 0 0 0 0 74 0 130 236 0 0 0 0 120 161 152 169 169 152 152 120 0 0 113 160 0 0 0 152 101 0 0 0 107 74 213 152 0 0 101 101 113 101 72 185 132 234 0 74 0 0 0 0 0 0 0 74 237 167 0 120 218 218 0 169 120 120 169 0 0 76 0 76 0 0 76 161 120 0 0 0 0 0 0 0 0 167 237 74 0 0 0 0 0 0 0 0 212 108 152 0 0 0 120 169 76 212 0 163 113 152 160 160 113 0 0 0 206 132 106 0 149 74 0 0 169 222 160 0 0 0 0 0 0 0 0 0 0 0 0 0 0 0 0 0 0 0 0 0 0 144 0 144 0 0 0 0 0 212 0 212 120 0 185 0 160 0 144 0 0 0 0 0 0 0 0 0 0 0 0 0 0 0 0 0 0 0 0 0 0 0 0 0 0 0 0 0 144 185 169 120 0 0 0 0 0 0 0 0 0 0 0 0 0 0 0 0 0 0 0 0 0 0 0 0 0 0 0 0 0 0 0 0 0 0 0 0 0 0 0 0 0 0 0 0 0 0 0 0 0 0 0 0 0 0 0 0 0 0 0 0 0 0 0 0 0 0 0 0 0 0 0 0 0 0 0 0 0 0 0 0 0 0 0 0 0 0 0 0 0 0 
0 212 212 212 212 74 224 149 106 167 74 0 0 0 0 212 0 106 212 106 0 0 0 0 0 0 0 0 152 152 0 0 144 0 72 113 0 0 0 0 113 113 0 0 0 0 0 0 0 0 0 0 0 0 0 0 0 0 0 0 0 0 0 0 0 0 0 0 0 76 74 113 144 160 160 113 0 0 0 104 224 175 0 192 185 68 172 0 89 240 0 74 167 212 237 224 74 0 152 0 152 113 0 0 72 0 0 0 0 0 72 0 0 0 0 152 101 101 160 113 0 0 0 0 0 0 0 0 0 0 0 0 72 0 72 0 0 0 0 144 220 0 117 160 0 0 169 150 0 113 0 0 0 0 0 0 0 0 0 0 0 0 0 0 0 0 0 0 113 152 152 113 0 0 0 0 0 0 0 0 0 0 0 0 0 0 0 0 0 0 0 0 0 0 0 0 0 0 206 0 158 167 0 0 136 106 92 106 0 139 0 167 74 212 0 0 0 0 0 0 0 0 0 0 0 74 0 130 236 0 0 0 0 0 120 161 120 0 120 152 152 169 169 120 104 152 152 0 0 0 160 113 0 0 0 0 117 0 212 144 72 0 0 163 95 216 247 73 74 0 0 0 0 0 0 0 0 167 237 74 0 0 0 169 120 152 152 0 161 169 152 76 0 0 120 120 169 161 120 0 0 0 0 0 0 0 0 212 212 0 0 0 0 0 0 0 0 0 212 108 152 0 0 0 0 169 76 120 0 0 116 72 113 0 0 0 163 95 225 187 148 167 74 0 0 120 169 74 160 113 0 0 0 0 0 0 0 0 0 0 0 0 0 0 0 0 0 0 0 0 0 144 0 144 0 0 0 0 0 212 74 237 128 0 0 0 144 0 144 0 0 0 0 0 0 0 0 0 0 0 0 0 0 0 0 0 0 0 0 0 0 0 0 0 0 0 0 0 144 0 169 0 0 0 0 0 0 0 0 0 0 0 0 0 0 0 0 0 0 0 0 0 0 0 0 0 0 0 0 0 0 0 0 0 0 0 0 0 0 0 0 0 0 0 0 0 0 0 0 0 0 0 0 0 0 0 0 0 0 0 0 0 0 0 0 0 0 0 0 0 0 0 0 0 0 0 0 0 0 0 0 0 0 0 0 0 0 0 0 0 0 0 
0 167 167 106 237 149 237 106 224 224 167 0 0 0 0 167 106 0 237 74 0 0 0 0 0 0 0 0 169 120 0 0 144 0 0 144 0 0 0 113 160 0 0 0 0 0 0 0 0 0 0 0 0 0 0 0 0 0 0 0 0 0 0 0 0 0 0 76 0 0 213 160 144 113 0 0 0 0 0 0 252 0 74 159 188 157 225 180 167 0 74 0 0 0 74 237 167 0 218 0 113 0 0 0 0 0 0 0 0 0 0 0 0 0 101 72 113 152 0 0 0 0 0 0 0 0 0 0 0 0 0 0 0 72 0 0 0 72 72 160 146 76 0 144 0 212 218 0 0 144 0 0 0 0 0 0 0 0 0 0 0 0 0 0 0 0 0 0 0 113 113 0 0 0 0 0 0 0 0 0 0 0 0 0 0 0 0 0 0 0 0 0 0 0 0 0 0 163 0 158 107 218 113 81 234 148 167 74 0 167 237 167 0 212 0 0 0 0 0 0 0 0 0 0 74 0 130 236 0 120 120 0 0 120 76 0 120 76 0 0 0 0 120 169 161 104 152 160 144 144 152 113 0 120 152 169 169 218 0 0 0 0 0 97 184 100 217 74 0 0 0 0 0 0 0 0 74 237 167 0 0 0 0 120 169 76 169 0 0 120 120 120 76 0 152 120 120 120 0 0 0 0 0 0 0 0 0 212 212 0 0 0 0 0 0 0 0 0 212 108 152 0 0 72 0 120 161 152 0 215 0 212 144 185 0 0 74 158 0 0 149 167 0 0 0 169 120 0 113 160 0 0 0 0 0 0 0 0 0 0 0 0 0 0 0 0 0 0 0 0 0 144 0 144 0 0 0 0 0 212 167 237 167 191 0 113 113 72 113 0 72 0 0 0 0 0 0 0 0 0 0 0 0 0 0 0 0 0 0 0 0 0 0 0 0 0 0 0 160 0 152 0 0 0 0 0 0 0 0 0 0 0 0 0 0 0 0 0 0 0 0 0 0 0 0 0 0 0 0 0 0 0 0 0 0 0 0 0 0 0 0 0 0 0 0 0 0 0 0 0 0 0 0 0 0 0 0 0 0 0 0 0 0 0 0 0 0 0 0 0 0 0 0 0 0 0 0 0 0 0 0 0 0 0 0 0 0 0 0 0 0 0 
0 74 106 149 149 167 167 167 224 224 167 0 0 74 167 167 106 149 167 0 0 0 0 0 0 0 0 120 169 0 0 0 144 0 72 113 0 0 0 144 144 0 0 0 0 0 0 0 0 0 0 0 0 0 0 0 0 0 0 0 0 0 0 0 0 0 161 120 117 213 206 0 0 0 0 0 0 0 0 0 212 229 182 137 167 0 224 149 74 167 106 0 0 0 74 237 0 0 0 206 0 0 0 0 0 0 0 0 0 0 0 0 0 152 72 101 113 0 0 0 113 113 0 0 0 0 0 72 0 0 0 0 0 0 113 113 0 0 0 160 0 0 113 152 0 144 224 0 0 144 0 0 0 0 0 0 0 0 0 0 0 0 0 0 0 0 0 0 0 0 0 0 0 0 0 0 0 0 0 0 0 0 0 0 0 0 0 0 0 0 0 0 0 0 0 0 0 0 0 76 169 74 165 164 81 167 212 0 0 167 237 106 106 167 0 0 0 0 0 0 0 0 74 167 0 130 236 0 120 161 169 169 169 120 120 0 169 0 0 0 0 0 0 0 161 169 167 163 144 144 113 0 104 117 0 107 0 0 120 152 191 224 191 0 0 0 106 74 0 0 0 0 0 0 0 0 106 212 106 0 0 0 0 76 152 0 152 76 0 0 120 169 0 76 120 152 0 0 0 0 0 0 0 0 0 0 0 167 237 74 0 0 0 0 0 0 0 0 212 72 169 0 72 0 72 0 120 152 161 76 212 0 0 0 0 0 167 197 167 237 167 74 0 0 161 161 0 0 72 144 72 0 0 0 0 0 0 0 0 0 0 0 0 0 0 0 0 0 0 0 0 113 72 113 0 0 0 0 0 212 212 212 212 152 0 144 0 72 0 113 72 113 0 0 0 0 0 0 0 0 0 0 0 0 0 0 0 0 0 0 0 0 0 0 0 0 0 113 160 191 152 0 0 0 0 120 120 0 0 0 0 0 0 0 0 0 0 0 0 0 0 0 0 0 0 0 0 0 0 0 0 0 0 0 0 0 0 0 0 0 0 0 0 0 0 0 0 0 0 0 0 0 0 0 0 0 0 0 0 0 0 0 0 0 0 0 0 0 0 0 0 0 0 0 0 0 0 0 0 0 0 0 0 0 0 0 0 0 0 0 0 0 
0 0 167 237 106 106 74 74 167 167 74 0 0 106 106 0 0 74 149 74 0 0 0 0 0 0 0 152 152 0 0 0 113 113 0 0 0 0 0 113 113 0 0 0 0 0 0 0 0 0 0 0 0 0 0 0 0 0 0 0 0 0 0 0 0 115 214 232 0 152 0 0 0 72 0 0 0 113 185 0 136 187 203 0 217 128 203 106 167 167 74 0 0 74 0 131 136 0 163 0 0 0 0 0 0 0 0 0 0 0 0 0 152 152 101 152 113 0 0 72 72 72 72 0 0 0 101 0 0 113 144 144 113 0 113 101 72 72 113 144 0 72 113 101 72 160 191 0 0 160 0 0 0 0 0 0 0 0 0 0 0 0 0 0 0 0 0 0 0 0 0 0 0 0 0 0 0 0 0 0 0 0 0 0 0 0 0 0 0 0 0 0 0 0 0 0 163 74 117 218 158 74 242 100 167 212 212 0 0 106 212 74 106 74 0 0 0 0 0 0 0 74 0 100 128 0 0 120 161 76 0 76 120 0 120 107 120 0 0 0 0 0 0 0 0 120 169 169 120 0 0 72 74 234 0 218 120 0 0 0 0 0 0 167 224 167 74 74 106 74 0 0 0 0 0 0 74 224 224 74 0 0 0 120 120 107 161 0 0 0 120 161 120 0 0 161 120 0 0 0 0 0 0 0 0 0 0 74 237 167 0 0 0 0 0 0 0 0 212 252 161 169 191 189 117 76 0 0 152 152 0 120 152 120 0 0 0 74 106 74 0 120 152 169 161 0 0 113 160 152 0 0 0 0 0 0 0 0 0 0 0 0 0 0 0 0 0 0 0 0 0 0 72 0 0 0 0 0 0 167 237 167 212 152 0 144 0 0 0 144 0 144 0 0 0 0 0 0 0 0 0 0 0 0 0 0 0 0 0 0 0 0 0 0 0 0 0 160 113 152 152 0 0 0 76 76 76 76 0 0 0 0 0 0 0 0 0 0 0 0 0 0 0 0 0 0 0 0 0 0 0 0 0 0 0 0 0 0 0 0 0 0 0 0 0 0 0 0 0 0 0 0 0 0 0 0 0 0 0 0 0 0 0 0 0 0 0 0 0 0 0 0 0 0 0 0 0 0 0 0 0 0 0 0 0 0 0 0 0 0 0 0 
0 74 149 149 167 74 0 0 0 0 0 0 0 74 167 167 106 106 167 106 0 0 0 0 0 0 0 152 152 0 0 0 72 144 72 0 0 0 152 113 0 72 0 0 0 0 0 0 0 0 0 0 0 0 0 0 0 0 0 0 0 0 0 113 160 185 0 0 163 0 0 0 206 0 0 220 0 0 0 0 234 252 106 167 0 74 240 237 74 0 0 74 217 148 243 146 0 104 0 113 113 0 0 0 0 0 0 0 0 0 0 206 213 74 0 113 152 113 0 0 113 113 0 0 0 113 0 113 0 113 113 144 152 72 152 72 113 0 144 185 76 104 160 113 113 185 192 0 191 152 152 0 0 0 0 0 0 0 0 0 0 0 0 0 0 0 0 0 0 0 0 0 0 0 0 0 0 0 0 0 0 0 0 0 0 0 0 0 0 0 0 0 0 0 0 0 95 0 175 0 146 0 133 0 0 237 167 0 0 167 237 74 0 0 0 0 0 0 0 0 74 224 80 236 158 0 148 76 76 0 0 107 0 0 120 120 0 0 0 0 0 0 0 0 0 0 0 107 120 76 0 0 101 74 166 72 120 169 120 0 0 76 0 74 167 167 149 167 212 224 74 74 167 167 74 0 0 74 224 237 212 212 212 0 190 161 0 0 0 0 0 120 107 120 0 76 0 107 0 0 0 0 0 0 0 0 0 74 237 167 0 0 0 0 0 0 0 0 212 167 197 72 0 242 152 152 169 152 161 120 0 0 120 120 0 0 0 0 0 0 76 120 76 0 76 0 113 152 113 0 0 0 72 0 0 0 0 0 0 0 0 0 0 0 0 0 0 0 0 0 0 0 0 0 0 0 0 0 0 74 237 74 212 152 0 144 0 0 0 160 0 144 0 0 0 0 0 0 0 0 0 0 0 0 0 0 0 0 0 0 0 0 0 0 0 0 152 152 104 169 120 0 0 76 0 0 107 0 0 0 0 0 0 0 0 0 0 0 0 0 0 0 0 0 0 0 0 0 0 0 0 0 0 0 0 0 0 0 0 0 0 0 0 0 0 0 0 0 0 0 0 0 0 0 0 0 0 0 0 0 0 0 0 0 0 0 0 0 0 0 0 0 0 0 0 0 0 0 0 0 0 0 0 0 0 0 0 0 0 0 120 0 
0 106 74 74 74 167 0 0 0 0 0 0 0 0 0 106 0 74 237 74 0 0 0 0 0 0 0 152 152 0 0 0 113 113 0 72 72 101 160 72 72 0 0 0 0 0 0 0 0 0 0 0 0 0 0 0 0 0 0 0 120 120 146 152 113 0 0 0 0 0 0 72 220 167 234 0 0 191 120 0 74 224 224 0 0 210 0 167 74 167 252 148 0 241 95 163 0 0 72 113 101 113 0 0 0 0 0 0 113 144 212 0 150 120 0 0 160 113 0 0 0 0 0 0 0 160 0 144 0 152 152 72 113 113 0 113 72 152 72 0 107 161 185 144 72 0 236 120 152 0 160 113 0 0 0 0 0 0 0 0 0 0 0 0 0 0 0 0 0 0 0 0 0 0 0 0 0 0 0 0 0 0 0 0 0 0 0 0 0 0 0 0 0 0 0 206 153 0 82 146 155 194 100 74 167 237 0 106 106 237 167 0 0 0 0 0 0 0 0 74 224 0 242 120 0 72 117 76 76 0 107 0 76 0 0 0 0 0 0 0 0 0 0 0 0 0 0 76 120 120 152 152 191 0 234 107 0 120 169 169 169 152 169 152 120 128 167 217 223 80 0 237 0 0 0 212 212 212 167 0 106 106 167 0 204 0 0 0 0 76 0 0 120 161 169 169 120 0 76 0 0 0 0 0 0 0 0 106 167 149 74 0 0 0 0 0 0 0 212 106 106 0 106 148 76 76 120 152 120 0 0 120 161 169 169 152 152 152 152 152 167 209 144 144 162 144 152 113 0 0 0 113 113 160 113 0 0 0 0 0 0 0 0 0 0 0 0 0 0 0 0 0 0 0 0 0 0 0 0 0 212 0 212 120 0 212 0 0 113 160 113 144 0 0 0 0 0 0 0 0 0 0 0 0 0 0 0 0 0 0 0 0 0 0 0 113 160 0 120 169 0 0 76 0 0 76 120 0 0 0 0 0 0 0 0 0 0 0 0 0 0 0 0 0 0 0 0 0 0 0 0 0 0 0 0 0 0 0 0 0 0 0 0 0 0 0 0 0 0 0 0 0 0 0 0 0 0 0 0 0 0 0 0 0 0 0 0 0 0 0 0 0 0 0 0 0 0 0 0 0 0 0 0 0 0 0 0 0 0 0 120 0 
0 0 149 74 0 212 0 0 0 0 0 0 0 0 0 74 106 167 212 0 0 0 0 0 0 0 0 120 169 0 0 0 144 72 0 0 0 0 152 113 0 0 0 0 0 0 0 0 0 0 0 0 0 0 0 0 0 0 0 190 247 241 0 113 0 0 0 0 0 0 0 101 187 224 0 76 0 0 0 0 0 74 224 237 224 74 167 167 237 0 135 225 95 163 0 0 0 0 0 152 72 113 0 0 0 0 113 212 231 185 155 120 215 214 144 160 152 0 0 0 0 0 0 0 113 160 113 144 0 101 113 0 0 0 113 113 113 101 113 222 189 120 0 144 113 0 191 191 168 0 144 144 0 0 0 0 0 0 0 0 0 0 0 0 0 0 0 0 0 0 0 0 0 0 0 0 0 0 0 0 0 0 0 0 0 0 0 0 0 0 0 0 0 0 163 0 175 234 239 72 0 199 148 167 224 167 106 74 167 224 74 0 0 0 0 0 0 0 74 0 80 242 161 0 0 0 161 169 120 0 0 76 0 0 0 0 0 0 0 0 0 0 0 0 0 0 0 0 120 152 152 152 152 120 76 169 0 0 76 0 107 76 120 120 120 76 0 161 218 0 128 102 97 69 113 252 212 212 212 224 106 167 237 224 167 0 0 0 120 76 120 0 0 120 120 0 0 76 0 0 0 0 0 0 0 0 0 74 149 167 106 0 0 0 0 0 0 0 167 167 106 212 167 74 0 0 0 0 0 0 120 161 120 0 120 152 152 152 152 152 216 0 220 220 185 144 113 0 0 0 72 113 113 113 152 113 0 0 0 0 0 0 0 0 0 0 0 0 0 0 0 0 0 0 0 0 0 0 0 0 212 0 212 0 218 0 113 0 144 113 160 113 0 0 0 0 0 0 0 0 0 0 0 0 0 0 0 0 0 0 0 0 0 0 0 144 144 0 152 152 0 0 0 76 107 76 120 0 0 0 0 0 0 0 0 0 0 0 0 0 0 0 0 0 0 0 0 0 0 0 0 0 0 0 0 0 0 0 0 0 0 0 0 0 0 0 0 0 0 0 0 0 0 0 0 0 0 0 0 0 0 0 0 0 0 0 0 0 0 0 0 0 0 0 0 0 0 0 0 0 0 0 0 0 0 0 0 0 0 0 0 0 
0 149 167 0 0 212 74 106 74 0 0 0 0 0 0 0 0 212 212 74 106 74 0 0 0 0 0 0 169 120 0 0 113 101 72 72 0 0 72 72 72 0 0 0 0 0 0 0 0 0 0 0 0 0 0 0 0 0 0 0 132 167 0 0 0 0 0 0 0 0 113 0 175 67 92 0 0 120 120 0 0 0 167 0 0 128 106 74 203 0 0 206 0 0 0 0 0 0 0 0 113 72 152 72 113 160 160 155 0 117 146 0 0 185 144 113 0 0 0 0 0 0 0 0 144 144 144 144 72 113 101 101 0 0 113 0 152 101 72 101 192 0 0 152 152 0 152 0 216 152 72 160 0 0 72 0 0 0 0 0 0 0 0 0 0 0 0 0 0 0 0 0 0 0 0 0 0 0 0 0 0 0 0 0 0 0 0 0 0 0 0 0 0 0 0 0 76 236 0 116 80 100 106 224 167 74 74 167 167 74 0 0 0 0 0 0 0 74 224 80 236 120 0 0 0 161 161 0 0 0 0 0 0 0 0 0 0 0 0 0 0 0 0 0 0 0 0 0 0 0 0 0 0 0 152 152 0 0 161 120 120 0 0 161 161 0 76 152 148 76 148 72 148 0 236 120 0 0 0 167 106 149 167 167 74 0 0 0 169 76 169 0 0 0 0 0 0 0 0 0 0 0 0 0 0 0 0 0 167 237 74 0 0 0 0 0 0 0 74 237 167 0 0 0 0 0 0 76 0 120 161 120 0 0 0 0 0 0 0 0 113 160 0 0 72 0 0 0 113 160 113 0 160 0 144 144 0 0 0 0 0 0 0 0 0 0 0 0 0 0 0 0 0 0 0 0 0 0 0 0 212 74 237 74 152 0 160 0 113 113 152 0 0 0 0 0 0 0 0 0 0 0 0 0 0 0 0 0 0 0 0 0 0 0 0 160 163 120 161 120 0 0 0 0 0 76 0 0 0 0 0 0 0 0 0 0 0 0 0 0 0 0 0 0 0 0 0 0 0 0 0 0 0 0 0 0 0 0 0 0 0 0 0 0 0 0 0 0 0 0 0 0 0 0 0 0 0 0 0 0 0 0 0 0 0 0 0 0 0 0 0 0 0 0 0 0 0 0 0 0 0 0 0 76 0 0 76 0 0 0 0 0 
0 74 212 0 0 212 167 106 167 0 0 0 0 0 0 0 0 212 212 167 106 167 0 0 0 0 0 0 169 120 0 0 72 72 0 0 101 0 113 101 0 0 0 0 0 0 0 0 0 0 0 0 0 0 0 0 0 0 0 108 0 0 185 0 0 0 0 0 163 0 0 89 0 159 167 0 76 120 120 169 152 169 120 92 204 204 74 194 82 0 206 0 0 0 0 0 0 0 0 0 144 163 213 185 113 0 113 185 220 212 160 113 0 113 113 0 0 0 0 0 0 0 0 0 144 144 144 144 0 160 113 0 113 113 0 0 101 72 101 0 120 76 150 113 113 150 169 222 0 101 101 101 160 160 113 113 0 0 0 0 0 0 0 0 0 0 0 0 0 0 0 0 0 0 0 0 0 0 0 0 0 0 0 0 0 0 0 0 0 0 0 0 0 163 74 117 169 150 72 239 150 148 237 167 74 106 74 212 212 0 0 0 0 0 0 0 74 224 0 0 158 0 0 0 120 169 0 0 0 0 0 0 0 0 0 0 0 0 0 0 0 0 0 0 0 0 0 0 0 0 0 0 0 0 120 169 76 161 161 107 169 0 120 169 0 0 0 161 212 116 167 150 0 188 218 120 0 0 0 74 106 74 0 0 0 0 0 120 169 76 169 120 0 0 0 0 76 0 0 0 0 0 0 0 0 0 0 0 167 237 74 0 0 0 0 0 0 0 0 167 237 74 0 0 0 0 76 0 76 120 161 120 76 76 76 76 0 0 0 0 117 206 152 101 113 152 0 113 152 72 72 72 113 113 144 144 0 0 0 0 0 0 0 0 0 0 0 0 0 0 0 0 0 0 0 0 0 0 0 0 212 167 237 167 152 191 160 113 0 0 0 0 0 0 0 0 0 0 0 0 0 0 0 0 0 0 0 0 0 0 0 0 0 0 72 144 148 120 107 0 0 120 120 0 0 0 0 0 0 0 0 0 0 0 0 0 0 0 0 0 0 0 0 0 0 0 0 0 0 0 0 0 0 0 0 0 0 0 0 0 0 0 0 0 0 0 0 0 0 0 0 0 0 0 0 0 0 0 0 0 0 0 0 0 0 0 0 0 0 0 0 0 0 0 0 0 0 0 0 0 0 0 76 0 76 120 76 120 0 0 0 0 
0 106 106 106 74 212 167 106 167 0 0 0 0 0 0 0 0 167 237 106 106 167 0 0 0 0 0 120 169 0 0 0 72 113 113 152 0 72 144 72 0 0 0 0 0 0 0 0 0 0 0 0 0 0 0 0 0 0 0 0 77 199 185 0 0 0 0 206 0 0 0 159 0 74 212 0 107 120 0 120 152 120 76 247 183 74 78 225 136 163 0 0 0 0 0 0 0 0 0 0 113 231 0 189 167 146 113 144 144 113 0 0 152 113 113 72 0 0 0 0 0 0 0 0 113 160 113 144 0 144 144 0 113 160 0 72 72 0 72 72 0 76 0 0 0 0 161 158 0 0 160 116 187 116 113 113 0 0 0 0 0 0 0 0 0 0 0 0 0 0 0 0 0 0 0 0 0 0 0 0 0 0 0 0 0 0 0 0 0 0 0 0 104 0 0 76 169 0 0 80 0 149 224 74 167 106 167 212 212 0 0 0 0 0 0 0 167 0 0 0 146 113 0 0 152 152 0 0 0 0 0 0 0 0 0 0 0 0 0 0 0 0 0 0 0 0 0 0 0 0 0 0 0 0 0 161 152 161 0 0 161 169 161 120 0 0 0 0 169 0 152 76 120 120 161 0 0 0 0 0 0 0 0 0 0 0 0 120 169 76 169 120 0 0 0 76 0 76 0 0 0 0 0 0 0 0 0 0 106 212 106 0 0 0 0 0 0 0 0 74 237 167 0 0 0 0 0 76 0 0 120 161 76 120 152 152 161 76 76 0 0 158 206 113 101 160 113 144 144 72 0 113 113 113 113 160 0 0 0 0 0 0 0 0 0 0 0 0 0 0 0 0 0 0 0 0 0 0 0 0 212 212 212 212 152 152 144 144 0 113 72 113 0 0 0 0 0 0 0 0 0 0 0 72 0 0 0 0 0 0 0 0 0 0 72 185 166 120 76 0 76 76 76 76 0 0 0 0 0 0 0 0 0 0 0 0 0 0 0 0 0 0 0 0 0 0 0 0 0 0 0 0 0 0 0 0 0 0 0 0 0 0 0 0 0 0 0 0 0 0 0 0 0 0 0 0 0 0 0 0 0 0 0 0 0 0 0 0 0 0 0 0 0 0 0 0 0 0 0 0 0 0 0 76 0 152 0 152 0 0 0 0 
0 106 106 106 167 212 74 74 74 74 0 0 0 0 0 0 0 74 237 106 106 74 0 0 0 0 0 120 169 0 0 0 72 144 72 144 0 72 113 101 0 0 0 0 0 0 0 0 0 0 0 0 0 0 0 0 0 0 0 211 132 93 0 0 0 0 113 0 167 76 152 152 0 148 217 161 120 0 120 120 0 0 120 241 163 216 146 0 104 0 0 0 0 0 0 0 0 0 0 0 0 206 0 117 167 0 206 0 0 0 0 206 213 116 160 0 0 0 0 0 0 0 0 0 0 160 0 144 0 113 160 0 0 160 113 0 113 101 113 0 72 0 0 0 76 0 0 104 146 146 0 209 74 213 152 0 0 0 0 0 0 0 0 0 0 0 0 0 0 0 0 0 0 0 0 0 0 0 0 0 0 0 0 0 0 0 0 0 0 0 0 0 83 133 90 169 120 0 190 150 0 237 74 74 237 106 237 167 212 0 0 0 0 0 0 74 0 113 0 116 101 113 0 0 152 152 0 0 0 0 0 0 0 0 0 0 0 0 0 0 0 0 0 0 0 0 0 0 0 0 0 0 0 0 0 0 76 0 0 0 0 120 120 0 0 0 0 0 120 120 161 0 0 76 0 0 0 0 0 0 0 0 0 0 0 0 0 0 169 76 169 0 0 0 0 0 76 0 0 0 0 0 0 0 0 0 0 74 224 224 74 0 0 0 0 0 0 0 0 0 167 224 167 74 0 0 0 0 0 0 0 120 76 107 76 0 152 0 0 0 107 0 117 72 0 113 152 152 113 0 72 72 72 0 0 160 113 0 0 0 0 0 0 0 0 0 0 0 0 0 0 0 0 0 0 0 0 0 0 0 212 212 212 212 120 169 185 144 0 144 0 144 0 0 0 0 0 0 0 0 0 0 113 72 113 0 0 0 0 0 0 0 0 0 113 0 212 120 0 0 0 107 0 76 0 0 0 0 0 0 0 0 0 0 0 0 0 0 0 0 0 0 0 0 0 0 0 0 0 0 0 0 0 0 0 0 0 0 0 0 0 0 0 0 0 0 0 0 0 0 0 0 0 0 0 0 0 0 0 0 0 0 0 0 0 0 0 0 0 0 0 0 0 0 0 0 0 0 0 0 0 0 0 0 0 120 0 120 0 0 0 0 
0 0 212 74 237 106 167 167 74 106 0 0 0 0 0 0 0 0 167 237 74 0 0 0 0 0 0 0 169 120 0 0 113 160 0 144 0 72 72 0 101 0 0 0 0 0 0 0 0 0 0 0 0 0 0 0 0 0 0 120 206 232 136 185 185 0 232 187 107 107 120 152 242 247 128 120 120 120 0 117 155 144 185 0 0 0 163 0 0 0 0 0 0 0 0 0 0 0 0 0 0 0 206 0 117 212 0 0 104 0 206 0 74 187 152 144 144 113 0 0 0 0 0 0 0 144 0 144 0 0 160 113 0 113 160 0 0 144 144 113 113 152 0 120 120 161 76 117 187 232 163 0 0 206 0 0 0 0 0 0 0 0 0 0 0 0 0 0 0 0 0 0 0 0 0 0 0 0 0 0 0 0 0 0 0 0 0 0 0 0 0 163 172 167 223 169 0 0 80 100 167 212 0 167 237 106 224 167 167 0 0 0 0 0 74 0 180 81 0 113 113 0 0 0 152 152 0 0 0 0 0 0 0 0 0 0 0 0 0 0 0 0 0 0 0 0 0 0 0 0 0 0 0 0 0 0 0 0 0 0 0 0 0 0 0 0 0 0 0 76 0 0 0 0 0 0 0 0 0 0 0 0 0 0 0 0 0 0 120 76 120 0 0 0 0 0 0 0 0 0 0 0 0 0 0 0 0 106 212 106 0 0 0 0 0 0 0 0 0 0 74 167 224 167 0 0 0 0 0 0 0 0 76 0 0 76 120 76 76 107 0 76 0 0 0 0 113 113 0 0 0 0 0 0 0 160 113 0 0 0 0 0 0 0 0 0 0 0 0 0 0 0 0 0 0 0 0 0 0 0 212 212 212 252 0 120 0 144 0 144 0 144 0 0 0 0 0 0 0 0 0 0 113 72 113 0 0 0 0 0 0 0 0 0 144 0 152 0 0 0 0 76 0 76 0 0 0 0 0 0 0 0 0 0 0 0 0 0 0 0 0 0 0 0 0 0 0 0 0 0 0 0 0 0 0 0 0 0 0 0 0 0 0 0 0 0 0 0 0 0 0 0 0 0 0 0 0 0 0 0 0 0 0 0 0 0 0 0 0 0 0 0 0 0 0 0 0 0 0 0 0 0 0 0 120 0 120 0 0 0 74 0 
0 106 167 106 167 106 74 74 149 74 0 0 0 0 0 0 0 0 74 224 224 74 0 0 0 0 0 0 152 152 0 0 144 113 113 101 0 0 113 72 0 101 0 0 0 0 0 0 0 0 0 0 0 0 0 0 0 0 0 0 0 128 160 116 0 116 112 210 107 120 169 152 190 183 92 107 0 234 0 0 212 144 144 113 0 0 0 72 0 0 0 0 0 0 0 0 0 0 0 0 0 0 0 0 0 117 117 0 74 0 0 117 76 104 163 185 220 212 152 0 0 0 0 0 0 144 0 160 0 0 113 160 0 0 160 113 0 144 144 144 113 160 113 120 107 120 0 0 76 0 120 209 212 0 0 0 0 0 0 0 0 0 0 0 0 0 0 0 0 0 0 0 0 0 0 0 0 0 0 0 0 0 0 0 0 0 0 0 0 0 104 0 0 106 242 120 0 236 137 217 212 212 74 237 167 0 74 106 74 0 0 0 0 74 0 180 81 0 101 0 0 0 0 0 120 120 0 0 0 0 0 0 0 0 0 0 0 0 0 0 0 0 0 0 0 0 0 0 0 0 0 0 0 0 0 0 0 0 0 0 0 0 0 0 0 0 0 0 0 0 0 0 0 74 106 74 0 0 0 0 0 0 0 0 0 0 0 0 0 76 0 0 0 0 0 0 0 0 0 0 0 0 0 0 0 0 0 74 224 224 74 0 0 0 0 0 0 0 0 0 0 0 167 237 74 0 0 0 0 0 0 0 0 0 0 0 120 152 152 161 120 0 0 0 0 0 0 0 0 0 0 0 0 0 101 113 72 0 0 0 0 0 0 0 0 0 0 0 0 0 0 0 0 0 0 0 0 185 0 120 167 237 167 72 76 0 0 144 0 113 72 113 0 0 0 0 0 0 0 0 0 0 0 72 0 0 0 0 0 0 0 0 0 0 160 0 152 0 0 0 0 0 0 0 0 0 0 0 0 0 0 0 0 0 0 0 0 0 0 0 0 0 0 0 0 0 0 0 0 0 0 0 0 0 0 0 0 0 0 0 0 0 0 0 0 0 0 0 0 0 0 0 0 0 0 0 0 0 0 0 0 0 0 0 0 0 0 0 0 0 0 0 0 0 0 0 0 0 0 0 0 0 76 76 169 0 152 0 0 0 167 0 
0 106 167 167 74 74 167 167 74 0 0 0 0 0 0 0 0 0 74 74 167 167 0 0 0 0 0 0 152 152 0 0 144 72 72 0 101 72 160 72 101 0 72 0 0 0 0 0 0 0 0 0 0 0 0 0 0 0 0 0 190 80 74 0 0 197 0 190 0 240 190 152 185 76 130 169 0 0 185 113 0 0 0 0 0 0 152 113 113 0 0 0 0 0 0 0 0 0 0 0 0 0 0 104 0 0 212 0 234 0 117 120 0 0 76 76 0 148 144 72 0 0 0 0 0 144 113 160 113 0 0 160 146 76 163 152 144 152 72 160 113 113 160 104 120 120 76 120 0 120 0 113 152 113 0 0 0 0 0 0 0 0 0 0 0 0 0 0 0 0 0 0 0 0 0 0 0 0 0 0 0 0 0 0 0 0 0 0 0 0 234 74 0 161 161 0 120 80 0 74 167 224 237 149 74 74 0 0 0 0 0 0 74 0 180 132 116 113 0 0 0 0 0 161 120 0 76 0 0 0 0 0 0 0 0 0 0 0 0 0 0 0 0 0 0 0 0 0 0 0 0 0 0 0 0 0 0 0 0 0 0 0 0 0 0 0 0 0 0 0 0 0 0 106 0 106 74 106 74 0 0 0 0 0 0 0 0 0 0 0 0 0 0 0 0 0 0 0 0 0 0 0 0 0 0 0 0 0 74 237 167 0 0 0 0 0 0 0 0 0 0 0 74 224 224 74 0 0 0 0 0 0 0 0 0 0 0 0 0 120 161 152 152 120 0 0 0 0 0 0 0 0 0 72 0 101 113 0 0 0 0 0 0 0 0 0 0 0 0 0 0 0 0 0 0 0 0 144 0 152 74 237 74 108 0 0 0 144 0 0 0 0 0 0 0 0 0 0 0 0 0 0 0 0 0 0 0 0 0 0 0 0 0 113 160 191 152 0 0 76 0 0 120 76 120 0 0 0 0 0 0 0 0 0 0 0 0 0 0 0 0 0 0 0 0 0 0 0 0 0 0 0 0 0 0 0 0 0 0 0 0 0 0 0 0 0 0 0 0 0 0 0 0 0 0 0 0 0 0 0 0 0 0 0 0 0 0 0 0 0 0 0 0 0 0 0 0 0 0 0 76 0 0 76 76 107 120 0 0 74 237 0 
0 0 0 0 74 149 0 106 74 0 0 0 0 0 0 0 0 0 106 74 149 167 0 0 0 0 0 0 152 152 0 0 113 113 72 113 0 0 144 144 0 72 0 0 0 0 0 0 0 0 0 0 0 0 0 0 0 0 0 0 0 80 190 240 139 139 130 74 106 106 106 0 92 247 242 167 212 113 0 0 0 0 0 0 0 101 72 101 113 0 0 0 0 0 0 0 0 0 0 0 0 0 0 0 0 212 0 169 152 152 169 161 117 148 74 0 117 206 152 0 0 0 0 0 0 113 160 113 144 0 0 113 231 74 167 234 185 72 101 152 0 0 101 152 0 0 72 191 0 191 113 113 0 101 113 0 0 0 0 0 0 0 0 0 0 0 0 0 0 0 0 0 0 0 0 0 0 0 0 0 0 0 0 0 0 0 0 0 0 104 74 234 120 169 0 0 169 0 224 167 0 167 167 74 0 106 0 0 0 0 0 74 0 180 81 116 101 113 0 0 0 0 120 120 0 0 0 0 0 0 0 0 0 0 0 0 0 0 0 0 0 0 0 0 0 0 0 0 0 0 0 0 74 106 74 0 0 0 0 0 0 0 0 0 0 74 167 167 74 74 167 212 167 0 106 0 224 167 167 74 106 74 0 0 0 0 0 0 0 0 0 0 0 0 0 0 0 0 0 0 0 0 0 0 0 0 0 0 0 212 212 0 0 0 0 0 0 0 0 0 0 0 0 74 237 167 0 0 0 0 0 0 0 0 0 0 0 0 0 0 120 152 152 161 120 0 0 0 0 0 0 0 0 0 72 113 144 0 0 0 0 0 0 0 0 0 0 0 0 0 0 0 0 0 0 0 0 144 0 152 0 212 0 72 76 0 0 144 0 0 113 72 113 0 0 0 0 0 0 0 0 0 0 0 0 0 0 0 0 0 0 0 0 144 144 152 152 0 76 0 76 0 120 76 120 0 0 0 0 0 0 0 0 0 0 0 0 0 0 0 0 0 0 0 0 0 0 0 0 0 0 0 0 0 0 0 0 0 0 0 0 0 0 0 0 0 0 0 0 0 0 0 0 0 0 0 0 0 0 0 0 0 0 0 0 0 0 0 0 0 0 0 0 0 0 0 0 0 0 120 76 76 120 0 107 120 0 0 74 224 224 0 
0 74 74 167 224 167 167 106 167 0 0 0 0 0 0 0 0 0 106 106 106 106 0 0 0 0 0 0 152 152 0 0 0 152 152 0 0 0 160 113 0 0 0 0 0 0 0 0 0 0 0 0 0 0 0 0 0 0 76 0 0 190 0 74 183 120 0 74 167 217 190 191 236 169 0 72 144 72 0 0 0 0 0 0 152 72 101 113 0 0 0 0 0 0 0 0 72 0 0 0 0 0 0 0 0 144 163 222 0 191 120 0 72 0 0 113 160 152 0 0 0 0 0 0 0 0 152 113 72 72 0 0 206 0 117 120 161 116 144 72 113 113 113 113 72 113 72 234 76 234 152 144 160 113 113 0 0 0 0 0 0 0 0 0 0 0 0 0 0 0 0 0 0 0 0 0 0 0 0 0 0 0 0 0 0 0 0 0 0 0 0 0 169 120 0 120 242 203 74 106 106 0 0 74 106 74 0 0 0 0 74 0 180 132 116 101 113 0 0 0 0 0 152 76 0 76 0 0 0 0 0 0 0 0 0 0 0 0 0 0 0 0 0 74 106 74 0 0 0 0 74 167 237 212 237 167 74 0 74 106 74 0 0 74 167 237 237 237 224 149 224 167 167 106 0 167 237 167 212 167 106 167 0 0 0 0 0 0 0 0 0 0 0 0 0 0 0 0 0 0 0 0 0 0 0 0 0 0 0 212 212 0 0 0 0 0 0 0 0 0 0 0 0 0 167 237 74 0 0 0 0 0 0 0 0 0 0 0 0 0 0 0 120 161 120 0 0 0 0 0 0 0 0 0 0 144 144 0 0 0 0 0 0 0 0 0 0 0 0 0 0 0 0 0 0 0 0 113 0 191 0 212 0 252 76 120 0 144 0 0 113 72 113 0 0 0 0 0 0 0 0 0 0 0 0 0 0 0 0 0 0 0 0 160 163 169 120 0 76 0 0 76 0 76 0 0 0 0 0 0 0 0 0 0 0 0 0 0 0 0 0 0 0 0 0 0 0 0 0 0 0 0 0 0 0 0 0 0 0 0 0 0 0 0 0 0 0 0 0 0 0 0 0 0 0 0 0 0 0 0 0 0 0 0 0 0 0 0 0 0 0 0 0 0 0 0 0 0 0 120 76 120 120 76 120 0 0 0 106 212 106 0 
0 224 237 224 167 212 167 106 167 0 0 0 0 0 0 0 0 0 106 106 106 106 0 0 0 0 0 0 152 152 0 0 0 101 113 72 0 113 160 0 72 0 0 0 0 0 0 0 0 0 0 0 0 0 0 0 0 120 76 120 0 0 236 0 167 0 0 0 120 169 169 168 120 0 0 72 144 72 0 0 0 0 0 152 101 113 113 0 0 0 0 0 0 0 0 113 72 113 0 0 0 0 0 0 113 152 0 152 160 160 144 144 113 0 0 152 113 0 0 0 0 0 0 0 0 0 0 72 0 0 72 0 0 206 0 158 107 218 0 231 213 115 113 72 72 152 0 163 187 206 72 113 113 0 72 0 0 0 0 0 0 0 0 0 0 0 0 0 0 0 0 0 0 0 0 0 0 0 0 0 0 0 0 0 0 0 0 0 163 74 117 161 161 0 0 169 223 106 0 106 106 0 0 0 0 0 0 0 0 74 0 180 132 155 113 113 0 0 0 0 0 0 152 120 76 0 0 0 0 0 0 0 0 0 0 0 0 0 0 0 0 0 74 224 212 224 74 0 0 0 167 224 167 106 167 237 224 74 106 74 149 74 0 167 149 74 106 74 237 0 224 167 167 106 0 212 167 237 167 167 106 167 0 0 0 0 0 0 0 0 0 0 0 0 0 0 0 0 0 0 0 0 0 0 0 0 0 0 0 212 212 0 0 0 0 0 0 0 0 0 0 0 74 106 0 237 167 0 0 0 0 0 0 0 0 0 0 0 0 0 0 76 120 0 0 0 0 0 0 0 0 0 0 0 0 113 160 0 0 0 0 0 0 0 0 0 0 0 0 0 0 0 0 0 0 72 0 72 0 224 0 212 0 212 0 152 0 144 0 0 0 72 0 0 0 0 0 0 0 0 0 0 0 0 0 0 0 0 0 0 0 0 113 160 117 152 76 0 76 0 0 0 76 0 0 0 0 0 0 0 0 0 0 0 0 0 0 0 0 0 0 0 0 0 0 0 0 0 0 0 0 0 0 0 0 0 0 0 0 0 0 0 0 0 0 0 0 0 0 0 0 0 0 0 0 0 0 0 0 0 0 0 0 0 0 0 0 0 0 0 0 0 0 0 0 0 0 0 0 0 76 0 0 76 0 0 74 167 167 167 106 0 
0 237 74 212 74 237 0 106 74 0 0 0 0 0 0 0 74 106 74 167 149 74 0 0 0 0 0 0 152 152 0 0 72 72 72 72 0 113 160 101 72 113 0 0 0 0 0 0 0 0 0 0 0 0 0 0 0 120 76 120 0 0 0 120 169 161 76 161 169 167 116 0 72 0 0 152 152 0 0 0 0 113 160 101 101 152 0 0 0 0 0 0 0 0 0 113 72 113 0 0 0 113 144 160 160 113 101 160 0 113 144 144 144 152 0 144 0 0 0 0 0 0 0 0 0 0 0 0 72 0 101 0 0 0 206 0 158 76 218 0 222 107 0 113 152 113 113 0 152 72 155 231 185 152 113 0 0 0 0 0 0 0 0 0 0 0 0 0 0 0 0 0 0 0 0 0 0 0 0 0 0 0 0 0 0 0 0 0 0 0 76 218 116 0 120 242 128 106 167 167 106 0 0 0 0 0 0 0 0 217 187 132 206 72 160 0 0 0 0 0 0 0 169 120 0 76 0 0 0 0 0 0 0 0 0 0 0 0 0 0 0 0 167 237 106 224 237 167 74 74 237 167 0 0 0 74 224 224 0 149 74 106 0 212 74 106 167 0 212 167 167 167 74 106 0 212 74 237 74 74 106 74 0 0 0 0 0 0 0 0 0 0 0 0 0 0 0 0 0 0 0 0 0 0 0 0 0 0 0 212 212 0 0 0 0 0 0 0 0 0 0 0 106 0 106 212 212 0 0 0 0 0 0 0 0 0 0 0 0 0 0 0 161 152 120 120 0 0 0 0 0 0 0 0 72 0 160 113 0 0 0 0 0 0 0 0 0 0 0 0 0 0 72 0 72 0 72 72 0 224 0 212 0 212 0 152 0 144 0 0 0 72 0 0 0 0 0 0 0 0 0 0 0 0 0 0 0 0 0 0 0 0 144 144 0 169 120 0 76 0 0 0 76 0 0 0 0 0 0 0 0 0 0 0 0 0 0 0 0 0 0 0 0 0 0 0 0 0 0 0 0 0 0 0 0 0 0 0 0 0 0 0 0 0 0 0 0 0 0 0 0 0 0 0 0 0 0 0 0 0 0 0 0 0 0 0 0 0 0 0 0 0 0 0 0 0 0 0 120 120 0 0 0 0 74 167 237 237 212 167 74 0 
0 224 167 106 106 167 106 0 0 0 0 0 0 0 0 0 106 0 0 212 106 0 0 0 0 0 0 0 152 152 0 0 0 113 152 113 0 0 113 0 72 113 0 0 0 0 0 0 0 0 0 0 0 0 0 0 0 0 76 0 0 0 0 0 0 107 152 161 0 72 0 72 0 0 152 152 0 0 0 113 160 160 72 101 152 0 0 0 0 0 0 0 0 0 0 101 0 72 0 0 152 160 144 72 0 0 0 160 113 0 0 0 0 160 0 144 0 0 0 0 0 0 0 0 0 0 0 0 113 152 152 113 0 0 0 206 0 218 76 0 120 191 113 152 113 0 144 0 113 206 0 150 150 160 113 0 0 0 0 0 0 0 0 0 0 0 0 0 0 0 0 0 0 0 0 0 0 0 0 0 0 0 0 0 0 0 0 163 74 167 152 224 0 116 242 80 167 149 224 224 74 0 0 0 0 0 0 0 74 148 225 206 0 113 160 0 0 0 0 0 0 161 161 0 76 0 76 0 0 0 0 0 0 0 0 0 0 0 0 0 0 0 167 237 74 74 167 237 224 149 237 74 0 0 0 0 74 237 167 74 106 0 106 167 0 0 212 74 167 167 74 106 74 149 106 237 74 212 0 0 0 0 0 0 0 0 0 0 0 0 0 0 0 0 0 0 0 0 0 0 0 0 0 0 0 0 0 0 0 212 212 0 0 0 0 0 0 0 0 0 0 0 74 106 74 212 212 0 0 0 0 0 0 0 0 0 0 0 0 0 0 0 76 0 76 120 76 0 0 0 0 0 0 72 0 72 144 144 0 0 0 0 0 0 0 0 0 0 0 0 0 72 0 72 0 72 0 0 0 0 0 167 106 167 0 152 0 144 0 0 72 0 72 0 0 0 0 0 0 0 0 0 0 0 0 0 0 0 0 0 0 0 160 163 120 161 120 0 120 76 76 76 120 0 0 0 0 0 0 0 0 0 0 0 0 0 0 0 0 0 0 0 0 0 0 0 0 0 0 0 0 0 0 0 0 0 0 0 0 0 0 0 0 0 0 0 0 0 0 0 0 0 0 0 0 0 0 0 0 0 0 0 0 0 0 0 0 0 0 0 0 0 0 0 0 0 0 76 120 107 120 0 0 0 167 224 167 74 0 0 0 0 
0 74 149 106 167 106 106 167 74 74 106 74 0 0 74 106 0 106 106 237 167 0 0 0 0 0 0 0 152 152 0 0 0 113 152 72 152 144 72 72 0 0 0 0 0 0 0 0 0 0 0 0 0 0 0 0 0 0 0 0 0 0 0 76 0 0 76 0 0 0 116 117 74 152 101 116 0 0 0 0 222 0 152 152 0 0 0 0 0 0 0 0 0 0 113 101 113 72 0 113 160 0 0 113 72 113 0 160 113 0 0 0 152 152 113 144 0 0 0 0 0 0 0 0 0 0 113 144 152 163 162 185 0 0 0 0 206 0 0 0 169 189 113 101 0 0 144 0 146 0 107 209 0 152 0 0 0 0 0 0 0 0 0 0 0 0 0 0 0 0 0 0 0 0 0 0 0 0 0 0 0 0 0 0 0 0 104 0 0 0 169 150 72 167 80 217 167 0 237 74 0 0 0 0 0 0 0 74 0 243 95 0 0 101 113 72 0 0 76 0 120 169 0 0 0 76 0 0 0 0 0 0 0 0 0 0 0 0 0 0 0 0 74 224 224 106 167 106 167 74 212 0 0 0 0 74 106 106 224 212 212 237 212 167 74 0 212 167 74 74 149 224 237 237 212 224 149 224 212 167 74 0 0 0 0 0 0 0 0 0 0 0 0 0 0 0 0 0 0 0 0 0 0 0 0 0 0 0 0 167 237 74 0 0 0 0 0 0 0 0 0 0 0 74 106 106 224 167 74 0 0 0 0 0 0 0 0 0 0 0 0 0 76 0 107 0 76 120 0 0 0 0 0 0 72 0 144 144 0 0 0 0 0 0 0 0 0 0 0 0 0 72 0 72 0 0 0 0 0 0 0 74 106 74 0 152 0 144 0 0 0 72 0 0 0 0 0 0 0 0 0 0 0 0 0 0 0 0 0 0 0 113 160 117 120 107 0 0 152 0 0 0 120 0 0 0 0 0 0 0 0 0 0 0 0 0 0 0 0 0 0 0 0 0 0 0 0 0 0 0 0 0 0 0 0 0 0 0 0 0 0 0 0 0 0 0 0 0 0 0 0 0 0 0 0 0 0 0 0 0 0 0 0 0 0 0 0 0 76 0 0 0 0 0 0 0 0 0 161 120 120 0 0 0 212 212 0 0 0 0 0 0 
0 0 74 224 237 167 74 106 106 106 74 149 74 0 106 0 106 0 74 237 167 0 0 0 0 0 0 0 152 152 0 0 72 72 72 0 113 0 0 0 72 0 0 0 0 0 0 0 0 0 0 0 0 0 0 0 0 0 0 0 0 0 76 0 117 116 0 0 190 0 0 190 189 101 234 74 0 0 0 191 161 189 144 72 0 0 0 0 0 0 0 0 0 0 144 72 144 72 0 144 144 0 0 113 0 113 113 160 0 0 113 160 152 0 160 113 0 0 0 0 0 0 0 0 0 72 72 0 101 167 155 0 0 0 113 113 0 113 185 0 232 0 232 0 185 144 206 216 236 158 215 0 163 0 0 0 0 0 0 0 0 0 0 0 0 0 0 0 0 0 0 0 0 0 0 0 0 0 0 0 0 0 0 0 0 0 0 0 0 161 161 0 0 211 123 0 167 167 167 0 74 106 74 0 0 0 74 0 180 136 163 0 113 152 113 0 0 76 0 76 120 169 0 0 0 0 0 0 0 0 0 0 0 0 0 0 0 0 0 0 0 0 0 74 224 167 74 106 74 106 167 0 0 0 74 224 212 149 106 212 212 167 106 106 149 106 167 212 74 106 0 237 74 74 106 74 74 167 167 167 106 0 0 0 0 0 0 0 0 0 0 0 0 0 0 0 0 0 0 0 0 0 0 0 0 0 0 0 0 74 237 167 0 0 0 0 0 0 0 0 0 0 74 224 167 74 106 106 106 0 0 0 0 0 0 0 0 0 0 0 0 0 0 107 107 107 76 169 76 76 0 0 0 0 0 0 144 144 0 0 0 0 0 0 0 0 0 0 0 0 0 72 0 72 0 0 0 0 0 0 0 0 0 0 0 120 0 212 0 0 0 0 0 0 0 0 0 0 0 0 0 0 0 0 0 0 0 0 0 0 0 144 144 76 152 76 0 0 120 107 107 107 0 0 0 0 0 0 0 0 0 0 0 0 0 0 0 0 0 0 0 0 0 0 0 0 0 0 0 0 0 0 0 0 0 0 0 0 0 0 0 0 0 0 0 0 0 0 0 0 0 0 0 0 0 0 0 0 0 0 0 0 0 0 0 0 0 76 0 76 0 0 0 0 0 0 0 0 0 76 0 0 0 0 212 212 0 0 0 0 0 0 
0 0 0 74 149 106 167 167 0 74 74 74 106 0 74 106 74 0 106 212 106 0 0 0 0 0 0 0 152 152 0 0 0 72 152 72 113 160 113 0 72 0 0 0 0 0 0 0 0 0 0 0 0 0 0 0 0 0 0 0 0 120 76 120 72 0 158 169 0 93 0 0 212 0 0 167 0 0 120 152 212 216 113 72 0 0 0 0 0 0 0 0 0 0 144 113 160 113 0 144 144 0 72 0 0 0 113 144 0 152 160 113 0 152 152 0 0 0 0 0 0 0 0 0 0 0 113 160 160 209 0 0 212 160 160 160 160 113 0 72 113 155 118 189 0 0 0 218 76 158 0 163 0 113 144 113 0 0 0 0 0 0 0 0 0 0 0 0 0 0 0 0 0 0 0 0 0 0 0 0 0 0 0 0 0 163 74 167 120 169 0 0 0 80 100 167 74 237 74 0 106 0 106 0 0 74 0 180 132 206 0 0 144 144 0 0 0 0 76 0 107 120 76 0 0 0 0 0 0 0 0 0 0 0 0 0 0 0 0 0 0 0 0 0 106 167 167 167 106 106 74 0 0 0 106 212 74 237 167 0 0 0 0 0 74 106 74 167 167 74 167 212 0 0 0 0 0 74 224 224 74 0 0 0 0 0 0 0 0 0 0 0 0 0 0 0 0 0 0 0 0 0 0 0 0 0 0 0 0 0 212 212 0 0 0 0 0 0 0 0 0 0 106 167 74 106 237 167 74 0 0 0 0 0 0 0 0 0 0 0 0 0 0 0 76 76 0 120 76 76 120 0 0 0 0 0 160 113 0 0 0 0 0 0 0 0 0 0 0 0 0 0 72 0 0 0 0 0 0 0 0 74 106 74 0 0 218 0 113 0 0 0 0 0 0 0 0 0 0 0 0 0 0 0 0 0 0 0 0 0 0 160 113 120 169 0 0 0 76 0 107 0 0 0 0 0 0 0 0 0 0 0 0 0 0 0 0 0 0 0 0 0 0 0 0 0 0 0 0 0 0 0 0 0 0 0 0 0 0 0 0 0 0 0 0 0 0 0 0 0 0 0 0 0 0 0 0 0 0 0 0 0 0 0 0 0 0 0 76 0 0 0 0 0 0 0 0 0 0 0 0 74 167 212 224 167 0 0 0 0 0 0 
0 0 0 74 224 224 74 0 106 0 74 106 74 0 0 0 0 0 106 167 149 74 0 0 0 0 0 0 152 152 0 72 0 72 144 113 72 0 72 72 72 0 0 0 0 0 0 0 0 0 0 0 0 0 0 0 120 152 152 152 152 161 76 161 191 0 0 167 197 224 224 197 120 76 76 152 152 218 0 0 0 212 113 0 0 0 0 0 0 0 0 0 0 0 160 72 160 113 0 144 144 0 0 72 72 72 0 152 160 152 0 113 160 152 0 0 0 0 0 0 0 0 0 0 0 0 0 0 113 212 0 116 104 113 0 0 113 160 160 113 0 146 0 0 0 120 76 76 218 0 206 0 152 160 144 160 152 0 0 0 72 0 0 0 0 0 0 0 0 0 0 0 0 0 0 0 0 0 0 0 0 0 0 0 0 0 0 0 169 120 0 0 236 137 148 167 74 167 0 0 74 106 74 0 0 217 187 132 206 0 0 0 144 144 0 0 0 0 0 120 161 120 0 0 0 0 0 0 0 0 0 0 0 0 0 0 0 0 0 0 0 0 0 0 167 237 74 0 0 0 0 0 0 0 74 224 237 149 149 167 74 0 0 0 0 0 0 74 224 237 224 167 0 0 0 0 74 224 224 0 106 74 0 0 0 0 0 0 0 0 0 0 0 0 0 0 0 0 0 0 0 0 0 0 0 0 0 0 0 0 212 212 0 0 0 0 0 0 0 0 0 0 74 167 149 167 74 0 0 0 0 0 0 0 0 0 0 0 0 0 0 0 76 0 76 120 76 0 0 0 152 0 0 0 0 113 160 0 0 0 0 0 0 0 0 0 0 0 0 0 0 0 0 0 0 0 0 0 0 0 0 106 0 106 0 0 152 0 144 0 0 0 0 0 0 0 0 0 0 0 0 0 0 0 0 0 0 0 0 0 113 160 0 152 152 0 0 0 76 0 76 0 0 0 0 0 0 0 0 0 0 0 0 0 0 0 0 0 0 0 0 0 0 0 0 0 0 0 0 0 0 0 0 0 0 0 0 0 0 0 0 0 0 0 0 0 0 0 0 0 0 0 0 0 0 0 0 0 0 0 0 0 0 0 0 0 0 0 0 0 0 0 0 0 76 0 0 0 0 0 0 167 224 212 167 74 0 0 0 0 0 0 
0 0 0 167 237 74 74 106 0 106 74 0 0 0 0 0 0 0 167 149 74 106 0 0 0 0 0 0 152 152 0 0 0 72 152 0 113 144 160 113 0 0 0 0 0 0 0 0 0 0 0 0 0 120 152 169 169 152 152 211 0 167 76 120 152 183 0 106 74 167 217 239 0 0 0 0 0 0 212 144 113 0 0 0 0 0 0 0 0 0 0 0 0 113 160 72 160 0 0 160 113 0 0 113 152 0 113 113 113 0 72 113 101 0 0 0 0 0 0 0 0 0 0 0 0 0 0 0 0 72 104 187 185 144 113 0 0 74 222 0 235 234 72 216 74 0 0 0 0 206 0 113 212 167 120 104 152 152 0 72 0 72 0 0 0 0 0 0 0 0 0 0 0 0 0 0 0 0 0 0 0 0 0 0 163 74 167 120 169 0 0 120 80 0 106 74 167 74 0 0 0 0 0 0 74 100 194 212 0 0 0 0 160 113 0 0 0 0 76 76 169 0 0 0 0 0 0 0 0 0 0 0 0 0 0 0 0 0 0 0 0 0 74 167 224 106 167 167 74 0 0 0 0 0 0 74 167 167 74 106 106 0 0 0 0 0 0 0 74 167 167 74 0 0 0 0 106 167 149 74 0 106 0 0 0 0 0 0 0 0 0 0 0 0 0 0 0 0 0 0 0 0 0 0 0 0 0 0 0 0 212 212 0 0 0 0 0 0 0 0 0 0 0 0 212 212 0 0 0 0 0 0 0 0 0 0 0 0 0 0 0 0 0 76 0 152 0 0 0 0 152 0 0 0 0 144 144 0 0 0 0 0 0 0 0 0 0 0 0 0 0 0 0 0 0 0 0 0 220 0 76 74 106 74 0 0 120 0 185 0 0 0 0 0 0 0 0 0 0 0 0 0 0 0 0 0 0 0 0 0 144 144 0 169 120 0 0 0 0 76 0 0 0 0 0 0 0 0 0 0 0 0 0 0 0 0 0 0 0 0 0 0 0 0 0 0 0 0 0 0 0 0 0 0 0 0 0 0 0 0 0 0 0 0 0 0 0 0 0 0 0 0 0 0 0 0 0 0 0 0 0 0 0 0 0 0 0 0 0 0 0 0 0 120 76 120 0 0 0 0 74 237 167 0 0 0 0 0 0 0 0 0 
0 0 74 237 167 0 106 0 106 0 0 74 106 74 0 0 0 0 167 167 74 74 0 0 0 0 0 0 120 169 0 0 113 152 113 113 72 0 101 72 72 0 0 0 0 0 0 0 0 0 0 120 169 169 152 120 0 0 0 106 0 148 76 76 120 190 148 74 0 0 212 0 0 0 185 144 144 113 0 0 0 0 0 0 0 0 0 0 0 0 0 0 0 144 113 113 113 0 113 160 0 0 152 113 0 101 113 0 0 0 0 113 113 0 0 0 0 0 0 0 0 0 0 0 0 0 0 0 0 72 0 0 72 144 160 152 0 76 76 74 222 0 0 101 116 0 0 185 113 0 0 144 0 161 161 120 0 152 160 72 0 0 0 0 0 0 0 0 0 0 0 0 0 0 0 0 0 0 0 0 0 0 0 0 0 0 0 169 120 0 0 152 0 224 149 74 167 0 0 0 0 0 0 74 0 184 95 113 0 0 0 113 160 0 0 0 0 76 0 76 76 107 0 0 0 0 0 0 0 0 0 0 0 0 0 0 0 0 0 0 0 0 167 224 106 149 237 224 167 0 0 0 0 0 0 0 0 74 167 167 74 0 0 0 0 0 0 0 0 0 0 0 0 0 0 0 106 106 106 74 106 74 0 0 0 0 0 0 0 0 0 0 0 0 0 0 0 0 0 0 0 0 0 0 0 0 0 0 0 0 212 212 0 0 0 0 0 0 0 0 0 0 0 0 167 237 74 0 0 0 0 0 0 0 0 0 0 0 0 0 0 0 0 0 0 152 0 0 0 0 152 0 0 0 0 144 144 0 0 0 0 0 0 0 0 0 0 0 0 0 0 0 0 0 0 0 0 0 220 0 76 0 0 0 76 0 0 0 0 0 0 0 0 0 0 0 0 0 0 0 0 0 0 0 0 0 0 0 0 0 144 144 120 169 0 0 0 0 0 0 0 0 0 0 0 0 0 0 0 0 0 0 0 0 0 0 0 0 0 0 0 0 0 0 0 0 0 0 0 0 0 0 0 0 0 0 0 0 0 0 0 0 0 0 0 0 0 0 0 0 0 0 0 0 0 0 0 0 0 0 0 0 0 0 0 0 0 0 0 0 0 0 0 152 0 152 0 0 0 74 224 224 74 0 0 0 0 0 0 0 0 0 
0 0 167 237 74 0 74 74 74 74 0 106 0 106 0 0 0 0 106 167 149 74 0 0 0 0 0 0 76 152 76 0 113 152 113 113 0 101 113 0 72 113 0 0 0 0 0 0 0 120 169 169 120 0 0 120 152 152 152 211 0 242 152 152 169 169 169 152 152 218 0 206 0 0 0 0 0 0 0 0 0 0 0 0 0 0 0 0 0 0 0 0 113 152 0 72 72 72 144 144 0 152 101 155 231 146 0 0 0 152 144 113 113 0 0 0 0 0 0 0 0 0 0 0 0 0 0 0 0 0 101 0 113 113 0 152 160 185 0 0 218 161 189 144 72 0 0 0 0 0 0 144 0 152 152 152 0 0 113 152 113 0 0 0 0 0 0 0 0 0 0 0 0 0 0 0 0 0 0 0 0 0 0 104 74 234 120 169 0 0 0 242 190 106 149 167 74 0 0 0 0 0 74 0 180 132 206 0 0 0 0 144 144 0 0 0 0 0 107 76 76 0 76 0 0 0 0 0 0 0 0 0 0 0 0 0 0 0 0 0 0 0 167 237 149 167 106 224 167 0 0 0 0 0 0 0 0 0 0 0 0 0 0 0 0 0 0 0 0 0 0 0 0 0 0 74 224 237 167 74 0 0 0 0 0 0 0 0 0 0 0 0 0 0 0 0 0 0 0 0 0 0 0 0 0 0 0 0 0 0 212 212 0 0 0 0 0 0 0 0 0 0 0 74 149 167 106 0 0 0 0 0 0 0 0 0 0 0 0 0 0 0 0 0 0 120 76 0 0 0 152 0 0 0 0 144 144 0 0 0 0 0 0 0 0 0 0 0 0 0 0 0 0 0 0 0 0 0 185 0 120 0 0 120 76 120 0 191 0 113 0 0 0 0 0 0 0 0 0 0 0 0 0 0 0 0 0 0 0 0 144 185 169 120 0 0 0 0 0 0 0 0 0 0 0 0 0 0 0 0 0 0 0 0 0 0 0 0 0 0 0 0 0 0 0 0 0 0 0 0 0 0 0 0 0 0 0 0 0 0 0 0 0 0 0 0 0 0 0 0 0 0 0 0 0 0 0 0 0 0 0 0 0 0 0 0 0 0 0 0 0 120 120 120 0 152 0 0 74 224 224 74 0 0 0 0 0 0 0 0 0 0 
0 0 212 212 0 0 0 167 167 224 74 74 106 74 0 0 0 0 106 106 106 106 0 0 0 0 0 0 120 169 0 0 0 113 152 0 72 0 160 113 0 144 0 0 0 0 0 0 120 161 120 0 0 120 169 169 152 152 152 152 152 120 76 0 0 0 222 0 0 0 206 0 0 0 0 72 0 0 0 0 0 0 0 0 0 0 0 0 0 0 0 113 101 0 72 101 0 72 152 113 113 113 101 0 117 120 0 0 152 152 72 72 0 0 0 0 0 0 0 0 0 0 0 0 0 0 0 0 0 0 0 101 72 113 152 0 113 144 144 212 0 0 212 152 0 0 0 0 0 0 0 160 222 169 76 169 0 0 0 160 113 0 0 0 0 0 0 0 0 0 0 0 0 0 0 0 0 0 0 0 0 0 0 0 0 0 169 120 0 0 236 130 197 149 237 167 0 0 0 0 0 74 0 180 132 206 0 0 0 0 0 113 160 0 0 0 0 0 0 161 107 0 0 120 152 120 0 0 0 0 0 0 0 0 0 0 0 0 0 0 0 0 74 224 167 0 224 167 74 0 0 0 0 0 0 0 0 0 0 0 0 0 0 0 0 0 0 0 0 0 0 0 74 106 74 167 237 74 0 0 0 0 0 0 0 0 0 0 0 0 0 0 0 0 0 0 0 0 0 0 0 0 0 0 0 0 0 0 0 0 212 212 0 0 0 0 0 0 0 0 0 0 0 167 224 167 74 0 0 0 0 0 0 0 0 0 0 0 0 0 0 0 0 0 0 0 76 120 0 0 152 0 0 0 0 144 144 0 0 0 0 0 0 0 0 0 0 0 0 0 0 0 0 0 0 0 0 0 144 0 152 0 0 152 0 169 0 152 0 144 0 0 0 0 0 0 0 0 0 0 0 0 0 0 0 0 0 0 0 0 160 234 169 0 0 0 0 0 0 0 0 0 0 0 0 0 0 0 0 0 0 0 0 0 0 0 0 0 0 0 0 0 0 0 0 0 0 0 0 0 0 0 0 0 0 0 0 0 0 0 0 0 0 0 0 0 0 0 0 0 0 0 0 0 0 0 0 0 0 0 0 0 0 0 0 0 0 0 0 0 76 76 76 0 76 120 0 74 224 224 74 0 0 0 0 0 0 0 0 0 0 0 
0 0 167 237 74 74 167 149 74 167 74 167 167 74 0 74 106 74 106 167 149 74 0 0 0 0 0 0 152 152 0 0 0 0 160 0 0 72 113 160 0 144 0 0 0 0 0 120 107 107 152 152 169 169 120 0 0 0 0 0 0 0 0 120 76 189 113 113 144 113 0 0 0 0 72 0 72 0 0 0 0 0 0 0 0 0 0 0 0 0 0 113 72 160 144 113 0 113 101 0 113 146 213 117 117 158 0 72 144 72 0 0 0 0 0 0 0 0 0 0 0 0 0 0 0 0 0 0 0 0 0 0 152 113 72 113 113 0 0 0 101 72 101 0 0 0 0 0 0 0 113 113 104 218 76 169 120 0 113 160 0 0 0 0 0 0 0 0 0 0 0 0 0 0 0 0 0 0 0 0 0 0 163 74 167 120 169 0 0 120 80 0 167 74 237 74 0 0 0 0 0 167 148 136 206 0 0 0 0 0 0 0 160 113 0 0 0 0 0 107 120 76 76 76 0 107 120 0 0 0 0 0 0 0 0 0 0 0 0 0 0 0 0 74 106 149 237 106 106 74 0 0 0 0 0 0 0 0 0 0 0 0 0 0 74 106 74 74 167 167 74 0 167 106 167 212 212 0 0 0 0 0 0 0 0 0 0 0 0 0 0 0 0 0 0 0 0 0 0 0 0 0 0 0 0 0 0 0 0 0 167 237 74 0 0 0 0 0 0 0 0 0 0 212 212 0 0 0 0 0 0 0 0 0 0 0 0 0 0 0 0 0 0 0 0 0 0 152 0 0 152 0 0 0 0 144 144 0 0 0 0 0 0 0 0 0 0 0 0 0 0 0 0 0 0 0 0 0 144 0 152 0 0 152 120 169 120 120 0 185 0 0 0 0 0 0 0 0 0 0 0 0 0 0 0 0 0 0 0 113 160 191 152 0 0 0 0 0 0 0 0 0 0 0 0 0 0 0 0 0 0 0 0 0 0 0 0 0 0 0 0 0 0 0 0 0 0 0 0 0 0 0 0 0 0 0 0 0 0 0 0 0 0 0 0 0 0 0 0 0 0 0 0 0 0 0 0 0 0 0 0 0 0 0 0 0 0 0 0 0 76 0 107 76 76 0 0 167 237 74 0 0 0 0 0 0 0 0 0 0 0 0 
0 74 149 167 106 167 224 149 74 74 0 106 106 106 0 106 0 74 224 224 74 0 0 0 0 0 0 0 120 120 0 0 0 113 160 72 113 113 0 113 101 113 0 0 0 0 76 76 0 120 152 152 120 0 0 0 0 120 152 152 120 0 0 120 76 150 152 160 144 144 113 72 72 0 0 72 0 0 0 0 0 0 0 0 0 0 0 0 0 113 160 113 113 72 0 0 72 144 72 0 74 166 74 104 213 185 160 72 101 152 0 0 0 0 0 0 0 0 0 0 0 0 0 0 0 0 0 0 0 0 0 0 0 113 113 72 113 152 0 0 113 72 113 0 0 0 0 0 0 0 144 0 72 0 152 120 169 0 113 152 113 0 0 0 0 0 0 0 0 0 0 0 0 0 0 0 0 0 0 0 0 0 95 83 74 169 76 76 0 211 123 167 167 106 167 0 74 106 74 0 74 0 194 0 0 0 0 0 0 0 0 113 152 113 0 0 0 0 76 120 107 0 0 120 169 120 120 0 0 0 0 0 0 0 0 0 0 0 0 0 0 0 0 0 0 106 212 0 0 106 0 0 0 0 0 0 0 0 0 0 0 0 0 0 106 0 74 224 167 167 74 106 167 74 224 224 167 0 0 0 0 0 0 0 0 0 0 0 0 0 0 0 0 0 0 0 0 0 0 0 0 0 0 0 0 0 0 0 0 0 74 237 167 0 0 0 0 0 0 0 0 0 0 212 212 0 0 0 0 0 0 0 0 0 0 0 0 0 0 0 0 0 0 0 0 0 0 120 76 0 152 0 0 0 0 160 113 0 0 0 0 0 0 0 0 0 0 0 0 0 113 113 0 0 0 0 0 0 144 0 152 0 0 152 152 152 152 0 0 0 0 0 0 0 0 0 0 0 0 0 0 0 0 0 0 0 0 0 0 160 113 152 152 0 0 0 0 0 0 0 0 0 0 0 0 0 0 0 0 0 0 0 0 0 0 0 0 0 0 0 0 0 0 0 0 0 0 0 0 0 0 0 0 0 0 0 0 0 0 0 0 0 0 0 0 0 0 0 0 0 0 0 0 0 0 0 0 0 0 0 0 0 0 0 0 0 0 0 0 0 76 0 107 0 0 0 74 237 167 0 0 0 0 0 0 0 0 0 0 0 0 0 
0 106 106 74 167 149 167 167 74 106 106 167 167 74 0 106 0 74 237 74 0 0 0 0 0 0 0 120 0 0 120 0 0 144 144 113 101 72 0 0 0 72 0 0 0 0 0 120 120 0 0 0 0 0 0 0 76 76 0 0 76 76 0 74 187 185 113 0 72 72 113 144 144 160 113 0 0 72 0 0 0 0 0 0 0 0 0 0 113 152 113 0 144 72 0 0 113 212 117 0 76 0 107 163 160 72 113 160 101 113 113 0 0 0 0 0 0 0 0 0 0 0 0 0 0 0 0 0 0 0 0 0 0 0 0 152 113 72 101 0 113 72 113 0 0 0 0 0 0 0 144 0 72 0 152 76 152 76 74 187 206 113 0 0 0 0 0 0 0 0 0 0 0 0 0 0 0 0 0 0 0 163 172 117 247 161 76 76 107 80 100 74 74 106 74 0 106 0 106 74 0 180 136 163 0 0 0 0 0 0 72 72 72 72 0 0 0 0 0 169 120 0 0 0 0 76 0 0 0 0 0 0 0 0 0 0 0 0 0 0 0 0 0 0 0 167 237 74 74 149 74 0 0 0 0 0 0 0 0 0 0 0 0 0 74 106 74 212 0 212 0 74 149 149 149 74 106 0 0 0 0 0 0 0 0 0 0 0 0 0 0 0 0 0 0 0 0 0 0 0 0 0 0 0 0 0 0 0 0 0 74 237 167 0 0 0 0 0 0 0 0 0 0 212 212 0 0 0 0 0 0 0 0 0 0 0 0 0 0 0 0 0 0 0 0 120 152 120 76 107 120 0 0 0 72 144 72 0 0 0 0 0 0 0 0 0 0 0 0 113 152 152 113 0 0 0 0 0 144 0 152 0 0 120 161 161 120 0 0 0 0 0 0 0 0 0 0 0 72 0 0 0 0 0 0 0 0 0 113 160 104 169 120 0 0 0 0 0 0 0 0 0 0 0 0 0 0 0 0 0 0 0 0 0 0 0 0 0 0 0 0 0 0 0 0 0 0 0 0 0 0 0 0 0 0 0 0 0 0 0 0 0 0 0 0 0 0 0 0 0 0 0 0 0 0 0 0 0 0 0 0 0 0 0 0 0 0 76 76 76 0 120 107 120 0 74 224 224 74 0 0 0 0 0 0 0 0 0 0 0 0 0 
0 74 167 212 212 149 106 106 74 74 212 0 0 74 106 149 106 74 212 0 0 0 0 0 0 0 0 120 76 0 152 0 0 144 144 0 113 144 152 72 72 113 0 0 0 0 0 0 0 0 0 0 0 0 0 0 0 120 152 152 120 104 113 113 101 113 144 160 113 72 72 72 72 0 72 72 72 0 72 0 0 0 0 0 0 0 0 0 160 113 0 152 152 0 0 0 144 0 76 150 146 187 74 144 144 0 0 0 152 113 113 0 0 0 0 0 0 0 0 0 0 0 0 0 0 0 0 0 0 0 0 0 0 0 0 0 113 113 0 72 0 72 0 0 0 0 0 0 0 0 113 113 0 191 120 161 161 0 161 120 0 144 0 0 0 0 0 0 0 0 0 0 0 0 0 0 0 0 0 0 0 0 0 130 242 0 120 76 74 150 217 74 106 74 0 0 74 106 74 217 187 132 206 0 0 0 0 0 0 0 0 101 113 72 0 0 0 0 0 120 169 0 0 0 0 0 0 0 0 0 0 0 0 0 0 0 0 0 0 0 0 0 0 0 0 167 224 237 237 224 167 0 0 0 0 0 0 0 0 0 0 0 0 0 0 0 74 224 149 167 106 149 167 106 167 106 167 0 0 0 0 0 0 0 0 0 0 0 0 0 0 0 0 0 0 0 0 0 0 0 0 0 0 0 0 0 0 0 0 0 106 167 149 74 0 0 0 0 0 0 0 0 0 212 212 0 0 0 0 0 0 0 0 0 0 0 0 0 0 0 0 0 0 0 76 76 0 0 76 0 76 0 0 0 72 144 72 0 0 0 0 0 0 0 0 0 0 0 0 113 152 152 113 0 0 0 0 0 113 0 191 0 0 0 107 0 76 0 0 0 72 72 0 0 0 0 0 72 0 72 0 0 0 0 0 0 0 0 144 144 120 169 0 76 0 0 0 0 0 0 0 0 0 0 0 0 0 0 0 0 0 0 0 0 0 0 0 0 0 0 0 0 0 0 0 0 0 0 0 0 0 0 0 0 0 0 0 0 0 0 0 0 0 0 0 0 0 0 0 0 0 0 0 0 0 0 0 0 0 0 0 0 0 0 0 0 120 76 0 0 0 120 107 120 0 167 237 74 0 0 0 0 0 0 0 0 0 0 0 0 0 0 
0 0 0 0 74 237 74 167 149 167 212 0 74 224 167 0 106 106 237 74 0 0 0 0 0 0 0 0 0 120 120 0 0 144 144 0 0 0 144 0 72 113 0 0 0 0 0 0 0 0 0 0 0 0 0 0 0 0 0 0 0 113 101 72 101 113 0 0 101 72 72 0 0 0 101 0 72 0 113 113 0 0 0 0 0 0 113 160 152 0 152 152 0 0 0 0 144 0 0 0 161 152 113 144 144 0 0 0 72 0 72 0 0 0 0 0 0 0 0 0 0 0 0 0 0 0 0 0 0 0 0 0 0 0 0 0 0 0 72 0 0 0 0 0 0 0 0 0 0 0 0 160 113 120 120 161 0 161 107 120 0 144 0 0 0 0 0 0 0 0 0 0 0 0 0 0 0 0 0 0 163 74 117 169 120 0 0 0 0 100 74 106 0 106 0 0 0 0 74 148 225 206 0 0 0 0 0 0 0 0 0 113 160 0 0 0 0 0 0 0 161 161 0 0 0 0 0 0 0 0 0 0 0 0 0 0 0 0 0 0 0 0 0 0 0 74 167 167 74 167 224 212 167 74 0 0 0 0 0 0 0 0 0 0 0 0 0 74 237 74 212 74 224 224 106 106 167 0 0 0 0 0 0 0 0 0 0 0 0 0 0 0 0 0 0 0 0 0 0 0 120 152 120 0 0 0 0 0 0 0 74 167 224 167 0 0 0 0 0 0 0 0 74 237 167 0 0 0 0 0 0 0 0 0 0 0 0 0 0 0 0 0 0 0 0 120 120 120 0 0 76 0 0 0 113 160 0 0 0 0 0 0 0 0 0 0 0 0 0 0 101 0 72 0 0 0 0 0 0 0 0 106 74 0 120 76 120 0 191 0 0 0 72 0 0 0 0 0 72 0 0 0 0 0 0 0 0 0 144 185 169 120 120 76 120 0 0 0 0 0 0 0 0 0 0 0 0 0 0 0 0 0 0 0 0 0 0 0 0 0 0 0 0 0 0 0 0 0 0 0 0 0 0 0 0 0 0 0 0 0 0 0 0 0 0 0 0 0 0 0 0 0 0 0 0 0 0 0 0 0 0 0 0 0 0 0 120 76 0 0 0 120 120 0 74 237 167 0 0 0 0 0 0 0 0 0 0 0 0 0 0 0 
0 0 0 0 167 237 106 237 74 167 237 74 167 237 167 167 106 106 237 167 0 0 0 0 0 0 0 0 120 169 0 0 0 113 160 0 0 0 144 113 72 0 0 0 0 0 0 0 0 0 0 0 0 0 0 0 0 0 0 0 0 144 72 144 0 152 144 113 0 0 101 160 113 113 72 0 206 231 185 152 113 0 0 0 113 160 160 72 72 160 152 0 0 0 0 0 160 222 120 234 0 113 144 113 160 0 0 0 101 0 72 0 0 0 0 0 0 0 0 0 0 0 0 0 0 0 0 0 0 0 0 0 0 0 0 0 0 0 0 0 0 0 0 0 0 0 0 0 0 0 113 101 113 117 0 117 118 0 148 190 215 206 113 0 0 0 0 0 0 0 0 0 0 0 0 0 0 0 0 0 0 0 76 169 0 0 0 190 150 217 0 74 106 74 0 0 0 74 0 243 95 0 0 0 0 0 0 0 0 0 0 113 160 0 0 0 0 120 152 152 120 120 76 0 0 0 0 0 0 0 0 0 0 0 0 0 0 0 0 0 0 0 0 0 0 0 0 0 0 74 167 212 224 167 74 106 74 0 0 0 0 0 0 0 0 0 0 74 237 74 212 0 74 237 106 106 74 0 0 0 0 0 0 0 0 0 0 0 0 0 0 0 0 0 0 0 0 0 0 76 76 0 76 76 0 0 0 0 0 0 0 0 212 212 0 0 0 0 0 0 0 0 167 237 74 0 0 0 0 0 0 0 0 0 0 0 0 0 0 0 0 0 0 0 0 0 76 120 0 0 0 0 0 0 144 144 0 0 0 0 0 0 0 0 0 0 0 0 0 0 72 0 72 0 0 0 0 0 0 0 153 0 106 0 152 0 152 0 152 0 113 72 0 0 0 0 0 0 0 0 0 0 0 0 0 0 0 0 160 234 169 0 120 76 120 0 0 0 0 0 0 0 0 0 0 0 0 0 0 0 0 0 0 0 0 0 0 0 0 0 0 0 0 0 0 0 0 0 0 0 0 0 0 0 0 0 0 0 0 0 0 0 0 0 0 0 0 0 0 0 0 0 0 0 0 0 0 0 0 0 0 0 0 0 0 0 0 76 76 76 120 0 0 0 167 237 74 0 0 0 0 0 0 0 0 0 0 0 0 0 0 0 
0 0 0 0 212 212 167 237 74 74 224 224 167 212 212 167 106 106 237 167 0 0 0 0 0 0 0 0 120 169 0 0 0 0 160 113 0 0 113 160 0 0 0 0 0 0 0 0 0 0 0 0 0 0 0 0 0 0 0 0 0 144 113 152 101 72 144 160 185 0 232 0 152 152 0 113 231 0 117 160 113 0 0 113 152 113 0 113 152 113 0 0 0 0 0 72 113 155 218 0 74 0 152 72 113 113 0 72 0 101 0 0 0 0 0 0 0 0 0 0 0 0 0 0 0 0 0 0 0 0 0 0 0 0 0 0 0 0 0 0 0 0 0 72 0 0 0 0 0 113 152 113 104 218 107 232 209 126 0 183 218 0 206 113 0 0 0 0 0 0 0 0 0 0 0 0 0 0 0 163 74 117 169 120 0 0 0 80 100 0 106 74 0 0 0 0 0 167 148 146 163 0 0 0 0 0 0 0 0 0 0 72 144 72 0 0 76 120 120 152 152 120 0 0 0 0 0 0 0 0 0 0 0 0 0 0 0 0 0 0 0 0 0 0 0 0 0 0 0 74 167 167 167 212 106 0 106 0 0 0 0 0 0 0 0 0 0 167 167 167 106 106 106 237 167 0 0 0 0 0 0 0 0 0 0 0 0 0 0 0 0 0 0 0 0 0 0 0 0 0 120 152 120 0 0 0 0 0 0 0 0 0 212 212 0 0 0 0 0 0 0 0 212 212 0 0 0 0 0 0 0 0 0 0 0 0 0 0 0 0 0 0 0 0 0 0 76 0 120 161 0 0 0 0 144 144 0 0 0 0 0 0 0 0 0 0 0 0 0 0 0 72 0 0 0 0 0 0 0 185 116 183 74 0 152 0 152 0 120 0 185 0 0 0 0 0 0 0 0 0 0 0 0 0 0 0 0 113 160 191 152 0 0 76 0 0 0 0 0 0 0 0 0 0 0 0 0 0 0 0 0 0 0 0 0 0 0 0 0 0 0 0 0 0 0 0 0 0 0 0 0 0 0 0 0 0 0 0 0 0 0 0 0 0 0 0 0 0 0 0 0 0 0 0 0 0 0 0 0 0 0 0 0 0 0 0 0 0 120 76 120 0 0 0 212 212 0 0 0 0 0 0 0 0 0 0 0 0 0 0 0 0 
0 0 0 0 167 237 0 224 224 74 74 224 167 106 237 0 106 106 237 74 0 0 0 0 0 0 0 0 76 152 76 0 72 0 144 144 0 0 0 160 113 0 0 0 0 0 0 0 0 0 0 0 0 0 0 0 0 0 0 0 0 160 113 116 214 168 152 191 222 163 76 213 152 0 0 160 146 117 206 152 0 0 0 160 113 0 113 152 113 0 0 0 0 0 0 0 113 160 0 117 0 187 72 152 0 144 0 0 72 0 0 0 0 0 0 0 0 0 0 0 0 0 0 0 0 0 0 0 0 0 0 0 0 0 0 0 0 72 0 0 0 0 113 72 113 0 0 0 0 113 160 0 104 150 215 0 155 136 0 0 128 161 0 212 0 0 0 0 0 0 0 0 0 0 0 0 0 0 0 0 0 76 169 0 0 76 182 150 217 106 0 106 0 0 0 0 74 0 194 0 0 0 0 0 0 0 0 0 0 0 0 152 152 0 0 0 0 161 169 120 0 0 0 0 0 0 0 0 0 0 0 0 0 0 0 0 0 0 0 0 0 0 0 0 0 0 0 0 0 106 106 74 149 167 74 106 74 0 0 0 0 0 0 0 0 0 0 167 167 224 74 74 167 224 74 0 0 0 0 0 0 0 0 0 0 0 0 0 0 0 0 0 0 0 0 0 0 0 0 0 0 0 0 0 0 0 0 0 0 0 0 74 237 167 0 0 0 0 0 0 0 0 212 212 0 0 0 0 0 0 0 0 0 0 0 0 0 0 0 0 0 0 0 0 76 76 161 152 120 120 76 0 0 0 144 144 0 0 0 0 0 0 0 0 0 0 0 0 0 0 0 0 0 0 0 0 0 0 0 144 0 152 0 0 152 0 152 0 0 0 0 0 0 0 0 0 0 0 0 0 0 0 0 0 0 0 0 144 185 169 120 0 0 0 0 0 0 0 0 0 0 0 0 0 0 0 0 0 0 0 0 0 0 0 0 0 0 0 0 0 0 0 0 0 0 0 0 0 0 0 0 0 0 0 0 0 0 0 0 0 0 0 0 0 0 0 0 0 0 0 0 0 0 0 0 0 0 0 0 0 0 0 0 0 0 0 0 0 0 76 0 0 74 167 224 167 0 0 0 0 0 0 0 0 0 0 0 0 0 0 0 0 
0 0 0 0 74 237 149 74 167 167 0 74 106 106 237 167 0 0 212 0 0 0 0 0 0 0 0 0 76 152 76 72 0 0 160 113 0 0 0 160 113 0 0 0 72 0 0 0 0 0 0 0 0 0 0 0 0 0 0 0 113 113 116 0 0 150 76 76 117 234 0 206 0 0 152 152 0 113 160 0 0 0 152 152 0 152 160 113 0 0 0 0 0 0 0 0 0 0 0 215 150 213 152 113 0 160 0 0 0 0 0 0 0 0 0 0 0 0 0 0 0 0 0 0 0 0 0 0 0 0 0 0 0 0 0 0 113 113 152 0 0 0 113 72 113 0 0 0 0 0 160 146 0 76 165 161 72 155 153 167 106 0 212 0 206 0 0 0 0 0 0 0 0 0 0 0 0 0 163 74 167 152 152 0 76 0 240 123 74 74 106 74 0 0 0 0 217 187 136 163 0 0 0 0 0 0 0 0 0 0 72 144 72 0 0 0 0 0 120 161 120 0 0 0 0 0 0 0 0 0 0 0 0 0 0 0 0 0 0 0 0 0 0 0 0 0 0 0 0 74 167 167 167 106 0 0 0 0 0 0 0 0 0 74 106 74 0 74 74 106 167 149 149 74 0 0 0 0 0 0 0 0 0 0 0 0 0 0 0 0 0 0 0 0 0 0 0 0 0 0 0 76 0 0 0 0 0 0 0 0 0 106 212 106 0 0 0 0 0 0 0 0 212 212 0 0 0 0 0 0 0 0 0 0 0 0 0 0 0 0 0 0 0 76 0 0 152 0 76 76 76 0 0 113 152 113 0 0 0 0 0 0 0 0 0 0 0 0 0 0 113 144 113 0 0 0 0 0 0 144 0 152 0 0 152 0 152 0 120 169 0 113 0 0 0 0 0 0 0 0 0 0 0 0 0 0 0 144 220 152 76 0 0 0 0 0 0 0 0 0 0 0 0 0 0 0 0 0 0 0 0 0 0 0 0 0 0 0 0 0 0 0 0 0 0 0 0 0 0 0 0 0 0 0 0 0 0 0 0 0 0 0 0 0 0 0 0 0 0 0 0 0 0 0 0 0 0 0 0 0 0 0 0 0 0 0 0 0 0 0 0 0 167 224 167 74 0 0 0 0 0 0 0 0 0 0 0 0 0 0 0 0 
0 0 74 167 212 149 106 167 74 167 106 106 106 167 212 212 74 106 167 0 0 0 0 0 0 0 0 0 76 152 76 0 0 101 152 0 0 0 101 113 72 0 0 104 0 72 0 0 0 0 0 0 0 0 0 0 0 0 0 76 155 222 74 0 0 161 191 0 0 212 113 0 0 152 152 0 0 160 113 0 0 152 152 0 152 152 0 0 0 0 0 0 0 0 0 0 0 0 185 232 0 117 160 0 146 155 163 0 0 0 0 0 0 0 0 0 0 0 0 0 0 0 0 0 0 0 0 0 0 0 0 0 0 0 0 0 113 101 113 72 0 0 0 72 0 0 0 0 0 0 144 220 0 0 150 234 206 72 95 82 0 189 90 0 136 0 104 0 0 0 0 0 0 0 0 0 0 0 0 0 0 169 120 0 0 0 72 72 0 0 0 0 0 0 0 74 148 225 206 0 0 0 0 0 0 0 0 0 0 0 0 160 113 0 0 0 0 0 0 120 169 0 0 0 0 0 0 0 0 0 0 0 0 0 0 0 0 0 0 0 0 0 0 0 0 0 0 0 0 0 0 74 224 224 106 106 74 0 0 0 0 0 0 106 0 106 0 0 106 106 0 106 106 0 0 0 0 0 0 0 0 0 0 0 0 0 0 0 0 0 0 0 0 0 0 0 0 76 0 0 76 0 76 0 0 0 0 0 0 0 0 106 167 149 74 0 0 0 0 0 0 0 167 237 74 0 0 0 0 0 0 0 0 0 0 0 0 0 0 0 0 0 0 0 0 76 169 0 76 76 76 0 72 113 101 0 0 0 0 0 0 0 0 0 0 0 0 0 0 72 113 72 113 72 0 0 0 0 0 144 0 152 0 0 152 0 169 0 76 76 220 144 0 0 0 0 0 0 0 0 0 0 0 0 0 0 0 160 187 152 76 0 0 0 0 0 76 0 0 0 0 0 0 0 0 0 0 0 0 0 0 0 0 0 0 0 0 0 0 0 0 0 0 0 0 0 0 0 0 0 0 0 0 0 0 0 0 0 0 0 0 0 0 0 0 0 0 0 0 0 0 0 0 0 0 0 0 0 0 0 0 0 0 0 0 0 0 0 0 0 0 74 237 167 0 0 0 0 0 0 0 0 0 0 0 0 0 0 0 0 0 0 
0 0 106 106 0 0 74 74 74 74 0 0 0 74 224 224 149 106 74 0 0 0 0 0 0 0 0 0 120 169 0 0 113 160 0 0 0 72 0 101 113 0 161 167 158 0 0 0 0 0 0 0 0 0 0 120 152 152 169 152 191 236 117 76 218 0 231 231 163 0 0 0 206 0 150 0 113 160 0 0 152 152 0 152 152 0 72 0 0 113 113 0 0 0 0 0 0 0 144 185 0 0 185 113 0 0 0 0 0 0 0 0 0 0 0 0 0 0 0 0 0 0 0 0 0 0 0 0 0 0 0 0 0 0 0 0 0 113 113 0 0 0 0 0 0 0 0 0 0 0 160 146 76 76 161 161 234 160 116 0 235 236 137 167 131 132 0 0 0 0 0 0 0 0 0 0 0 0 0 222 161 161 0 0 120 242 137 217 0 0 0 0 0 0 74 0 243 95 0 0 0 0 0 0 0 0 0 0 0 0 0 144 113 72 0 0 0 0 0 0 169 120 0 0 0 0 0 0 0 0 0 0 0 0 0 0 0 0 0 0 0 0 0 0 0 0 0 0 0 0 0 0 74 237 106 106 167 0 0 0 0 0 0 106 0 106 74 167 106 106 212 224 167 0 0 0 0 0 0 0 0 0 0 0 0 0 0 0 0 0 0 0 0 0 0 0 76 0 76 0 0 76 0 0 0 0 0 0 0 0 0 106 106 106 106 0 0 0 0 0 0 0 74 237 167 0 0 0 0 0 0 0 0 0 0 0 0 0 0 0 0 0 120 120 161 0 152 120 120 120 0 0 0 160 113 0 0 0 0 0 0 0 0 0 0 0 0 0 0 0 160 72 160 0 0 0 0 0 0 144 0 152 0 0 152 120 169 76 120 161 0 144 0 0 0 0 0 0 0 0 0 0 0 0 0 0 113 160 167 169 0 0 0 0 0 107 0 76 0 0 0 0 0 0 0 0 0 0 0 0 0 0 0 0 0 0 0 0 0 0 0 0 0 0 0 0 0 0 0 0 0 0 0 0 0 0 0 0 0 0 0 0 0 0 0 0 0 0 0 0 0 0 0 0 0 0 0 0 0 0 0 0 0 0 0 0 76 0 0 0 0 167 237 74 0 0 0 0 0 0 0 0 0 0 0 0 0 0 0 0 0 0 
0 74 74 106 212 167 74 74 149 106 106 106 106 74 106 106 106 0 0 0 0 0 0 0 0 0 0 0 152 152 0 0 144 144 0 0 0 0 72 113 144 120 169 120 152 0 0 0 0 0 0 0 0 0 161 169 152 152 120 76 0 117 0 0 0 212 113 0 0 0 0 206 0 218 161 150 160 113 0 152 152 0 152 152 0 72 0 101 101 152 152 113 0 0 0 0 0 113 152 113 120 76 0 144 0 0 0 0 0 0 0 0 0 0 0 0 0 0 0 0 0 0 0 0 0 0 0 0 0 0 0 0 0 0 0 0 0 0 0 0 113 113 0 0 0 0 0 0 0 152 152 0 0 169 120 120 218 212 72 152 113 104 216 0 167 0 74 163 0 0 0 0 0 0 0 0 0 206 0 0 169 0 0 120 161 0 0 74 0 0 0 0 0 0 167 148 146 163 0 0 0 0 0 0 0 0 0 0 0 0 0 144 72 0 72 0 0 0 0 0 152 152 0 0 0 0 0 0 0 0 0 0 0 0 0 0 0 0 0 0 0 0 0 0 0 0 0 0 0 74 106 74 0 167 106 106 237 74 0 74 167 212 167 74 0 106 167 224 237 237 212 149 149 167 74 0 0 0 0 0 0 0 0 0 0 0 0 0 0 0 0 0 0 0 0 0 0 76 0 0 0 0 0 0 0 0 0 0 0 0 0 74 167 167 74 0 0 0 0 0 0 0 0 212 212 0 0 0 0 0 0 0 0 0 0 0 0 0 0 0 0 0 120 107 76 120 161 120 0 0 0 0 0 160 113 0 0 0 0 0 0 0 0 0 0 0 0 0 0 0 144 0 160 0 0 0 0 0 0 144 0 152 0 0 152 152 211 185 74 120 0 212 0 0 0 0 0 0 0 0 0 0 0 0 0 0 144 185 120 120 0 0 0 0 76 0 107 0 0 0 0 0 0 0 0 0 0 0 0 0 0 0 0 0 0 0 0 0 0 0 0 0 0 0 0 0 0 0 0 0 0 0 0 0 0 0 0 0 0 0 0 0 0 0 0 0 0 0 0 0 0 0 0 0 0 0 0 0 0 0 0 0 0 0 120 169 120 120 0 0 74 237 167 0 0 0 0 0 0 0 0 0 0 0 0 0 0 0 0 0 0 0 
0 106 0 106 0 74 167 167 74 0 0 0 0 106 106 106 106 0 0 0 0 0 0 0 0 0 0 0 152 152 0 0 144 144 0 0 0 0 0 144 185 169 76 169 120 0 0 0 0 0 0 0 120 169 161 128 106 74 0 120 169 0 0 185 113 0 0 0 0 0 152 0 218 0 218 0 152 0 152 152 0 152 152 0 0 0 101 0 101 113 144 144 0 0 0 0 113 206 187 74 120 76 0 144 0 146 0 163 0 0 0 0 0 0 0 0 0 0 0 0 0 0 0 0 0 0 0 0 0 0 0 0 0 0 0 0 0 0 0 72 72 0 101 0 0 0 0 0 152 152 0 0 169 161 0 0 169 234 160 0 72 113 68 0 197 139 0 231 0 0 0 0 0 0 0 0 163 0 212 120 152 0 0 152 152 212 212 0 0 0 0 0 0 74 0 194 0 0 0 0 0 0 0 0 0 113 113 0 0 0 0 113 113 0 0 0 0 0 0 0 120 169 0 0 0 0 0 0 0 0 0 0 0 0 0 0 0 0 0 0 0 0 0 0 0 0 0 0 0 106 0 106 0 74 106 106 224 224 74 167 224 212 237 167 74 106 212 212 74 167 212 167 74 106 106 0 0 0 0 0 0 0 0 0 0 0 0 0 0 0 0 0 0 0 0 0 0 0 0 0 0 76 0 0 0 0 0 0 0 0 0 0 212 212 0 0 0 0 0 0 0 0 0 212 212 0 0 0 0 0 0 0 0 0 0 0 0 0 0 0 0 0 0 120 120 76 0 0 0 0 0 0 113 160 0 0 0 0 0 0 0 0 0 0 0 0 0 0 0 0 144 113 160 113 0 0 0 0 0 113 0 191 0 0 120 169 223 152 106 0 236 0 72 0 0 0 0 0 0 0 0 0 0 0 0 0 160 234 107 0 76 0 0 0 0 76 0 0 0 0 0 0 0 0 0 0 0 0 0 0 0 0 0 0 0 0 0 0 0 0 0 0 0 0 0 0 0 0 0 0 0 0 0 0 0 0 0 0 0 0 0 0 0 0 0 0 0 0 0 0 0 0 0 0 76 0 0 0 0 0 0 0 0 76 76 0 107 120 0 0 167 237 74 0 0 0 0 0 0 0 0 0 0 0 0 0 0 0 0 0 0 0 
0 74 106 74 74 106 106 106 74 0 0 0 0 74 167 167 74 0 0 0 0 0 0 0 0 0 0 0 152 152 0 0 113 160 0 0 0 0 0 113 0 192 76 169 104 113 113 0 0 0 120 169 169 120 0 77 120 185 169 169 120 185 144 0 0 0 0 0 0 152 152 191 152 120 0 212 0 152 152 0 152 152 0 0 0 0 0 113 113 0 160 113 0 0 0 0 144 0 76 150 116 104 163 212 116 0 116 0 0 0 0 0 0 0 0 0 0 0 0 0 0 0 0 0 0 0 0 0 0 0 0 0 0 0 0 0 113 144 113 0 113 101 0 113 0 0 113 160 101 0 0 120 0 148 106 167 0 0 212 113 0 113 212 212 169 169 218 185 72 0 0 0 0 0 0 0 0 0 0 169 120 0 0 152 211 237 167 0 0 0 0 0 74 0 180 136 163 0 0 0 0 0 0 0 72 72 72 72 0 0 0 72 144 72 0 0 0 0 0 0 76 152 76 0 0 0 0 0 0 0 0 0 0 0 0 0 0 0 0 0 0 0 0 0 0 0 0 0 0 74 106 74 0 0 0 0 74 224 237 224 167 0 74 167 237 237 149 149 212 167 74 74 167 167 74 0 0 0 0 0 0 0 0 0 0 0 0 0 0 0 0 0 0 0 0 0 0 0 0 0 76 0 76 0 0 0 0 0 0 0 0 0 167 237 74 0 0 0 0 0 0 0 0 167 237 74 0 0 0 0 0 0 0 0 0 0 0 0 0 0 0 0 0 0 0 161 152 152 161 0 0 0 144 144 0 0 0 0 0 0 0 0 0 0 0 0 0 0 0 0 113 152 152 113 0 0 0 0 0 0 0 0 0 0 0 169 92 185 74 0 224 0 72 0 0 0 0 0 0 0 0 0 0 0 0 113 160 191 120 76 0 0 0 0 0 0 0 0 0 0 0 0 0 0 0 0 0 0 0 0 0 0 0 0 0 0 0 0 0 0 0 0 0 0 0 0 0 0 0 0 0 0 0 0 0 0 0 0 0 0 0 0 0 0 0 0 0 0 0 0 0 0 0 76 0 76 0 0 0 0 0 0 0 0 120 152 120 0 0 74 237 167 0 0 0 0 0 0 0 0 0 0 0 0 0 0 0 0 0 0 0 0 
0 0 0 0 167 106 106 106 167 0 0 0 0 0 0 0 0 0 0 0 0 0 0 0 0 0 0 0 152 152 0 0 0 160 113 0 0 0 0 0 0 0 76 161 165 161 152 113 0 161 169 120 0 0 120 248 82 241 76 0 0 144 144 0 0 0 0 0 113 160 104 120 107 212 234 101 160 101 72 160 152 0 0 0 0 0 0 144 144 113 160 0 113 113 0 0 144 0 76 234 72 222 117 0 72 0 116 74 163 0 0 0 0 0 0 0 0 0 0 0 0 0 0 0 0 0 0 0 0 0 0 0 0 0 0 152 160 144 160 160 113 72 72 113 0 113 152 72 101 113 72 240 142 167 106 224 0 80 0 144 0 0 160 187 76 76 187 160 0 0 0 0 0 0 0 0 0 222 161 161 0 0 0 152 0 237 74 0 0 0 0 74 0 180 132 206 0 0 0 0 0 0 0 0 72 72 72 72 0 0 0 72 144 72 0 0 0 0 0 0 161 161 0 0 0 0 0 0 0 0 0 0 0 0 0 0 0 0 0 0 0 0 0 0 0 0 0 0 0 0 0 0 0 0 0 0 0 74 167 167 74 0 0 0 74 167 167 74 0 106 106 0 0 0 0 0 0 0 0 0 0 0 0 0 0 0 0 0 0 0 0 0 0 0 0 0 76 0 0 0 0 76 0 0 0 0 0 0 0 0 0 0 74 224 224 74 0 0 0 0 0 0 0 74 237 167 0 0 0 0 0 0 0 0 0 0 0 0 0 0 0 0 0 0 0 76 0 76 120 76 0 0 144 144 0 0 0 0 0 0 0 0 0 0 0 0 0 0 0 0 0 113 113 0 0 0 0 0 0 0 0 0 0 0 0 152 0 152 0 120 169 0 113 0 0 0 0 0 0 0 0 0 0 0 0 144 144 152 152 0 0 0 0 0 0 0 0 0 0 0 0 0 0 0 0 0 0 0 0 0 0 0 0 0 0 0 0 0 0 0 0 0 0 0 0 0 0 0 0 0 0 0 0 0 0 0 0 0 0 0 0 0 0 0 0 0 0 0 0 0 0 0 0 0 76 0 0 0 0 0 0 0 0 0 0 0 0 0 0 167 237 74 0 0 0 0 0 0 0 0 0 0 0 0 0 0 0 0 0 0 0 0 
0 0 0 0 212 0 0 0 212 0 0 0 0 0 0 0 74 167 167 74 0 0 0 0 0 0 0 0 120 169 0 0 0 144 144 0 0 0 0 0 163 74 117 120 0 0 152 163 161 161 0 0 120 169 169 158 0 116 107 0 117 160 113 0 0 0 0 113 152 113 76 0 167 0 116 101 113 72 152 113 0 0 0 0 0 0 0 160 72 160 72 152 113 113 72 0 212 163 0 185 0 0 0 0 144 0 0 234 0 0 0 0 0 0 0 0 0 0 0 0 0 0 0 0 0 0 0 0 0 0 0 0 0 0 113 212 117 0 0 113 152 72 72 0 0 113 160 0 113 101 113 0 108 74 106 167 212 108 0 144 0 0 113 231 117 117 231 113 0 0 0 0 0 0 0 163 74 0 169 0 0 0 0 242 100 167 0 0 0 0 0 217 187 132 206 0 0 0 0 0 0 0 0 0 113 152 152 113 0 0 0 101 113 72 0 0 0 0 0 76 120 107 0 0 0 0 0 0 0 0 0 0 0 0 0 0 0 0 0 0 0 0 0 0 0 0 0 0 0 0 0 0 0 0 0 0 0 0 0 0 0 0 0 0 0 0 74 167 212 167 74 74 106 74 0 0 0 0 0 0 0 0 0 0 0 0 0 0 0 0 0 0 0 0 0 76 0 76 0 0 76 76 76 0 0 0 0 0 0 0 0 0 0 74 237 167 0 0 0 0 0 0 0 0 212 212 0 0 0 0 0 0 0 0 0 0 0 0 0 0 0 0 0 0 0 120 161 152 120 0 0 0 160 113 0 0 0 0 0 0 0 0 0 0 0 0 0 0 0 0 0 0 0 0 0 0 0 0 0 0 185 0 120 0 0 152 0 152 120 107 0 220 144 0 0 0 0 0 0 0 0 0 0 0 0 144 144 152 152 0 0 0 0 0 0 0 0 0 0 0 0 0 0 0 0 0 0 0 0 0 0 0 0 0 0 0 0 0 0 0 0 0 0 0 0 0 0 0 0 0 0 0 0 0 0 0 0 0 0 0 0 0 0 0 0 0 0 0 0 0 0 0 0 0 0 0 0 0 0 0 0 0 0 0 0 0 0 0 74 237 167 0 0 0 0 0 0 0 0 0 0 0 0 0 0 0 0 0 0 0 0 0 
0 74 106 74 212 0 0 0 212 0 0 0 74 167 212 212 167 74 106 106 0 0 0 0 0 0 0 0 0 169 120 0 0 144 144 0 0 0 0 0 0 234 0 120 117 0 222 158 169 0 120 169 169 120 0 74 189 218 76 120 163 160 0 0 0 0 206 0 222 74 0 117 206 152 113 144 0 160 113 0 0 0 0 0 0 0 152 101 101 152 72 160 72 160 0 113 231 0 76 144 0 0 0 0 185 163 74 0 0 113 0 0 0 0 0 0 0 0 0 0 0 0 0 0 0 0 0 0 0 0 0 0 0 0 113 231 74 120 152 120 185 144 0 0 0 0 160 72 146 187 74 190 133 203 74 74 212 72 0 212 0 0 0 212 209 209 212 0 0 0 0 0 0 0 0 0 234 120 120 0 0 0 120 80 0 74 0 0 0 0 128 187 213 206 0 0 0 0 0 0 0 0 0 0 144 144 144 144 0 0 113 152 113 0 0 0 0 0 0 0 120 161 120 0 0 0 0 0 0 0 0 0 0 0 0 0 0 0 0 0 0 0 0 0 0 0 0 0 0 0 0 0 0 0 0 0 0 0 0 0 0 0 0 74 106 74 0 0 0 0 0 106 0 106 0 0 0 0 0 0 0 0 0 0 0 0 0 0 0 0 0 0 0 0 0 0 76 0 0 120 76 76 76 107 76 0 0 0 0 0 0 0 0 0 212 212 0 0 0 0 0 0 0 0 212 212 0 0 0 0 0 0 0 0 0 0 0 0 0 0 0 76 0 0 76 76 169 0 0 0 0 72 113 101 0 0 0 0 0 0 0 0 0 0 0 0 0 0 0 0 0 0 72 0 0 0 0 0 0 0 144 0 152 0 0 152 0 152 152 0 76 0 144 0 0 0 0 0 0 0 0 0 0 0 0 144 185 169 120 0 0 0 0 0 0 0 0 0 0 0 0 0 0 0 0 0 0 0 0 0 0 0 0 0 0 0 0 0 0 0 0 0 0 0 0 0 0 0 0 0 0 0 0 0 0 0 0 0 0 0 0 0 0 0 0 0 0 0 0 0 0 0 0 0 0 0 0 0 0 0 76 0 0 0 0 0 0 74 224 224 74 0 0 0 0 0 0 0 0 0 0 0 0 0 0 0 0 0 0 0 0 0 
0 106 0 106 167 106 74 0 212 0 0 74 149 74 0 0 74 167 167 74 0 0 0 0 0 0 0 0 76 120 152 0 0 144 144 0 0 0 0 72 0 115 165 169 107 76 169 76 107 169 169 120 0 0 0 76 76 0 107 120 113 160 0 0 0 72 220 148 76 76 0 152 152 0 144 113 152 152 0 0 0 0 0 0 0 152 101 101 152 0 160 113 144 144 0 144 185 76 0 113 72 0 120 0 0 0 0 163 0 185 0 0 0 0 0 0 0 0 0 0 0 0 0 0 0 0 0 0 0 0 0 0 0 0 0 206 0 163 0 117 231 113 0 0 163 187 101 144 76 0 117 146 85 187 217 0 212 252 218 0 113 0 0 113 152 152 113 0 0 0 0 0 0 0 163 74 0 169 0 0 76 76 242 100 167 0 0 0 0 128 180 0 0 0 0 0 0 0 0 0 0 0 0 0 144 144 113 160 0 0 113 152 113 0 0 0 0 0 0 0 76 120 152 0 0 0 0 0 0 0 0 0 0 0 0 0 0 0 0 0 0 0 0 0 0 0 0 0 0 0 0 0 0 0 0 0 0 0 0 0 0 0 0 106 0 106 0 0 0 0 0 106 0 106 0 0 0 0 0 0 0 0 0 0 0 0 0 0 0 0 0 76 0 0 0 0 0 0 120 107 0 76 0 76 120 120 0 0 0 0 0 0 0 0 212 212 0 0 0 0 0 0 0 0 212 212 0 0 0 0 0 0 0 0 0 0 0 0 0 0 76 0 0 161 120 0 152 76 0 0 72 0 72 72 72 0 0 0 0 0 0 0 0 0 0 0 0 0 0 0 0 72 0 72 0 0 0 0 0 0 144 0 152 0 0 120 0 120 76 76 76 0 185 0 0 0 0 0 0 0 0 0 0 0 0 160 234 169 0 0 0 0 0 0 0 0 0 0 0 0 0 0 0 0 0 0 0 0 0 0 0 0 0 0 0 0 0 0 0 0 0 0 0 0 0 0 0 0 0 0 0 0 0 0 0 0 0 0 0 0 0 0 0 0 0 0 0 0 0 0 0 0 0 0 0 0 0 0 0 107 0 76 0 0 0 0 0 167 237 74 0 0 0 0 0 0 0 0 0 0 0 0 0 0 0 0 0 0 0 0 0 0 
0 74 74 74 0 74 167 106 224 212 167 74 74 167 167 106 149 74 0 0 0 0 0 0 0 0 0 120 76 0 152 0 113 152 113 0 0 0 0 0 113 113 0 116 212 169 120 107 120 120 0 0 0 0 0 0 120 152 76 0 104 160 113 0 0 0 212 209 120 0 113 160 0 0 144 0 160 0 0 0 0 0 0 0 72 113 113 152 0 152 152 0 160 113 0 144 144 0 72 0 72 191 152 191 0 113 163 0 163 220 0 0 0 0 0 0 0 0 0 0 0 0 0 0 0 0 0 0 0 0 0 0 0 0 0 0 163 0 0 216 212 0 0 163 0 0 165 113 0 76 163 152 212 213 180 252 224 167 152 0 144 0 0 0 113 113 0 0 0 0 0 0 0 0 0 0 120 152 0 107 0 0 80 0 74 0 0 0 74 80 243 0 0 0 0 0 0 0 0 0 0 0 0 0 144 144 72 144 72 0 72 72 72 72 0 0 0 0 0 76 0 76 120 76 0 0 0 0 0 0 0 0 0 0 0 0 0 0 0 0 0 0 0 0 0 0 0 0 0 0 0 0 0 0 0 0 0 0 0 0 0 0 0 74 106 74 0 0 0 0 0 106 0 106 0 0 0 0 0 0 0 0 0 0 0 0 0 0 76 0 76 0 76 0 0 0 0 76 76 0 107 76 107 120 76 152 0 0 0 0 0 0 0 0 212 167 106 74 0 0 0 0 0 0 212 212 0 0 0 0 0 0 0 0 0 0 0 0 0 0 0 76 0 152 76 0 169 0 0 72 0 0 152 113 0 0 0 0 0 0 0 0 0 0 0 0 0 0 0 0 0 0 72 0 0 0 0 0 0 0 113 0 191 0 0 0 120 0 76 76 76 0 0 0 0 0 0 0 0 0 0 0 0 0 113 212 218 120 0 0 0 0 0 0 0 0 0 0 0 0 0 0 0 0 0 0 0 0 0 0 0 0 0 0 0 0 0 0 0 0 0 0 0 0 0 0 0 0 0 0 0 0 0 0 0 0 0 0 0 0 0 0 0 0 0 0 0 0 0 0 0 0 0 0 0 0 0 0 76 76 0 120 152 120 0 0 0 212 212 0 0 0 0 0 0 0 0 0 0 0 0 0 0 0 0 0 0 0 0 0 0 0 
0 74 224 167 167 167 237 106 167 212 237 149 74 0 224 212 237 167 74 0 0 0 0 0 0 0 0 152 0 76 120 72 72 72 72 0 0 0 0 0 113 160 0 0 163 234 191 120 0 0 0 120 152 120 0 0 0 120 169 120 120 144 144 0 0 0 144 144 0 0 144 144 0 113 101 0 101 113 0 0 0 0 0 113 113 0 101 0 113 160 0 101 72 101 0 144 144 113 113 152 0 152 152 152 0 144 0 212 76 185 0 0 0 0 0 0 0 0 0 0 0 0 0 0 0 0 0 0 0 0 0 0 0 113 144 144 113 0 160 0 144 0 0 0 0 158 212 74 0 0 144 113 0 230 224 0 202 97 0 0 113 0 0 0 0 0 0 0 0 0 0 0 0 113 0 150 169 76 107 0 0 120 72 212 0 74 167 167 203 199 95 113 0 0 0 0 0 0 0 0 0 0 0 0 144 144 72 144 72 0 72 72 0 101 0 0 0 0 0 0 76 120 0 76 120 0 0 0 0 0 0 0 0 0 0 0 0 0 0 0 0 0 0 0 0 0 0 0 0 0 0 0 0 0 0 0 0 0 0 0 0 0 0 0 0 0 0 0 0 0 0 74 106 74 0 0 0 0 0 0 0 0 0 0 0 0 0 120 120 161 0 76 0 0 0 0 0 0 120 120 0 0 0 161 120 120 0 0 0 0 0 0 0 74 237 74 0 106 0 0 0 0 0 0 212 212 0 0 0 0 0 0 0 0 0 0 0 0 0 0 0 0 0 169 0 76 120 0 0 0 0 113 113 0 0 0 0 0 0 0 0 0 0 0 0 0 0 0 0 0 0 0 0 0 0 0 0 0 0 0 0 0 0 0 0 0 152 0 152 0 0 191 0 113 0 0 0 0 0 0 0 0 0 0 144 0 169 0 0 0 0 0 0 0 0 0 0 0 0 0 0 0 0 0 0 0 0 0 0 0 0 0 0 0 0 0 0 0 0 0 0 0 0 0 0 0 0 0 0 0 0 0 0 0 0 0 0 0 0 0 0 0 0 0 0 0 0 0 0 0 0 0 0 0 0 0 0 0 0 107 0 0 0 76 76 0 74 237 167 0 0 0 0 0 0 0 0 0 0 0 0 0 0 0 0 0 0 0 0 0 0 0 
0 106 167 149 167 212 167 167 167 74 74 224 224 149 237 106 167 237 224 74 0 0 0 0 0 0 0 152 120 76 0 0 113 152 113 0 0 0 0 0 72 144 0 101 0 72 72 0 0 0 76 76 0 120 169 152 120 0 0 107 167 160 113 0 0 0 144 113 72 72 160 113 113 152 113 72 113 152 113 0 0 0 152 160 113 113 72 0 144 144 113 0 101 152 113 144 144 144 113 160 113 152 152 152 0 144 0 144 113 160 113 0 0 0 0 0 0 0 0 0 0 0 0 0 0 0 0 0 0 0 0 0 72 113 113 144 152 113 113 72 113 0 0 0 235 120 120 0 120 120 185 72 0 0 163 0 0 0 0 163 0 0 0 0 0 0 0 0 0 0 0 0 0 185 0 0 169 0 0 0 107 236 0 167 74 0 0 0 113 213 206 0 0 0 0 0 0 0 0 0 0 0 0 0 144 144 0 160 113 0 72 0 113 152 113 0 0 0 0 0 0 120 0 0 120 0 0 0 0 0 0 0 0 0 0 0 0 0 0 0 0 0 0 0 0 0 0 0 0 0 0 0 0 0 0 0 0 0 0 0 0 0 0 0 0 0 0 0 0 0 0 0 0 0 0 0 0 0 0 0 0 0 0 0 0 120 152 161 107 169 120 0 0 0 0 0 0 0 0 0 0 0 0 0 76 0 0 0 0 0 0 0 0 167 237 106 106 74 0 0 0 0 0 0 212 212 0 0 0 0 0 0 0 0 0 0 0 0 0 0 0 0 0 120 120 0 0 0 0 0 113 160 0 0 0 0 0 0 0 0 0 0 0 0 0 0 0 0 0 0 0 0 0 0 0 0 0 0 0 0 0 0 0 0 0 0 120 76 120 0 0 152 0 144 0 0 0 0 0 0 0 0 0 0 160 0 152 0 0 0 0 0 0 0 0 0 0 0 0 0 0 0 0 0 0 0 0 0 0 0 0 0 0 0 0 0 0 0 0 0 0 0 0 0 0 0 0 0 0 0 0 0 0 0 0 0 0 0 0 0 0 0 0 0 0 0 0 0 0 0 0 0 0 0 0 0 0 0 0 76 76 0 120 120 0 0 167 237 74 0 0 0 0 0 0 0 0 0 0 0 0 0 0 0 0 0 0 0 0 0 0 0 
0 74 167 167 0 167 106 237 237 224 74 74 224 106 149 167 74 74 237 167 0 0 0 0 0 0 0 152 152 0 0 0 0 160 113 0 0 0 0 0 72 144 72 0 113 113 0 0 120 120 0 150 236 167 0 76 76 120 152 120 163 160 0 0 0 0 160 0 113 144 152 0 160 113 72 0 0 160 113 0 0 152 101 72 160 152 0 0 160 113 144 0 152 152 113 144 113 160 113 144 144 120 169 120 0 144 0 113 185 115 185 0 0 0 0 0 0 0 0 0 0 0 0 0 0 0 0 0 0 0 0 0 0 160 101 113 152 113 0 72 0 113 0 160 233 92 158 146 162 162 213 101 0 116 0 0 163 0 0 0 0 0 0 0 0 0 0 0 0 0 0 113 144 0 234 120 120 0 76 76 242 0 224 0 0 130 167 128 247 0 72 0 0 0 0 0 0 0 0 0 0 0 0 0 144 144 0 160 113 0 113 113 152 113 144 0 0 0 0 0 0 0 120 120 0 0 0 0 0 0 0 0 0 0 0 0 0 0 0 0 0 0 0 0 0 0 0 0 0 0 0 0 0 0 0 0 0 0 0 0 0 0 0 0 0 0 0 0 0 0 0 0 0 0 0 0 0 0 0 0 0 0 0 0 120 161 152 120 0 152 152 0 0 0 0 0 0 0 0 0 0 0 0 0 0 0 0 0 0 0 0 0 0 212 212 0 0 0 0 0 0 0 0 0 212 212 0 0 0 0 0 0 0 0 0 0 0 0 0 0 0 0 0 107 120 76 0 0 0 0 160 113 0 0 0 0 0 0 0 0 0 0 0 0 0 0 0 0 0 0 0 0 0 0 0 0 0 0 0 0 0 185 0 120 0 0 0 76 0 0 0 152 0 144 0 0 0 0 0 0 0 0 0 152 152 191 152 0 0 0 0 0 0 0 0 0 0 0 0 0 0 0 0 0 0 0 0 0 0 0 0 0 0 0 0 0 0 0 0 0 0 0 0 0 0 0 0 0 0 0 0 0 0 0 0 0 0 0 0 0 0 0 0 0 0 0 0 0 0 0 0 0 0 0 0 0 0 0 0 120 107 120 76 0 0 74 237 167 0 0 0 0 0 0 0 0 0 0 0 0 0 0 0 0 0 0 0 0 0 0 0 0 
0 0 0 74 224 167 149 167 106 149 237 212 167 74 74 149 167 0 212 212 0 0 0 0 0 0 0 152 152 0 0 0 72 144 72 0 0 0 0 0 101 72 113 113 0 0 0 161 120 120 76 72 0 158 169 152 161 0 0 0 144 144 0 0 0 152 152 113 113 72 0 152 152 0 113 113 144 152 0 0 152 101 101 160 113 0 0 163 206 0 160 101 113 113 0 185 104 185 72 144 144 0 169 0 0 212 0 0 0 76 0 0 0 0 0 0 0 0 0 0 0 0 0 0 0 0 0 0 0 0 0 0 0 113 113 160 113 0 187 163 101 152 111 180 123 150 114 179 76 120 116 0 152 206 162 155 187 72 0 0 0 0 0 0 0 0 0 0 0 0 206 0 0 155 107 161 0 0 0 158 0 217 167 237 0 167 107 0 191 231 113 0 0 0 0 0 0 0 0 0 0 0 0 0 144 144 72 144 72 0 144 113 152 113 113 0 0 0 0 76 0 0 152 152 0 0 0 0 0 0 0 0 0 0 0 0 0 0 0 0 0 0 0 0 0 0 0 0 0 0 0 0 0 0 0 0 0 0 0 0 0 0 0 0 0 0 0 0 0 0 0 0 0 0 0 0 0 0 0 0 0 0 0 0 169 120 0 0 120 161 120 0 0 0 0 0 0 0 0 0 0 0 0 0 0 0 0 0 0 0 0 0 0 212 212 0 0 0 0 0 0 0 0 0 212 212 0 0 0 0 0 0 0 0 0 0 0 0 0 0 0 0 120 161 120 0 0 0 0 113 160 0 0 0 0 0 0 0 0 0 0 0 0 0 0 0 0 0 0 0 0 0 0 0 0 0 0 0 0 0 0 144 0 152 0 0 0 0 0 0 0 169 0 144 0 0 0 0 0 0 0 0 113 160 104 169 120 0 0 0 0 0 0 0 0 0 0 0 0 0 0 0 0 0 0 0 0 0 0 0 0 0 0 0 0 0 0 0 0 0 0 0 0 0 0 0 0 0 0 0 0 0 0 0 0 0 0 0 0 0 0 0 0 0 0 0 0 0 0 0 0 0 0 0 0 0 0 0 0 120 76 161 0 0 0 167 237 74 0 0 0 0 0 0 0 0 0 0 0 0 0 0 0 0 0 0 0 0 0 0 0 0 
0 0 0 106 167 74 106 167 167 74 167 212 212 167 0 149 167 0 167 237 74 0 0 0 0 0 0 152 152 0 0 0 72 144 72 0 0 0 0 72 113 72 0 72 116 120 120 76 120 161 0 0 72 0 0 76 0 0 0 0 160 113 0 0 72 113 113 152 113 0 113 160 0 0 144 113 72 0 0 72 113 113 152 0 0 0 0 0 155 222 160 0 0 0 0 0 155 0 113 113 160 0 152 120 218 0 113 0 0 146 0 163 0 0 0 0 0 0 0 0 0 0 0 0 0 0 0 0 0 0 0 0 72 0 72 0 0 234 83 140 128 152 111 180 0 0 78 0 216 97 0 185 101 116 0 0 206 0 0 0 0 0 0 0 0 0 0 0 0 206 0 218 169 107 0 0 0 0 72 74 85 194 145 0 74 120 120 76 218 212 113 0 0 0 0 0 0 0 0 0 0 0 0 0 144 144 0 152 152 0 113 152 113 0 72 0 0 0 76 0 76 0 152 152 0 0 0 0 0 0 0 0 0 0 0 0 0 0 0 0 0 0 0 0 0 0 0 0 0 0 0 0 0 0 0 0 0 0 0 0 0 0 0 0 0 0 0 0 0 0 0 0 0 0 0 0 0 0 0 0 0 0 0 76 152 76 0 76 120 107 0 0 0 0 0 0 0 0 0 0 0 0 0 0 0 0 0 0 0 0 0 0 0 212 212 0 0 0 0 0 0 0 0 0 212 212 0 0 0 0 0 0 0 0 0 0 0 0 0 0 0 76 120 152 0 0 0 0 0 144 144 0 0 0 0 0 0 0 0 0 0 0 0 0 0 0 0 0 0 0 0 0 0 0 0 0 0 0 0 0 0 144 0 152 0 0 0 0 0 0 120 169 185 144 0 0 0 0 0 0 0 0 144 144 120 169 0 0 0 0 0 0 0 0 0 0 0 0 0 0 0 0 0 0 0 0 0 0 0 0 0 0 0 0 0 0 0 0 0 0 0 0 0 0 0 0 0 0 0 0 0 0 0 0 0 0 0 0 0 0 0 0 0 0 0 0 0 0 0 0 0 0 0 0 0 0 0 0 120 107 120 76 0 0 74 237 167 0 0 0 0 0 0 0 0 0 0 0 0 0 0 0 0 0 0 0 0 0 0 0 0 0 
0 0 74 74 106 224 167 167 237 0 167 167 74 74 167 167 74 0 74 237 167 0 0 0 0 0 0 152 120 76 0 0 113 160 0 0 0 0 0 72 144 104 222 0 218 120 76 120 120 0 0 0 0 0 0 0 0 0 0 113 160 0 72 0 72 72 0 72 72 0 144 144 0 0 160 113 0 0 72 0 113 113 0 0 0 0 163 0 0 0 144 0 0 0 113 0 113 0 160 0 185 165 107 120 120 0 144 0 163 0 146 0 0 0 0 0 0 0 0 0 0 0 0 0 0 0 0 0 0 0 0 113 72 101 113 185 0 0 98 0 175 0 0 191 0 0 172 165 148 180 164 104 113 160 144 113 0 0 0 0 0 0 0 0 0 0 0 0 0 140 224 0 0 161 169 152 152 120 104 101 0 166 116 76 139 106 74 152 224 144 72 0 0 0 0 0 0 0 0 0 0 0 0 0 144 144 0 72 113 113 72 72 113 113 72 0 0 0 0 0 76 152 161 120 0 0 0 0 0 0 0 0 0 0 0 0 0 0 0 0 0 0 0 0 0 0 0 0 0 0 0 0 0 0 0 0 0 0 0 0 0 0 0 0 0 0 0 0 0 0 0 0 0 0 0 0 0 0 0 0 0 0 0 0 169 120 0 0 169 120 0 0 0 0 0 0 0 0 0 0 0 0 0 0 0 0 0 120 120 0 0 0 0 167 237 74 0 0 0 0 0 0 0 0 212 212 0 0 0 0 0 0 0 0 0 0 0 0 0 0 161 152 120 120 0 0 0 0 0 144 144 0 0 0 0 0 0 0 0 0 0 0 0 0 0 0 0 0 0 0 0 0 0 0 0 0 0 0 0 0 0 144 0 152 0 0 0 0 0 0 152 152 113 160 0 0 0 0 0 0 0 0 144 185 169 120 0 0 0 0 0 0 0 0 0 0 0 0 0 0 0 0 0 0 0 0 0 0 0 0 0 0 0 0 0 0 0 0 0 0 0 0 0 0 0 0 0 0 0 0 0 0 0 0 0 0 0 0 0 0 0 0 0 0 0 0 0 0 0 0 0 0 0 0 0 0 0 0 152 120 169 120 0 0 106 212 106 0 0 0 0 0 0 0 0 0 0 0 0 0 0 0 0 0 0 0 0 0 0 0 0 0 
0 0 106 74 167 149 167 106 224 237 237 237 237 167 106 224 212 167 106 237 167 0 0 0 0 0 0 120 120 152 161 0 144 144 0 0 0 0 0 152 206 212 169 152 76 107 161 0 0 0 0 0 0 0 0 0 0 0 0 160 72 101 0 72 72 113 113 152 113 0 160 113 0 72 144 72 0 101 0 72 0 0 0 0 0 0 0 163 167 212 113 0 0 72 113 235 0 224 144 72 220 0 76 0 76 0 144 0 0 0 76 0 0 0 0 0 0 0 0 0 0 0 0 0 0 0 0 0 0 0 0 113 72 0 113 209 0 222 233 78 199 187 0 113 185 68 215 0 202 146 0 185 113 0 0 0 0 0 0 0 0 0 0 0 0 0 0 163 152 212 77 0 0 0 120 152 152 206 0 0 0 97 128 72 217 74 148 218 216 113 72 0 0 0 0 0 0 0 0 0 0 0 0 0 144 144 0 113 101 72 101 113 113 160 0 0 0 0 0 76 76 0 107 0 0 0 0 0 0 0 0 0 0 0 0 0 0 0 0 0 0 0 0 0 0 0 0 0 0 0 0 0 0 0 0 0 0 0 0 0 0 0 0 0 0 0 0 0 0 0 0 0 0 0 0 0 0 0 0 0 0 0 0 0 152 152 0 0 169 120 0 0 0 0 0 0 0 0 0 0 0 0 0 0 0 0 76 76 76 0 76 0 0 74 224 224 74 0 0 0 0 0 0 74 237 167 0 0 0 0 0 0 0 0 0 0 0 0 0 120 120 0 0 0 0 0 0 0 113 152 113 0 0 0 0 0 0 0 0 0 0 0 0 0 0 0 0 72 0 0 0 0 0 0 0 0 0 0 0 0 0 113 0 191 0 0 0 0 0 0 120 169 104 160 113 0 0 0 0 0 0 0 144 0 169 0 0 0 0 0 0 0 0 0 0 0 0 0 0 0 0 0 0 0 0 0 0 0 0 0 0 0 0 0 0 0 0 0 0 0 0 0 0 0 0 0 0 0 0 0 0 0 0 0 0 0 0 0 0 0 0 0 0 0 0 0 0 0 0 0 0 0 0 0 0 0 0 0 120 161 161 120 0 74 149 167 106 0 0 0 0 0 0 0 0 0 0 0 0 0 0 0 0 0 0 0 0 0 0 0 0 0 
0 0 74 149 106 74 106 149 74 0 167 167 0 167 167 0 167 224 106 237 74 0 0 0 0 0 0 0 0 0 120 76 113 152 113 0 0 0 152 206 212 161 0 120 169 161 0 0 0 0 0 0 0 0 0 0 0 0 72 144 0 0 101 0 0 160 113 144 113 152 152 0 0 72 144 72 72 0 101 0 0 0 0 0 0 113 0 76 0 152 0 0 0 0 160 234 76 234 160 0 163 0 158 0 120 0 144 0 0 185 146 212 163 0 0 0 0 0 0 0 0 0 0 0 0 0 0 0 0 0 0 0 72 72 152 0 0 0 0 109 132 163 0 0 0 0 72 116 76 74 101 0 0 0 0 0 0 0 0 0 0 0 0 0 0 0 0 0 0 77 74 0 0 0 0 0 0 151 0 123 0 0 0 167 148 0 0 0 212 113 0 0 0 0 0 0 0 0 0 0 0 0 0 0 144 144 0 113 101 72 101 72 160 113 0 0 0 0 0 0 0 120 76 0 0 0 0 0 0 0 0 0 0 0 0 0 0 0 0 0 0 0 0 0 0 0 0 0 0 0 0 0 0 0 0 0 0 0 0 0 0 0 0 0 0 0 0 0 0 0 0 0 0 0 0 0 0 0 0 0 0 0 0 0 152 152 0 161 161 0 0 0 0 0 0 0 0 0 0 0 0 0 0 0 0 0 0 76 120 0 0 76 0 0 74 237 167 0 0 0 0 0 74 224 224 74 0 0 0 0 0 0 0 0 0 0 0 0 0 120 107 76 107 0 0 0 0 113 152 113 0 0 0 0 0 0 0 0 0 0 0 0 0 0 0 0 72 0 72 0 0 0 0 0 0 0 0 0 0 0 0 0 0 0 0 0 0 0 0 0 0 120 120 144 144 0 0 0 0 0 0 0 160 0 152 0 0 0 0 0 0 0 0 0 0 0 0 0 0 0 0 0 0 0 0 0 0 0 0 0 0 0 0 0 0 0 0 0 0 0 0 0 0 0 0 0 0 0 0 0 0 0 0 0 0 0 0 0 0 0 0 0 0 0 0 0 0 0 0 0 0 0 0 0 0 0 0 0 0 120 120 0 0 167 224 167 74 0 0 0 0 0 0 0 0 0 0 0 0 0 0 0 0 0 0 0 0 0 0 0 0 0 
0 0 74 74 167 74 167 224 212 237 212 167 167 0 106 74 167 224 106 237 74 0 0 0 0 0 0 0 120 161 120 0 72 72 72 0 113 160 152 167 120 76 169 169 167 116 0 0 0 0 0 0 0 0 0 0 0 0 72 144 0 72 0 0 0 144 144 144 0 160 0 0 0 152 152 0 0 72 0 0 0 0 0 0 0 144 185 155 212 0 0 0 0 0 113 212 117 146 160 0 0 212 0 120 120 0 185 0 0 144 0 155 0 0 0 0 0 0 0 0 0 0 0 0 0 0 0 0 0 0 0 0 0 0 0 163 0 0 0 0 163 0 0 0 0 0 72 113 113 144 160 152 0 0 0 0 0 0 0 0 0 0 0 0 0 0 163 74 167 0 0 74 167 167 74 0 0 167 149 74 106 106 167 224 80 236 209 212 0 0 0 0 0 0 0 0 0 0 0 0 0 0 0 0 144 144 0 72 72 0 101 72 160 0 0 0 0 0 76 0 0 120 107 0 0 0 0 0 0 0 0 0 0 0 0 0 0 0 0 0 0 0 0 0 0 0 0 0 0 0 0 0 0 0 0 0 0 0 0 0 0 0 0 0 0 0 0 0 0 0 0 0 0 0 0 0 0 0 0 0 0 0 0 0 152 152 76 152 76 0 0 0 0 0 120 152 152 152 152 152 120 76 76 0 0 76 0 76 0 76 0 76 0 0 0 167 237 74 0 0 0 0 167 237 74 0 0 0 0 0 0 0 0 0 0 0 0 0 0 107 0 0 76 76 0 0 0 160 113 0 0 0 0 0 0 0 0 0 0 0 0 0 0 0 0 0 0 72 0 0 0 0 0 0 0 0 0 0 0 0 0 0 0 0 0 74 106 74 0 161 120 0 169 185 144 0 0 0 0 0 0 113 160 191 152 0 0 0 0 0 0 0 0 0 0 0 0 0 0 0 0 0 0 0 0 0 0 0 0 0 0 0 0 0 0 0 0 0 0 0 0 0 0 0 0 0 0 0 0 0 0 0 0 0 0 0 0 0 0 0 0 0 0 0 0 0 0 0 0 0 0 0 0 0 0 0 0 0 0 0 0 0 0 212 212 0 0 0 0 0 0 0 0 0 0 0 0 0 0 0 0 0 0 0 0 0 0 0 0 0 0 0 
0 0 106 74 149 106 237 74 0 106 0 106 167 167 167 106 167 106 0 149 224 74 0 0 0 0 0 0 120 169 0 0 72 72 0 113 212 187 74 120 120 169 167 116 0 0 72 0 0 0 0 0 0 0 0 0 0 0 113 160 0 0 0 0 0 144 144 113 72 72 72 0 72 113 101 0 0 0 0 0 0 0 0 0 163 0 118 185 113 0 0 0 0 0 0 160 113 0 152 152 0 144 0 152 0 0 0 0 0 113 0 0 74 163 0 0 0 0 0 0 0 0 0 0 0 0 72 0 0 0 0 0 0 0 0 0 0 0 0 0 0 0 0 0 0 0 0 160 101 113 113 113 72 0 0 0 0 0 0 0 0 0 0 0 0 0 68 164 197 106 106 149 149 167 106 74 167 167 74 74 149 149 197 80 236 167 160 113 0 0 0 0 0 0 0 0 0 0 0 0 0 0 0 0 144 144 0 72 72 0 101 113 144 0 0 0 0 0 0 76 0 76 76 76 0 0 0 0 0 0 0 0 0 0 0 0 0 0 0 0 0 0 0 0 0 0 0 0 0 0 0 0 0 0 0 0 0 0 0 0 0 0 0 0 0 0 0 0 0 0 0 0 0 0 0 0 0 0 0 0 0 0 0 0 152 152 0 169 120 0 0 0 0 161 218 0 0 0 0 0 0 0 191 169 152 76 0 0 0 120 120 161 0 0 0 74 237 167 0 0 0 74 237 167 0 0 0 0 0 0 0 0 0 0 0 0 0 0 120 161 107 0 120 0 0 0 113 160 0 0 0 0 0 0 0 0 0 0 0 0 0 0 0 0 0 0 0 0 0 0 0 0 0 0 0 0 0 0 0 0 0 0 185 0 120 106 0 106 120 169 120 120 169 0 144 0 0 0 0 0 0 144 185 169 120 0 0 0 0 0 0 0 0 0 0 0 0 0 0 0 0 0 0 0 0 0 0 0 0 0 0 0 0 0 0 0 0 0 0 0 0 0 0 0 0 0 0 0 0 0 0 0 0 0 0 0 0 0 0 0 0 0 0 0 0 0 0 0 0 0 0 0 0 0 0 0 0 0 0 0 0 0 0 212 212 0 0 0 0 0 0 0 0 0 0 0 0 0 0 0 0 0 0 0 0 0 0 0 0 0 0 0 
0 0 74 167 167 74 167 106 74 106 0 74 149 0 167 224 74 167 167 149 167 167 0 0 0 0 0 0 0 169 120 0 0 113 144 72 104 144 162 185 220 146 101 72 72 72 0 0 0 0 0 0 0 0 0 0 0 0 160 113 0 0 0 0 0 144 144 0 0 101 113 113 0 113 152 113 0 0 0 0 0 0 0 206 0 234 189 231 0 0 0 0 0 0 0 144 144 0 0 101 152 113 0 169 92 235 114 113 0 0 0 222 0 0 0 0 0 0 0 0 0 0 0 0 0 113 72 113 0 0 0 0 0 0 0 0 0 0 0 0 0 0 0 0 236 109 68 115 72 113 72 101 0 0 0 0 0 0 0 0 0 0 0 0 0 0 215 136 167 74 106 74 74 167 106 237 237 212 167 167 106 74 183 0 234 212 152 0 0 0 0 0 0 0 0 0 0 0 0 0 0 0 0 0 144 144 0 0 113 113 101 101 113 0 0 0 0 0 0 0 76 120 0 0 0 0 0 0 0 0 0 0 0 0 0 0 0 0 0 0 0 0 0 0 0 0 0 0 0 0 0 0 0 0 0 0 0 0 0 0 0 0 0 0 0 0 0 0 0 0 0 0 0 0 0 0 0 0 0 0 0 0 0 0 120 169 0 152 152 0 76 0 120 169 163 152 144 144 144 144 185 213 155 150 0 0 218 152 120 76 107 120 76 0 0 0 167 237 74 0 0 167 237 74 0 0 0 0 0 0 0 0 0 0 0 0 0 0 120 161 161 76 169 0 0 0 160 113 0 0 0 0 0 0 0 0 0 0 0 0 0 0 0 0 0 0 0 0 0 0 0 0 0 0 0 0 0 0 0 0 0 0 144 0 152 74 106 74 152 152 152 152 152 0 160 0 0 0 0 0 0 144 0 169 0 0 0 0 0 0 0 0 0 0 0 0 0 0 0 0 0 0 0 0 0 0 0 0 0 0 0 0 0 0 0 0 0 0 0 0 0 0 0 0 0 0 0 0 0 0 0 0 0 0 0 0 0 0 0 0 0 0 0 0 0 0 0 0 0 0 0 0 0 0 0 0 0 0 0 0 0 0 74 237 167 0 0 0 0 0 0 0 0 0 0 0 0 0 0 0 0 0 0 0 0 0 0 0 0 0 0 0 
0 106 74 167 224 237 167 106 149 74 74 167 237 167 0 149 74 212 167 224 167 167 0 0 0 0 0 0 0 152 152 0 0 0 0 152 185 220 185 144 144 152 0 72 113 0 0 0 0 0 0 0 0 0 0 0 0 113 160 0 0 0 0 0 0 160 72 113 160 101 163 209 120 74 160 113 0 0 0 0 0 0 113 0 218 76 0 185 0 0 0 0 0 0 0 144 144 72 0 0 160 0 185 169 0 183 216 185 0 0 0 0 0 0 0 0 0 0 0 0 0 0 0 0 0 113 72 113 0 0 0 0 0 0 0 0 0 0 0 0 0 0 0 163 213 216 0 81 146 0 0 72 0 0 0 0 0 0 0 0 0 0 0 0 0 163 208 220 224 167 74 106 106 149 149 149 74 0 106 167 149 92 169 234 152 113 0 0 0 0 0 0 0 0 0 0 0 0 0 0 0 0 0 0 144 144 0 0 0 101 0 101 0 0 0 0 0 0 0 0 107 120 0 76 120 0 0 0 0 0 0 0 0 0 0 0 0 0 0 0 0 0 0 0 0 0 0 0 0 0 0 0 0 0 0 0 0 0 0 0 0 0 0 0 0 0 0 0 0 0 0 0 0 0 0 0 0 0 0 0 0 0 0 0 0 161 161 76 169 107 76 120 152 152 113 152 113 0 0 113 144 152 113 72 72 116 167 224 218 120 0 107 0 0 0 0 74 237 167 0 0 167 237 74 0 0 0 0 0 0 0 0 0 0 0 0 0 76 0 120 76 0 76 107 0 113 160 0 0 0 0 0 0 0 0 0 0 0 0 0 0 0 0 0 0 0 0 72 0 0 0 0 0 0 0 0 0 0 0 0 0 0 144 0 152 74 106 74 152 152 152 152 152 191 160 113 0 0 0 0 0 160 0 152 0 0 0 0 0 0 0 0 0 0 0 0 0 0 0 0 0 0 0 0 0 0 0 0 0 0 0 0 0 0 0 0 0 0 0 0 0 0 0 0 0 0 0 0 0 0 0 0 0 0 0 0 0 0 0 0 0 0 0 0 0 0 0 0 0 0 0 0 0 0 0 0 0 0 0 76 0 0 167 237 74 0 0 0 0 0 0 0 0 0 0 0 0 0 0 0 0 0 0 0 0 0 0 0 0 0 0 0 
0 0 106 74 167 167 106 74 106 212 167 74 74 167 237 237 237 224 167 74 106 74 0 0 0 0 0 0 0 152 152 0 0 0 152 152 0 113 113 0 0 160 0 0 72 0 0 0 0 0 0 0 0 0 0 0 0 144 144 0 0 0 0 0 113 160 72 152 72 101 0 212 161 222 160 0 0 0 0 0 0 0 144 0 120 218 234 113 0 0 0 72 0 0 0 144 144 0 0 72 101 0 113 120 80 106 167 0 0 0 185 0 146 0 0 0 0 0 0 0 0 0 0 0 0 0 72 0 0 0 0 0 0 0 0 0 0 0 0 0 113 113 0 220 202 210 197 126 0 0 72 0 0 0 0 0 0 0 0 0 0 0 0 0 0 0 0 77 74 167 167 74 106 149 74 106 0 0 74 167 231 67 0 206 113 0 0 0 0 0 0 0 0 0 0 0 0 0 0 0 0 0 0 0 144 144 0 0 72 72 72 72 0 0 0 0 0 0 0 76 76 76 76 0 152 0 0 0 0 0 0 0 0 0 0 0 0 0 0 0 0 0 0 0 0 0 0 0 0 0 0 0 0 0 0 0 0 0 0 0 0 0 0 0 0 0 0 0 0 0 0 0 0 0 0 0 0 0 0 0 0 0 0 0 0 0 169 76 161 76 0 120 120 161 191 0 0 0 0 0 220 234 191 167 163 113 0 0 116 120 169 169 152 120 0 0 0 212 212 0 0 106 212 106 0 0 0 0 0 0 0 0 0 0 0 0 76 0 107 76 161 169 120 0 117 160 113 0 0 0 0 0 0 0 0 0 0 0 0 0 0 0 0 0 0 0 72 0 72 0 0 0 0 0 0 0 0 0 0 0 0 0 113 0 191 106 0 106 120 169 120 152 152 152 144 144 0 0 0 0 152 206 218 120 0 0 0 0 0 0 0 0 0 0 0 0 0 0 0 0 0 0 0 0 0 0 0 0 0 0 0 0 0 0 0 0 0 0 0 0 0 0 0 0 0 0 0 0 0 0 0 0 0 0 0 0 0 0 0 0 0 0 0 0 0 0 0 0 0 0 0 0 0 0 0 0 0 0 76 0 76 0 212 212 0 0 0 0 0 0 0 0 0 0 0 0 0 0 0 0 0 0 0 0 0 0 0 0 0 0 0 0 
0 106 74 0 0 0 0 106 106 0 74 167 212 106 106 167 74 74 149 74 0 0 0 0 0 0 0 0 0 152 152 0 0 113 160 0 72 113 101 101 101 113 0 72 113 0 0 0 0 0 0 0 0 0 0 0 0 144 144 0 113 113 0 0 113 160 113 144 113 212 218 76 169 0 144 0 0 0 0 0 0 0 160 222 150 0 163 0 101 72 152 113 113 0 0 113 160 0 113 152 101 113 0 0 242 183 241 0 113 0 144 0 0 0 113 0 0 0 0 0 0 0 113 113 0 0 0 0 0 0 0 0 0 0 0 0 0 0 0 72 113 113 160 161 0 103 172 85 234 72 0 0 0 0 0 0 0 0 0 0 0 0 0 0 113 0 191 0 0 74 224 224 74 106 0 106 0 0 0 74 100 194 206 113 0 0 0 0 0 0 0 0 0 0 0 0 0 0 0 0 0 0 0 0 144 144 0 0 0 113 0 113 0 0 0 0 0 0 0 0 120 161 0 76 120 0 0 0 0 0 0 0 0 0 0 0 0 0 0 0 0 0 0 0 0 0 0 0 0 0 0 0 0 0 0 0 0 0 0 0 0 0 0 0 0 0 0 0 0 0 0 0 0 0 0 0 0 0 0 0 0 0 0 0 0 0 152 152 0 120 120 0 0 76 152 152 191 0 0 192 152 169 152 161 107 120 167 116 0 0 0 120 152 161 120 0 74 237 167 0 0 167 237 74 0 0 0 0 0 0 0 0 0 0 0 0 0 107 0 120 161 0 0 76 163 160 0 0 0 0 0 0 0 0 0 0 0 0 0 0 0 0 0 0 0 0 0 72 0 0 0 0 0 0 0 0 0 0 0 0 0 0 0 0 0 106 0 106 0 169 0 152 152 152 144 144 0 0 0 72 144 189 169 0 0 0 0 0 0 0 0 0 0 0 0 0 0 0 0 0 0 0 0 0 0 0 0 0 0 0 0 0 0 0 0 0 0 0 0 0 0 0 0 0 0 0 0 0 0 0 0 0 0 0 0 0 0 0 0 0 0 0 0 0 0 0 0 0 0 0 0 0 0 0 0 0 0 0 0 76 0 0 212 212 0 0 0 0 0 0 0 0 0 0 0 0 0 0 0 0 0 0 0 0 0 0 0 0 0 0 0 0 
0 0 0 0 74 167 167 0 167 212 167 74 0 106 106 74 167 212 224 167 0 0 0 0 0 0 0 0 0 152 152 0 0 144 144 0 0 152 113 0 0 113 72 0 113 0 0 0 0 0 0 0 0 0 0 0 0 144 144 113 152 160 152 0 72 113 101 113 144 220 120 120 212 163 101 113 0 0 0 0 0 113 212 104 116 185 0 101 0 113 152 113 144 0 0 0 160 113 113 160 72 160 0 0 120 206 130 116 185 0 113 0 74 0 185 0 0 0 0 0 0 72 72 72 72 0 0 0 72 0 0 0 0 0 0 0 0 0 0 0 152 101 72 113 74 165 0 0 163 0 0 0 0 0 0 0 0 0 0 0 0 0 0 0 212 0 120 0 0 0 74 224 237 237 212 237 212 212 212 237 142 114 113 0 0 0 0 0 0 0 0 0 0 0 0 0 0 0 0 0 0 0 0 0 144 185 76 0 0 144 0 113 72 0 0 0 0 76 0 0 120 107 76 0 0 0 0 0 0 0 0 0 0 0 0 0 0 0 0 0 0 0 0 0 0 0 0 0 0 0 0 0 0 0 0 0 0 0 0 0 0 0 0 0 0 0 0 0 0 0 0 0 0 0 0 0 0 0 0 0 0 0 0 0 0 0 120 161 152 161 76 107 0 76 0 0 0 0 0 0 76 0 0 120 120 169 169 169 152 152 152 152 152 161 190 167 237 224 74 0 0 167 237 74 0 0 0 0 0 0 0 0 0 0 0 0 0 76 76 0 107 0 0 0 160 113 0 0 0 0 0 0 0 0 0 0 0 0 0 0 0 0 0 0 0 0 0 0 0 0 0 0 0 0 0 0 0 0 0 0 0 0 0 0 0 197 106 167 0 152 0 152 152 152 113 160 0 0 0 72 144 224 152 0 0 0 0 0 0 0 0 0 0 0 0 0 0 0 0 0 0 0 0 0 0 0 0 0 0 0 0 0 0 0 0 0 0 0 0 0 0 0 0 0 0 0 0 0 0 0 0 0 0 0 0 0 0 0 0 0 0 0 0 0 0 0 0 0 0 0 0 0 0 0 0 0 120 120 0 0 0 74 237 167 0 0 0 0 0 0 0 0 0 0 0 0 0 0 0 0 0 0 0 0 0 0 0 0 0 0 0 0 
0 0 0 0 106 106 106 106 0 0 0 0 0 74 167 237 224 74 167 237 74 0 0 0 0 0 0 0 0 152 152 0 0 144 144 0 0 0 72 0 0 0 113 113 0 0 0 0 0 0 0 0 0 0 0 0 0 144 144 144 144 72 144 72 113 0 113 0 113 206 234 150 163 101 0 72 72 0 0 0 0 212 215 0 117 160 113 0 101 113 72 113 160 0 0 0 212 209 167 212 72 160 113 0 0 0 76 126 0 0 0 0 222 0 0 0 0 0 0 0 0 0 113 113 0 0 163 0 0 206 0 0 0 0 0 0 0 0 0 0 0 160 146 76 74 160 113 0 0 0 0 0 0 0 0 0 0 0 0 0 0 0 113 160 213 150 120 120 0 0 0 92 240 197 106 167 212 252 72 102 132 0 0 0 0 0 0 0 0 0 0 0 0 0 0 0 0 0 0 0 0 0 0 0 144 220 0 76 0 144 0 72 0 72 0 0 76 0 76 76 76 0 107 120 0 0 0 0 0 0 0 0 0 0 0 0 0 0 0 0 0 0 0 0 0 0 0 0 0 0 0 0 0 0 0 0 0 0 0 0 0 0 0 0 0 0 0 0 0 0 0 0 0 0 0 0 0 0 0 0 0 0 0 0 0 0 0 120 152 120 0 0 107 0 76 0 0 0 0 0 0 0 0 0 76 0 0 76 152 152 211 0 108 72 0 237 167 74 0 74 167 167 167 106 0 0 0 0 0 0 0 0 0 0 0 0 0 76 76 0 107 120 0 113 160 0 0 0 0 0 0 0 0 0 0 0 0 0 0 0 0 0 0 0 0 0 0 0 0 0 0 0 0 0 0 0 0 0 0 0 0 0 0 185 0 0 106 167 0 169 0 152 152 152 0 160 113 0 0 113 160 191 152 0 0 0 0 0 0 0 0 0 0 0 0 0 0 0 0 0 0 0 0 0 0 0 0 0 0 0 0 0 0 0 0 0 0 0 0 0 0 0 0 0 0 0 0 0 0 0 0 0 0 0 0 0 0 0 0 0 0 0 0 0 0 0 0 0 0 0 0 0 0 0 0 120 161 161 120 0 0 167 237 74 0 0 0 0 0 0 0 0 0 0 0 0 0 0 0 0 0 0 0 0 0 0 0 0 0 0 0 0 
0 0 0 0 74 167 106 74 74 0 0 0 0 0 74 74 167 167 74 224 224 74 0 0 0 0 0 0 0 152 152 0 0 160 113 0 0 0 0 113 72 113 144 144 0 0 0 0 0 0 0 0 76 0 0 0 0 144 144 144 144 113 160 0 144 0 113 72 0 113 152 113 144 113 113 113 0 0 0 0 206 0 0 158 116 72 160 0 0 152 152 0 160 113 0 72 220 148 76 220 144 144 144 0 0 240 0 239 146 163 0 0 0 222 0 0 0 0 0 0 0 0 0 0 0 163 0 0 218 0 113 0 0 0 0 0 0 0 0 0 0 144 220 0 187 160 0 0 0 0 0 0 0 0 0 0 113 113 72 113 144 160 212 187 0 120 152 169 169 152 152 169 120 167 167 212 167 167 212 0 0 104 0 0 0 0 0 0 0 0 0 0 0 0 0 0 0 0 0 0 0 0 0 0 144 220 0 76 0 144 0 113 72 0 0 0 0 76 0 0 120 120 120 152 0 0 0 0 0 0 0 0 0 0 0 0 0 0 0 0 0 0 0 0 0 0 0 0 0 0 0 0 0 0 0 0 0 0 0 0 0 0 0 0 0 0 0 0 0 0 0 0 0 0 0 0 0 0 0 0 0 0 0 0 0 0 0 0 0 0 0 76 0 76 0 76 0 0 0 0 0 0 0 0 0 120 76 120 0 74 224 237 212 212 167 74 0 0 0 106 167 167 167 74 0 0 0 0 0 0 0 0 0 0 0 0 0 76 120 120 120 120 0 144 144 0 0 0 0 0 0 0 0 0 0 0 0 0 0 0 0 0 0 0 0 0 0 0 0 0 0 0 0 0 0 0 0 0 0 0 0 0 0 144 0 211 74 74 167 169 120 152 152 152 0 144 144 0 0 144 185 169 120 0 0 0 0 0 0 0 0 0 0 0 0 0 0 0 0 0 0 0 0 0 0 0 0 0 0 0 0 0 0 0 0 0 0 0 0 0 0 0 0 0 0 0 0 0 0 0 0 0 0 0 0 0 0 0 0 0 0 0 0 0 0 0 0 0 0 0 0 0 76 0 0 120 169 120 152 0 0 212 212 0 0 0 0 0 0 0 0 0 0 0 0 0 0 0 0 0 0 0 0 0 0 0 0 0 0 0 0 0 
0 0 0 0 0 0 106 0 106 0 0 0 0 74 224 212 167 167 74 149 167 106 0 0 0 0 0 0 0 169 120 0 72 144 72 0 0 0 0 144 0 160 113 144 0 0 0 0 0 0 0 76 0 76 0 0 0 160 113 113 152 152 113 0 144 0 0 72 113 0 113 152 152 113 0 0 0 0 0 152 213 74 107 163 113 113 72 101 0 0 152 160 152 113 0 0 212 209 120 185 144 113 160 0 113 158 126 0 153 234 113 161 0 74 0 113 0 0 0 0 0 0 0 0 0 220 0 139 185 97 113 72 0 0 0 0 0 0 0 0 0 160 116 148 116 160 0 0 0 0 0 0 113 113 72 152 160 160 144 160 185 234 218 120 120 0 0 0 120 152 152 120 120 0 224 212 224 91 0 152 0 0 0 0 0 0 0 0 0 0 0 0 0 0 0 0 0 0 0 0 0 0 0 0 144 220 0 76 0 144 0 144 0 0 0 0 0 0 0 0 0 76 76 169 0 0 0 0 0 0 0 0 0 0 0 0 0 0 0 0 0 0 0 0 0 0 0 0 0 0 0 0 0 0 0 0 0 0 0 0 0 0 0 0 0 0 0 0 0 0 0 0 0 0 0 0 0 0 0 0 0 0 0 0 0 0 0 0 0 0 0 0 0 0 76 0 0 0 0 0 0 0 0 0 0 120 76 120 0 167 237 74 0 0 0 0 0 0 0 74 224 237 167 74 0 0 0 0 0 0 0 0 0 0 0 76 76 161 107 0 0 0 0 160 113 0 0 0 0 0 0 0 0 0 0 0 0 0 0 0 0 0 0 0 0 0 0 0 0 0 0 0 0 0 0 0 0 0 0 0 0 0 0 144 0 152 106 0 223 169 120 152 152 152 0 144 144 0 0 144 0 169 0 0 0 0 0 0 0 0 0 0 0 0 0 0 0 0 0 0 0 0 0 0 0 0 0 0 0 0 0 0 0 0 0 0 0 0 0 0 0 0 0 0 0 0 0 0 0 0 0 0 0 0 0 0 0 0 0 0 0 0 0 0 0 0 0 0 0 0 0 76 0 76 0 0 161 120 120 0 0 212 212 0 0 0 0 0 0 0 0 0 0 0 0 0 0 0 0 0 0 0 0 0 0 0 0 0 0 0 0 0 
0 0 0 0 0 0 74 106 74 0 0 0 0 167 237 106 106 74 106 167 149 74 0 0 0 0 0 0 120 169 0 0 0 160 113 0 0 0 0 113 113 101 113 113 0 0 0 0 0 0 0 0 76 0 0 0 72 144 72 0 113 113 0 0 144 0 72 72 160 0 0 113 113 0 0 0 0 0 152 152 74 117 163 152 101 113 101 0 113 0 0 113 113 0 0 0 144 144 0 160 113 0 160 113 144 74 146 234 0 235 101 101 150 0 0 185 0 0 0 0 0 0 0 0 0 185 0 223 120 104 0 234 163 0 0 0 0 0 0 0 113 160 72 113 101 101 152 0 0 0 0 113 152 160 144 152 0 0 116 167 242 0 139 120 120 0 0 0 72 0 0 0 242 100 167 74 81 225 0 0 0 0 0 0 0 0 0 0 0 0 0 0 0 0 0 0 0 0 0 0 0 0 0 0 144 185 76 0 0 144 0 144 0 0 0 0 0 0 0 0 161 120 76 161 169 120 0 0 0 0 0 0 0 0 0 0 0 0 0 0 0 0 0 0 0 0 0 0 0 0 0 0 0 0 0 0 0 0 0 0 0 0 0 0 0 0 0 0 0 0 0 0 0 0 0 0 0 0 0 0 0 0 0 0 0 0 0 0 0 0 0 0 0 0 0 0 0 0 0 0 0 0 74 167 167 128 76 0 0 212 212 0 0 0 0 0 0 0 0 0 106 106 106 106 0 0 0 0 0 0 0 0 0 0 120 76 76 120 107 120 120 0 113 160 0 0 0 0 0 0 0 0 0 0 0 0 0 0 0 0 0 0 0 0 72 0 0 0 0 0 0 0 0 0 0 0 0 0 0 0 0 0 0 113 0 218 128 106 92 192 0 191 152 152 0 144 144 0 0 144 0 152 0 0 0 0 0 0 0 0 0 0 0 0 0 0 0 0 0 0 0 0 0 0 0 0 0 0 0 0 0 0 0 0 0 0 0 0 0 0 0 0 0 0 0 0 0 0 0 0 0 0 0 0 0 0 0 0 0 0 0 0 0 0 0 0 0 0 0 0 0 0 76 0 0 0 0 76 0 0 0 212 212 0 0 0 0 0 0 0 0 0 0 0 0 0 0 0 0 0 0 0 0 0 0 0 0 0 0 0 0 0 
0 0 0 0 74 106 74 0 0 0 0 0 0 212 212 0 0 0 74 224 224 74 0 0 0 0 0 0 120 169 0 0 0 144 144 0 0 0 0 0 160 72 72 0 0 0 0 0 0 0 0 0 0 0 0 0 0 160 113 0 0 0 0 0 113 113 0 0 113 113 0 0 0 0 0 0 0 113 160 0 0 152 160 113 0 0 144 0 160 0 0 0 113 113 0 0 144 144 113 160 0 0 212 155 163 113 234 0 150 0 0 146 0 76 163 0 0 0 0 0 0 0 0 0 0 144 0 211 77 167 74 85 0 0 0 0 0 0 0 0 160 72 160 101 152 113 113 72 0 0 113 101 113 0 72 0 0 120 242 80 100 197 0 0 146 0 0 72 0 72 0 236 130 0 0 0 234 136 104 0 0 0 0 0 0 0 0 0 0 0 0 0 0 0 0 0 0 0 0 0 0 0 0 0 144 144 0 0 0 113 72 113 0 0 0 0 0 0 0 161 107 76 107 120 0 76 76 0 0 0 0 0 0 0 0 0 0 0 0 0 0 0 0 0 0 0 0 0 0 0 0 0 0 0 0 0 0 0 0 0 0 0 0 0 0 0 0 0 0 0 0 0 0 0 0 0 0 0 0 0 0 0 0 0 0 0 0 0 0 0 0 0 0 0 0 0 0 0 0 0 0 74 224 237 237 224 74 0 0 212 212 0 0 0 0 0 0 0 0 74 224 237 167 74 0 0 0 0 0 0 0 0 0 0 152 0 0 107 76 107 120 0 160 113 0 0 0 0 0 0 0 0 0 0 0 0 0 0 0 0 0 0 0 113 72 113 0 0 0 0 0 0 0 0 0 0 0 0 0 0 0 0 0 0 212 0 120 74 106 0 0 224 152 191 72 113 144 0 0 160 0 152 0 0 0 0 0 0 0 0 0 0 0 0 0 0 0 0 0 0 0 0 0 0 0 0 0 0 0 0 0 0 0 0 0 0 0 0 0 0 0 0 0 0 0 0 0 0 0 0 0 0 0 0 0 0 0 0 0 0 0 0 0 0 0 0 0 0 0 0 0 0 0 0 0 0 0 0 0 0 0 212 212 0 0 0 0 0 0 0 0 0 0 0 0 0 0 0 0 0 0 0 0 0 0 0 0 0 0 0 0 0 
0 0 0 0 106 0 106 0 0 0 0 0 0 167 237 74 0 0 0 74 237 167 0 0 0 0 0 0 76 152 76 0 0 144 144 0 0 0 0 0 144 144 0 0 0 0 0 0 0 0 0 0 0 0 0 0 76 163 160 0 0 0 0 0 0 152 144 144 113 113 0 0 0 0 0 0 0 160 113 0 152 152 0 0 0 0 113 113 113 113 0 113 152 160 152 72 160 113 113 152 144 160 213 0 148 144 116 0 0 0 116 234 120 76 74 0 113 0 0 0 0 0 0 0 0 144 0 161 152 183 0 146 0 0 0 0 0 0 0 113 113 101 152 0 0 113 113 0 113 160 160 113 0 72 0 0 161 169 0 0 106 217 194 216 113 0 72 0 72 0 120 80 0 0 0 180 136 163 0 0 0 0 0 0 0 0 0 0 0 0 0 0 0 0 0 0 0 0 0 0 0 0 0 0 144 144 0 0 0 72 0 72 0 0 0 0 0 0 120 120 107 76 107 152 152 120 0 0 0 0 0 0 0 0 0 0 0 0 0 0 0 0 0 0 0 0 0 0 0 0 0 0 0 0 0 0 0 0 0 0 0 0 0 0 0 0 0 0 0 0 0 0 0 0 0 0 0 0 0 0 0 0 0 0 0 0 0 0 0 0 0 0 0 0 0 0 0 0 0 0 74 224 224 74 74 237 167 0 0 212 212 0 0 0 0 0 0 0 0 106 167 149 74 0 0 0 0 0 0 0 0 0 0 0 120 76 107 120 107 120 0 113 160 0 0 0 0 0 0 0 0 0 0 0 0 0 0 0 0 0 0 0 0 144 0 144 0 0 0 0 0 0 0 0 0 0 72 0 0 0 0 0 0 0 144 0 152 167 106 102 0 192 120 0 72 0 160 72 152 206 218 120 0 0 0 0 0 0 0 0 0 0 0 0 0 0 0 0 0 0 0 0 0 0 0 0 0 0 0 0 0 0 0 0 0 0 0 0 0 0 0 0 0 0 0 0 0 0 0 0 0 0 0 0 0 0 0 0 0 0 0 0 0 0 0 0 0 0 0 0 0 0 0 0 0 0 120 120 0 0 74 237 167 0 0 0 0 0 0 0 0 0 0 0 0 0 0 0 0 0 0 0 0 0 0 0 0 0 0 0 0 0 
0 0 0 0 74 106 74 0 0 0 0 0 0 74 224 224 74 0 0 74 237 167 0 0 0 0 0 0 120 120 0 0 0 144 144 0 0 0 0 0 160 113 0 0 0 0 0 0 0 0 0 0 0 0 0 161 152 212 212 113 0 0 0 0 0 0 0 72 72 0 0 0 0 0 0 0 152 152 0 152 152 0 0 0 0 0 0 152 113 113 0 113 160 0 160 72 160 0 0 113 144 113 74 117 206 152 101 0 150 218 158 150 120 76 76 163 212 0 0 0 0 0 0 0 0 113 212 158 117 0 153 132 234 0 0 0 0 0 0 113 113 152 0 0 0 0 0 152 160 113 0 0 72 104 120 169 161 128 237 106 0 180 85 0 152 72 0 115 76 120 236 100 167 167 100 97 212 0 0 0 0 0 0 0 0 0 0 0 0 0 0 0 0 0 0 0 0 0 0 0 0 0 0 0 144 144 0 0 0 72 0 101 0 0 0 0 0 0 120 120 161 107 169 0 0 0 0 0 0 0 0 0 0 0 0 0 0 0 0 0 0 0 0 0 0 0 0 0 0 0 0 0 0 0 0 0 0 0 0 0 0 0 0 0 0 0 0 0 0 0 0 0 0 0 0 0 0 0 0 0 0 0 0 0 0 0 0 0 0 0 0 0 0 0 0 0 0 0 0 0 167 237 74 0 0 167 237 74 0 212 212 0 0 0 0 0 0 0 0 106 106 106 106 0 0 0 0 0 0 0 0 0 0 76 0 0 76 107 120 0 0 160 113 0 0 0 0 0 0 0 0 0 0 0 0 0 0 0 0 0 0 0 0 144 0 160 0 0 0 0 0 0 0 0 0 72 0 72 0 0 0 0 0 0 144 0 152 212 0 108 120 169 0 0 0 113 160 72 160 167 169 0 0 0 0 0 0 0 0 0 0 0 0 0 0 0 0 0 0 0 0 0 0 0 0 0 0 0 0 0 0 0 0 0 0 0 0 0 0 0 0 0 0 0 0 0 0 0 0 0 0 0 0 0 0 0 0 0 0 0 0 0 0 0 0 0 0 0 0 0 0 0 0 0 0 76 76 76 76 0 167 237 74 0 0 0 0 0 0 0 0 0 0 0 0 0 0 0 0 0 0 0 0 0 0 0 0 0 0 0 0 0 
0 0 0 0 0 0 0 0 0 0 0 0 0 0 74 224 224 74 74 224 224 74 0 0 0 0 0 0 120 107 0 76 0 160 113 0 0 0 0 113 160 0 113 144 113 0 0 0 0 0 0 0 0 0 120 169 76 169 0 144 0 0 0 0 72 0 72 0 0 0 0 0 0 0 0 206 213 0 152 152 0 0 0 0 0 0 113 72 0 0 0 0 160 113 113 72 113 0 72 0 0 0 0 72 144 72 0 0 0 152 191 116 218 0 76 0 231 113 0 0 0 0 0 0 0 0 160 222 118 166 117 216 104 0 0 0 0 0 0 0 72 0 0 0 0 113 212 0 150 0 0 120 152 169 169 120 0 167 237 148 137 85 104 113 0 113 158 209 152 242 80 0 0 0 128 0 113 0 0 0 0 0 0 0 0 0 0 0 0 0 0 0 0 0 0 0 0 0 0 0 0 0 0 0 144 144 0 0 0 0 113 0 113 0 0 0 0 0 0 76 0 0 120 120 0 0 0 0 0 0 0 0 0 0 0 0 0 0 0 0 0 0 0 0 0 0 0 0 0 0 0 0 0 0 0 0 0 0 0 0 0 0 0 0 0 0 0 0 0 0 0 0 0 0 0 0 0 0 0 0 0 0 0 0 0 0 0 0 0 0 0 0 0 0 0 0 0 0 0 74 237 167 0 0 0 74 224 224 74 212 212 0 0 0 0 0 0 0 0 167 224 167 74 0 0 0 0 0 0 0 0 0 76 0 76 76 76 0 76 76 113 160 0 0 0 0 0 0 0 0 0 0 0 0 0 0 0 0 0 0 0 0 0 144 72 144 72 0 0 0 0 0 0 0 0 0 72 0 0 0 0 0 0 0 113 0 191 212 0 72 161 161 0 0 0 144 144 0 144 152 152 0 0 0 0 0 0 0 0 0 0 0 0 0 0 0 0 0 0 0 0 0 0 0 0 0 0 0 0 0 0 0 0 0 0 0 0 0 0 0 0 0 0 0 0 0 0 0 0 0 0 0 0 0 0 0 0 0 0 0 0 0 0 0 0 0 0 0 0 0 0 0 0 0 0 0 120 120 0 74 237 167 0 0 0 0 0 0 0 0 0 0 0 0 0 0 0 0 0 0 0 0 0 0 0 0 0 0 0 0 0 0 
0 0 0 0 0 0 0 0 0 0 0 0 0 0 0 74 237 167 167 237 74 0 0 0 0 0 0 0 76 120 107 0 72 144 72 0 0 0 0 113 152 160 113 0 72 72 0 72 0 0 0 0 0 120 161 120 0 152 0 144 0 0 0 0 0 72 0 0 0 0 0 0 72 72 206 0 0 213 152 0 0 0 0 0 0 72 72 72 72 0 0 0 113 152 72 0 0 113 113 152 0 0 0 0 160 113 0 0 0 120 0 72 234 76 107 76 146 160 0 0 0 0 0 0 0 0 144 234 118 118 213 113 0 0 0 0 0 0 0 0 0 0 0 0 72 113 164 167 120 161 107 161 152 120 0 74 106 167 167 100 128 212 0 113 113 72 150 150 128 0 224 0 0 180 132 206 0 0 0 0 0 0 0 0 0 0 0 0 0 0 0 0 0 0 0 0 0 0 0 0 0 0 0 0 144 144 0 0 0 0 144 0 144 0 0 0 0 0 0 0 120 76 0 152 0 0 0 0 0 0 0 0 0 0 0 0 0 0 0 0 0 0 0 0 0 0 0 0 0 0 0 0 0 0 0 0 0 0 0 0 0 0 0 0 0 0 0 0 0 0 0 0 0 0 0 0 0 0 0 0 0 0 0 0 0 0 0 0 0 0 0 0 0 0 0 0 0 0 0 167 237 74 0 0 0 0 74 237 149 237 167 0 0 0 0 0 0 0 0 212 212 0 0 0 0 0 0 0 0 0 0 0 0 76 0 0 120 107 120 104 160 113 0 0 0 0 0 0 0 0 0 0 0 0 0 0 0 0 0 0 0 0 0 144 0 160 0 0 0 0 0 0 0 0 0 0 0 0 0 0 0 0 0 0 0 0 0 252 0 0 0 107 120 0 0 144 144 0 144 152 152 0 0 0 0 0 0 0 0 0 0 0 0 0 0 0 0 0 0 0 0 0 0 0 0 0 0 0 0 0 0 0 0 0 0 0 0 0 0 0 0 0 0 0 0 0 0 0 0 0 0 0 0 0 0 0 0 0 0 0 0 0 0 0 0 0 0 0 0 0 0 0 76 0 0 0 0 0 0 106 212 106 0 0 0 0 0 0 0 0 0 0 0 0 0 0 0 0 0 0 0 0 0 0 0 0 0 0 0 0 0 0 
0 0 0 0 0 0 0 0 0 0 0 0 0 0 74 167 224 167 167 237 74 0 0 0 0 0 0 0 76 152 76 0 0 152 152 0 0 0 0 0 72 113 72 152 113 0 72 0 72 0 0 0 120 161 120 0 0 169 0 144 0 0 0 0 0 113 113 0 0 0 0 152 144 144 213 74 215 212 0 0 0 0 0 0 0 0 113 113 0 0 0 0 0 113 152 101 72 113 113 160 113 0 0 0 113 160 0 185 0 0 0 74 212 104 0 0 0 160 113 0 0 0 0 113 113 0 144 104 222 232 163 144 0 0 0 0 0 0 0 0 0 0 0 0 72 185 116 107 107 107 120 120 0 0 0 167 167 106 148 184 83 101 113 0 101 113 116 169 0 237 0 0 180 132 206 0 0 0 0 0 0 0 0 0 0 0 0 0 0 0 0 0 0 0 0 0 0 0 0 0 0 0 0 0 113 160 0 0 0 0 113 72 113 0 0 0 0 0 0 0 152 0 76 120 0 0 0 0 0 0 0 0 0 0 0 0 0 0 0 0 0 0 0 0 0 0 0 0 0 0 0 0 0 0 0 0 0 0 0 0 0 0 0 0 0 0 0 0 0 0 0 0 0 0 0 0 0 0 0 0 0 0 0 0 0 0 0 0 0 0 0 0 0 0 0 0 0 0 0 212 212 0 0 0 0 0 0 167 167 224 74 0 0 0 0 0 0 0 0 212 212 0 0 0 0 0 0 0 0 0 0 0 0 0 0 0 0 152 152 113 160 0 0 0 0 0 0 0 0 0 0 0 0 0 0 0 0 0 0 0 0 0 0 113 72 113 0 0 0 0 0 0 0 0 0 0 0 0 0 0 0 0 0 0 72 146 0 72 0 72 120 161 120 0 0 185 104 116 163 169 120 0 0 0 0 0 0 0 0 0 0 0 0 0 0 0 0 0 0 0 0 0 0 0 0 0 0 0 0 0 0 0 0 0 0 0 0 0 0 0 0 0 0 0 0 0 0 0 0 0 0 0 0 0 0 0 0 0 0 0 0 0 0 0 0 0 0 0 0 0 0 76 0 76 0 0 0 0 0 74 237 167 0 0 0 0 0 0 0 0 0 0 0 0 0 0 0 0 0 0 0 0 0 0 0 0 0 0 0 0 0 0 
0 0 0 0 0 0 0 0 0 0 0 0 0 0 167 224 167 0 149 167 106 0 0 0 0 0 0 0 76 152 76 0 0 72 144 72 0 0 72 0 0 113 101 101 113 0 0 72 0 0 0 120 161 120 0 120 169 212 212 113 0 0 0 0 72 72 72 72 0 0 152 152 72 72 74 117 113 239 80 179 0 0 0 0 0 0 0 0 0 0 0 0 0 0 144 0 72 0 144 113 160 0 0 72 0 160 113 113 0 167 234 234 113 222 76 120 0 144 144 0 0 0 113 152 152 113 113 0 72 113 0 144 0 0 0 0 0 0 0 0 0 0 0 104 83 225 91 190 120 0 76 0 0 0 74 237 149 167 0 97 163 101 152 113 0 160 0 168 145 212 217 187 132 206 0 0 0 0 0 0 0 0 0 0 0 0 0 0 0 0 0 0 0 0 0 0 0 0 0 0 0 0 0 0 0 160 113 0 0 0 0 72 0 0 0 0 76 0 0 0 169 0 0 76 0 0 0 0 0 0 0 0 0 0 0 0 0 0 0 0 0 0 0 0 0 0 0 0 0 0 0 0 0 0 0 0 0 0 0 0 0 0 0 0 0 0 0 0 0 0 0 0 0 0 0 0 0 0 0 0 0 0 0 0 0 0 0 0 0 0 0 0 0 0 0 0 0 0 0 212 212 0 0 0 0 0 0 74 74 74 74 0 0 0 0 0 0 0 0 212 212 0 0 0 0 0 0 0 0 0 0 0 0 0 0 0 0 152 191 160 113 0 0 0 0 0 0 0 0 0 0 0 0 0 0 0 0 0 0 0 0 0 0 0 72 0 0 0 0 0 0 0 0 0 0 0 0 0 0 0 0 0 0 72 0 72 0 0 106 0 120 169 0 0 146 231 72 104 117 152 76 0 0 0 0 0 0 0 0 0 0 0 0 0 0 0 0 0 0 0 0 0 0 0 0 0 0 0 0 0 0 0 0 0 0 0 0 0 0 0 0 0 0 0 0 0 0 0 0 0 0 0 0 0 0 0 0 0 0 0 0 0 0 0 0 0 0 0 0 0 0 0 76 0 0 0 0 0 0 0 212 212 0 0 0 0 0 0 0 0 0 0 0 0 0 0 0 0 0 0 0 0 0 0 0 0 0 0 0 0 0 0 
0 0 0 0 0 0 0 0 0 0 0 0 0 0 212 212 0 167 224 167 74 0 0 0 0 0 0 0 76 152 76 0 0 113 160 0 0 0 72 0 0 72 0 72 113 72 0 0 0 0 120 161 120 0 161 169 120 116 144 72 0 0 0 0 0 113 113 0 0 152 152 0 0 0 113 160 115 254 164 0 0 0 0 0 0 0 0 0 0 0 0 0 0 0 144 0 0 72 113 0 160 113 113 72 113 113 160 0 206 0 0 0 0 0 74 169 0 113 160 0 0 0 113 160 72 160 0 101 0 0 72 113 0 0 0 0 0 0 0 0 0 0 0 234 224 131 0 0 120 0 0 74 167 212 237 224 0 0 128 234 72 152 0 113 0 72 101 241 192 106 148 225 206 0 0 0 0 0 0 0 0 0 0 0 0 0 0 0 0 0 0 0 0 0 0 0 0 0 0 0 0 0 0 0 0 160 113 0 0 0 0 0 0 0 0 76 0 76 0 161 161 76 76 120 0 0 0 0 0 0 0 0 0 0 0 0 0 0 0 0 0 0 0 0 0 0 0 0 0 0 0 0 0 0 0 0 0 0 0 0 0 0 0 0 0 0 0 0 0 0 0 0 0 0 0 0 0 0 0 0 0 0 0 0 0 0 0 0 0 0 0 0 0 0 0 0 0 0 74 237 167 0 0 0 0 0 0 0 167 106 167 0 0 0 0 0 0 0 0 212 212 0 0 0 0 0 0 0 0 0 0 0 0 0 0 0 120 161 234 160 0 0 0 0 0 0 0 0 0 0 0 0 0 0 0 0 0 0 0 0 0 0 0 0 0 0 0 0 0 0 0 0 0 0 0 0 0 0 0 0 0 0 0 0 72 113 0 211 106 211 152 152 120 0 234 185 115 0 76 152 76 0 0 0 0 0 0 0 0 0 0 0 0 0 0 0 0 0 0 0 0 0 0 0 0 0 0 0 0 0 0 0 0 0 0 0 0 0 0 0 0 0 0 0 0 0 0 0 0 0 0 0 0 0 0 0 0 0 0 0 0 0 0 0 0 0 0 0 0 0 0 0 0 76 0 0 0 0 0 74 237 167 0 0 0 0 0 0 0 0 0 0 0 0 0 0 0 0 0 0 0 0 0 0 0 0 0 0 0 0 0 0 
0 0 0 0 0 0 0 0 0 0 0 0 0 0 212 212 0 167 224 212 167 74 0 0 0 0 0 0 0 169 120 0 0 113 160 0 0 0 72 0 0 0 0 113 152 0 0 0 0 0 169 120 0 161 161 0 0 0 160 113 0 0 0 0 0 0 0 0 152 152 0 0 0 152 160 113 116 83 80 236 0 0 0 0 0 0 0 0 0 0 0 0 0 0 113 72 101 72 0 0 144 144 113 0 101 72 101 152 0 0 163 234 163 0 222 169 120 0 160 113 0 0 72 144 0 152 152 0 72 72 72 0 0 0 0 0 0 0 0 0 0 0 0 0 163 224 224 167 0 0 0 167 224 212 167 0 224 80 97 104 113 0 152 72 72 0 0 176 78 203 243 95 0 0 0 0 0 0 0 0 0 0 0 0 0 0 0 0 0 0 0 0 0 0 0 0 0 0 0 0 0 0 0 0 113 160 0 0 0 0 0 0 0 0 0 0 76 0 76 120 107 120 0 152 0 0 0 0 0 0 0 0 0 0 0 0 0 0 0 0 0 0 0 0 0 0 0 0 0 0 0 0 0 0 0 0 0 0 0 0 0 0 0 0 0 0 0 0 0 0 0 0 0 0 0 0 0 0 0 0 0 0 0 0 0 0 0 0 0 0 0 0 0 0 0 0 0 0 167 237 74 0 0 0 0 0 0 0 212 74 237 74 0 0 0 0 0 0 0 212 212 0 0 0 0 0 0 0 0 0 0 0 0 0 0 120 161 167 212 113 0 0 0 0 0 0 0 0 0 0 0 0 0 0 0 0 0 0 0 0 0 0 0 0 0 0 0 0 0 0 0 0 0 0 0 0 0 0 0 0 0 0 0 0 0 144 0 152 0 120 169 120 152 0 191 160 104 76 107 169 0 0 0 0 0 0 0 0 0 0 0 0 0 0 0 0 0 0 0 0 0 0 0 0 0 0 0 0 0 0 0 0 0 0 0 0 0 0 0 0 0 0 0 0 0 0 0 0 0 0 0 0 0 0 0 0 0 0 0 0 0 0 0 0 0 0 0 0 0 0 120 120 0 0 76 0 0 0 0 167 237 74 0 0 0 0 0 0 0 0 0 0 0 0 0 0 0 0 0 0 0 0 0 0 0 0 0 0 0 0 0 0 
0 0 0 0 0 0 0 0 0 0 0 0 0 0 167 237 74 74 167 212 224 167 0 0 0 0 0 0 0 120 169 0 0 72 144 72 0 0 0 101 0 0 152 113 0 0 0 0 0 161 161 0 161 212 116 0 0 0 144 144 0 0 0 0 0 0 0 152 206 167 120 74 152 152 0 0 0 0 72 0 0 0 0 0 0 0 0 0 0 0 0 72 0 0 0 0 0 0 0 0 113 160 0 113 101 160 113 72 101 146 0 104 0 150 0 120 152 0 155 212 0 0 113 160 0 72 144 72 0 0 0 0 0 0 0 0 0 0 0 0 113 144 160 232 0 217 167 74 0 0 0 167 237 74 0 167 0 0 0 0 144 113 113 72 0 0 81 113 106 180 136 163 0 0 0 0 0 0 0 0 0 0 0 0 0 0 0 0 0 0 0 0 0 0 0 0 0 0 0 0 0 0 0 0 113 160 0 0 0 0 0 0 0 0 0 0 0 0 0 120 161 0 76 120 0 0 0 0 0 0 0 0 0 0 0 0 0 0 0 0 0 0 0 0 0 0 0 0 0 0 0 0 0 0 0 0 0 0 0 0 0 0 0 0 0 0 0 0 0 0 0 0 0 0 0 0 0 0 0 0 0 0 0 0 0 0 0 0 0 0 0 0 0 0 0 0 0 0 167 237 74 0 0 0 0 0 0 0 212 167 237 167 0 0 0 0 0 0 0 167 237 74 0 0 0 0 0 0 0 0 0 0 0 0 0 152 152 113 160 0 0 0 0 0 0 0 0 0 0 0 0 0 0 0 0 0 0 0 0 0 0 0 0 0 0 0 0 0 0 0 0 0 0 0 0 0 0 0 0 0 0 0 0 0 0 144 0 152 74 148 242 0 169 0 191 160 150 76 0 152 0 0 0 0 0 0 0 0 0 0 0 0 0 0 0 0 0 0 0 0 0 0 0 0 0 0 0 0 0 0 0 0 0 0 0 0 0 0 0 0 0 0 0 0 0 0 0 0 0 0 0 0 0 0 0 0 0 0 0 0 0 0 0 0 0 0 0 0 0 76 76 76 0 76 0 0 0 0 0 212 212 0 0 0 0 0 0 0 0 0 0 0 0 0 0 0 0 0 0 0 0 0 0 0 0 0 0 0 0 0 0 0 
0 0 0 0 0 0 0 0 0 0 0 0 0 0 74 237 167 0 0 0 212 212 0 0 0 0 0 0 0 76 152 76 0 113 160 0 0 0 0 0 0 113 113 0 0 0 0 0 161 161 0 120 169 116 0 104 0 0 160 113 0 0 0 0 0 0 113 160 117 76 117 213 152 0 0 0 0 0 0 0 0 0 0 0 0 0 0 0 0 0 113 72 113 0 0 72 0 72 0 0 0 113 146 162 185 0 113 101 72 113 222 0 234 72 0 0 152 120 117 0 113 0 185 214 120 146 160 0 0 0 0 0 0 72 0 0 0 0 0 152 160 144 113 74 161 161 0 0 0 0 0 106 212 106 74 0 113 0 155 113 72 113 72 72 0 0 184 106 113 132 206 0 0 0 0 0 0 0 0 0 0 0 0 0 0 0 0 0 0 0 0 0 0 0 0 0 0 0 0 0 0 0 0 0 0 160 113 0 72 74 76 0 0 72 0 0 0 0 0 76 120 76 0 107 0 0 0 0 0 0 0 0 0 0 0 0 0 0 0 0 0 0 0 0 0 0 0 0 0 0 0 0 0 0 0 0 0 0 0 0 0 0 0 0 0 0 0 0 0 0 0 0 0 0 0 0 0 0 0 0 0 0 0 0 0 0 0 0 0 0 0 0 0 0 0 0 0 74 74 167 167 0 0 0 0 0 0 74 167 149 224 167 0 0 0 0 0 0 0 74 237 167 0 0 0 0 0 0 0 0 0 0 0 0 120 161 167 160 113 0 0 0 0 0 0 0 0 0 0 0 0 0 0 0 0 0 0 0 0 0 0 0 0 0 72 0 0 0 0 0 0 0 0 0 0 0 0 0 0 0 0 0 0 0 0 144 0 152 167 106 0 120 169 185 0 160 0 0 76 120 0 0 0 0 0 0 0 0 0 0 0 0 0 0 0 0 0 0 0 0 0 0 0 0 0 0 0 0 0 0 0 0 0 0 0 0 0 0 0 0 0 0 0 0 0 0 0 0 0 0 0 0 0 0 0 0 0 0 0 0 0 0 0 0 0 0 0 0 0 0 120 120 0 0 0 76 0 0 0 212 212 0 0 0 0 0 0 0 0 0 0 0 0 0 0 0 0 0 0 0 0 0 0 0 0 0 0 0 0 0 0 0 
0 0 0 0 0 0 0 0 0 0 0 0 74 167 212 224 167 74 106 74 212 212 0 0 0 0 0 0 0 120 169 0 0 113 160 0 0 0 0 0 72 113 113 113 0 0 0 120 169 0 120 161 120 0 158 167 161 146 160 0 0 0 0 0 0 113 152 113 0 120 209 212 0 0 0 0 0 0 0 0 0 0 0 0 0 0 0 0 0 0 144 0 144 0 0 0 72 0 0 72 0 72 220 113 231 0 0 113 113 104 104 0 74 104 150 76 120 120 0 0 185 0 0 0 161 0 144 0 0 0 0 0 72 0 101 0 0 113 160 152 0 0 0 0 0 169 120 0 0 0 74 224 224 0 0 180 132 155 101 101 101 113 101 0 179 243 0 78 225 206 0 0 0 0 0 0 0 0 0 0 0 0 0 0 0 0 0 0 0 0 0 0 0 0 0 0 0 0 0 0 0 0 0 0 0 144 144 72 0 148 0 76 72 0 72 0 0 0 76 0 76 76 76 76 76 0 0 0 0 0 0 0 0 0 0 0 0 0 0 0 0 0 0 0 0 0 0 0 0 0 0 0 0 0 0 0 0 0 0 0 0 0 0 0 0 0 0 0 0 0 0 0 0 0 0 0 0 0 0 0 0 0 0 0 0 0 0 0 0 0 0 0 0 0 0 0 0 167 167 167 167 0 0 0 0 0 0 106 74 167 167 74 0 0 0 0 0 0 0 0 212 212 0 0 0 0 0 0 0 0 0 0 0 76 120 107 163 160 0 0 0 0 0 0 0 0 0 0 0 0 0 0 0 0 72 0 0 0 0 0 0 0 0 72 0 72 0 0 0 0 0 0 0 0 0 0 0 0 0 0 0 0 0 0 0 144 0 169 217 106 0 152 152 113 0 113 0 120 76 0 0 0 0 0 0 0 0 0 0 0 0 0 0 0 0 0 0 0 0 0 0 0 0 0 0 0 0 0 0 0 0 0 0 0 0 0 0 0 0 0 0 0 0 0 0 0 0 0 0 0 0 0 0 0 0 0 0 0 0 0 0 0 0 0 0 0 0 0 0 0 0 0 0 0 76 0 76 0 0 167 237 74 0 0 0 0 0 0 0 0 0 0 0 0 0 0 0 0 0 0 0 0 0 0 0 0 0 0 0 0 0 0 
0 0 0 0 0 0 0 0 0 74 167 212 237 167 74 106 106 106 0 106 212 212 0 0 0 0 0 0 0 152 152 0 0 0 160 113 0 0 0 0 72 0 113 152 113 0 0 169 76 161 169 120 0 0 152 76 152 220 144 0 0 0 0 0 152 160 113 0 0 0 144 144 0 0 0 0 0 0 0 0 0 0 0 0 0 0 0 0 0 0 113 72 113 0 0 0 0 0 0 0 72 113 185 0 185 113 0 0 152 206 113 74 76 0 74 148 74 0 120 163 0 155 74 167 152 0 144 0 0 0 0 0 0 113 72 160 160 160 113 0 0 0 0 0 120 161 120 0 0 0 167 237 74 167 148 136 155 101 152 0 144 0 72 179 231 106 200 0 83 0 0 0 0 0 0 0 0 0 0 0 0 0 0 0 0 0 0 0 0 0 0 0 0 0 72 0 0 0 0 0 0 0 0 0 0 144 144 0 72 74 76 0 0 72 0 0 0 0 0 76 107 120 76 120 0 0 0 0 0 0 0 0 0 0 0 0 0 0 0 0 0 0 0 0 0 0 0 0 0 0 0 0 0 0 0 0 0 0 0 0 0 0 0 0 0 0 0 0 0 0 0 0 0 0 0 0 0 0 0 0 0 0 0 0 0 0 0 0 0 0 0 0 0 0 0 0 0 212 167 106 74 0 0 0 0 0 0 74 106 74 0 0 0 0 74 106 74 0 0 0 212 212 0 0 0 0 0 0 0 0 0 0 0 76 152 117 160 113 0 0 0 0 0 0 0 0 0 0 0 0 0 0 0 72 0 72 0 0 0 0 0 0 0 0 72 0 0 0 0 0 0 0 0 0 0 0 0 0 0 0 0 0 0 0 0 144 185 169 190 106 167 169 120 0 0 0 0 152 0 0 0 0 0 0 0 0 0 0 0 0 0 0 0 0 0 0 0 0 0 0 0 0 0 0 0 0 0 0 0 0 0 0 0 0 0 0 0 0 0 0 0 0 0 0 0 0 0 0 0 0 0 0 0 0 0 0 0 0 0 0 0 0 0 0 0 0 0 0 0 0 0 0 0 0 0 76 0 0 0 74 237 167 0 0 0 0 0 0 0 0 0 0 0 0 0 0 0 0 0 0 0 0 0 0 0 0 0 0 0 0 0 0 
0 0 0 0 0 0 0 0 0 106 167 167 167 74 106 106 106 74 106 74 212 212 0 0 0 0 0 0 0 169 120 0 0 0 144 144 0 0 0 0 72 0 113 152 113 0 161 161 76 218 116 0 0 0 169 0 169 185 144 0 0 0 0 113 160 0 0 0 0 0 144 144 0 0 0 0 0 0 0 0 0 0 0 0 0 0 0 0 0 0 0 72 0 0 0 0 0 0 0 0 0 113 160 0 113 160 0 0 0 163 213 101 0 0 104 74 101 0 120 0 0 215 0 0 218 0 113 0 0 0 0 0 0 144 113 146 187 74 0 0 72 72 72 117 120 107 0 0 0 74 237 167 74 0 194 234 101 152 0 0 113 72 206 157 113 149 234 136 104 0 0 0 0 0 0 0 72 0 0 0 0 0 0 0 0 0 0 0 0 0 0 0 0 72 0 72 0 0 0 0 0 0 0 0 0 144 144 0 0 72 0 0 0 72 0 0 0 0 0 0 0 161 169 120 0 0 0 0 0 0 0 0 0 0 0 0 0 0 0 0 0 0 0 0 0 0 0 0 0 0 0 0 0 0 0 0 0 0 0 0 0 0 0 0 0 0 0 0 0 0 0 0 0 0 0 0 0 0 0 0 0 0 0 0 0 0 0 0 0 0 0 0 0 0 0 0 0 167 224 212 212 212 212 167 74 0 0 0 0 0 0 74 167 212 237 212 237 212 167 74 212 212 0 0 0 0 0 0 0 0 0 0 0 120 169 163 160 0 0 0 0 0 0 0 0 0 0 0 0 0 0 0 0 0 72 0 0 0 0 0 0 0 0 0 0 0 0 0 0 72 0 0 0 0 0 0 0 0 0 0 0 0 0 0 0 144 144 152 152 0 76 152 76 0 0 0 0 152 0 0 0 0 0 0 0 0 0 0 0 0 0 0 0 0 0 0 0 0 0 0 0 0 0 0 0 0 0 0 0 0 0 0 0 0 0 0 0 0 0 0 0 0 0 0 0 0 0 0 0 0 0 0 0 0 0 0 0 0 0 0 0 0 0 0 0 0 0 0 0 0 0 0 0 0 0 0 0 0 0 74 237 167 0 0 0 0 0 0 0 0 0 0 0 0 0 0 0 0 0 0 0 0 0 0 0 0 0 0 0 0 0 0 
0 0 0 0 0 0 0 74 106 0 237 167 0 74 167 106 74 74 0 0 212 212 0 0 0 0 0 0 120 169 0 0 0 113 152 113 0 0 0 72 0 113 101 113 104 161 161 0 169 189 0 72 0 120 120 120 120 144 144 0 0 0 0 113 152 113 0 0 0 0 160 113 0 0 0 0 0 0 0 0 0 0 0 0 0 0 0 0 0 0 0 0 0 72 0 0 0 0 0 0 0 0 152 160 72 101 152 0 0 0 113 152 113 150 150 0 74 72 0 120 117 148 118 218 0 206 0 0 0 0 0 0 0 144 185 161 152 169 152 158 0 0 0 116 169 167 167 212 212 237 224 0 0 180 85 0 152 0 152 113 0 72 0 80 106 180 136 163 0 0 0 0 0 0 0 113 72 113 0 0 0 0 0 0 0 0 0 0 0 0 0 0 0 0 72 0 0 0 0 0 0 0 0 0 0 144 144 0 113 72 113 0 113 72 113 0 0 0 0 0 0 107 0 76 76 0 0 0 0 0 0 0 0 0 0 0 0 0 0 0 0 0 0 0 0 0 0 0 0 0 0 0 0 0 0 0 0 0 0 0 0 0 0 0 0 0 0 0 0 0 0 0 0 0 0 0 0 0 0 0 0 0 0 0 0 0 0 0 0 0 0 0 0 0 0 0 0 74 167 212 212 212 212 237 237 212 212 167 74 74 167 237 237 212 167 106 167 212 237 224 167 212 0 0 0 0 0 0 0 0 0 0 0 152 191 160 113 0 0 0 0 0 0 0 0 0 0 0 0 0 0 0 0 0 0 0 0 0 0 0 0 0 0 72 72 72 0 0 72 0 72 0 0 0 0 0 0 0 0 0 0 0 0 0 0 113 160 191 152 0 120 169 120 0 0 148 0 120 0 0 0 0 0 0 0 0 0 0 0 0 0 0 0 0 0 0 0 0 0 0 0 0 0 0 0 0 0 0 0 0 0 0 0 0 0 0 0 0 0 0 0 0 0 0 0 0 0 0 0 0 0 0 0 0 0 0 0 0 0 0 0 0 0 0 0 0 0 0 0 0 0 0 0 0 0 0 0 0 0 167 237 74 0 0 0 0 0 0 0 0 0 0 0 0 0 0 0 0 0 0 0 0 0 0 0 0 0 0 0 0 0 0 
0 0 0 0 0 0 0 167 106 167 212 212 74 106 74 167 106 167 0 74 237 167 0 0 0 0 0 0 120 161 120 0 72 113 101 0 0 0 72 0 72 113 152 113 150 169 0 212 0 116 0 0 0 152 0 169 0 144 144 0 0 0 72 0 113 152 113 0 0 152 152 0 0 0 0 0 0 0 0 0 0 0 0 0 0 0 0 0 0 0 0 0 72 0 72 0 0 0 0 0 0 0 0 113 152 72 152 152 0 0 0 113 160 0 167 158 218 74 0 152 120 107 117 0 206 0 0 0 0 0 0 0 163 0 0 161 139 0 108 128 0 224 224 191 236 80 237 212 212 167 0 0 130 85 104 113 0 101 72 101 101 116 128 190 78 136 206 0 0 0 0 0 0 0 0 144 0 144 0 0 0 0 0 0 0 0 0 0 0 0 0 0 0 0 0 0 0 0 0 0 0 0 0 0 0 144 144 0 113 72 113 0 144 0 144 0 0 0 0 0 76 120 76 0 76 0 0 0 0 0 0 0 0 0 0 0 0 0 0 0 0 0 0 0 0 0 0 0 0 0 0 0 0 0 0 0 0 0 0 0 0 0 0 0 0 0 0 0 0 0 0 0 0 0 0 0 0 0 0 0 0 0 0 0 0 0 0 0 0 0 0 0 0 0 0 0 0 0 0 0 0 0 0 74 167 212 212 237 237 237 237 167 74 0 0 0 0 0 74 224 167 167 0 120 152 152 120 0 0 0 0 0 76 120 0 160 0 0 0 0 0 0 0 0 0 0 0 0 0 0 0 0 0 0 0 0 0 0 0 0 0 0 72 0 0 0 72 0 0 72 0 0 0 0 0 0 0 0 0 0 0 0 0 0 0 0 160 0 152 0 152 152 120 107 189 0 224 76 0 0 0 0 0 0 0 0 0 0 0 0 0 0 0 0 0 0 0 0 0 0 0 0 0 0 0 0 0 0 0 0 0 0 0 0 0 0 0 0 0 0 0 0 0 0 0 0 0 0 0 0 0 0 0 0 0 0 0 0 0 0 0 0 0 0 0 0 0 0 0 0 0 0 0 0 120 120 0 0 74 237 167 0 0 0 0 0 0 0 0 0 0 0 0 0 0 0 0 0 0 0 0 0 0 0 0 0 0 0 0 0 0 0 
0 0 0 0 0 0 0 167 106 106 237 167 106 0 106 212 0 212 0 167 237 74 0 0 0 0 0 0 0 120 161 120 0 160 113 0 0 0 0 72 0 0 0 146 236 76 161 0 155 113 72 0 0 152 0 152 0 144 144 0 0 101 0 72 0 144 144 0 113 160 0 0 0 0 0 0 0 0 0 0 0 0 0 0 0 0 0 0 0 0 72 0 0 72 0 0 0 0 0 0 0 0 72 0 113 160 0 160 113 0 0 0 0 206 0 167 120 76 0 120 169 0 236 0 72 0 0 0 0 0 0 113 0 0 167 0 106 167 167 0 100 108 108 108 100 0 74 0 0 74 0 180 85 155 0 113 113 0 101 113 104 236 0 74 194 0 0 0 0 0 0 0 0 0 113 152 72 160 0 0 0 0 0 0 0 0 0 0 0 0 0 0 0 0 0 0 0 0 0 0 0 0 0 0 0 144 144 0 0 72 0 0 113 72 113 0 0 0 0 0 0 169 0 0 0 76 0 0 0 0 0 0 0 0 0 0 0 0 0 0 0 0 0 0 0 0 0 0 0 0 0 0 0 0 0 0 0 0 0 0 0 0 0 0 0 0 0 0 0 0 0 0 0 0 0 0 0 0 0 0 0 0 0 0 0 0 0 0 0 0 0 0 0 0 0 0 0 0 0 0 0 0 0 0 0 0 0 74 167 167 74 0 0 0 0 0 0 0 0 74 148 190 169 169 152 152 161 120 0 0 0 76 0 158 0 113 0 0 0 0 0 0 0 0 0 0 0 0 0 0 0 0 0 0 0 0 0 0 0 0 0 0 0 72 72 72 0 0 0 72 0 0 0 0 0 0 0 0 0 0 0 0 0 0 0 0 144 0 152 0 120 169 0 107 116 0 224 76 0 0 0 0 0 0 0 0 0 0 0 0 0 0 0 0 0 0 0 0 0 0 0 0 0 0 0 0 0 0 0 0 0 0 0 0 0 0 0 0 0 0 0 0 0 0 0 0 0 0 0 0 0 0 0 0 0 0 0 0 0 0 0 0 0 0 0 0 0 0 0 0 0 76 0 120 161 161 120 0 167 237 74 0 0 0 0 0 0 0 0 0 0 0 0 0 0 0 0 0 0 0 0 0 0 0 0 0 0 0 0 0 0 0 
0 0 0 0 0 0 0 74 106 106 237 0 74 74 74 212 0 167 106 106 237 74 0 0 0 0 0 0 0 0 169 120 0 113 160 0 0 0 0 0 72 0 163 0 158 107 212 163 72 152 0 0 0 152 0 169 0 144 144 0 72 0 101 0 0 144 144 0 113 160 0 0 0 0 0 0 0 0 0 0 0 0 0 0 0 0 0 0 0 113 113 152 0 0 113 113 0 0 0 0 0 72 0 72 0 152 152 72 160 0 0 0 0 0 206 0 222 116 72 104 161 169 118 0 206 0 0 0 0 0 0 160 222 161 152 120 128 224 224 0 167 212 212 212 167 74 0 0 74 0 180 132 163 72 101 0 160 0 144 0 236 0 0 106 136 163 0 0 0 0 0 0 0 113 152 113 72 160 113 0 0 0 0 0 0 0 0 0 0 0 0 0 0 0 0 0 0 72 0 0 0 0 0 0 0 144 144 0 72 0 0 0 0 72 0 0 0 0 0 0 0 120 120 0 0 0 76 0 0 0 0 0 0 0 0 0 0 0 0 0 0 0 0 0 0 0 0 0 0 0 0 0 0 0 0 0 0 0 0 0 0 0 0 0 0 0 0 0 0 0 0 0 0 0 0 0 0 0 0 0 0 0 0 0 0 0 0 0 0 0 0 0 0 0 0 0 76 0 0 0 76 0 0 0 0 0 0 0 0 0 0 0 0 120 152 152 120 0 0 0 161 169 120 0 0 0 169 120 0 0 0 76 120 215 212 0 0 0 0 0 0 0 0 0 0 0 0 0 0 0 0 0 0 0 0 0 0 0 0 0 0 0 0 0 0 0 0 0 72 0 72 0 0 0 0 0 0 0 0 0 0 0 0 0 0 0 144 0 152 0 0 169 120 120 117 148 218 0 0 0 0 0 0 0 0 0 0 0 0 0 0 0 0 0 0 0 0 0 0 0 0 0 0 0 0 0 0 0 0 0 0 0 0 0 0 0 0 0 0 0 0 0 0 0 0 0 0 0 0 0 0 0 0 0 0 0 0 0 0 0 0 0 0 0 0 0 0 0 0 0 76 0 120 107 107 161 120 0 167 237 74 0 0 0 0 0 0 0 0 0 0 0 0 0 0 0 0 0 0 0 0 0 0 0 0 0 0 0 0 0 0 0 
0 0 0 0 74 106 106 106 106 237 106 224 212 237 167 106 106 74 0 74 237 167 0 0 0 0 0 0 0 120 169 0 0 72 144 72 0 0 0 0 0 72 234 167 107 161 116 0 101 0 0 0 0 152 120 169 150 160 113 0 0 72 0 0 0 144 144 0 117 212 113 0 0 0 0 0 0 0 0 0 0 0 0 0 0 0 0 0 0 144 113 160 113 72 113 113 160 144 113 0 0 0 72 0 0 0 152 115 164 206 0 0 0 0 0 113 160 113 0 116 0 76 107 117 0 206 0 0 0 0 206 213 0 189 191 169 161 148 212 106 0 0 0 0 0 0 0 74 0 180 132 155 101 152 0 72 113 101 113 190 133 106 113 132 206 0 0 0 0 0 0 0 0 113 152 113 0 144 144 0 0 0 0 0 0 0 0 0 0 0 0 0 0 0 0 0 113 72 113 0 0 0 0 0 0 144 144 113 72 113 0 0 0 0 0 0 0 0 0 0 0 76 152 76 0 76 0 0 0 0 0 0 0 0 0 0 0 0 0 0 0 0 0 0 0 0 0 0 0 0 0 0 0 0 0 0 0 0 0 0 0 0 120 152 152 152 152 120 76 76 0 0 0 76 0 0 0 0 0 0 0 0 0 120 120 0 0 120 152 152 152 152 152 152 152 169 152 169 152 169 152 169 120 0 0 0 0 0 0 0 0 120 169 169 152 152 169 169 152 169 161 0 0 0 0 120 169 0 0 0 0 120 218 212 113 0 0 0 0 0 0 0 0 0 0 0 0 0 0 0 0 0 0 0 0 0 0 0 0 0 0 0 0 0 0 0 0 0 72 0 72 0 0 0 0 0 0 0 0 0 0 0 0 0 0 0 144 0 152 0 0 152 152 152 0 0 152 0 0 0 0 0 0 0 0 0 0 0 0 0 0 0 0 0 0 0 0 0 0 0 0 0 0 0 0 0 0 0 0 0 0 0 0 0 0 0 0 0 0 0 0 0 0 0 0 0 0 0 0 0 0 0 0 0 0 0 0 0 0 0 0 0 0 0 0 0 0 0 0 0 0 107 0 0 120 120 0 0 106 212 106 0 0 0 0 0 0 0 0 0 0 0 0 0 0 0 0 0 0 0 0 0 0 0 0 0 0 0 0 0 0 0 
0 0 0 74 149 106 106 74 0 167 167 224 74 106 106 0 74 74 0 106 224 167 0 0 0 0 0 0 0 120 169 0 0 72 144 72 0 0 0 101 72 155 0 0 218 116 0 72 0 0 0 0 0 152 152 152 0 160 0 0 0 0 0 0 0 113 101 155 0 220 144 0 0 0 0 0 0 0 0 0 0 0 0 0 0 0 0 0 0 113 160 72 160 0 160 72 101 72 113 152 0 0 0 0 0 0 0 213 101 164 152 0 0 0 0 0 101 101 101 117 0 107 0 166 76 0 0 163 0 236 208 91 0 0 72 0 169 0 237 74 0 0 0 0 0 0 74 224 80 97 163 101 152 0 0 0 72 113 179 133 0 78 225 206 0 0 0 0 0 0 0 0 0 0 113 160 160 152 113 0 0 0 0 0 0 0 0 0 0 0 0 0 0 0 0 0 113 72 113 0 0 0 0 0 0 144 144 144 0 152 113 0 0 0 0 0 0 0 0 0 0 76 120 120 120 0 0 0 0 0 0 0 0 0 0 0 0 0 0 0 0 0 0 0 0 0 0 0 0 0 0 0 0 0 0 0 0 0 0 0 0 120 161 191 0 0 0 218 152 152 169 152 169 152 161 0 0 120 152 120 76 120 169 120 107 120 169 169 152 152 152 152 152 152 152 120 76 120 152 120 76 120 169 169 152 152 120 0 0 120 169 218 234 185 113 0 0 120 152 120 0 0 0 0 0 169 120 0 0 0 0 152 0 160 0 0 0 0 0 0 0 0 0 0 0 0 0 0 0 0 0 0 0 0 0 0 0 0 0 0 0 0 0 0 0 0 0 0 101 0 72 0 0 0 0 0 0 0 0 0 0 0 0 0 0 0 113 0 191 0 0 152 120 169 76 0 120 0 0 0 0 0 0 0 0 0 0 0 0 0 0 0 0 0 0 0 0 0 0 0 0 0 0 0 0 0 0 0 0 0 0 0 0 0 0 0 0 0 0 0 0 0 0 0 0 0 0 0 0 0 0 0 0 0 0 0 0 0 0 0 0 0 0 0 0 0 0 0 0 0 0 0 120 76 0 0 0 0 167 237 74 0 0 0 0 0 0 0 0 0 0 0 0 0 0 0 0 0 0 0 0 0 0 0 0 0 0 0 0 0 0 0 
0 0 0 167 74 0 0 106 74 74 106 74 224 237 167 74 106 106 74 149 74 106 0 0 0 0 0 0 0 107 120 76 0 72 144 72 0 0 72 72 104 0 158 120 234 72 113 0 72 0 0 0 0 169 120 152 0 160 0 0 0 0 0 0 113 0 101 206 155 146 160 0 0 0 0 0 0 0 0 0 0 0 0 0 0 0 0 0 0 72 144 0 152 152 113 144 113 113 113 72 101 0 0 0 0 0 0 104 206 72 232 0 104 0 0 113 152 72 0 104 120 0 187 222 0 116 116 0 0 208 234 0 180 0 74 0 152 108 212 0 0 0 0 0 0 0 167 0 0 234 72 152 0 0 113 72 113 0 0 0 149 243 95 0 0 0 0 0 0 0 0 0 0 0 0 0 113 113 0 0 0 0 0 0 0 0 0 0 0 0 0 0 0 0 0 0 0 72 0 0 0 0 0 0 0 144 144 144 113 113 152 113 0 72 0 0 0 0 0 0 0 76 76 0 76 76 0 0 0 0 0 0 0 0 0 0 0 0 0 0 0 0 0 0 0 0 0 0 0 0 0 0 0 0 0 0 0 0 0 0 0 152 152 113 152 144 160 212 220 220 0 0 150 76 161 169 169 169 152 169 152 169 120 0 0 120 120 0 0 0 0 0 113 144 144 113 0 0 0 0 0 0 0 120 152 152 169 169 169 169 120 116 72 0 72 72 0 0 0 76 0 0 0 0 161 161 0 0 0 0 0 218 0 113 0 0 0 0 0 0 0 0 0 0 0 0 0 0 0 0 0 0 0 0 0 0 0 0 0 0 0 0 72 0 0 0 0 72 0 101 0 0 0 0 0 0 0 72 0 0 0 0 0 0 0 0 0 0 0 0 0 152 76 152 0 120 0 120 0 0 0 0 0 0 0 0 0 0 0 0 0 0 0 0 0 0 0 0 0 0 0 0 0 0 0 0 0 0 0 0 0 0 0 0 0 0 0 0 0 0 0 0 0 0 0 0 0 0 0 0 0 0 0 0 0 0 0 0 0 0 0 0 0 0 0 0 0 0 0 0 0 76 0 76 0 76 0 0 212 212 0 0 0 0 0 0 0 0 0 0 0 0 0 0 0 0 0 0 0 0 0 0 0 0 0 0 0 0 0 0 0 0 
0 0 0 212 0 0 0 74 224 212 224 106 237 74 0 74 167 167 149 167 212 224 74 0 0 0 0 0 76 76 76 76 0 72 144 72 0 0 101 155 0 158 107 161 146 72 113 72 0 72 0 0 161 161 0 152 224 144 72 0 0 0 0 0 144 0 144 113 160 0 144 72 0 0 0 0 0 0 0 0 0 0 0 0 0 0 0 0 0 113 212 167 167 212 0 144 113 101 0 0 101 113 0 0 0 0 0 0 113 213 118 216 0 163 0 144 144 113 113 160 209 117 222 113 116 0 0 76 222 0 248 167 240 0 0 190 0 80 167 0 0 0 0 0 0 0 252 135 0 116 113 0 0 0 113 72 163 236 137 0 148 146 163 0 0 0 0 0 0 0 0 0 0 0 0 0 0 0 0 0 0 0 0 0 0 0 0 0 0 0 0 0 0 0 0 0 0 0 0 0 0 0 0 0 0 144 144 144 144 0 144 144 113 72 113 0 0 0 0 0 0 76 76 0 0 120 120 0 0 0 0 0 0 0 0 0 0 0 0 0 0 0 0 0 0 0 0 0 0 0 0 0 0 0 0 0 0 0 0 0 0 169 120 113 152 144 113 0 0 113 144 160 160 144 185 0 222 74 0 0 76 0 0 0 76 0 0 0 0 0 0 72 72 0 72 101 113 144 144 113 0 0 0 0 0 0 0 120 120 0 76 117 222 0 146 0 0 0 161 152 169 120 76 161 161 0 0 0 0 120 169 0 212 0 0 0 0 0 0 0 0 0 0 0 0 0 0 0 0 0 0 0 0 0 0 0 0 0 0 0 0 113 72 113 0 0 0 0 72 0 0 0 0 0 0 0 72 0 72 0 0 0 0 0 0 0 0 0 0 0 0 120 120 120 120 120 76 120 0 0 0 0 0 0 0 0 0 0 0 0 0 0 0 0 0 0 0 0 0 0 0 0 0 0 0 0 0 0 0 0 0 0 0 0 0 0 0 0 0 0 0 0 0 0 0 0 0 0 0 0 0 0 0 0 0 0 0 0 0 0 0 0 0 0 0 0 0 0 0 0 76 0 76 0 76 0 0 0 212 212 0 0 0 0 0 0 0 0 0 0 0 0 0 0 0 0 0 0 0 0 0 0 0 0 0 0 0 0 0 0 0 0 
0 0 0 212 0 0 0 0 212 0 167 106 167 0 0 0 0 0 74 106 74 212 106 0 0 0 0 0 0 107 120 76 0 72 144 72 0 113 206 0 212 76 169 0 72 0 72 0 72 0 0 161 161 0 0 152 0 160 0 0 0 0 0 0 113 0 113 0 152 144 152 0 0 0 0 0 0 0 0 0 0 0 0 0 0 0 0 0 0 144 220 76 76 187 72 113 0 101 72 101 101 152 113 0 0 0 0 0 0 163 0 216 104 0 212 152 113 144 113 113 212 213 0 152 152 0 206 0 218 211 91 217 173 189 107 0 80 217 74 0 0 0 0 0 0 74 100 194 212 113 144 0 0 72 0 72 239 133 203 217 194 0 0 0 0 0 0 0 0 0 0 0 0 0 0 0 0 0 0 0 0 0 0 0 0 0 0 0 0 0 0 0 0 0 0 0 0 0 72 0 0 0 0 0 0 144 144 144 144 0 144 144 144 0 152 113 0 0 0 0 0 0 120 120 0 0 76 76 0 0 0 0 0 0 0 0 0 0 0 0 0 0 0 0 0 0 0 0 0 0 0 0 0 0 0 0 0 0 0 0 76 152 76 74 222 0 0 0 212 160 144 113 0 0 0 0 72 72 0 0 0 0 0 0 0 0 0 0 76 0 0 74 187 212 144 113 0 0 76 0 116 120 152 152 152 152 152 152 152 169 152 152 169 169 169 152 152 169 161 76 120 169 152 161 0 0 0 0 76 120 158 212 113 0 0 0 0 0 0 0 0 0 0 0 0 0 0 0 0 0 0 0 0 0 0 0 0 0 0 0 0 144 0 144 0 0 0 0 0 0 0 0 0 0 0 0 0 72 0 0 0 0 0 0 0 0 0 185 0 120 0 76 152 76 152 0 76 0 0 0 0 0 0 0 0 0 0 0 0 0 0 0 0 0 0 0 0 0 0 0 0 0 0 0 0 0 0 0 0 0 0 0 0 0 0 0 0 0 0 0 0 0 0 0 0 0 0 0 0 0 0 0 0 0 0 0 0 0 0 0 0 0 0 0 0 0 0 0 0 0 0 76 0 0 0 0 0 0 212 212 0 0 0 0 0 0 0 0 0 0 0 0 0 0 0 0 0 0 0 0 0 0 0 0 0 0 0 0 0 0 0 0 
0 74 106 167 0 0 74 74 149 212 106 74 0 167 212 167 74 0 0 74 224 224 74 0 0 0 0 0 0 161 161 0 0 113 160 0 0 144 0 169 0 169 120 0 113 72 113 0 0 0 161 161 0 0 0 169 0 144 0 0 0 0 0 72 0 101 0 0 0 72 0 0 0 0 0 0 0 0 0 0 0 0 0 0 0 0 0 0 0 144 185 120 120 74 72 0 0 113 72 113 0 113 160 152 72 72 0 0 0 0 104 0 0 0 234 222 0 160 113 0 0 152 160 113 113 72 0 212 209 152 168 118 72 158 161 197 237 74 0 0 0 0 0 0 74 224 142 114 72 160 113 0 101 0 116 190 130 0 203 180 136 163 0 0 0 0 0 0 0 0 0 0 0 0 0 0 0 0 0 0 0 0 0 0 0 0 0 0 0 0 0 0 0 0 0 0 0 72 0 72 0 0 0 0 0 113 160 113 144 0 144 113 160 101 101 113 72 0 0 0 0 0 0 120 107 76 0 0 0 0 76 0 0 76 0 0 0 0 0 0 0 0 0 0 0 0 0 0 0 0 0 0 0 0 0 0 0 0 0 0 0 161 169 169 169 152 152 169 218 0 0 0 0 185 144 144 113 0 0 0 0 120 152 152 152 152 152 169 152 169 152 169 152 218 224 224 0 0 0 0 218 169 152 152 152 211 0 108 108 0 139 76 0 0 120 152 152 120 0 0 0 0 76 0 0 0 0 0 76 191 213 152 0 0 0 0 0 0 0 0 0 0 0 0 0 0 0 0 0 0 0 0 0 0 0 0 0 0 0 0 0 113 72 113 0 0 0 0 0 72 0 0 0 0 0 0 0 72 0 0 0 0 0 0 0 0 0 144 0 152 0 76 152 76 152 0 0 0 0 0 0 0 0 0 0 0 0 0 0 0 0 0 0 0 0 0 0 0 0 0 0 0 0 0 0 0 0 0 0 0 0 0 0 0 0 0 0 0 0 0 0 0 0 0 0 0 0 0 0 0 0 0 0 0 0 0 0 0 0 0 0 0 0 0 0 0 0 0 0 0 0 76 0 0 0 0 0 0 212 212 0 0 0 0 0 0 0 0 0 0 0 0 0 0 0 0 0 0 0 0 0 0 0 0 0 0 0 0 0 0 0 0 
0 167 106 74 0 0 167 149 74 0 106 106 106 106 0 106 106 0 0 167 237 74 0 0 0 0 0 0 120 169 0 0 0 144 144 0 0 212 0 76 161 161 0 0 160 0 144 0 0 120 169 0 0 0 161 161 185 144 0 0 0 0 0 0 0 0 0 0 0 0 0 0 0 0 0 0 0 0 0 0 0 0 0 72 0 0 0 0 0 144 144 0 0 0 0 0 0 144 0 144 0 113 72 101 144 144 160 113 0 0 0 0 206 0 118 169 235 185 0 0 0 0 113 144 113 0 0 212 209 152 191 0 0 167 0 92 0 217 0 0 0 0 0 0 167 0 97 234 101 152 0 152 72 113 239 130 80 106 187 132 206 0 0 0 0 0 0 0 0 0 0 0 0 0 0 0 0 0 0 0 0 0 0 0 0 0 0 0 0 0 0 0 0 0 0 0 0 0 72 0 0 0 0 0 0 0 160 0 144 0 113 72 101 0 101 160 0 0 0 0 0 0 0 120 120 120 0 0 76 76 0 76 120 76 120 0 0 0 0 0 0 0 0 0 0 0 0 0 0 0 0 0 0 0 0 0 0 0 0 0 0 0 120 120 0 0 0 0 120 152 152 152 169 169 152 120 76 120 120 76 161 169 152 152 152 152 152 120 76 120 152 120 76 120 152 152 152 190 240 72 0 148 167 212 212 237 237 212 212 237 224 74 0 0 0 0 0 0 0 0 0 0 0 0 0 0 0 0 120 0 212 0 0 0 0 0 0 0 0 0 0 0 0 0 0 0 0 0 0 0 0 0 0 0 0 0 0 0 0 0 0 0 72 0 0 0 0 0 72 0 72 0 0 0 0 0 72 0 72 0 0 0 0 0 0 0 0 144 0 152 0 0 169 0 152 0 0 0 0 0 0 0 0 0 0 0 0 0 0 0 0 0 0 0 0 0 0 0 0 0 0 0 0 0 0 0 0 0 0 0 0 0 0 0 0 0 0 0 0 0 0 0 0 0 0 0 0 0 0 0 0 0 0 0 0 0 0 0 0 0 0 0 0 0 0 0 0 0 0 0 76 0 76 0 0 0 0 74 237 167 0 0 0 0 0 0 0 0 0 0 0 0 0 0 0 0 0 0 0 0 0 0 0 0 0 0 0 0 0 0 0 0 
0 212 0 0 0 0 167 74 74 74 106 106 106 106 74 149 74 0 0 212 212 0 0 0 0 0 0 0 152 152 0 0 0 144 144 0 206 0 158 107 161 0 0 152 101 113 113 0 0 169 120 0 0 161 161 0 144 144 0 0 0 0 72 0 72 0 0 0 0 0 0 0 0 0 0 0 0 0 0 0 0 0 113 113 152 0 0 0 0 144 185 76 0 0 0 72 0 113 72 113 72 113 113 101 0 72 113 160 160 144 144 144 113 222 218 120 222 213 113 0 0 0 72 0 0 0 113 0 212 152 152 120 0 0 0 120 204 100 74 0 0 0 0 74 0 0 0 74 160 0 113 113 113 163 80 100 0 187 213 206 0 0 0 0 0 0 0 0 0 0 0 0 0 0 0 0 0 0 0 0 0 0 0 0 0 0 0 0 0 0 0 0 0 0 0 0 0 0 0 0 0 0 0 0 0 0 144 0 144 72 0 0 0 0 72 144 0 0 0 0 0 0 0 0 76 107 120 0 0 0 0 0 76 76 120 0 0 0 0 0 0 0 0 0 0 0 0 0 0 0 0 0 0 0 0 0 0 0 0 0 0 0 0 0 0 0 0 0 0 0 0 0 0 120 152 169 152 169 169 152 161 0 0 0 0 0 0 0 0 0 0 74 167 212 212 212 212 237 237 212 237 212 237 212 212 167 74 0 0 74 237 167 0 0 0 0 0 0 0 0 0 0 0 0 0 0 0 120 212 0 113 0 0 0 0 0 0 0 0 0 0 0 0 0 0 0 0 0 0 0 0 0 0 0 0 0 0 0 0 0 0 0 72 0 0 0 0 0 0 72 0 0 0 0 0 0 0 0 0 0 0 0 0 0 0 0 0 113 0 191 0 0 152 0 152 0 0 0 0 0 0 0 0 0 0 0 0 0 0 0 0 0 0 0 0 0 0 0 0 0 0 0 0 0 0 0 0 0 0 0 0 0 0 0 0 0 0 0 0 0 0 0 0 0 0 0 0 0 0 0 0 0 0 0 0 0 0 0 0 0 0 0 0 0 0 0 0 0 0 0 0 76 0 0 0 0 0 167 237 74 0 0 0 0 0 0 0 0 0 0 0 0 0 0 0 0 0 0 0 0 0 0 0 0 0 0 0 0 0 0 0 0 
0 212 0 0 0 74 167 167 74 106 106 106 106 106 106 106 0 0 0 212 212 0 0 0 0 0 0 0 120 169 0 0 0 144 113 206 0 212 76 218 163 113 101 160 72 160 0 0 120 169 0 0 161 161 0 0 144 144 0 0 0 0 0 72 0 0 0 0 0 0 0 0 0 0 0 0 0 0 0 72 0 0 144 113 160 113 0 0 0 185 0 152 169 120 116 0 101 0 72 0 0 152 113 72 113 113 0 0 113 113 72 72 72 74 189 0 189 72 213 163 0 113 72 113 0 113 206 0 120 0 0 0 0 0 0 152 92 150 217 0 0 0 74 0 130 236 185 0 144 0 113 116 0 218 89 197 80 243 0 0 0 0 0 0 0 0 0 0 0 0 0 0 0 0 0 0 0 0 0 0 0 0 0 0 0 0 0 0 0 0 0 0 0 0 0 0 0 0 72 0 0 0 0 0 0 0 144 0 144 0 72 72 0 113 113 144 0 72 0 0 0 0 76 0 0 0 169 107 161 120 0 0 0 76 0 0 76 0 0 0 0 0 0 0 0 0 0 0 0 0 0 0 0 0 0 0 0 0 0 0 0 0 0 0 0 0 0 0 0 0 0 76 0 0 0 0 76 0 0 76 0 0 0 0 0 0 0 0 0 0 0 106 167 167 212 212 212 167 74 0 106 0 106 0 0 0 0 0 0 0 212 212 0 0 0 0 0 0 0 0 0 0 0 0 0 120 169 169 209 212 0 0 0 0 0 0 0 0 0 0 0 0 0 0 0 0 0 0 0 0 0 0 0 0 0 0 0 0 0 0 0 113 72 113 0 0 0 0 72 0 0 0 0 0 0 0 0 113 72 113 0 0 0 0 0 0 0 0 0 0 0 0 120 76 120 0 0 0 0 0 0 0 0 0 0 0 0 0 0 0 0 0 0 0 0 0 0 0 0 0 0 0 0 0 0 0 0 0 0 0 0 0 0 0 0 0 0 0 0 0 0 0 0 0 0 0 0 0 0 0 0 0 0 0 0 0 0 0 0 0 0 0 0 0 0 0 0 0 0 0 0 0 76 0 0 0 0 212 212 0 0 0 0 0 0 0 0 0 0 0 0 0 0 0 0 0 0 0 0 0 0 0 0 0 0 0 0 0 0 0 0 0 
0 167 106 106 74 106 0 106 106 106 106 74 0 149 74 106 0 0 0 167 237 74 0 0 0 0 0 0 0 169 120 0 0 101 222 0 158 117 0 0 160 160 113 113 144 144 0 0 169 120 0 161 161 0 0 0 160 113 0 0 0 0 0 0 0 0 0 0 0 0 0 0 0 0 0 0 0 0 113 72 113 0 113 160 113 144 0 0 0 0 0 76 120 161 189 113 113 160 113 0 0 0 113 113 0 0 113 113 0 113 113 113 72 113 160 144 160 232 118 0 104 144 0 152 212 231 215 218 0 0 0 0 0 0 0 120 120 0 100 74 0 74 224 80 242 104 113 0 113 72 0 0 113 72 203 148 184 95 113 0 0 0 0 0 0 0 0 0 0 0 0 0 0 0 0 0 0 0 0 0 0 0 0 0 0 0 0 0 0 0 0 0 0 0 0 0 0 72 0 72 0 0 0 0 0 0 144 0 160 0 0 113 0 113 72 152 160 113 113 0 0 76 0 76 0 0 120 120 161 120 120 76 0 76 0 76 0 76 0 76 0 0 0 0 0 0 0 0 0 0 0 0 0 0 0 0 0 0 0 0 0 0 0 0 0 0 0 0 0 0 120 120 161 76 120 120 0 0 0 0 0 0 0 0 0 0 0 0 0 0 0 74 224 237 212 167 74 0 0 0 167 167 237 167 106 106 74 0 0 0 212 212 0 0 0 0 0 0 0 0 0 0 0 76 0 76 76 117 160 113 0 0 0 0 0 0 0 0 0 0 0 0 0 0 0 0 0 0 0 0 0 0 0 0 0 0 0 0 0 0 0 160 0 144 0 0 0 101 0 72 0 0 0 0 0 0 0 113 72 113 0 0 0 0 0 0 0 0 0 0 0 0 0 76 0 0 0 0 0 0 0 0 0 0 0 0 0 0 0 0 0 0 0 0 0 0 0 0 0 0 0 0 0 0 0 0 0 0 0 0 0 0 0 0 0 0 0 0 0 0 0 0 0 0 0 0 0 0 0 0 0 0 0 0 0 0 0 0 0 0 0 0 0 0 0 0 0 0 0 76 0 76 0 0 76 0 0 212 212 0 0 0 0 0 0 0 0 0 0 0 0 0 0 0 0 0 0 0 0 0 0 0 0 0 0 0 0 0 0 0 0 0 
0 106 74 106 149 167 212 106 74 167 106 0 74 149 74 74 167 167 74 106 212 106 0 0 0 0 0 0 0 152 152 0 0 169 236 117 107 0 216 104 72 0 72 0 144 144 0 120 169 0 120 169 0 0 0 72 113 101 0 0 0 0 0 0 72 0 0 0 0 0 0 0 0 0 0 0 0 0 144 0 144 0 0 160 0 144 0 0 0 0 0 0 0 169 234 160 72 113 160 160 113 0 0 0 113 113 72 113 160 152 101 113 0 113 0 0 0 0 189 0 0 113 113 113 209 117 0 169 0 0 0 0 0 0 0 107 120 139 123 167 74 224 0 242 167 101 0 101 0 74 255 180 77 212 149 78 136 206 0 0 0 0 0 0 0 0 0 0 0 0 0 0 0 0 0 0 0 0 0 0 0 0 0 0 0 0 0 0 0 0 0 0 0 0 0 0 0 0 72 0 0 0 0 0 0 0 113 101 113 72 0 0 72 0 72 113 72 113 113 0 0 0 76 0 0 0 76 0 107 76 161 152 169 120 120 76 0 76 76 0 76 0 0 0 0 0 0 0 0 0 0 0 0 0 0 0 0 0 0 0 0 0 0 0 0 0 0 0 0 0 120 120 120 0 120 107 120 0 0 0 0 0 0 0 0 0 0 0 0 0 0 0 74 167 212 237 237 212 212 212 224 149 167 237 212 212 237 212 212 212 224 167 0 0 0 0 0 0 0 0 0 0 76 0 0 107 120 187 160 0 0 0 0 0 0 0 0 0 0 0 0 0 0 0 0 0 0 0 0 0 0 0 0 0 0 0 0 0 0 0 113 160 113 144 0 0 72 72 72 72 0 0 0 0 0 0 0 0 72 0 0 0 0 0 0 0 0 0 0 0 0 0 0 0 0 0 0 0 0 0 0 0 0 0 0 0 0 0 0 0 0 0 0 0 0 0 0 0 0 0 0 0 0 0 0 0 0 0 0 0 0 0 0 0 0 0 0 0 0 0 0 0 0 0 0 0 0 0 0 0 0 0 0 0 0 0 0 0 0 0 0 0 0 0 0 0 0 0 120 76 120 0 76 76 76 120 0 212 212 0 0 0 0 0 0 0 0 0 0 0 0 0 0 0 0 0 0 0 0 0 0 0 0 0 0 0 0 0 0 0 0 0 
0 106 106 0 106 0 0 74 106 106 74 74 106 74 167 74 106 106 74 224 224 74 0 0 0 0 0 0 0 120 161 152 169 161 0 120 169 185 72 0 72 0 0 72 113 144 0 169 120 0 218 158 0 0 0 0 113 152 113 0 0 0 0 113 72 113 0 0 0 0 0 0 0 0 0 0 0 0 113 72 113 0 0 113 0 113 0 0 0 0 0 0 120 169 185 144 0 0 0 113 152 113 0 0 0 0 152 101 72 113 0 113 0 113 0 0 0 163 0 120 232 113 113 0 152 0 120 120 120 0 0 0 0 0 120 107 0 107 72 212 167 0 236 212 155 0 101 104 120 169 0 77 128 74 0 194 0 0 0 0 0 0 0 0 0 0 0 0 0 0 0 0 0 0 0 0 0 0 0 0 0 0 0 0 0 0 0 0 0 0 0 0 0 0 0 0 0 0 0 0 0 0 0 0 0 0 0 113 113 0 113 72 0 0 144 0 72 113 101 0 0 0 0 0 0 0 120 107 107 0 76 152 120 120 152 120 120 161 0 76 0 0 0 0 0 0 0 0 0 0 0 0 0 0 0 0 0 0 0 0 0 0 0 0 0 0 0 0 0 0 0 161 120 107 161 120 76 76 0 0 0 0 0 0 0 0 0 0 0 0 0 0 0 0 0 74 167 212 212 212 167 74 0 74 106 106 167 212 212 212 167 74 0 0 0 0 0 0 0 0 0 0 0 76 0 161 212 212 113 0 0 0 0 0 0 0 0 0 0 0 0 0 0 0 0 0 0 0 0 0 0 0 0 0 0 0 0 0 0 0 144 144 144 144 0 0 0 113 0 113 0 0 0 0 0 0 0 0 72 0 0 0 0 0 0 0 0 72 0 236 0 0 0 0 0 0 0 0 0 0 0 0 0 0 0 0 0 0 0 0 0 0 0 0 0 0 0 0 0 0 0 0 0 0 0 0 0 0 0 0 0 0 0 0 0 0 0 0 0 0 0 0 0 0 0 0 0 0 0 0 0 0 0 0 0 0 0 0 0 0 0 0 0 0 0 0 0 0 120 76 120 0 0 152 0 152 0 212 212 0 0 0 0 0 0 0 0 0 0 0 0 0 0 0 0 0 0 0 0 0 0 0 0 0 0 0 0 0 0 0 0 0 
0 74 167 212 237 212 212 149 0 149 167 167 167 106 167 74 167 167 74 212 106 0 0 0 0 0 0 0 0 0 120 152 120 0 120 212 158 113 113 72 0 0 113 113 113 113 120 169 0 161 218 0 72 0 0 0 0 160 113 0 0 0 0 185 117 212 0 0 0 0 0 0 0 0 0 0 0 0 0 0 0 0 0 0 113 72 152 0 0 0 0 0 152 152 113 160 0 0 0 0 113 152 113 0 0 0 117 206 152 0 72 72 72 72 0 0 0 0 206 213 0 72 0 0 120 0 120 76 152 0 0 0 0 0 169 0 161 190 0 106 0 113 0 163 0 101 0 120 161 120 197 224 212 0 180 136 163 0 0 0 0 0 0 0 0 0 0 0 0 0 0 0 0 0 0 0 0 0 0 0 0 0 0 0 0 0 0 0 0 0 0 0 0 0 0 0 0 0 0 0 0 0 0 0 0 0 0 0 0 0 144 0 0 0 144 0 0 113 152 113 0 0 0 0 0 0 120 120 120 0 107 0 0 120 107 107 76 120 120 0 0 0 0 0 0 0 0 0 0 0 0 0 0 0 0 0 0 0 0 0 0 0 0 0 0 0 0 0 0 0 0 0 76 0 0 76 0 0 76 0 0 0 0 0 0 0 0 0 0 0 0 0 0 0 0 0 0 0 0 0 0 0 0 0 0 0 0 0 0 0 0 0 0 0 0 0 0 0 0 0 0 0 0 0 120 218 206 152 0 0 0 0 0 0 0 0 0 0 0 0 0 0 0 0 0 0 0 0 0 0 0 0 0 0 0 0 0 0 0 0 144 144 144 144 0 0 0 144 0 144 0 0 0 0 0 0 0 113 72 113 0 0 0 0 0 0 0 0 212 0 120 0 0 0 0 0 0 0 0 0 0 0 0 0 0 0 0 0 0 0 0 0 0 0 0 0 0 0 0 0 0 0 0 0 0 0 0 0 0 0 0 0 0 0 0 0 0 0 0 0 0 0 0 0 0 0 0 0 0 0 0 0 0 0 0 0 0 0 0 0 0 0 0 0 0 0 0 0 0 76 0 120 152 107 0 120 0 167 237 74 0 0 0 0 0 0 0 0 0 0 0 0 0 0 0 0 0 0 0 0 0 0 0 0 0 0 0 0 0 0 0 0 
0 0 0 0 106 0 0 212 0 167 74 167 0 106 74 0 0 0 74 237 167 0 0 74 167 167 74 0 120 152 120 0 0 161 218 0 185 113 113 0 0 0 144 113 72 0 152 152 120 169 74 72 0 0 0 0 113 160 0 0 0 0 0 0 164 0 113 0 0 0 0 0 0 0 0 0 0 152 113 113 0 0 0 0 144 113 160 113 0 0 0 0 152 152 0 160 113 0 0 0 0 113 160 160 144 155 74 158 206 160 72 0 0 72 0 72 0 0 0 152 160 113 74 161 76 0 0 76 152 0 0 0 0 161 107 190 0 237 224 106 148 136 163 72 101 104 120 161 190 106 0 197 72 128 132 206 0 0 0 0 0 0 0 0 0 0 0 0 0 0 0 0 0 0 0 0 0 0 0 0 0 0 0 0 0 0 0 0 0 0 0 0 0 0 0 0 0 0 0 0 0 0 0 0 0 0 0 0 72 0 144 0 0 72 113 0 0 72 113 144 0 0 0 0 0 0 0 76 76 107 0 76 76 0 120 107 76 76 107 152 120 0 0 0 0 0 0 0 0 0 0 0 0 0 0 0 0 0 0 0 0 0 0 0 0 0 0 0 0 0 0 0 0 0 0 0 0 76 0 120 120 0 0 0 0 0 0 0 0 0 0 0 0 0 0 0 0 0 0 0 0 0 0 0 0 0 0 0 0 0 0 0 0 0 0 0 0 0 0 0 0 0 120 152 161 234 160 0 0 0 0 0 0 0 0 0 0 0 0 0 0 0 0 0 0 0 0 0 0 0 0 0 0 0 0 0 0 0 0 0 144 144 144 144 0 0 0 144 0 144 0 0 0 0 0 0 0 144 0 160 0 0 0 0 0 0 0 0 212 0 120 0 0 0 0 0 0 0 0 0 0 0 0 0 0 0 0 0 0 0 0 0 0 0 0 0 0 0 0 0 0 0 0 0 0 0 0 0 0 0 0 0 0 0 0 0 0 0 0 0 0 0 0 0 0 0 0 0 0 0 0 0 0 0 0 0 0 0 0 0 0 0 0 0 0 0 0 0 0 0 120 161 120 0 76 76 0 106 212 106 0 0 0 0 0 0 0 0 0 0 0 0 0 0 0 0 0 0 0 0 0 0 0 0 0 0 0 0 0 0 0 0 
0 0 0 0 167 167 212 224 106 167 167 74 106 0 0 0 0 0 0 167 224 167 74 106 167 167 237 225 204 74 76 76 120 218 206 152 72 72 0 0 0 0 113 160 74 120 161 76 169 120 0 0 0 0 0 113 152 113 0 0 72 0 163 0 0 0 113 0 0 0 0 0 0 0 0 0 113 160 113 144 0 72 0 0 144 144 144 144 0 0 0 0 152 152 0 155 212 0 0 0 0 72 0 113 144 212 0 0 158 187 231 155 0 0 0 0 72 0 0 101 0 101 187 152 0 120 152 76 120 0 0 0 120 169 76 80 0 167 74 252 229 234 101 152 104 161 169 190 0 167 167 120 212 0 206 0 0 0 0 0 0 0 0 0 0 0 0 0 0 0 0 0 0 0 0 0 0 0 0 0 0 0 0 0 0 0 0 0 0 0 0 0 0 0 0 0 0 0 0 0 0 0 0 0 0 0 0 113 72 113 144 0 113 72 0 0 113 113 113 113 0 0 0 0 0 0 0 0 0 0 76 0 0 76 0 152 120 120 107 152 161 120 0 0 0 0 0 0 0 0 0 0 0 0 0 0 0 0 0 0 0 0 0 0 0 0 0 0 0 0 0 0 0 0 0 0 0 0 120 161 169 161 0 0 0 0 0 0 0 0 0 0 0 0 0 0 0 0 0 0 0 0 0 0 0 0 0 0 0 0 0 0 0 0 0 0 0 0 0 0 0 161 169 152 167 212 113 0 0 0 0 0 0 0 0 0 0 0 0 0 0 0 0 0 0 0 0 0 0 0 0 0 0 0 0 0 0 0 0 0 144 144 144 144 0 0 0 144 0 144 0 0 0 0 0 0 0 144 113 160 113 0 0 0 0 0 0 113 0 218 0 0 0 0 0 0 0 0 0 0 0 0 0 0 0 0 0 0 0 0 0 0 0 0 0 0 0 0 0 0 0 0 0 0 0 0 0 0 0 0 0 0 0 0 0 0 0 0 0 0 0 0 0 0 0 0 0 0 0 0 0 0 0 0 0 0 0 0 0 0 0 0 0 0 0 0 0 0 0 0 152 152 76 0 107 120 0 167 237 74 0 0 0 0 0 0 0 0 0 0 0 0 0 0 0 0 0 0 0 0 0 0 0 0 0 0 0 0 0 0 0 0 
0 0 0 0 212 167 106 74 0 0 74 74 74 74 0 0 0 0 0 74 167 224 167 74 224 167 74 0 183 185 76 76 161 234 160 0 0 0 0 0 0 113 72 113 222 161 120 76 169 0 0 0 0 0 72 113 101 0 0 72 0 0 0 163 234 212 0 0 0 0 0 0 0 0 0 0 144 144 144 144 72 0 101 0 113 160 113 144 0 0 0 0 169 120 76 74 0 163 0 0 72 0 0 113 113 0 206 0 0 120 167 0 116 234 234 104 72 0 152 160 160 113 146 169 76 76 76 120 0 120 0 0 169 120 152 108 212 0 74 100 173 101 152 0 190 237 92 167 237 167 252 218 0 152 0 0 0 0 0 0 0 0 0 0 0 0 0 0 0 0 0 0 0 0 0 0 0 0 0 0 0 0 0 0 0 0 0 0 0 0 0 0 0 0 0 0 0 0 0 0 0 0 0 0 0 0 0 113 72 113 144 0 144 0 0 0 113 101 0 72 0 0 0 0 0 0 0 0 0 0 0 0 0 0 0 120 161 161 120 0 120 169 0 0 0 0 0 0 0 0 0 0 0 0 0 0 0 0 0 0 0 0 0 0 0 0 0 0 0 0 0 0 0 0 0 0 0 0 120 169 0 152 76 0 0 0 0 0 0 0 0 0 0 0 0 0 0 0 0 0 0 0 0 0 0 0 0 0 0 0 0 0 0 0 0 0 0 0 0 0 120 169 0 0 152 152 0 0 0 0 0 0 0 0 0 0 0 0 0 0 0 0 0 0 0 0 0 0 0 0 0 0 0 0 0 0 0 0 0 0 113 152 152 113 0 0 0 144 0 144 0 0 0 0 0 0 0 144 144 144 144 0 0 0 0 0 0 113 0 218 0 0 0 0 76 0 0 0 0 0 0 0 0 0 0 0 0 0 0 0 0 0 0 0 0 0 0 0 0 0 0 0 0 0 0 0 0 0 0 0 0 0 0 0 0 0 0 0 0 0 0 0 0 0 0 0 0 0 0 0 0 0 0 0 0 0 0 0 0 0 0 0 0 0 0 0 0 0 0 0 152 152 0 76 120 152 0 212 212 0 0 0 0 0 0 0 0 0 0 0 0 0 0 0 0 0 0 0 0 0 0 0 0 0 0 0 0 0 0 0 0 0 
0 0 0 74 237 167 0 0 74 106 74 106 0 106 0 0 0 0 0 0 0 212 212 0 74 167 212 212 167 128 161 169 167 212 113 0 0 0 0 0 72 113 113 163 0 120 0 169 167 72 0 0 0 0 72 144 72 0 0 0 72 72 0 0 0 144 0 0 0 0 0 0 0 0 0 0 144 144 144 144 0 146 148 206 0 160 0 144 163 74 167 120 169 0 0 120 163 0 0 0 0 72 72 152 152 113 0 206 0 209 0 0 116 216 215 0 160 160 152 0 0 0 72 216 191 0 74 183 139 120 0 120 169 0 152 108 212 0 167 168 0 104 117 76 0 120 74 237 106 0 0 0 212 0 0 0 0 0 0 0 0 0 0 0 0 0 0 0 0 0 0 0 0 0 0 0 0 0 0 0 0 0 0 0 0 0 0 0 0 0 0 0 0 0 0 0 0 0 0 0 0 0 0 0 0 0 0 0 72 0 144 0 144 0 0 0 0 113 152 113 0 0 0 0 0 0 0 0 0 0 0 0 0 0 0 0 120 120 0 76 0 152 76 0 76 0 0 0 0 0 0 0 0 0 0 0 0 0 0 0 0 0 0 0 0 0 0 0 0 0 0 0 0 0 0 0 0 0 0 161 152 161 0 0 120 152 152 120 0 0 0 0 0 0 120 152 120 0 0 0 0 76 0 0 76 76 120 120 0 0 0 0 0 0 0 0 0 0 0 0 120 169 74 152 152 0 0 0 0 0 0 0 0 0 0 0 0 0 0 0 0 0 0 0 0 0 0 0 0 0 0 0 0 0 0 0 0 0 0 0 72 0 101 0 72 0 0 144 0 144 0 0 0 0 0 0 0 113 152 152 113 0 0 0 0 0 0 72 185 236 167 106 74 76 0 76 0 0 0 0 0 0 0 0 0 0 0 0 0 0 0 0 0 0 0 0 0 0 0 0 0 0 0 0 0 0 0 0 0 0 0 0 0 0 0 0 0 0 0 0 0 0 0 0 0 0 0 0 0 0 0 0 0 0 0 0 0 0 0 0 0 0 0 0 0 0 0 0 0 76 120 152 0 0 152 152 0 212 212 0 0 0 0 0 0 0 0 0 0 0 0 0 0 0 0 0 0 0 0 0 0 0 0 0 0 0 0 0 0 0 0 0 
0 0 0 106 212 106 0 0 106 74 149 0 106 74 0 0 0 0 74 106 106 237 167 0 0 0 0 0 0 120 169 0 113 160 0 0 0 0 0 0 0 160 116 218 212 0 161 212 155 0 72 0 0 0 113 160 0 0 0 0 0 185 0 0 0 144 0 0 0 0 0 0 0 0 0 0 144 113 160 113 0 187 113 187 113 144 0 144 0 0 0 169 120 0 113 216 0 74 163 0 72 72 160 113 144 144 0 0 163 0 0 107 166 107 234 158 116 234 150 0 0 113 152 0 0 0 167 148 204 0 0 152 152 0 120 80 0 74 212 180 120 218 211 0 161 92 149 149 203 130 0 212 113 0 0 0 0 0 0 0 0 0 0 0 0 0 0 0 0 0 0 0 0 0 0 0 0 0 0 0 0 0 0 0 0 0 0 0 0 0 0 0 0 0 0 0 0 0 0 0 0 0 0 0 0 0 0 0 0 0 113 72 72 72 0 0 0 0 113 152 144 113 0 0 0 0 0 0 0 0 0 0 0 0 0 0 0 0 76 0 0 120 120 120 0 76 0 76 0 0 0 0 0 0 0 0 0 0 0 0 0 0 0 0 0 0 0 0 0 0 0 0 0 0 0 0 0 0 0 0 76 0 0 76 76 0 0 120 169 152 152 152 152 169 169 152 169 169 152 152 169 152 169 169 152 120 0 76 76 0 0 0 0 0 0 0 0 0 0 0 0 169 222 160 0 0 0 0 0 0 0 0 0 0 0 0 0 0 0 0 0 0 0 0 0 0 0 0 0 0 0 0 0 0 0 0 0 0 0 0 152 113 113 72 0 72 0 144 0 144 0 0 0 0 0 0 0 0 101 0 72 0 0 0 0 0 0 113 160 191 0 0 106 0 76 0 0 0 0 0 0 0 0 0 0 0 0 0 0 0 0 0 0 0 0 0 0 0 0 0 0 0 0 0 0 0 0 0 0 0 0 0 0 0 0 0 0 0 0 0 0 0 0 0 0 0 0 0 0 0 0 0 0 0 0 0 0 0 0 0 0 0 0 0 0 0 0 76 107 76 0 152 0 0 120 169 0 212 212 0 0 0 0 0 0 0 0 0 0 0 0 0 0 0 0 0 0 0 0 0 0 0 0 0 0 0 0 0 0 0 0 0 
0 0 0 106 212 106 0 74 74 106 74 167 0 0 74 167 167 74 106 0 74 237 74 0 0 0 0 0 0 169 120 0 113 160 0 0 0 0 0 0 0 144 0 169 0 120 218 155 0 101 0 0 0 0 144 144 0 0 0 0 0 0 0 120 0 144 0 0 0 0 0 0 0 0 0 0 160 0 160 0 0 104 206 0 160 72 72 113 0 97 132 206 0 113 152 0 234 234 0 160 144 144 152 0 144 144 0 0 0 104 0 0 0 166 116 0 189 107 120 76 0 155 212 116 0 212 252 0 252 76 0 152 120 76 0 211 0 167 212 113 189 0 0 240 159 224 224 106 100 0 206 152 0 0 0 0 0 0 0 0 0 0 0 0 0 0 0 0 0 0 0 0 0 0 0 0 0 0 0 0 0 0 0 0 0 0 0 0 0 0 0 0 0 0 0 0 0 0 0 0 0 0 0 0 0 0 0 0 0 0 0 72 0 0 72 0 0 0 0 113 144 152 113 0 0 0 0 0 0 0 0 0 0 0 0 0 0 0 0 0 0 76 120 76 107 0 120 76 120 0 0 0 0 0 0 0 0 0 0 0 0 0 0 0 0 0 0 0 0 0 0 0 0 0 0 0 0 0 0 0 0 0 0 0 120 120 120 0 120 152 152 152 152 120 0 0 0 120 152 152 120 76 120 76 0 107 120 120 0 0 0 0 0 0 0 0 0 0 0 0 120 212 0 113 0 0 0 0 0 0 0 0 0 0 0 0 0 0 0 0 0 0 0 0 0 0 0 0 0 0 0 0 0 0 0 0 0 0 0 113 160 113 144 0 72 0 0 144 0 144 0 0 0 0 0 0 0 0 152 113 113 0 0 0 0 0 0 144 144 152 211 106 74 0 0 0 0 0 0 0 0 0 0 0 0 0 0 0 0 0 0 0 0 0 0 0 0 0 0 0 0 0 0 0 0 0 0 0 0 0 0 0 0 0 0 0 0 0 0 0 0 0 0 0 0 0 0 0 0 0 0 0 0 0 0 0 0 0 0 0 0 0 0 0 0 0 120 76 0 76 0 152 0 0 0 169 120 212 212 0 0 0 0 0 0 0 0 0 0 0 0 0 0 0 0 0 0 0 0 0 0 0 0 0 0 0 0 0 0 0 0 0 
0 0 0 167 237 74 0 106 0 106 74 237 74 74 149 74 106 106 74 106 149 237 74 0 0 0 0 0 76 152 76 0 0 152 152 0 0 0 0 0 0 212 0 120 0 169 234 0 113 0 0 0 0 0 160 113 0 0 0 0 0 0 0 152 0 144 0 0 0 0 0 0 0 0 0 113 113 113 113 0 0 0 113 113 101 101 0 0 97 225 0 0 0 144 144 163 0 76 209 146 72 72 0 0 144 144 0 0 0 0 104 0 0 76 234 0 158 76 212 116 150 150 0 155 155 0 113 182 0 120 120 152 76 0 0 242 0 167 212 252 76 217 167 167 0 237 0 0 128 0 152 0 0 0 0 0 0 0 0 0 0 0 0 0 0 0 0 0 0 0 0 0 0 0 0 0 0 0 0 0 0 0 0 0 0 0 0 0 0 0 0 0 0 0 0 0 0 0 0 0 0 0 0 0 0 0 0 0 0 0 0 0 0 72 0 0 0 0 0 0 0 160 113 0 0 0 0 0 0 0 0 0 0 0 0 0 0 0 0 120 76 120 120 169 0 0 120 76 120 0 0 0 0 0 0 0 0 0 0 0 0 0 0 0 0 0 0 0 0 0 0 0 0 0 0 0 0 0 0 0 0 0 0 0 0 76 120 120 152 120 0 0 0 0 0 0 0 0 120 152 152 152 152 169 169 120 0 0 0 0 0 0 0 0 0 0 0 0 0 161 218 0 206 0 72 0 0 0 0 0 0 0 0 0 0 0 0 0 0 0 0 0 0 0 0 0 0 0 0 0 0 0 0 0 0 0 0 0 0 144 144 144 144 0 0 0 0 144 0 144 0 0 0 0 0 0 0 72 144 72 144 0 0 0 0 0 0 113 160 191 211 106 74 0 0 0 0 0 0 0 0 0 0 0 0 0 0 0 0 0 0 0 0 0 0 0 0 0 0 0 0 0 0 0 0 0 0 0 0 0 0 0 0 0 0 0 0 0 0 0 0 0 0 0 0 0 0 0 0 0 0 0 0 0 0 0 0 0 0 0 0 0 0 0 0 0 120 76 0 0 107 120 0 0 0 152 152 212 212 0 0 0 0 0 0 0 0 0 0 0 0 0 0 0 0 0 0 0 0 0 0 0 0 0 0 0 0 0 0 0 0 0 
0 0 0 212 212 0 0 74 106 149 149 167 106 106 74 167 167 0 106 106 74 167 167 0 0 0 0 0 0 169 120 0 0 72 144 72 0 0 0 0 113 0 218 0 161 161 146 72 113 0 0 0 0 113 160 0 0 0 0 0 72 0 224 152 0 144 0 0 0 0 0 0 0 0 0 160 0 160 0 0 0 0 0 152 101 113 113 0 215 172 0 0 120 185 144 0 212 234 0 120 0 0 0 0 113 160 0 0 0 0 0 104 0 0 118 152 107 120 163 113 0 167 158 0 116 212 97 182 242 120 152 152 120 0 120 0 237 0 237 167 0 167 197 210 197 106 0 180 132 206 0 0 0 0 0 0 0 0 0 0 0 0 0 0 0 0 0 0 0 0 0 0 0 0 0 0 0 0 0 0 0 0 0 0 0 0 0 0 0 0 0 0 0 0 0 0 0 0 0 0 0 0 0 0 0 0 0 0 0 0 0 0 0 0 0 0 0 0 0 0 113 160 0 0 0 0 0 0 0 0 0 0 0 0 0 0 0 0 0 120 0 120 120 169 0 0 0 76 0 0 0 0 0 0 0 0 0 0 0 0 0 0 0 0 0 0 0 0 0 0 0 0 0 0 0 0 0 0 0 0 0 0 0 0 0 0 120 152 152 169 169 152 152 152 152 152 152 169 169 152 152 152 152 120 0 0 0 0 0 0 0 0 0 0 0 0 0 0 120 169 163 160 0 113 72 113 0 0 0 0 0 0 0 0 0 0 0 0 0 0 0 0 0 0 0 0 0 0 0 0 0 0 0 0 0 0 0 0 0 113 160 113 144 0 0 0 0 144 0 144 0 0 0 0 0 0 0 0 160 0 160 0 0 0 0 0 0 0 160 0 0 106 167 0 0 0 0 0 0 0 0 0 0 0 0 0 0 0 0 0 0 0 0 0 0 0 0 0 0 0 0 0 0 0 0 0 0 0 0 0 0 0 0 0 0 0 0 0 0 0 0 0 0 0 0 0 0 0 0 0 0 0 0 0 0 0 0 0 0 0 0 0 0 0 0 0 0 76 76 161 120 0 0 0 0 152 152 212 212 0 0 0 0 0 0 0 0 0 0 0 0 0 0 0 0 0 0 0 0 0 0 0 0 0 0 0 0 0 0 0 0 0 
0 0 0 212 212 0 0 0 0 74 149 74 106 74 106 0 106 74 0 74 167 167 167 0 0 0 0 0 0 169 120 0 0 113 160 0 0 0 0 0 144 0 152 120 169 0 0 72 0 0 0 0 0 160 113 0 0 0 0 0 0 0 0 191 0 113 0 0 0 0 0 0 0 0 113 160 113 144 0 0 0 0 0 0 160 0 152 212 250 204 0 92 107 0 144 0 144 0 0 169 0 0 0 0 117 212 113 0 0 0 0 0 72 0 218 120 76 169 163 113 155 0 158 0 0 144 0 0 191 158 218 120 152 120 242 0 167 217 77 211 120 128 0 149 210 203 180 132 206 0 0 0 0 0 0 0 0 0 0 0 0 0 0 0 0 0 0 0 0 0 0 0 0 0 0 0 0 0 0 0 0 0 0 0 0 0 0 0 0 0 0 0 0 0 0 0 0 0 0 0 0 0 0 0 0 0 0 0 0 0 0 0 0 0 0 0 0 0 0 0 144 144 0 0 113 113 0 0 0 0 0 0 0 0 0 0 0 0 76 0 107 0 76 152 76 0 0 0 0 0 0 0 0 0 0 0 0 0 0 0 0 0 0 0 0 0 0 0 0 0 0 0 0 0 0 0 0 0 0 0 0 0 0 0 0 0 0 0 0 0 120 152 152 152 152 152 152 120 0 0 0 0 0 0 0 0 0 0 0 0 0 0 0 0 0 0 0 0 152 191 160 113 0 113 72 113 0 0 0 0 0 0 0 0 0 0 0 0 0 0 0 0 0 0 0 0 0 0 0 0 0 0 0 0 0 0 0 0 0 72 144 72 144 0 0 0 0 160 0 144 0 0 0 0 0 0 0 0 144 72 144 72 0 0 0 0 0 0 144 0 108 0 212 0 0 0 0 0 0 0 0 0 0 0 0 0 0 0 0 0 0 0 0 0 0 0 0 0 0 0 0 0 0 0 0 0 0 0 0 0 0 0 0 0 0 0 0 0 0 0 0 0 0 0 0 0 0 0 0 0 0 0 0 0 0 0 0 0 0 0 0 0 0 0 0 0 0 0 152 152 0 0 0 0 0 152 152 212 212 0 0 0 0 0 0 0 0 0 0 0 0 0 0 0 0 0 0 0 0 0 0 0 0 0 0 0 0 0 0 0 0 0 
0 0 0 212 212 0 74 106 106 106 74 74 149 74 0 106 0 74 106 167 167 106 74 0 0 0 0 0 120 169 0 0 0 160 113 0 0 0 0 0 144 0 152 152 191 113 144 113 0 0 0 0 152 152 0 0 0 0 0 0 113 232 235 0 0 0 0 0 0 0 0 0 0 0 144 144 144 144 0 0 0 0 0 0 113 113 72 209 159 0 89 120 0 0 212 0 113 0 167 120 120 0 0 76 0 220 144 0 0 0 72 0 113 185 107 169 120 120 117 161 164 101 0 0 234 144 0 0 0 146 0 150 120 120 0 252 106 0 72 76 120 139 231 210 149 180 132 206 0 0 0 0 0 0 0 0 0 0 0 0 0 0 0 0 0 0 0 0 0 0 0 0 0 0 0 0 0 0 0 0 0 0 0 0 0 0 0 0 0 0 0 0 0 0 0 0 0 0 0 0 0 0 0 0 0 0 0 0 0 0 0 0 0 0 0 0 0 0 0 0 113 152 144 113 0 72 72 0 0 0 0 0 0 0 0 0 0 0 0 76 0 0 161 161 0 0 0 0 0 0 0 0 0 0 0 0 0 0 0 0 0 0 0 0 0 0 0 0 0 0 0 0 0 0 0 0 0 0 0 0 0 0 0 0 0 0 0 0 0 0 0 0 0 0 0 0 0 0 0 0 0 0 0 0 0 0 0 0 0 0 0 0 0 0 0 0 0 0 152 0 160 0 0 0 72 0 0 0 0 0 0 0 0 0 0 0 0 0 0 0 0 0 0 0 0 0 0 0 0 0 0 0 0 0 0 0 0 0 0 72 144 72 144 0 0 0 72 144 72 144 0 0 0 0 0 0 0 0 144 0 160 0 0 0 0 0 0 0 144 0 0 106 167 0 0 0 0 0 0 0 0 0 0 0 0 0 0 0 0 0 0 0 0 0 0 0 0 0 0 0 0 0 0 0 0 0 0 0 0 0 0 0 0 0 0 0 0 0 0 0 0 0 0 0 0 0 0 0 0 0 0 0 0 0 0 0 0 0 0 0 0 0 0 0 0 0 0 76 120 152 0 0 0 0 0 152 152 212 212 0 0 0 0 0 0 0 0 0 0 0 0 0 0 0 0 0 0 0 0 0 0 0 0 0 0 0 0 0 0 0 0 0 
0 0 0 212 212 0 167 106 74 0 74 149 74 106 0 74 106 74 74 167 149 167 74 0 0 0 0 0 120 169 0 0 72 144 72 0 0 0 0 0 144 0 152 152 0 152 113 113 72 0 0 152 152 0 0 0 0 0 0 113 152 101 120 0 163 0 0 0 0 0 0 0 0 0 144 113 160 113 0 0 0 0 0 0 0 152 152 191 108 120 115 120 120 212 0 206 0 212 0 0 169 0 0 0 0 146 160 72 113 160 144 160 152 72 72 104 120 120 0 0 160 148 163 187 0 160 0 0 0 101 146 104 104 116 0 100 167 252 89 211 0 0 224 106 148 136 206 0 0 0 0 0 0 0 0 0 0 0 0 0 0 0 0 0 0 0 0 0 0 0 0 0 0 0 0 0 0 0 0 0 0 0 0 0 0 0 0 0 0 0 0 0 0 0 0 0 0 0 0 0 0 0 0 0 0 0 0 0 0 0 0 0 0 0 0 0 0 0 0 0 0 113 144 101 101 113 0 0 0 0 0 0 0 0 0 0 0 0 0 0 0 76 152 76 0 0 0 0 0 0 0 0 0 0 0 0 0 0 0 0 0 0 0 0 0 0 0 0 0 0 0 0 0 0 0 0 0 0 0 0 0 0 0 0 0 0 0 0 0 0 0 0 0 0 0 0 0 0 0 0 0 0 0 0 0 0 0 0 0 0 0 0 0 0 0 0 0 0 218 0 113 0 0 0 0 0 0 0 0 0 0 0 0 0 0 0 0 0 0 0 0 0 0 0 0 0 0 0 0 0 0 0 0 0 0 0 0 0 0 72 144 72 144 0 0 0 0 160 0 144 0 0 0 0 0 0 72 0 113 72 113 0 0 0 0 0 0 0 144 0 0 0 106 0 0 0 0 0 0 0 0 0 0 0 0 0 0 0 0 0 0 0 0 0 0 0 0 0 0 0 0 0 0 0 0 0 0 0 0 0 0 0 0 0 0 0 0 0 0 0 0 0 0 0 0 0 0 0 0 0 0 0 0 0 0 0 0 0 0 0 0 0 0 0 120 120 107 76 0 152 0 0 0 0 0 152 211 237 167 0 0 0 0 0 0 0 0 0 0 0 0 0 0 0 0 0 0 0 0 0 0 0 0 0 0 0 0 0 0 0 0 0 
0 0 0 167 237 74 167 106 149 106 0 74 74 0 106 106 167 167 149 149 74 106 106 0 0 0 0 0 0 169 120 0 0 160 113 0 0 0 0 0 113 0 191 152 0 152 160 152 0 0 113 160 0 0 0 0 0 0 0 113 160 0 113 160 0 0 0 0 0 0 0 0 0 0 113 113 152 0 0 0 0 0 0 0 0 0 160 0 0 211 0 120 161 76 158 0 163 113 0 167 107 161 107 76 120 72 144 0 152 163 148 163 72 101 144 152 0 0 0 0 115 161 113 0 72 144 224 0 191 113 113 0 72 0 224 108 212 167 0 0 0 167 0 0 194 0 0 0 0 0 0 0 0 0 0 0 0 0 0 0 0 0 0 0 0 0 0 0 0 0 0 0 0 0 0 0 0 0 0 0 0 0 0 0 0 0 0 0 0 0 0 0 0 0 0 0 0 0 0 0 0 0 0 0 0 0 0 0 0 0 0 0 0 0 0 0 0 0 0 0 0 0 113 101 101 113 0 0 0 0 0 0 0 0 0 0 0 0 0 0 0 0 161 169 152 120 0 0 0 0 0 0 0 0 0 0 0 0 0 0 0 0 0 0 0 0 0 0 0 0 0 0 0 0 0 0 0 0 0 0 0 0 0 0 0 0 0 0 0 0 0 0 74 167 167 74 0 0 0 0 0 0 0 0 0 0 0 0 0 0 0 0 0 0 0 0 0 161 0 212 0 0 0 72 0 0 0 0 0 0 0 0 0 0 0 0 0 0 0 0 0 0 0 0 0 0 0 0 0 0 0 0 0 0 0 0 0 0 0 113 160 113 144 0 0 0 0 144 0 144 0 0 0 0 0 113 72 113 0 72 0 0 0 0 0 0 0 0 144 0 0 106 167 0 0 0 0 0 0 0 0 0 0 0 0 0 0 0 0 0 0 0 0 0 0 0 0 0 0 0 0 0 0 0 0 0 0 0 0 0 0 0 0 0 0 0 0 0 0 0 0 0 0 0 0 0 0 0 0 0 0 0 0 0 0 0 0 0 76 0 0 0 0 76 76 76 0 76 0 152 0 0 0 0 0 152 0 237 74 0 0 0 0 0 0 0 0 0 0 0 0 0 0 0 0 0 0 0 0 0 0 0 0 0 0 0 0 0 0 0 0 0 
0 0 0 74 224 224 0 106 74 0 106 0 106 167 106 74 106 74 149 74 106 106 106 0 0 0 0 0 0 152 152 0 0 160 113 0 0 0 0 0 72 0 224 152 191 113 113 0 0 0 160 113 0 0 0 0 0 0 0 0 160 113 144 144 0 0 0 0 0 0 0 0 0 0 0 72 0 0 0 0 0 0 0 0 0 0 160 172 0 0 0 76 74 189 158 215 0 0 212 0 76 169 0 76 120 72 144 72 185 107 74 155 160 152 72 160 146 76 0 0 150 234 206 113 0 160 0 0 152 0 0 0 0 116 0 100 167 74 149 74 106 74 0 130 97 185 0 0 0 0 0 0 0 0 0 0 0 0 0 0 0 0 0 0 0 0 0 0 0 0 0 0 0 0 0 0 0 0 0 0 0 0 0 0 0 0 0 0 0 0 0 0 0 0 0 0 0 0 0 0 0 0 0 0 0 0 0 0 0 0 0 0 0 0 0 0 0 0 0 0 0 72 113 0 101 160 152 0 0 0 0 0 0 0 0 0 0 0 0 0 0 0 0 107 76 107 120 0 0 0 0 0 0 0 0 0 0 0 0 0 0 0 0 0 0 0 0 0 0 0 0 0 0 0 0 0 0 0 0 0 0 0 0 0 0 0 0 0 0 74 167 167 149 224 237 224 74 0 0 0 0 0 0 0 0 0 0 0 0 0 0 0 0 0 0 0 120 218 212 113 0 0 72 0 72 0 0 0 0 0 0 0 0 0 0 0 0 0 0 0 0 0 0 0 0 0 0 0 0 0 0 0 0 0 0 0 0 0 0 144 144 113 160 0 0 0 0 144 0 144 0 0 0 0 0 113 72 113 0 0 0 0 0 0 0 0 0 0 144 0 108 0 212 0 0 0 74 106 74 0 0 0 0 0 0 0 0 0 0 0 0 0 0 0 0 0 0 0 0 0 0 0 0 0 0 0 0 0 0 0 0 0 0 0 0 0 0 0 0 0 0 0 0 0 0 0 0 0 0 0 0 0 0 0 0 76 0 120 76 120 0 0 0 0 120 120 76 0 120 120 0 0 0 0 0 152 108 212 0 0 0 0 0 0 0 0 0 0 0 0 0 0 0 0 0 0 0 0 0 0 0 0 0 0 0 0 0 0 0 0 0 0 
0 0 0 74 74 167 167 74 106 106 74 74 74 212 0 167 167 167 149 106 74 106 106 0 0 0 0 0 0 152 152 0 72 144 0 72 0 0 0 0 72 0 236 120 152 0 0 0 0 152 152 0 0 0 0 0 0 0 0 0 113 152 152 113 0 0 0 0 0 0 0 0 0 0 0 0 0 0 0 0 0 0 0 0 0 72 144 130 0 0 0 120 104 117 0 107 0 0 72 0 218 76 120 0 0 0 160 0 220 0 215 206 113 0 0 113 187 0 76 120 107 150 231 113 0 144 0 117 209 113 74 76 0 190 133 0 74 0 106 0 106 217 187 85 206 113 0 0 0 0 0 0 0 0 0 0 0 0 0 0 0 0 0 0 0 0 0 0 0 0 0 0 0 0 0 0 0 0 0 0 0 0 0 0 0 0 0 0 0 0 0 0 0 0 0 0 0 0 0 0 0 0 0 0 0 0 0 0 0 0 0 0 0 0 0 0 0 0 0 0 0 0 152 113 113 0 160 113 0 0 0 0 0 0 0 0 0 0 0 0 0 0 0 76 0 76 152 0 0 0 0 0 0 0 0 0 0 0 0 0 0 0 0 0 0 0 0 0 0 0 0 0 0 0 0 0 0 0 0 0 0 0 0 0 0 0 0 0 0 106 106 106 106 212 106 167 149 74 0 0 0 0 0 0 0 0 0 0 0 0 0 0 0 0 0 0 152 0 160 0 0 0 0 72 0 0 0 0 0 0 0 0 0 0 0 0 0 0 0 0 0 0 0 0 0 0 0 0 0 0 0 0 0 0 0 0 0 0 0 144 144 0 160 113 0 0 0 160 0 144 0 0 0 0 0 0 72 0 72 0 0 0 0 0 0 0 0 0 144 0 108 0 212 0 0 0 106 0 106 0 0 0 0 0 0 0 0 0 0 0 0 0 0 0 0 0 0 0 0 0 0 0 0 0 0 0 0 0 0 0 0 0 0 0 0 0 0 0 0 0 0 0 0 0 0 0 0 0 0 0 0 0 0 0 76 0 76 120 76 120 0 0 0 0 0 120 120 107 169 0 0 0 0 0 0 152 108 212 0 0 0 0 0 0 0 0 0 0 0 0 0 0 0 0 0 0 0 0 0 0 0 0 0 0 0 0 0 0 0 0 0 0 
0 0 0 167 106 74 167 224 212 212 212 224 74 212 0 212 0 74 167 167 106 149 74 0 0 0 0 0 0 169 120 0 72 144 0 0 72 0 0 0 0 212 0 120 120 0 0 0 72 144 72 0 0 0 0 0 0 0 0 0 0 113 113 0 0 0 0 0 0 0 0 0 0 0 0 72 0 0 0 0 0 0 0 0 0 0 152 95 0 0 211 152 0 235 0 0 76 0 216 113 0 76 169 120 0 0 113 72 146 117 212 113 0 0 113 0 116 213 74 152 76 224 187 113 113 113 220 113 213 152 222 76 120 0 108 106 0 0 74 74 106 80 194 206 113 0 0 0 0 0 0 0 0 0 0 0 0 0 0 0 0 0 0 0 0 0 0 0 0 0 0 0 0 0 0 0 0 0 0 0 0 0 0 0 0 0 0 0 0 0 0 0 0 0 0 0 0 0 0 0 0 0 0 0 0 0 0 0 0 0 0 0 0 0 0 0 0 0 0 0 0 0 0 72 0 0 113 160 0 0 0 0 0 0 0 0 0 0 0 0 0 0 0 0 0 120 120 0 0 0 0 0 0 0 0 0 0 0 0 0 0 0 0 0 0 0 0 0 0 0 0 0 0 0 0 0 0 0 0 0 0 0 0 0 0 0 74 106 74 74 167 167 167 212 167 74 106 224 74 0 0 0 0 0 0 0 0 0 0 0 0 0 0 0 0 0 218 0 113 0 0 0 0 0 0 0 0 0 0 0 0 0 0 0 0 0 0 0 0 0 0 0 0 0 0 0 0 0 0 0 0 0 0 0 0 0 0 0 0 144 144 0 144 144 0 0 113 113 113 113 0 0 0 0 0 0 0 113 72 113 0 0 0 0 0 0 0 0 144 0 108 0 212 0 0 0 74 106 74 0 0 0 0 0 0 0 0 0 0 0 0 0 0 0 0 0 0 0 0 0 0 0 0 0 0 0 0 0 0 0 0 0 0 0 0 0 0 0 0 0 0 0 0 0 0 0 0 0 0 0 0 0 0 76 0 76 0 0 76 0 0 0 0 0 76 120 120 76 120 0 0 0 0 0 0 152 108 212 0 0 0 0 0 0 0 0 0 0 0 0 0 0 0 0 0 0 0 0 0 0 0 0 0 0 0 0 0 0 0 0 0 0 
0 0 0 212 0 0 106 167 106 74 74 237 167 167 106 167 0 0 0 74 237 167 0 0 0 0 0 0 76 152 76 0 72 144 0 72 0 0 0 0 0 144 185 76 0 0 0 0 0 160 113 0 0 0 0 0 0 0 0 0 0 0 0 0 0 0 0 0 0 0 0 0 0 0 152 113 113 0 0 0 0 0 0 0 0 0 0 0 0 191 216 209 117 150 101 0 209 0 213 104 234 218 76 169 0 0 0 72 0 113 113 0 0 0 144 0 113 160 146 120 0 150 163 0 0 222 215 162 0 113 0 117 167 238 234 148 217 74 74 0 148 175 83 113 0 0 0 0 0 0 0 0 0 0 0 0 0 0 0 0 0 0 0 0 0 0 0 0 0 0 0 0 0 0 0 0 0 0 0 0 0 0 0 0 0 0 0 0 0 0 0 0 0 0 0 0 0 0 0 0 0 0 0 0 0 0 0 0 0 0 0 0 0 0 0 0 0 0 0 0 0 0 0 0 0 0 0 152 160 113 0 0 0 0 0 0 0 0 0 0 0 0 0 0 76 120 107 0 0 0 0 0 0 0 0 0 0 0 0 0 0 0 0 0 0 0 0 0 0 0 0 0 0 0 0 0 0 0 0 0 0 0 0 0 0 0 106 0 74 167 212 167 106 237 167 74 167 167 167 0 0 0 0 0 0 0 0 0 0 0 0 0 0 0 0 120 0 212 0 0 0 0 0 0 0 0 0 0 0 0 0 0 0 0 0 0 0 0 0 0 0 0 0 0 0 0 0 0 0 0 0 0 0 0 0 0 0 0 0 144 144 0 144 144 0 0 144 72 144 72 0 0 0 0 0 0 0 144 0 144 0 0 0 0 0 0 0 0 144 0 108 0 212 0 0 0 0 0 0 0 0 0 0 0 0 0 0 0 0 0 0 0 0 0 0 0 0 0 0 0 0 0 0 0 0 0 0 0 0 0 0 0 0 0 0 0 0 0 0 0 0 0 0 0 0 0 0 0 0 0 0 0 76 0 76 0 0 0 0 0 0 0 0 0 0 169 76 120 0 120 0 0 0 0 0 169 72 212 0 0 0 0 0 0 0 0 0 0 0 0 0 0 0 0 0 0 0 0 0 0 0 0 0 0 0 0 0 0 0 0 0 0 
0 0 0 212 0 0 106 74 167 237 237 224 167 74 74 74 74 0 0 74 237 167 0 0 0 0 0 0 0 169 120 0 0 152 152 0 0 0 0 0 0 144 144 0 0 0 0 0 0 144 144 0 0 0 0 0 0 0 0 0 0 72 0 0 0 0 0 0 0 0 0 0 0 113 160 113 144 0 0 0 0 0 0 0 0 0 0 0 0 224 0 155 164 116 0 115 104 104 107 115 74 236 76 169 120 0 0 0 0 144 0 113 152 0 113 72 113 113 0 74 107 120 76 161 191 218 0 115 0 0 212 155 116 0 233 114 137 0 149 148 132 0 163 0 0 0 0 0 0 0 0 0 0 0 0 0 0 0 0 0 0 0 0 0 0 0 0 0 0 0 0 0 0 0 0 0 0 0 0 0 0 0 0 0 0 0 0 0 0 0 0 0 0 0 0 0 0 0 0 0 0 0 0 0 0 0 0 0 0 0 0 0 0 0 0 0 0 0 0 0 0 0 0 0 0 0 0 0 113 160 160 113 72 72 0 0 0 0 0 0 0 0 0 0 0 107 120 76 0 0 0 0 0 0 0 0 0 0 0 0 0 0 0 0 0 0 0 0 0 0 0 0 0 0 0 0 0 0 0 0 0 0 0 0 0 0 74 74 74 149 167 224 106 224 167 149 224 167 167 0 0 0 0 0 0 0 0 0 0 0 0 0 0 0 0 152 0 144 0 0 0 0 0 0 0 0 0 0 0 0 0 0 0 0 0 0 0 0 0 0 0 0 0 0 0 0 0 0 0 0 0 0 0 0 0 0 0 0 0 144 144 0 144 144 0 0 144 113 160 113 0 0 0 0 0 0 0 144 0 144 0 0 0 0 0 0 0 0 144 0 108 0 212 0 0 0 0 0 0 0 0 0 0 0 0 0 0 0 0 0 0 0 0 0 0 0 0 0 0 0 0 0 0 0 0 0 0 0 0 0 0 0 0 0 0 0 0 0 0 0 0 0 0 0 0 0 0 0 0 0 0 0 0 76 0 0 0 0 0 0 0 0 0 0 76 76 169 120 0 152 0 0 0 0 120 169 252 212 0 0 0 0 0 0 0 0 0 0 0 0 0 0 0 0 0 0 0 0 0 0 0 0 0 0 0 0 0 0 0 0 0 0 
0 0 0 212 0 0 74 106 167 74 167 106 74 74 167 167 224 74 0 106 212 106 0 0 0 0 0 0 0 169 120 0 0 0 160 113 0 0 0 0 0 144 144 0 0 0 113 113 0 144 144 0 0 0 0 0 0 0 0 0 72 0 72 0 0 0 0 0 0 0 0 0 0 144 144 144 144 0 0 0 0 0 0 0 0 0 0 0 0 191 0 0 0 113 160 104 0 0 0 0 0 167 212 107 120 0 0 0 0 113 72 101 152 152 0 72 0 0 0 146 169 0 120 169 0 152 120 104 185 72 144 144 0 113 113 117 0 0 148 229 0 0 0 0 0 0 0 0 0 0 0 0 0 0 0 0 0 0 0 0 0 0 0 0 0 0 0 0 0 0 0 0 0 0 0 0 0 0 0 0 0 0 0 0 0 0 0 0 0 0 0 0 0 0 0 0 0 0 0 0 0 0 0 0 0 0 0 0 0 0 0 0 0 0 0 0 0 0 0 0 0 0 0 0 0 0 0 0 0 0 113 152 0 0 72 0 0 0 0 0 0 0 0 0 0 76 120 107 0 0 0 0 0 0 0 0 0 0 0 0 0 0 0 0 0 0 0 0 0 0 0 0 0 0 0 0 0 0 74 167 167 106 106 74 0 0 0 106 74 167 237 224 167 74 106 74 74 106 74 0 0 0 0 0 0 0 0 0 0 0 0 0 0 0 0 169 0 144 0 0 0 0 0 0 0 0 0 0 0 0 0 0 0 0 0 0 0 0 0 0 0 0 0 0 0 0 0 0 0 0 0 0 0 0 0 0 0 0 0 144 144 0 144 144 0 0 144 144 144 144 0 0 0 0 0 0 0 144 0 144 0 0 0 0 0 0 0 0 144 0 108 0 212 0 0 0 0 0 0 0 0 0 0 0 0 0 0 0 0 0 0 0 0 0 0 0 0 0 0 0 0 0 0 0 0 0 0 0 0 0 0 0 0 0 0 0 0 0 0 0 0 0 0 0 0 0 0 0 0 0 0 0 0 0 0 0 0 0 0 0 0 0 0 76 0 0 161 76 0 120 0 0 0 0 152 152 212 212 0 0 0 0 0 0 0 0 0 0 0 0 0 0 0 0 0 0 0 0 0 0 0 0 0 0 0 0 0 0 0 0 0 0 
0 0 0 212 0 0 0 0 167 167 212 237 167 167 212 167 224 237 212 106 149 224 74 0 0 0 0 0 120 169 0 0 0 72 113 144 0 0 0 0 0 113 152 113 0 72 72 72 72 144 144 0 0 0 0 0 0 0 0 0 0 0 0 0 0 0 0 0 0 0 0 0 0 113 160 113 144 0 0 0 0 0 0 0 0 0 0 0 0 167 0 0 72 113 72 212 213 74 0 0 104 0 158 120 0 107 0 0 0 0 72 0 0 152 152 0 0 0 0 0 120 150 146 0 212 76 161 158 185 72 144 113 113 113 0 120 80 0 0 0 185 0 0 0 0 0 0 0 0 0 0 0 0 0 0 0 0 0 0 0 0 0 0 0 0 0 0 0 0 0 0 0 0 0 0 0 0 0 0 0 0 0 0 0 0 0 0 0 0 0 0 0 0 0 0 0 0 0 0 0 0 0 0 0 0 0 0 0 0 0 0 0 0 0 0 0 0 0 0 0 0 0 0 72 0 0 0 0 0 0 0 113 101 72 113 113 72 72 0 0 0 0 0 0 0 0 120 161 120 0 0 0 0 0 0 0 0 0 0 0 0 0 0 0 0 0 0 0 0 0 0 0 0 0 0 0 0 0 167 224 224 106 167 224 74 0 0 74 106 106 167 167 74 74 106 74 0 0 0 0 74 167 167 74 0 0 0 0 0 0 0 0 0 0 161 212 212 113 0 0 0 0 0 0 0 0 0 0 0 0 0 0 0 0 0 0 0 0 0 0 0 0 0 0 0 0 0 0 0 0 0 0 0 0 0 0 0 0 0 144 144 0 144 144 0 0 144 144 144 144 0 0 0 0 0 0 0 113 72 113 0 0 0 72 0 0 0 0 144 0 108 0 212 0 0 0 0 0 0 0 0 0 0 0 0 0 0 0 0 0 0 0 0 0 0 0 0 0 0 0 0 0 0 0 0 0 0 0 0 0 0 0 0 0 0 0 0 0 0 0 0 0 0 0 0 0 0 0 0 0 0 0 0 0 0 0 0 0 0 0 0 0 0 0 76 0 107 0 0 107 0 0 0 0 152 152 212 212 0 0 0 0 0 0 0 0 0 0 0 0 0 0 0 0 0 0 0 0 0 0 0 0 0 0 0 0 0 0 0 0 0 0 
0 0 0 167 106 74 74 74 106 237 212 167 167 212 212 167 149 74 0 74 106 167 106 0 0 0 0 0 120 169 0 0 113 113 113 113 0 0 0 0 0 0 72 152 113 72 72 72 72 144 144 0 0 0 0 0 0 0 0 113 72 113 0 0 0 0 0 0 0 0 0 0 0 0 152 113 113 0 0 0 0 0 0 0 0 0 0 185 0 209 167 113 72 160 113 0 152 160 144 155 0 189 150 0 166 0 107 0 0 0 0 0 0 0 152 152 0 0 185 93 106 0 146 155 0 76 120 212 0 113 113 113 160 152 113 107 136 0 108 252 144 0 0 0 72 0 0 0 0 0 0 0 0 0 0 0 0 0 0 0 0 0 0 0 0 0 0 0 0 0 0 0 0 0 0 0 0 0 0 0 0 0 0 0 0 0 0 0 0 0 0 0 0 0 0 0 0 0 0 0 0 0 0 0 0 0 0 0 0 0 0 0 0 0 0 0 0 0 0 0 0 0 72 0 72 0 0 0 0 0 0 0 113 113 0 0 113 113 113 0 0 0 0 0 0 0 0 152 120 76 0 0 0 0 0 0 0 0 0 0 0 0 0 0 0 0 0 0 0 0 0 0 0 0 0 0 0 0 167 224 224 74 167 237 149 106 74 74 167 167 74 0 0 106 0 106 0 0 74 106 149 224 224 167 0 0 0 0 0 0 0 0 0 120 169 163 160 0 0 0 0 0 0 0 0 0 0 0 0 0 0 0 0 0 0 0 0 0 0 0 0 0 0 0 0 0 0 0 0 0 0 0 0 0 0 0 0 0 0 144 144 0 144 144 0 0 144 144 144 144 0 0 0 0 0 0 0 0 72 0 0 0 113 72 113 0 0 0 113 0 145 0 212 0 0 0 0 0 0 0 0 0 0 0 0 0 0 0 0 0 0 0 0 0 0 0 0 0 0 0 0 0 0 0 0 0 0 0 0 0 0 0 0 0 0 0 0 0 0 0 0 0 0 0 0 0 0 0 0 0 0 0 0 0 0 0 0 0 0 0 0 0 0 0 120 120 0 0 0 76 76 0 0 0 152 211 237 167 0 0 0 0 0 0 0 0 0 0 0 0 0 0 0 0 0 0 0 0 0 0 0 0 0 0 0 0 0 0 0 0 0 0 
0 0 0 74 106 167 167 149 167 74 167 167 106 237 167 106 106 0 0 74 167 167 74 0 0 0 0 0 0 169 120 0 113 113 0 0 0 0 0 0 72 0 113 152 113 113 152 152 113 144 144 0 0 0 0 0 0 0 0 160 0 144 0 0 0 0 0 0 0 0 0 0 0 0 0 72 0 0 0 0 0 0 0 0 0 0 0 144 185 162 104 160 72 160 113 0 0 113 144 212 0 117 120 218 0 166 0 120 120 0 0 76 0 0 0 152 152 0 144 202 183 128 0 0 0 152 0 120 234 212 0 72 0 212 155 113 106 234 80 202 144 0 0 101 0 72 0 0 0 0 0 0 0 0 0 0 0 0 0 0 0 0 0 0 0 0 0 0 0 0 0 0 0 0 0 0 0 0 0 0 0 0 0 0 0 0 0 0 0 0 0 0 0 0 0 0 0 0 0 0 0 0 0 0 0 0 0 0 0 0 0 0 0 0 0 0 0 0 0 0 0 0 0 72 0 0 0 0 0 0 0 0 0 72 72 0 101 113 144 0 0 0 72 0 0 0 0 120 107 76 120 120 0 0 0 0 0 0 0 0 0 0 0 0 0 0 0 0 0 0 0 0 0 0 0 0 0 0 74 167 106 106 149 224 74 0 106 167 149 167 106 0 0 74 106 74 0 74 224 167 0 224 224 167 0 0 0 0 0 0 0 0 0 152 152 144 144 0 0 0 0 0 0 0 0 0 0 0 0 0 0 0 0 0 0 0 0 0 0 0 0 0 0 0 0 0 0 0 0 0 0 0 0 0 0 0 0 0 0 144 144 0 144 144 0 0 144 144 144 144 0 0 0 0 0 0 0 0 0 0 0 0 113 0 113 0 0 0 72 0 130 106 167 0 0 0 0 0 0 0 0 0 0 0 0 0 0 0 0 0 0 0 0 0 0 0 0 0 0 0 0 0 0 0 0 0 0 0 0 0 0 0 0 0 0 0 0 0 0 0 0 0 0 0 0 0 0 0 0 0 0 0 0 0 0 0 0 0 0 0 76 0 0 161 169 107 0 76 120 120 0 0 0 0 169 0 237 74 0 0 0 0 0 0 0 0 0 0 0 0 0 0 0 0 0 0 0 0 0 0 0 0 0 0 0 0 0 0 0 0 0 0 
0 0 0 0 0 167 224 106 167 74 106 106 74 224 167 149 167 212 212 167 74 0 0 0 0 0 0 0 0 152 152 0 0 160 113 0 0 0 0 0 0 101 72 101 0 144 144 113 152 152 113 0 0 0 0 0 0 0 113 160 113 144 0 0 0 0 0 0 0 0 0 0 0 0 0 0 0 0 0 0 0 0 0 0 0 0 0 185 214 214 146 160 72 160 0 0 0 0 0 0 206 0 234 76 166 0 107 76 107 150 104 74 107 0 0 0 152 152 72 215 235 0 234 148 187 169 0 0 167 0 206 0 72 220 72 220 138 213 170 83 113 0 101 0 101 0 0 0 0 0 0 0 0 0 0 0 0 0 0 0 0 0 0 0 0 0 0 0 0 0 0 0 0 0 0 72 0 0 0 0 0 0 0 0 0 0 0 0 0 0 0 0 0 0 0 0 0 0 0 0 0 0 0 0 0 0 0 0 0 0 0 0 0 0 0 0 0 0 0 0 0 0 0 0 0 0 0 0 0 0 0 0 0 0 113 113 0 144 144 0 72 101 72 113 0 0 0 0 120 0 0 76 76 0 0 0 0 0 0 0 0 0 0 0 0 0 0 0 0 0 0 0 0 0 0 0 0 0 0 0 106 74 167 167 106 106 74 167 167 149 74 74 0 0 0 0 0 106 167 149 149 167 167 74 0 0 0 0 0 0 0 0 120 161 120 144 144 0 0 0 0 0 0 0 0 0 0 0 0 0 0 0 0 0 0 0 0 0 0 0 0 0 0 0 0 0 0 0 0 0 0 0 0 0 0 0 0 0 0 144 144 0 144 144 0 0 144 144 144 144 0 0 0 0 0 0 0 0 0 0 0 113 0 113 0 0 0 0 113 0 0 0 106 0 0 0 0 0 0 0 0 0 0 0 0 0 0 0 0 0 0 0 0 0 0 0 0 0 0 0 0 0 0 0 0 0 0 0 0 0 0 0 0 0 0 0 0 0 0 0 0 0 0 0 0 0 0 0 0 0 0 0 0 0 0 0 0 0 76 0 0 76 120 169 0 120 120 161 0 0 0 0 0 120 169 252 212 0 0 0 0 0 0 0 0 0 0 0 0 0 0 0 0 0 0 0 0 0 0 0 0 0 0 0 0 0 0 0 0 0 0 0 
0 0 0 0 0 74 167 224 74 106 74 149 74 74 106 74 0 0 0 0 0 0 0 0 0 0 0 0 0 152 152 0 0 144 144 0 0 0 0 0 0 0 160 101 72 72 152 72 72 113 0 0 0 0 0 0 0 0 144 144 144 144 0 0 0 0 0 0 0 0 0 0 0 0 0 0 0 0 0 0 0 0 0 0 0 0 0 0 0 0 0 152 72 160 0 0 0 0 0 0 0 163 0 0 74 0 0 107 120 189 0 166 0 0 120 120 104 152 101 0 83 190 104 189 150 120 0 104 148 76 0 206 0 206 213 163 113 163 220 163 0 113 0 113 0 0 0 0 0 0 0 0 0 0 0 0 0 0 0 0 0 0 0 0 0 0 0 0 0 0 0 0 0 0 113 72 113 0 0 0 0 0 0 0 0 0 0 0 0 0 0 0 0 0 0 0 0 0 0 0 0 0 0 0 0 0 0 0 0 0 0 0 0 0 0 0 0 0 0 0 0 0 0 0 0 0 0 0 0 0 0 0 0 0 0 0 0 113 152 160 113 0 72 113 0 0 0 0 152 76 76 0 120 152 120 0 0 0 0 0 0 0 0 0 0 0 0 0 0 0 0 0 0 0 0 0 0 0 0 0 74 106 74 0 74 167 167 0 106 106 167 224 74 0 0 0 0 74 167 167 74 0 0 0 0 0 0 0 0 0 0 120 161 120 0 144 144 0 0 0 0 0 0 0 0 0 0 0 0 0 0 0 0 0 0 0 0 0 0 0 0 0 0 0 0 0 0 0 0 0 0 0 0 0 0 0 0 0 0 144 144 0 144 144 0 0 144 113 160 113 0 0 0 0 0 0 0 0 113 113 0 144 0 144 0 0 0 0 144 0 0 106 167 0 0 0 0 0 0 0 0 0 0 0 120 120 0 0 0 0 0 0 0 0 0 0 0 0 0 0 0 0 0 0 0 0 0 0 0 0 0 0 0 0 0 0 0 0 0 0 0 0 0 0 0 0 0 0 0 0 0 0 0 0 0 0 76 0 0 0 76 0 120 161 120 0 0 76 0 0 0 0 0 152 152 212 212 0 0 0 0 0 0 0 0 0 0 0 0 0 0 0 0 0 0 0 0 0 0 0 0 0 0 0 0 0 0 0 0 0 0 0 
0 0 0 0 0 0 0 212 0 106 0 106 0 0 0 0 74 167 167 74 0 0 0 0 0 0 0 0 0 169 120 0 0 144 144 0 0 0 0 0 0 0 160 0 0 0 113 152 113 0 0 0 0 0 0 0 0 0 144 144 144 144 0 0 0 0 0 0 0 0 0 0 0 0 0 0 0 0 0 0 0 0 0 0 0 0 0 0 0 150 216 163 148 212 113 0 0 0 0 0 0 0 0 163 164 116 74 0 0 74 72 74 76 0 120 107 120 0 152 101 235 120 76 120 76 120 0 234 234 0 0 0 206 0 144 72 144 0 0 0 0 113 72 113 0 0 0 0 0 0 0 0 0 0 0 0 0 0 0 0 0 0 0 0 0 0 0 0 0 0 0 0 0 0 144 0 144 0 0 0 0 0 0 0 0 0 0 0 0 0 0 0 0 0 0 0 0 0 0 0 0 0 0 0 0 0 0 0 0 0 0 0 0 0 0 0 0 0 0 0 0 0 0 0 0 0 0 0 0 0 0 0 0 0 0 0 0 0 113 72 113 101 72 0 0 0 0 0 120 120 169 120 0 0 76 0 76 0 0 0 0 0 0 0 0 0 0 0 0 0 0 0 0 0 0 0 0 0 0 0 0 0 0 0 167 224 224 149 106 167 167 224 224 74 0 0 0 0 0 0 0 0 0 0 0 0 0 0 0 0 0 152 152 0 0 144 144 0 0 0 0 0 0 0 0 0 0 0 0 0 0 0 0 0 0 0 0 0 0 0 0 0 0 0 0 0 0 0 0 0 0 0 0 0 0 0 0 0 0 144 144 0 144 144 0 72 72 101 113 72 0 0 0 0 0 0 0 72 72 72 72 144 0 144 0 0 0 0 144 0 108 0 212 0 0 0 0 0 0 0 0 0 120 120 107 120 161 0 0 0 0 0 0 0 0 0 0 0 0 0 0 0 0 0 0 0 0 0 0 0 0 0 0 0 0 0 0 0 0 0 0 0 0 0 0 0 0 0 0 0 0 0 0 0 0 76 0 0 76 0 0 0 107 0 107 0 0 76 0 0 0 0 0 152 152 212 212 0 0 0 0 0 0 0 0 0 0 0 0 0 0 0 0 0 0 0 0 0 0 0 0 0 0 0 0 0 0 0 0 0 0 0 
0 0 0 0 0 0 0 167 106 149 106 74 0 0 0 74 224 237 224 167 0 0 0 0 0 0 0 0 76 152 76 0 0 160 113 0 0 0 0 0 0 113 160 72 72 0 0 144 144 0 0 0 0 0 0 0 0 0 144 144 144 144 0 0 0 0 0 0 0 0 0 0 0 0 0 0 0 0 0 0 0 0 0 0 0 0 113 185 192 0 152 120 76 0 144 0 0 0 0 0 0 113 113 72 0 116 215 146 0 0 0 120 152 76 107 120 120 0 0 72 74 76 76 161 169 120 0 0 0 101 0 116 187 0 144 0 160 0 0 0 0 0 72 0 0 0 0 0 0 0 0 0 0 0 0 0 0 0 0 0 0 0 0 0 0 0 0 0 0 0 0 0 0 0 144 0 144 0 0 0 0 0 0 0 0 0 0 0 0 0 0 0 0 0 0 0 0 0 0 0 0 0 0 0 0 0 0 0 0 0 0 0 0 0 0 0 0 0 0 0 0 0 0 0 0 0 0 0 113 113 0 0 0 0 0 0 0 0 0 72 113 113 144 113 0 0 0 0 0 76 0 76 76 0 0 120 120 120 0 0 0 0 0 0 0 0 0 0 0 0 0 0 0 0 0 0 0 0 0 0 0 0 0 0 167 224 224 0 106 0 224 167 167 106 0 0 0 0 0 0 0 0 0 0 0 0 0 0 0 0 0 120 120 0 0 144 144 0 0 0 0 0 0 0 0 0 0 0 0 0 0 0 0 0 0 0 0 0 0 0 0 0 0 0 0 0 0 0 0 0 0 0 0 0 0 0 0 0 0 144 144 0 144 144 113 72 72 113 0 113 0 0 0 0 0 72 0 0 113 113 0 144 0 160 0 0 0 0 144 0 108 0 212 0 0 0 0 0 0 76 76 161 169 120 0 76 76 107 76 76 0 0 0 0 0 0 0 0 0 0 0 0 0 0 0 0 0 0 0 0 0 0 0 0 0 0 0 0 0 0 0 0 0 0 0 0 0 0 0 0 0 0 0 0 0 0 76 0 120 120 0 120 161 169 120 107 76 0 0 0 0 0 0 152 211 237 167 0 0 0 0 0 0 0 0 0 0 0 0 0 0 0 0 0 0 0 0 0 0 0 0 0 0 0 0 0 0 0 0 0 0 0 
0 0 0 0 0 0 0 74 106 74 0 0 0 0 74 224 224 0 237 167 74 106 74 0 0 0 0 0 0 169 120 0 72 113 101 0 0 0 0 0 0 113 160 0 0 0 0 160 113 0 0 0 0 0 0 0 0 0 144 113 160 113 0 0 0 0 0 0 0 0 0 0 0 0 0 0 0 0 0 0 0 0 0 0 0 0 144 185 169 0 152 120 76 222 160 0 0 0 0 72 0 144 113 113 0 0 0 187 161 0 76 120 120 169 120 76 107 0 0 76 0 0 72 104 120 169 161 90 140 81 72 231 163 101 152 113 113 72 0 0 0 0 0 0 0 0 0 0 0 0 0 0 0 0 0 0 0 0 0 0 0 0 0 0 0 0 0 0 0 0 0 0 0 0 113 72 113 0 0 0 0 0 0 0 0 0 0 0 0 0 0 0 0 0 0 0 0 0 0 0 0 0 0 0 0 0 0 0 0 0 0 0 0 0 0 0 0 0 0 0 0 0 0 0 0 0 0 113 152 152 113 0 0 0 0 0 0 0 0 0 113 144 144 152 113 0 0 0 0 0 0 0 120 152 120 0 76 152 0 76 0 0 0 0 0 0 0 0 0 0 0 0 0 0 0 0 0 0 0 0 0 0 0 0 74 167 167 149 106 149 167 212 167 74 0 0 0 0 0 0 0 0 0 0 0 0 0 0 0 0 76 0 107 120 0 144 144 0 0 0 0 0 0 0 0 0 0 0 0 0 0 0 0 0 0 0 0 0 0 0 0 0 0 0 0 0 0 0 0 0 0 0 0 0 0 0 0 0 0 144 144 0 144 144 113 72 72 113 0 113 0 0 0 0 72 0 0 72 0 0 0 144 72 144 72 0 0 0 144 0 0 106 167 0 0 0 0 0 76 0 76 120 76 0 107 0 0 120 152 120 120 0 0 0 0 0 0 0 0 0 0 0 0 0 0 0 0 0 0 0 0 0 0 0 0 0 0 0 0 0 0 0 0 0 0 0 0 0 0 0 0 0 0 0 0 0 0 161 120 107 120 161 120 76 0 76 0 0 0 0 0 0 0 169 0 237 74 0 0 0 0 0 0 0 0 0 0 0 0 0 0 0 0 0 0 0 0 0 0 0 0 0 0 0 0 0 0 0 0 0 0 0 
0 0 0 0 0 0 0 0 74 106 74 74 167 212 237 149 106 237 224 74 167 106 167 0 0 0 0 0 0 120 169 0 0 101 113 72 0 0 0 0 0 0 160 113 0 0 152 152 0 0 0 0 0 0 0 0 0 0 160 0 160 0 0 0 0 0 0 0 0 0 0 0 0 0 0 0 0 0 0 0 0 0 0 0 0 0 113 0 192 120 152 0 76 74 160 113 0 0 113 72 113 113 160 113 0 113 101 101 113 113 74 218 218 76 76 152 169 169 169 120 120 113 72 113 0 76 152 240 233 0 83 0 72 0 72 0 0 72 113 0 0 0 0 0 0 0 0 0 0 0 0 0 0 0 0 0 0 0 0 0 0 0 0 0 0 0 0 0 0 0 0 0 0 0 0 72 0 0 0 0 0 0 0 0 0 0 0 0 0 0 0 0 0 0 0 0 0 0 0 0 0 0 0 0 0 0 0 0 0 0 0 0 0 0 0 0 0 0 0 0 0 0 0 0 0 0 0 113 152 152 113 0 0 0 0 0 0 0 0 0 0 0 0 113 152 144 144 144 113 72 72 0 0 0 104 0 0 161 169 152 169 152 152 152 152 152 152 152 152 152 152 120 0 0 0 0 0 0 0 0 0 0 0 0 0 0 0 74 106 74 0 0 0 0 0 0 0 0 0 0 0 0 0 0 0 0 0 0 0 120 76 0 120 152 0 144 144 0 0 0 0 0 0 0 0 0 0 0 0 0 0 0 0 0 0 0 0 0 0 0 0 0 0 0 0 0 0 0 0 0 0 0 0 0 0 0 0 0 0 144 144 0 144 113 101 0 0 101 101 101 0 0 0 0 0 72 72 72 113 0 0 113 113 152 0 0 0 0 144 97 0 74 106 0 0 0 0 0 76 120 76 0 76 0 0 120 120 76 76 120 120 120 120 0 0 0 0 0 0 0 0 0 0 0 0 0 0 0 0 0 0 0 0 0 0 0 0 0 0 0 0 0 0 0 0 0 0 0 0 0 0 0 0 0 0 0 120 169 0 76 0 76 76 76 0 76 0 0 0 0 0 0 120 169 252 212 0 0 0 0 0 0 0 0 0 0 0 0 0 0 0 0 0 0 0 0 0 0 0 0 0 0 0 0 0 0 0 0 0 0 0 0 
0 0 0 0 0 74 167 167 149 106 167 167 149 74 106 74 224 167 74 0 167 106 167 0 0 0 0 0 0 76 152 76 0 152 152 0 0 0 0 0 0 0 160 113 0 152 152 0 0 0 0 0 0 0 0 0 0 113 113 113 113 0 72 0 0 0 0 0 0 0 0 0 0 0 0 0 0 0 0 0 0 0 0 0 0 0 0 0 0 152 152 0 0 0 144 144 0 0 113 72 113 0 152 113 101 160 116 206 74 144 72 74 234 0 218 120 0 120 76 120 120 113 72 113 0 120 120 252 197 168 215 113 0 0 152 144 144 160 152 113 0 0 0 0 0 0 0 0 0 0 0 0 0 0 0 0 0 0 0 0 0 0 0 0 0 0 0 0 0 0 0 0 0 0 0 0 0 0 0 0 0 0 0 0 0 0 0 0 0 0 0 0 0 0 0 0 0 0 0 0 0 0 0 0 0 0 0 0 0 0 0 0 0 0 0 0 0 0 0 0 0 0 0 0 0 0 0 0 113 113 0 0 0 0 0 0 0 0 0 0 0 0 0 0 113 144 144 144 160 144 144 160 144 160 185 231 220 0 0 187 167 152 152 152 120 0 0 0 0 0 0 76 76 0 0 0 0 0 0 0 0 0 0 0 0 0 0 0 0 0 0 0 0 0 0 0 0 0 0 0 0 0 0 0 0 0 76 0 120 161 161 120 152 152 0 160 113 0 0 0 0 0 0 0 0 0 0 0 0 0 0 0 0 0 0 0 0 0 0 0 0 0 0 0 0 0 0 0 0 0 0 0 0 0 0 0 0 0 0 144 144 0 144 0 152 152 0 101 0 72 72 0 0 0 0 0 144 0 144 0 0 0 72 0 0 0 0 0 144 202 93 224 167 0 0 0 0 0 120 169 76 76 0 0 0 0 0 0 0 120 120 169 169 169 152 120 0 0 120 120 0 0 0 76 0 0 0 0 0 0 0 0 0 0 0 0 0 0 0 0 0 0 0 0 0 0 0 0 0 0 0 0 0 0 0 0 120 107 120 107 76 120 76 76 0 76 0 0 0 0 0 0 152 152 212 212 0 0 0 0 0 0 0 0 0 0 0 0 0 0 0 0 0 0 0 0 0 0 0 0 0 0 0 0 0 0 0 0 0 0 0 0 
0 0 0 0 0 106 106 106 74 106 167 167 167 167 167 106 167 106 106 106 0 106 74 0 0 0 0 0 0 120 169 0 72 144 72 0 0 0 0 0 0 113 160 0 113 160 0 0 0 0 0 0 0 0 0 0 0 113 72 152 0 113 72 113 0 0 0 0 0 0 0 0 0 0 0 0 0 0 0 0 0 0 0 0 0 0 0 0 0 120 152 0 0 76 185 144 0 0 0 72 0 0 0 72 0 113 231 72 104 113 0 101 72 163 0 212 120 0 161 161 0 74 189 150 76 169 0 151 76 80 163 161 0 0 232 104 0 72 113 160 0 0 0 0 0 0 0 0 0 0 0 0 0 0 0 0 0 0 0 0 0 0 0 0 0 0 0 0 0 0 0 0 0 0 0 0 0 0 0 0 0 0 0 0 0 0 0 0 0 0 0 0 0 0 0 0 0 0 0 0 0 0 0 0 0 0 0 0 0 0 0 0 0 0 0 0 0 0 0 0 0 0 0 0 0 0 0 0 0 0 72 0 0 0 0 0 0 0 0 0 0 0 0 0 0 0 0 0 0 72 72 113 144 113 0 72 0 0 0 72 72 0 0 0 120 161 120 76 120 152 152 120 0 0 0 0 0 0 0 0 0 0 0 0 0 0 0 0 0 74 106 74 0 0 0 0 0 0 0 0 0 0 0 0 0 161 152 169 161 120 120 169 120 152 113 160 0 0 0 0 0 0 0 0 0 0 0 0 0 0 0 0 0 0 0 0 0 0 0 0 0 0 0 0 0 0 0 0 0 0 0 0 0 0 0 0 0 0 0 113 160 0 144 0 160 113 113 101 72 101 0 0 0 0 0 0 160 72 160 0 0 0 0 0 72 0 0 0 144 202 123 167 212 0 0 0 0 0 169 76 76 0 0 0 0 0 0 0 0 0 76 0 0 120 152 169 169 169 169 161 107 120 169 120 120 0 0 0 0 0 0 0 0 0 0 0 0 0 0 0 0 0 0 0 0 0 0 0 0 0 0 0 0 0 0 107 0 76 0 0 76 120 76 76 0 76 0 0 0 0 0 0 152 211 237 167 0 0 0 0 0 0 0 0 0 0 0 0 0 0 0 0 0 0 0 0 0 0 0 0 0 0 0 0 0 0 0 0 0 0 0 0 
0 0 0 74 167 106 106 106 0 74 74 74 106 74 167 149 0 106 106 106 167 0 0 0 0 0 0 0 0 152 152 0 0 160 113 0 0 0 0 0 104 0 216 120 185 144 0 104 187 163 0 0 0 0 0 0 152 113 113 72 0 113 72 113 0 0 0 0 0 0 0 0 0 0 0 0 0 0 0 0 0 0 0 0 0 0 0 185 0 0 161 120 107 76 0 144 0 0 0 0 72 0 0 0 0 72 185 74 116 74 0 0 152 101 113 234 169 107 218 116 0 76 120 107 0 152 0 0 240 0 210 115 214 234 192 212 152 168 191 0 206 0 0 0 0 0 0 0 0 0 0 0 0 0 0 0 0 0 0 0 0 0 0 0 0 0 0 0 0 0 0 0 0 0 0 0 0 0 0 0 0 0 0 0 0 0 0 0 0 0 0 0 0 0 0 0 0 0 0 0 0 0 0 0 0 0 0 0 0 0 0 0 0 0 0 0 0 0 0 0 0 0 0 0 0 0 0 0 0 72 0 72 0 0 0 0 0 0 0 0 0 0 0 0 0 0 0 0 0 0 0 113 144 144 160 160 144 144 144 113 0 0 0 0 120 161 169 152 169 152 120 0 0 0 0 0 0 0 0 0 0 0 0 0 0 0 0 0 0 106 0 106 74 167 167 74 0 0 0 0 0 0 0 0 120 169 76 120 76 76 76 107 120 120 144 144 0 0 0 0 0 0 0 0 0 0 0 0 0 0 0 0 0 0 0 0 0 0 0 0 0 0 0 0 0 0 0 0 0 0 0 0 0 0 0 0 0 0 0 72 144 72 144 113 160 0 113 101 0 72 0 0 0 0 72 0 113 72 113 72 0 0 72 0 0 72 0 0 144 97 123 74 212 0 0 0 0 120 169 0 0 76 0 0 0 0 0 0 0 0 0 0 0 0 0 0 120 120 0 120 120 169 120 107 161 120 76 76 0 0 0 0 120 120 0 0 0 0 0 0 0 0 0 0 0 0 0 0 0 0 0 0 0 0 120 107 107 120 120 0 0 76 76 0 76 0 0 0 0 0 0 0 169 0 237 74 0 0 0 0 0 0 0 0 0 0 0 0 0 0 0 0 0 0 0 0 0 0 0 0 0 0 0 0 0 0 0 0 0 0 0 0 
0 0 0 167 224 224 167 106 0 106 0 0 74 74 106 167 167 0 0 0 212 0 0 0 0 0 0 0 0 169 120 0 0 144 144 0 0 0 0 104 132 225 91 236 0 144 104 0 0 0 113 0 0 0 0 72 113 72 113 72 0 0 72 0 0 0 0 0 0 0 0 0 0 0 0 0 0 0 0 0 0 0 0 0 0 0 0 144 0 120 107 120 76 0 0 206 113 0 0 152 144 152 0 0 0 113 113 117 0 76 0 76 116 144 72 185 161 120 234 72 113 0 169 0 76 152 76 152 120 76 0 0 120 167 197 78 0 191 152 212 0 113 0 0 0 0 0 0 0 0 0 0 0 0 0 0 0 0 0 0 0 0 0 0 0 0 0 0 0 0 0 0 0 0 0 0 0 0 0 0 0 0 0 0 0 0 0 0 0 0 0 0 0 0 0 0 0 0 0 0 0 0 0 0 0 0 0 0 0 0 0 0 0 0 0 0 0 0 0 0 0 0 0 0 0 0 0 0 0 72 0 113 113 0 0 0 0 0 0 0 0 113 144 144 144 144 144 185 0 0 0 0 0 0 0 191 152 152 152 152 152 152 152 152 120 0 0 76 0 0 76 76 0 0 0 0 0 0 0 0 0 0 0 0 0 0 0 0 0 74 106 74 106 106 74 167 212 212 212 167 74 0 0 0 120 161 152 152 169 169 169 120 76 107 185 144 0 0 0 0 0 0 0 0 0 0 0 0 0 0 0 0 0 0 0 0 0 0 0 0 0 0 0 0 0 0 0 0 0 0 0 0 0 0 0 0 0 0 0 113 160 0 144 144 113 72 0 0 113 0 0 0 0 72 0 0 0 72 0 72 0 72 0 0 72 0 0 0 144 0 0 106 167 0 0 0 0 169 120 0 76 0 0 0 72 0 0 0 0 0 0 0 0 0 0 0 0 0 0 0 76 0 0 0 120 169 152 152 169 152 120 107 161 161 120 0 0 0 0 0 0 0 0 0 0 0 0 0 0 0 0 0 0 0 120 120 76 76 107 120 76 107 0 0 0 0 0 0 0 0 0 120 242 0 167 0 0 0 0 0 0 0 0 0 0 0 0 0 0 0 0 0 0 0 0 0 0 0 0 0 0 0 0 0 0 0 0 0 0 0 0 0 
0 0 0 167 224 224 167 74 106 74 0 0 167 106 167 0 212 0 0 0 212 0 0 0 0 0 0 0 120 169 0 0 0 144 144 0 0 0 236 224 0 0 197 0 0 72 0 0 107 0 144 0 0 0 0 0 113 144 113 0 0 0 0 0 0 0 0 0 0 0 0 0 0 0 0 0 0 0 0 0 0 0 0 0 0 0 0 144 0 152 120 169 120 120 212 0 212 160 160 152 0 144 72 0 0 113 113 163 163 0 107 76 222 160 101 160 104 76 146 72 113 0 152 0 120 161 0 120 169 0 76 0 0 0 148 106 106 0 0 120 0 212 0 0 0 0 0 0 0 0 0 0 0 0 0 0 0 0 0 0 0 0 0 0 0 0 0 0 0 0 0 0 0 0 0 0 0 0 0 0 0 0 0 0 0 0 0 0 0 0 0 0 0 0 0 0 0 0 0 0 0 0 0 0 0 0 0 0 0 0 0 0 0 0 0 0 0 0 0 0 0 0 0 0 0 0 0 0 113 160 160 144 152 113 0 0 0 113 144 144 212 0 0 0 0 0 220 0 0 0 0 191 152 152 152 152 152 152 152 152 152 152 152 152 152 152 152 152 152 152 120 0 0 0 0 0 0 0 0 0 0 0 0 0 0 0 0 0 0 0 0 0 74 167 167 74 0 0 0 106 106 0 74 106 148 0 108 108 72 252 252 72 108 80 82 0 163 0 0 0 0 0 0 0 0 0 0 0 0 0 0 0 0 0 0 0 0 0 0 0 0 0 0 0 0 0 0 0 0 0 0 0 0 0 0 0 0 0 0 144 144 0 144 144 0 72 113 0 144 0 0 0 0 0 72 72 72 72 72 113 0 0 72 0 0 72 0 0 144 97 211 74 74 0 0 0 120 169 0 0 0 0 0 72 0 72 0 0 0 0 0 0 0 0 0 0 0 0 0 0 0 0 0 0 0 0 76 76 120 152 169 120 120 152 152 0 0 0 76 0 0 0 0 0 0 0 0 0 0 0 0 0 0 0 76 152 0 161 107 107 161 0 76 0 0 0 0 0 0 0 0 152 0 212 106 0 0 0 0 0 0 0 0 0 0 0 0 0 0 0 0 0 0 0 0 0 0 0 0 0 0 0 0 0 0 0 0 0 0 0 0 0 
0 0 0 74 167 167 74 74 106 74 0 0 167 106 167 0 167 106 74 0 212 0 0 0 0 0 0 0 120 169 0 0 0 160 113 0 0 0 0 247 194 203 180 81 116 72 0 189 218 0 113 0 0 0 0 0 0 0 0 0 0 0 0 0 0 0 0 0 0 0 0 0 0 0 0 0 0 0 0 0 0 0 0 0 0 0 0 113 0 212 161 120 120 169 0 169 167 101 0 72 113 160 0 0 0 0 72 113 220 0 107 0 0 144 0 152 152 74 117 116 0 113 209 167 0 0 0 0 169 120 74 187 220 97 216 163 241 120 0 0 212 0 212 113 0 0 0 0 0 0 0 0 0 0 0 0 0 0 0 0 0 0 0 0 0 0 0 0 0 0 0 0 0 0 0 0 0 0 0 0 0 0 0 0 0 0 0 0 0 0 0 0 0 0 0 0 0 0 0 0 0 0 0 0 0 0 0 0 0 0 0 0 0 0 0 0 0 0 0 0 0 0 0 0 0 0 0 72 72 0 113 144 101 101 144 144 160 160 144 144 155 117 0 0 0 76 0 169 0 0 0 0 0 0 0 0 0 0 0 0 0 0 0 0 0 0 0 0 0 0 0 0 0 0 0 0 0 0 0 0 0 0 0 0 0 0 0 0 0 0 0 0 0 0 74 167 212 212 212 167 74 0 106 0 74 224 212 212 212 212 212 212 212 0 148 229 0 215 97 234 104 0 0 0 0 0 0 0 0 0 0 0 0 0 0 0 0 0 0 0 0 0 0 0 0 0 0 0 0 0 0 0 0 0 0 0 0 0 0 144 144 0 144 144 0 0 113 72 113 0 72 0 0 0 0 113 72 0 0 144 0 0 0 72 0 0 72 0 185 216 183 167 0 0 0 0 152 152 0 0 0 0 0 0 72 0 0 0 0 0 0 0 0 0 0 0 0 0 0 0 0 0 0 0 0 0 0 0 0 0 0 76 0 120 161 152 152 169 120 107 76 0 0 0 0 0 76 0 0 0 0 0 0 0 120 169 76 169 76 169 0 161 120 120 0 0 0 0 0 0 0 152 0 212 106 0 0 0 0 0 0 0 0 0 0 0 0 0 0 0 0 0 0 0 0 0 0 0 0 0 0 0 0 0 0 0 0 0 0 0 0 0 
0 0 0 0 0 0 0 167 106 167 0 0 74 106 74 0 74 106 167 0 212 0 0 0 0 0 0 0 0 169 120 0 113 160 0 104 83 0 180 0 73 234 136 163 0 0 235 163 0 212 0 0 0 0 0 0 0 0 72 0 0 0 0 0 0 0 0 0 0 0 0 0 0 0 0 0 0 0 0 0 0 0 0 0 0 0 0 0 212 209 120 0 0 161 161 120 152 113 113 160 152 113 0 0 0 0 0 113 212 158 107 107 0 144 0 0 160 222 120 161 116 113 163 0 212 0 0 0 120 169 116 113 113 185 0 0 0 218 161 92 148 0 0 0 206 0 0 0 0 0 0 0 0 0 0 0 0 0 0 0 0 0 0 0 0 0 0 0 0 0 0 0 0 0 0 0 0 0 0 0 0 0 0 0 0 0 0 0 0 0 0 0 0 0 0 0 0 0 0 0 0 0 0 0 0 0 0 0 0 0 0 0 0 0 0 0 0 0 0 0 0 0 0 0 0 0 0 0 113 144 144 113 72 113 113 72 101 0 0 0 0 120 152 152 152 76 120 120 0 0 0 0 0 0 0 0 0 0 0 0 0 0 0 0 0 0 0 0 0 0 0 0 0 0 0 0 0 0 0 0 0 0 0 0 0 0 0 0 0 0 0 0 0 0 0 0 0 0 0 0 0 0 74 106 167 212 0 0 0 0 0 0 0 74 167 252 113 236 0 0 241 68 163 0 0 0 0 0 0 0 0 0 0 0 0 0 0 0 0 0 0 0 0 0 0 0 0 0 0 0 0 0 0 0 0 0 0 0 0 113 160 0 144 144 0 0 0 72 0 72 0 72 0 0 0 0 0 113 0 144 0 0 72 0 0 72 0 0 0 0 0 212 0 0 0 0 152 152 0 0 0 0 0 0 0 0 0 0 0 0 0 0 0 0 0 0 0 0 0 0 0 0 0 0 0 0 0 0 0 0 0 0 0 0 120 152 152 120 107 120 152 169 152 152 152 169 152 161 0 0 0 76 0 0 120 161 107 107 161 120 76 120 107 120 0 0 0 0 0 0 0 152 0 237 74 0 0 0 0 0 0 0 0 0 0 0 0 0 0 0 0 0 0 0 0 0 0 0 0 0 0 0 0 0 0 0 0 0 0 0 0 0 
0 0 0 0 0 0 0 167 106 167 0 0 0 74 167 167 74 0 167 106 106 106 74 0 0 0 0 0 0 169 120 0 160 72 163 136 0 131 0 73 0 136 163 72 113 72 69 178 97 144 0 0 0 0 0 0 0 72 0 72 0 0 0 0 0 0 0 0 0 0 0 0 0 0 0 0 0 0 0 0 0 0 0 0 0 0 0 0 212 155 0 0 0 0 169 0 169 185 113 113 113 0 0 0 0 0 0 0 152 206 167 167 212 113 0 0 212 0 107 161 212 212 72 212 0 161 0 0 0 161 212 206 152 0 0 0 152 212 0 0 92 203 223 0 136 0 163 0 0 0 0 0 0 0 0 0 0 0 0 0 0 0 0 0 0 0 0 0 0 0 0 0 0 0 0 0 0 0 0 0 0 0 0 0 0 0 0 0 0 0 0 0 0 0 0 0 0 0 0 0 0 0 0 0 0 0 0 0 0 0 0 0 0 0 0 0 0 0 0 0 0 0 0 0 0 0 0 0 0 0 113 113 113 0 152 113 113 0 0 0 0 0 0 120 152 169 161 0 0 0 0 0 0 0 0 0 0 0 0 0 0 0 0 0 76 0 0 0 0 0 0 0 0 0 0 0 0 0 0 0 0 0 0 0 0 0 0 0 0 0 0 0 0 0 0 0 0 0 0 0 0 0 0 0 212 212 0 0 0 0 0 0 0 0 0 0 0 74 167 0 213 0 241 95 163 0 0 0 0 0 0 0 0 0 0 0 0 0 0 0 0 0 0 0 0 0 0 0 0 0 0 0 0 0 0 0 0 0 0 0 160 113 144 144 0 0 0 0 0 72 0 72 0 0 0 0 113 113 113 113 0 0 0 72 0 0 0 0 0 252 0 212 0 0 0 0 169 120 0 0 0 0 0 0 76 0 0 0 0 0 0 0 0 0 0 0 0 0 0 0 0 0 0 0 0 0 0 0 0 0 0 0 0 0 0 0 0 0 0 76 76 120 152 152 152 120 76 161 169 152 169 120 120 0 0 76 107 107 120 0 0 120 120 0 0 0 0 0 0 0 0 152 108 212 0 0 0 0 0 0 0 0 0 0 0 0 0 0 0 0 0 0 0 0 0 0 0 0 0 0 0 0 0 0 0 0 0 0 0 0 0 0 
0 0 0 0 0 0 0 106 74 149 74 0 0 106 106 106 106 0 74 106 106 106 167 0 0 0 0 0 120 169 0 72 113 236 224 247 73 0 73 0 132 0 72 0 0 163 241 180 202 144 0 0 0 0 0 0 0 72 0 101 0 0 0 0 0 0 0 0 0 0 0 0 0 0 0 0 0 0 0 0 0 0 0 0 0 0 0 113 0 117 120 0 0 0 120 120 107 0 206 113 0 0 72 0 0 0 0 0 0 152 152 0 144 72 0 206 0 212 0 158 209 164 113 72 212 212 161 0 0 76 120 167 0 206 0 0 0 113 212 136 78 74 106 197 131 97 0 163 0 0 0 0 0 0 0 0 0 0 0 0 0 0 0 0 0 0 0 0 0 0 0 0 0 0 0 0 0 0 0 0 0 0 0 0 0 0 0 0 0 0 0 0 0 0 0 0 0 0 0 0 0 0 0 0 0 0 0 0 0 0 0 0 0 0 0 0 0 0 0 0 0 0 0 0 0 0 0 0 0 152 160 101 0 0 113 101 113 0 120 120 0 0 161 169 152 120 0 0 0 0 0 0 76 0 0 0 0 0 0 0 0 0 0 76 0 76 0 0 0 0 0 0 0 0 0 0 0 0 0 0 0 0 0 0 0 0 0 0 0 0 0 0 0 0 0 0 0 0 0 0 0 0 74 167 224 167 0 0 0 0 0 0 0 0 0 0 0 0 0 0 74 217 148 0 0 215 0 104 0 0 0 0 0 0 0 0 0 0 0 0 0 0 0 0 0 0 0 0 0 0 0 0 0 0 0 0 0 0 0 0 144 144 144 144 0 0 0 0 0 72 0 72 0 0 0 0 144 72 144 72 0 0 72 0 0 0 0 0 0 252 0 212 0 0 0 76 152 76 0 0 0 76 0 76 0 107 0 0 0 0 0 0 0 0 0 0 0 0 0 0 0 0 0 0 0 0 0 0 0 0 0 0 0 0 0 0 0 0 0 0 0 0 0 0 0 0 0 0 120 152 120 120 120 161 152 169 161 120 0 0 0 0 0 0 0 0 0 0 0 0 0 152 0 237 74 0 0 0 0 0 0 0 0 0 0 0 0 0 0 0 0 0 0 0 0 0 0 0 0 0 0 0 0 0 0 0 0 0 0 0 74 0 
0 0 0 0 0 0 74 149 74 106 106 0 0 106 106 74 167 167 74 74 237 74 212 0 0 0 0 0 120 169 0 0 206 234 187 217 0 73 0 132 104 72 0 72 0 187 173 78 173 113 0 0 0 0 0 0 0 72 72 72 72 0 0 0 0 0 0 0 0 0 0 0 0 0 0 0 72 0 0 0 0 0 0 0 0 0 0 144 0 0 120 0 0 0 116 218 76 212 0 0 206 0 0 72 0 0 0 0 0 0 160 72 152 160 160 0 218 0 120 218 209 116 0 72 113 116 161 161 0 120 107 0 104 0 0 163 0 0 0 0 225 194 106 149 167 148 0 0 163 0 0 0 0 0 0 0 0 0 0 0 0 0 0 0 0 0 0 0 0 0 0 0 0 0 0 0 72 0 0 0 0 0 0 0 0 0 0 0 0 0 0 0 0 0 0 0 0 0 0 0 0 0 0 0 0 0 0 0 0 0 0 0 0 0 0 0 0 0 0 0 0 0 0 0 0 0 0 0 72 113 113 152 72 113 72 113 0 76 76 76 0 161 161 0 0 0 0 76 0 0 0 76 0 76 0 0 0 0 0 0 0 0 0 0 76 0 0 0 0 0 0 0 0 0 0 0 0 0 0 0 0 0 0 0 0 0 0 0 0 0 0 0 0 0 0 0 0 0 0 0 0 0 106 167 149 74 0 0 0 0 0 0 0 0 0 0 0 0 0 0 0 0 74 217 113 236 0 241 68 163 0 0 0 0 0 0 0 0 0 0 0 0 0 0 0 0 0 0 0 0 0 0 0 0 0 0 0 0 72 0 144 144 113 160 0 0 0 0 0 0 72 0 0 0 0 0 144 72 144 72 0 72 0 72 0 0 0 0 0 252 0 212 0 0 0 76 152 76 0 0 120 76 120 0 120 76 161 0 0 0 0 0 0 0 0 0 0 0 0 0 0 0 0 0 0 0 0 0 0 0 0 0 0 0 0 0 0 0 0 0 0 0 0 0 0 0 0 0 0 0 0 120 120 161 76 120 120 0 0 0 0 0 0 0 0 0 0 0 0 0 0 152 0 212 106 0 0 0 0 0 0 0 0 0 0 0 0 0 0 0 0 0 0 0 0 0 0 0 0 0 0 0 0 0 0 0 0 0 74 106 149 0 
0 0 0 0 0 0 106 74 167 167 74 0 0 106 106 0 0 106 106 106 167 149 167 0 0 0 0 0 76 152 0 190 133 130 0 167 81 0 132 104 0 0 72 0 0 104 0 109 236 0 0 0 0 0 0 0 0 72 72 72 72 0 0 0 0 0 0 0 0 0 0 0 0 0 0 113 72 113 0 0 0 0 0 0 0 0 0 144 185 120 76 161 76 104 74 216 218 0 120 212 0 72 72 0 0 0 0 0 0 0 144 185 117 163 113 191 152 0 218 167 101 101 0 72 101 0 0 161 169 161 158 222 234 76 215 0 160 113 0 104 136 90 223 240 240 92 104 0 0 163 0 0 0 0 0 0 0 0 0 0 0 0 0 0 0 0 0 0 0 0 0 0 0 0 0 72 0 72 0 0 0 0 0 0 0 0 0 0 0 0 0 0 0 0 0 0 0 0 0 0 0 0 0 0 0 0 0 0 0 0 0 0 0 0 0 0 0 0 0 0 0 0 0 0 0 0 0 0 0 101 0 0 72 113 0 72 0 0 120 120 76 120 76 152 120 0 76 0 76 0 0 0 76 0 0 0 0 0 0 0 0 0 0 76 0 0 0 0 0 0 0 0 0 0 0 0 0 0 0 0 0 0 0 0 0 0 0 0 0 0 0 0 0 0 0 0 0 0 0 0 74 106 74 212 74 106 74 0 0 0 0 0 0 0 0 0 0 0 0 0 0 0 0 0 0 74 0 213 0 241 95 163 0 0 0 0 0 0 0 0 0 0 0 0 0 0 0 0 0 0 0 0 0 0 0 0 0 113 72 113 144 144 0 160 113 0 0 0 0 0 0 0 0 0 0 0 144 0 160 0 0 0 72 0 0 0 0 0 0 217 0 212 0 0 0 120 169 0 0 0 152 0 169 0 120 120 120 120 0 0 0 0 0 0 0 0 0 0 0 0 0 0 0 0 0 0 0 0 0 0 0 0 0 0 0 0 0 0 0 0 0 0 0 0 0 0 0 0 0 0 0 0 76 0 0 0 0 0 0 0 0 0 0 0 0 0 0 0 0 0 0 152 0 237 74 0 0 0 0 0 0 0 0 0 0 0 0 0 0 0 0 0 0 0 0 0 0 0 0 0 0 0 0 0 0 0 0 0 106 0 106 0 
0 0 0 0 0 74 149 74 106 0 0 0 0 74 167 212 167 0 167 167 0 149 74 0 0 0 0 0 76 120 190 133 80 0 0 148 225 132 104 0 0 0 0 0 0 0 113 113 0 0 0 0 0 0 0 0 0 72 113 101 113 0 0 0 0 0 0 0 0 0 0 0 0 0 0 144 0 160 0 0 0 0 0 0 0 0 0 113 152 209 167 120 0 0 164 0 0 212 0 120 0 212 0 0 0 0 0 0 0 0 160 234 76 120 0 169 120 120 0 163 101 101 101 101 152 0 0 0 120 120 116 113 163 0 150 150 101 113 72 0 163 0 212 76 120 161 0 92 82 136 104 0 0 0 0 0 0 0 0 0 0 0 0 0 0 113 113 0 0 0 0 0 0 0 0 0 72 0 0 0 0 0 0 0 0 0 0 0 0 0 0 0 0 0 0 0 0 0 0 0 0 0 0 0 0 0 0 0 0 0 0 0 0 0 0 0 0 0 0 0 0 0 0 0 0 0 0 0 0 72 113 113 144 113 0 0 72 0 0 0 152 0 161 152 169 161 0 0 0 76 76 0 0 0 0 0 76 0 0 0 0 0 76 0 76 0 0 0 0 0 0 0 0 0 0 0 0 0 0 0 0 0 0 0 0 0 0 0 0 0 0 0 0 0 0 0 0 0 0 0 167 167 212 224 74 0 106 0 0 0 0 0 0 0 0 0 0 0 0 0 0 0 0 0 0 0 0 74 217 148 0 0 215 0 104 0 0 0 0 0 0 0 0 0 0 0 0 0 0 0 0 0 0 0 0 0 0 144 0 144 144 144 0 144 144 0 0 0 0 0 0 0 0 0 0 0 144 0 144 0 0 0 0 0 0 0 0 113 0 145 0 212 0 0 0 152 152 0 0 0 152 120 169 120 0 169 0 161 152 120 0 0 0 0 0 0 0 0 0 0 0 0 0 0 0 0 0 0 0 0 0 0 0 0 0 0 0 0 0 0 0 72 0 0 0 0 0 0 0 0 0 0 0 0 0 0 0 0 0 0 0 0 0 0 0 0 0 0 0 0 0 152 108 212 0 0 0 0 0 0 0 0 0 0 0 0 0 0 0 0 0 0 0 0 0 0 0 0 0 0 0 0 0 0 0 0 0 0 106 74 149 0 
0 0 0 0 0 167 224 237 224 74 0 0 0 74 167 167 74 106 0 0 106 106 0 0 0 0 0 0 0 167 80 0 0 0 180 136 0 104 0 72 0 0 0 0 0 206 231 206 113 0 0 0 0 0 0 0 0 0 152 72 113 0 0 0 0 0 0 0 0 0 0 0 0 0 0 113 113 113 113 0 0 0 0 0 0 0 0 0 113 212 0 117 76 0 0 155 72 0 212 0 167 0 0 104 0 0 0 0 0 72 144 189 76 76 161 161 0 218 0 101 152 101 101 101 101 160 144 113 0 0 74 213 155 155 213 116 101 113 72 0 72 185 236 0 120 169 236 252 146 213 0 104 0 0 0 0 0 0 0 0 0 0 0 0 72 72 72 72 0 0 0 0 0 0 0 0 0 0 0 0 0 0 0 0 0 0 0 0 0 0 0 0 0 0 0 0 0 0 0 0 0 0 0 0 0 0 0 0 0 0 0 0 0 0 0 0 0 0 0 0 0 0 0 0 0 0 0 0 0 0 152 152 0 0 0 72 0 0 0 0 152 0 161 152 120 120 76 120 76 0 0 0 120 152 120 107 76 120 0 0 0 0 0 76 0 0 0 0 0 0 0 0 0 0 0 0 0 0 0 0 0 0 0 0 0 0 0 0 0 0 0 0 0 0 0 0 0 0 0 0 212 167 74 74 0 106 74 0 0 0 0 0 0 0 0 0 0 0 0 0 0 0 0 0 0 0 0 0 0 74 217 113 236 0 241 68 163 0 0 0 0 0 0 0 0 0 0 0 0 0 0 0 0 0 0 0 0 144 0 144 144 144 0 144 144 0 0 0 0 0 0 0 0 0 0 0 144 0 144 0 0 0 0 0 0 0 0 144 0 108 0 212 0 0 0 152 152 0 76 76 169 120 120 161 152 161 107 120 152 161 120 0 0 0 0 0 0 0 0 0 0 0 0 0 0 0 0 0 0 0 0 72 0 0 0 72 0 0 0 72 0 0 72 0 0 0 0 0 0 0 0 0 0 0 0 0 0 0 0 0 0 0 0 0 0 0 0 0 0 0 0 152 0 237 74 0 0 0 0 0 0 0 0 0 0 0 0 0 0 0 0 0 0 0 0 0 0 0 0 0 0 0 0 0 0 0 0 74 224 237 167 0 
0 0 0 0 0 167 224 167 167 106 0 0 0 167 224 224 74 74 167 212 167 74 0 0 0 0 0 74 167 237 224 0 80 184 132 206 0 0 72 0 72 0 0 0 163 0 150 0 144 0 0 0 0 0 0 0 0 0 0 113 0 113 0 0 0 0 0 0 0 0 0 0 0 0 0 0 160 0 160 0 0 0 0 0 0 0 0 0 0 0 206 0 74 76 120 155 234 155 0 191 76 118 0 0 144 144 113 0 0 101 113 148 0 120 161 0 120 0 212 0 0 152 101 101 101 72 113 101 101 0 120 150 0 155 101 144 113 0 187 163 101 0 167 120 120 0 150 163 239 0 136 0 0 0 0 0 0 0 0 0 0 0 0 0 0 113 113 0 0 0 0 0 0 0 0 0 0 0 0 0 0 0 0 0 0 0 0 0 0 0 0 0 0 0 0 0 0 0 0 0 0 0 0 0 0 0 0 0 0 0 0 0 0 0 0 0 0 0 0 0 0 0 0 0 0 0 0 0 0 0 0 160 113 0 0 0 0 0 0 0 120 107 0 120 120 0 0 120 0 107 76 0 76 0 76 0 76 120 0 0 0 0 0 0 0 0 0 0 0 0 0 0 0 0 0 0 0 0 0 0 0 0 0 0 0 0 0 0 0 0 0 0 0 0 0 0 0 0 0 0 212 212 167 106 167 0 0 0 0 0 0 0 0 0 0 0 0 0 0 0 0 0 0 0 0 0 0 0 0 0 0 0 74 0 213 0 241 95 163 0 0 0 0 0 0 0 0 0 0 0 0 0 0 0 0 0 0 113 72 113 113 160 0 144 144 0 0 0 0 0 0 0 0 0 0 0 113 72 113 0 0 0 0 0 0 0 0 144 0 0 106 167 0 0 0 152 152 120 76 76 169 0 0 120 152 120 0 0 0 152 152 0 76 0 0 0 0 76 0 0 0 0 0 0 0 0 0 0 0 0 72 0 72 0 101 0 72 0 72 0 0 0 0 113 113 0 0 0 0 0 0 0 0 0 0 0 0 0 0 0 0 0 0 0 72 0 0 0 0 113 113 191 211 237 167 0 0 0 0 0 0 0 0 0 0 0 0 0 0 0 0 0 0 0 0 0 0 0 0 0 0 0 0 0 0 0 0 167 237 74 0 0 
0 0 0 74 106 0 167 212 167 74 0 0 0 167 224 224 74 0 106 0 0 0 0 0 0 0 74 224 237 106 148 137 184 83 206 0 0 0 0 0 0 0 0 104 136 82 210 0 113 0 0 0 0 0 0 0 0 0 0 113 72 113 0 0 0 0 0 0 0 0 0 0 0 0 0 0 144 113 160 113 0 0 0 0 0 0 0 0 0 0 0 206 206 0 107 0 0 155 155 213 158 169 150 209 0 0 0 0 0 0 146 167 161 120 0 0 218 0 113 0 113 72 101 115 164 206 0 0 113 152 167 107 150 213 101 0 72 187 155 0 222 0 130 211 0 104 146 0 210 104 0 208 0 0 0 0 0 0 0 0 0 0 0 0 0 0 0 0 0 0 0 0 0 0 0 0 0 0 0 0 0 0 0 0 0 0 0 0 0 0 0 0 0 0 0 0 0 0 0 0 0 0 0 0 0 0 0 0 0 0 0 0 0 0 0 0 0 0 0 0 0 0 0 0 0 0 0 0 0 0 0 113 160 0 0 0 0 0 0 0 0 120 169 169 169 120 0 0 107 0 0 0 120 152 76 0 0 0 0 0 0 0 0 0 0 0 0 0 0 0 0 0 0 0 0 0 0 0 0 0 0 0 0 0 0 0 0 0 0 0 0 0 0 0 0 0 0 0 0 0 212 212 167 106 167 0 0 0 0 0 0 0 0 0 0 0 0 0 0 0 0 0 0 0 0 0 0 0 0 0 0 0 0 0 74 217 148 0 0 191 236 0 0 0 0 0 0 0 0 0 0 0 0 0 0 0 0 0 72 0 0 160 113 144 144 0 0 0 0 0 72 0 0 0 0 0 0 72 0 0 0 0 0 0 0 0 0 144 0 211 106 74 0 0 0 152 152 152 0 0 152 0 0 0 0 0 0 0 0 120 169 0 0 76 0 0 76 0 76 0 0 0 0 0 0 0 0 0 0 0 0 72 0 72 0 101 0 72 0 101 0 72 72 72 72 72 0 0 0 0 0 0 113 144 144 113 0 0 0 0 0 0 0 72 0 72 0 0 152 113 113 224 152 212 212 0 0 0 0 0 0 0 0 0 0 0 0 0 0 0 0 0 0 0 0 0 0 0 0 0 0 0 0 0 0 0 74 237 167 0 0 0 
0 0 0 106 74 167 212 212 167 106 106 74 0 74 167 167 106 106 74 74 106 74 0 74 106 74 167 237 0 0 137 0 236 160 0 0 0 72 0 72 0 0 0 234 172 0 126 0 0 0 0 0 0 0 0 0 0 0 0 0 72 0 0 0 0 0 0 0 0 0 0 0 0 0 0 0 144 144 113 160 0 0 0 0 0 0 0 0 0 0 0 0 231 222 76 0 117 231 72 160 163 161 120 0 76 0 74 222 0 192 169 161 120 0 0 212 0 206 0 113 152 160 101 187 72 213 113 0 0 144 116 120 120 74 152 152 0 185 0 118 0 131 236 0 152 168 0 0 132 207 146 106 224 163 0 0 0 0 0 0 0 0 0 0 0 0 0 0 0 0 0 0 0 0 0 0 0 0 0 0 0 0 0 0 0 0 0 0 0 0 0 0 0 0 0 0 0 0 0 0 0 0 0 0 0 0 0 0 0 0 0 0 0 0 0 0 0 0 0 0 0 0 0 0 0 0 0 0 0 0 0 0 113 113 0 0 0 0 0 0 120 120 0 120 76 120 107 76 0 76 0 0 0 0 120 76 120 0 0 0 0 0 0 0 0 0 0 0 0 0 0 0 0 0 0 0 0 0 0 0 0 0 0 0 0 0 0 0 0 0 0 0 0 0 0 0 0 0 0 0 167 224 106 74 74 0 0 0 0 0 0 0 0 0 0 0 0 0 0 0 0 0 0 0 0 0 0 0 0 0 0 0 0 0 0 0 74 217 113 0 0 95 163 0 0 0 0 0 0 0 0 0 0 0 0 0 0 0 0 0 0 144 144 144 144 0 0 0 0 72 0 72 0 0 0 0 113 113 0 0 0 0 0 0 0 0 0 144 0 152 0 0 0 0 0 152 120 169 76 76 120 0 0 0 0 0 76 0 0 0 161 120 76 120 120 0 76 0 107 0 0 0 0 0 0 0 0 0 0 0 0 0 0 0 72 0 72 0 72 0 72 0 72 0 101 0 0 0 0 72 0 72 113 72 0 72 72 0 0 0 0 0 0 0 72 0 0 152 152 72 160 191 152 212 212 0 0 0 0 0 0 0 0 0 0 0 0 0 0 0 0 0 0 0 0 0 0 0 0 0 0 0 0 0 0 74 224 224 74 0 161 0 
0 0 0 74 149 74 0 0 106 0 0 106 0 0 0 0 0 0 0 167 167 237 212 237 167 167 167 224 0 130 236 0 144 144 0 0 0 0 72 0 72 72 163 0 237 0 136 163 0 0 0 0 0 0 0 0 0 0 0 0 0 0 0 0 0 0 0 0 0 0 0 0 0 0 0 0 144 144 72 144 72 0 0 0 0 0 0 0 0 0 0 0 163 0 158 76 120 146 152 101 101 185 220 220 0 0 218 169 152 120 0 107 0 0 161 0 212 0 72 72 160 0 160 0 213 116 116 231 163 113 72 0 0 0 0 101 160 152 189 218 203 0 167 0 76 0 232 213 0 132 0 146 175 136 104 0 0 0 0 0 0 0 0 0 0 72 0 0 0 0 0 0 0 0 0 0 0 0 0 0 0 0 0 0 0 0 0 0 0 0 0 0 0 0 0 0 0 0 0 0 0 0 0 0 0 0 0 0 0 0 0 0 0 0 0 0 0 0 0 0 0 0 0 0 0 0 0 0 0 0 72 0 101 113 0 0 0 0 0 76 76 76 76 0 161 161 0 76 107 76 120 0 76 0 120 76 120 0 0 0 0 0 0 0 0 0 0 0 0 0 0 0 0 0 0 0 0 0 0 0 0 0 0 0 0 0 0 0 0 0 0 0 0 0 0 0 0 0 74 106 74 106 106 106 0 0 0 0 0 0 0 0 0 0 0 0 0 0 0 0 0 0 0 0 0 0 0 0 0 0 0 0 0 0 0 0 0 0 0 128 131 0 241 83 104 0 0 0 0 0 0 0 0 0 0 0 0 0 0 0 0 144 144 144 144 0 0 0 72 0 72 0 0 0 0 113 101 113 72 0 0 0 0 0 0 0 0 144 0 152 0 0 0 0 0 152 0 169 76 76 0 0 0 76 0 120 76 120 0 0 0 107 76 120 169 161 0 76 76 76 0 0 0 0 0 0 0 0 0 0 0 0 0 0 0 0 0 72 0 0 0 0 72 0 72 0 113 113 101 113 152 0 144 0 152 113 0 0 0 0 0 0 0 0 0 0 113 160 0 144 113 158 218 252 212 0 0 0 0 0 0 0 0 0 0 0 0 0 0 0 0 0 0 0 0 0 0 0 0 0 0 0 0 0 74 224 224 74 0 120 218 0 
0 0 0 0 74 167 212 212 167 106 106 74 0 0 0 0 0 0 74 237 149 167 212 167 167 212 74 167 0 242 0 0 113 152 113 0 0 0 0 152 144 185 0 215 107 0 206 0 0 0 0 0 0 0 0 0 0 0 0 0 0 0 113 113 0 0 0 0 0 0 0 0 0 0 0 0 144 144 72 113 101 0 0 0 0 0 0 0 0 0 0 0 0 206 0 0 169 104 113 113 72 113 144 144 144 160 212 0 0 0 0 212 76 212 0 155 101 113 0 0 144 72 113 101 0 113 213 0 164 0 72 0 72 0 0 0 72 113 0 222 213 131 80 113 0 0 234 116 101 0 132 210 76 157 83 0 0 0 0 0 0 0 0 0 72 0 72 0 0 0 0 0 0 0 0 0 0 0 0 0 0 0 0 0 0 0 0 0 0 0 0 0 0 0 0 0 0 0 0 0 0 0 0 0 0 0 0 0 0 0 0 0 0 0 0 0 0 0 0 0 0 0 0 0 0 0 0 0 0 0 0 101 101 101 0 0 0 0 0 0 120 120 0 161 161 0 120 120 120 76 161 120 0 76 0 76 0 0 0 0 0 0 0 0 0 0 0 0 0 0 0 0 0 0 0 0 0 0 0 0 0 0 0 0 0 0 0 0 0 0 0 0 0 0 0 0 0 0 106 0 74 224 167 74 0 0 0 0 0 0 0 0 0 0 0 0 0 0 0 0 0 0 0 0 0 0 0 0 0 0 0 0 0 0 0 0 0 0 0 0 74 217 148 0 224 236 0 0 0 0 0 0 0 0 0 0 0 0 0 113 113 113 144 144 144 0 0 72 0 72 0 0 0 0 0 113 113 152 0 0 0 0 0 0 0 0 0 185 0 120 0 0 0 0 0 152 0 152 0 0 0 0 76 0 76 120 76 120 0 0 0 76 0 76 0 169 76 107 0 0 76 0 0 0 0 76 0 0 0 0 0 0 0 0 0 0 0 0 0 0 0 0 0 72 0 72 113 101 0 113 152 144 152 113 113 72 0 0 0 0 0 0 0 0 0 0 113 160 0 113 113 155 0 0 212 0 0 0 0 0 0 0 0 0 0 0 0 0 0 0 0 0 0 0 0 0 0 0 0 0 0 74 167 212 237 224 128 120 152 212 0 0 
0 0 0 0 0 0 0 0 0 0 0 0 0 0 0 74 106 74 106 167 149 74 74 167 224 167 0 0 120 161 120 0 0 101 113 72 0 0 152 152 186 127 0 175 0 206 0 0 0 0 0 0 0 0 0 0 0 0 0 0 0 72 72 0 113 144 113 0 0 0 0 0 0 0 0 0 144 144 0 113 152 113 0 0 0 0 0 72 0 0 0 0 0 0 0 0 0 161 0 0 152 160 113 0 0 0 113 144 144 144 206 0 76 0 206 113 72 72 113 0 160 0 0 113 160 101 155 213 0 148 74 113 72 72 101 0 72 0 144 113 114 112 206 0 161 144 144 113 0 72 104 83 207 0 210 0 0 0 0 0 0 0 0 0 0 72 0 0 0 0 0 0 0 0 0 0 0 0 0 0 0 0 0 0 0 0 0 0 0 0 0 0 0 0 0 0 0 0 0 0 0 0 0 0 0 0 0 0 0 0 0 0 0 0 0 0 0 0 0 0 0 0 0 0 0 0 0 0 0 0 0 0 101 113 72 0 0 0 0 0 0 0 76 120 120 152 161 107 76 0 76 0 107 0 0 0 0 0 0 0 0 120 120 0 0 0 0 0 0 0 0 0 0 0 0 0 0 0 0 0 0 0 0 0 0 0 0 0 0 0 0 0 0 0 0 0 0 0 74 106 149 237 74 0 0 0 0 0 0 0 0 0 0 0 0 0 0 0 0 0 0 0 0 0 0 0 0 0 0 0 0 0 0 0 0 0 0 0 0 0 0 0 74 0 247 0 95 163 0 0 0 0 0 0 0 0 0 72 0 72 72 72 144 144 144 0 0 0 72 0 0 0 0 0 0 0 72 0 0 0 0 0 72 0 0 0 0 0 0 0 0 0 0 0 0 152 0 152 0 0 0 0 0 76 0 0 76 0 0 0 0 76 0 0 120 161 120 120 76 76 120 161 76 76 107 76 120 0 0 0 0 0 0 0 0 0 0 0 0 0 0 0 0 0 0 0 160 0 72 113 0 72 0 113 101 0 72 0 0 0 76 0 0 0 0 0 0 160 113 0 0 234 0 252 212 0 0 0 0 0 0 0 0 0 0 0 0 0 0 0 0 0 0 0 0 0 0 0 0 0 0 167 224 212 167 128 161 169 191 0 206 0 
0 0 0 0 0 0 0 0 0 0 0 0 0 0 0 106 0 106 106 106 106 106 167 224 167 74 0 0 0 107 120 76 0 152 152 0 0 152 101 0 0 0 0 153 206 0 0 0 0 0 0 0 0 0 0 0 0 0 0 0 0 0 101 72 113 144 152 113 0 0 0 0 0 0 0 0 144 144 0 0 144 144 0 0 0 0 152 113 113 0 0 0 0 0 104 0 0 0 120 120 104 113 160 152 0 0 113 113 0 0 144 0 76 0 144 0 160 116 213 146 113 0 0 72 0 152 101 101 213 74 107 163 72 113 0 72 0 0 113 160 222 0 0 0 0 185 144 72 0 0 113 72 0 173 197 0 236 0 0 0 0 0 0 0 0 0 0 0 0 0 0 0 0 0 0 0 0 0 0 0 0 0 0 0 0 0 0 0 0 0 0 0 0 0 0 0 0 0 0 0 0 0 0 0 0 0 0 0 0 0 0 0 0 0 0 0 0 0 0 0 0 0 0 0 0 0 0 0 0 0 0 0 72 144 72 0 0 0 0 0 0 0 0 120 152 120 0 0 120 169 169 120 0 0 0 0 0 0 0 0 161 120 120 76 0 0 0 0 0 0 0 0 0 0 0 0 0 0 0 0 0 0 0 0 0 0 0 0 0 0 0 0 0 0 0 0 0 0 0 0 106 212 106 0 0 0 0 0 0 0 0 0 0 0 0 0 0 0 0 0 0 0 0 0 0 0 0 0 0 0 0 0 0 0 0 0 0 0 0 0 0 0 0 0 128 131 0 224 0 0 0 0 0 0 0 0 72 0 0 113 113 113 144 144 144 0 0 0 0 0 0 0 0 0 0 0 0 0 0 0 0 72 0 72 0 0 0 0 0 0 0 0 0 0 0 152 0 152 0 0 0 0 0 0 0 0 76 0 0 0 0 76 0 0 76 0 120 161 0 0 120 120 76 120 120 0 152 0 0 0 0 0 0 0 0 0 0 0 0 0 0 0 0 0 0 0 113 101 0 0 113 113 0 72 113 101 0 0 0 120 120 161 0 0 0 0 0 160 113 0 113 0 191 212 212 0 0 0 0 0 0 0 0 0 0 0 0 0 0 0 0 0 0 0 0 0 0 0 0 0 74 237 167 0 0 161 161 104 152 152 0 0 
0 0 0 0 0 0 0 0 0 0 0 0 0 0 0 74 106 74 106 106 74 167 224 167 0 0 0 0 0 120 169 0 72 144 72 0 113 160 72 92 238 76 0 95 0 0 0 0 0 0 0 0 0 0 0 0 0 0 0 0 0 0 72 113 101 0 144 144 0 0 0 0 0 0 0 0 113 160 0 0 160 113 0 0 0 113 160 113 144 0 0 0 0 0 0 104 0 0 117 120 169 152 191 0 212 160 160 152 113 0 212 215 0 220 144 0 113 231 0 189 150 0 72 0 72 0 160 72 206 0 0 218 189 0 72 0 0 0 0 152 101 235 169 0 0 97 163 113 72 72 72 74 74 124 124 145 191 0 0 0 0 0 0 0 0 0 0 0 0 0 0 0 0 0 0 0 0 0 0 0 0 0 0 0 0 0 0 0 0 0 0 0 0 0 0 0 0 0 0 0 0 0 0 0 0 0 0 0 0 0 0 0 0 0 0 0 0 0 0 0 0 0 0 0 0 0 0 0 0 0 0 0 72 144 72 0 0 0 0 0 0 0 0 0 0 76 0 0 161 120 0 0 0 0 0 0 0 0 0 76 120 120 161 0 0 0 0 0 0 0 0 0 0 0 0 0 0 0 0 0 0 0 0 0 0 0 0 0 0 0 0 0 0 0 0 0 0 0 74 167 237 224 74 0 0 0 0 0 0 0 0 0 0 0 0 0 0 0 0 0 0 0 0 0 0 0 0 0 0 0 0 0 0 0 0 0 0 0 0 0 0 0 0 0 0 74 217 187 0 83 104 0 0 0 0 0 0 72 0 0 0 160 113 144 144 0 0 0 0 0 0 0 0 0 0 0 113 113 0 0 0 0 72 0 0 0 0 0 0 0 0 0 0 0 0 120 76 120 0 0 0 0 0 0 0 76 0 76 0 0 0 0 76 76 120 152 152 120 120 76 152 76 0 76 0 107 120 0 76 0 0 0 0 0 0 0 0 0 0 0 0 0 0 0 0 0 0 113 160 144 113 101 113 113 113 72 0 120 120 120 120 161 161 0 0 0 113 160 0 0 144 0 152 212 212 0 0 0 0 0 0 0 0 0 0 0 0 0 0 0 0 0 0 0 0 0 0 0 0 74 224 224 74 0 161 212 163 160 152 0 0 0 
0 0 0 0 0 0 0 0 0 0 0 0 0 0 0 0 74 167 167 0 167 212 167 74 0 0 0 0 0 152 152 0 72 144 72 0 160 72 160 0 216 240 216 185 0 0 0 0 0 0 0 0 0 0 0 0 0 0 0 0 0 0 0 113 152 113 144 144 0 0 0 0 0 0 0 0 0 160 113 72 144 72 0 0 0 144 144 144 144 0 0 0 0 0 0 0 0 206 0 167 0 0 120 218 0 146 0 144 113 206 0 218 169 0 72 72 0 206 0 163 0 107 104 72 0 0 113 160 0 0 0 0 169 218 0 72 0 0 0 0 72 74 150 0 158 197 235 185 0 0 113 164 72 0 243 167 208 163 0 0 0 0 0 0 0 0 0 0 0 0 0 0 0 0 0 0 0 0 0 0 0 0 0 0 0 0 0 0 0 0 0 0 0 0 0 0 0 0 0 0 0 0 0 0 0 0 0 0 0 0 0 0 0 0 0 0 0 0 0 0 0 0 0 0 0 0 0 0 0 0 0 0 72 144 72 0 0 0 0 0 0 0 0 0 0 0 76 120 120 76 0 0 0 0 0 0 0 0 0 107 0 107 0 0 0 0 0 0 0 0 0 0 0 0 0 0 0 0 0 0 0 0 0 0 0 0 0 0 0 0 0 0 0 0 0 0 0 0 167 224 167 74 0 0 0 0 0 0 0 0 0 0 0 0 0 0 0 0 0 0 0 0 0 0 0 0 0 0 0 0 0 0 0 0 0 0 0 0 0 0 0 0 0 0 0 0 0 128 131 0 213 179 0 0 0 0 0 0 0 0 72 144 0 160 113 0 0 0 0 0 0 0 0 0 0 72 72 72 72 0 0 0 0 0 0 0 113 0 191 0 74 106 74 0 0 0 76 0 0 0 0 0 0 0 0 0 76 0 0 0 0 0 0 0 0 0 0 0 152 0 169 120 0 0 107 0 76 120 76 120 0 0 76 0 0 0 0 0 0 0 0 0 0 0 0 0 0 0 0 72 0 0 113 113 0 72 76 76 0 107 120 0 169 120 0 0 113 160 0 0 144 0 211 237 167 0 0 0 0 0 0 0 0 0 0 0 0 0 0 0 0 0 0 0 0 0 0 0 0 167 237 74 0 161 212 206 160 113 0 0 0 0 
0 0 0 0 0 0 0 0 0 0 0 0 0 0 0 0 106 106 0 106 106 0 0 0 0 0 0 0 0 152 152 0 72 144 0 206 213 116 113 217 0 168 114 113 0 0 0 0 0 0 0 0 0 0 0 0 0 0 0 0 0 0 0 0 144 144 144 144 0 0 0 0 0 0 0 0 0 185 162 104 160 113 0 0 0 160 72 160 113 0 0 0 0 0 0 0 0 0 206 0 0 0 0 150 120 76 0 113 146 0 158 76 0 0 0 0 101 0 163 0 0 0 161 0 0 0 0 152 152 0 0 0 0 218 158 0 0 0 0 0 0 113 113 186 90 158 0 136 104 0 0 163 155 74 210 255 0 136 104 0 0 0 0 0 0 0 0 0 0 0 0 0 0 0 0 0 72 0 0 0 0 0 0 0 0 0 0 0 0 0 0 0 0 0 0 0 0 0 0 0 0 0 0 0 0 0 0 0 0 0 0 0 0 0 0 0 0 0 0 0 113 113 0 0 0 0 0 0 0 0 0 0 0 160 113 0 0 0 0 0 0 0 0 76 0 0 0 120 76 120 120 0 0 0 0 0 0 120 120 0 76 76 0 0 0 0 0 0 0 0 0 0 0 0 0 0 0 0 0 0 0 0 0 0 0 0 0 0 0 0 0 0 0 0 0 0 0 0 212 212 0 0 0 0 0 0 0 0 0 0 0 0 0 0 0 0 0 0 0 0 0 0 0 0 0 0 0 0 0 0 0 0 0 0 0 0 0 0 0 0 0 0 0 0 0 0 0 0 74 0 0 0 236 0 0 0 0 0 0 0 0 152 144 152 0 0 0 0 0 0 0 0 0 0 0 0 113 113 0 0 0 0 0 0 0 0 144 0 152 0 106 0 106 0 0 0 0 0 0 0 0 0 0 0 0 0 0 0 0 0 0 0 0 0 0 0 0 0 152 0 152 120 76 0 0 120 169 161 76 161 152 169 120 120 0 0 0 0 0 0 0 0 0 0 0 0 0 0 0 0 0 72 0 72 0 72 0 107 76 107 0 0 152 152 0 0 0 160 113 0 212 0 0 237 74 0 0 0 0 0 0 0 0 0 0 0 0 0 0 0 0 0 0 0 0 0 0 0 0 212 212 0 161 161 163 160 0 0 0 0 0 0 
0 0 0 0 0 0 0 0 0 0 0 0 0 0 0 0 106 74 167 167 0 106 74 0 0 0 0 0 0 152 152 0 0 152 185 0 150 0 0 0 150 229 0 0 0 0 0 0 0 0 0 0 0 0 0 0 0 0 0 0 113 144 113 0 144 144 144 144 0 0 0 0 0 0 0 0 0 0 155 120 144 144 0 0 152 101 101 152 0 0 0 0 0 0 0 0 113 113 0 113 144 185 0 0 222 74 0 0 158 120 215 0 0 163 0 101 0 101 0 0 0 0 78 120 0 0 0 0 152 152 146 0 161 76 161 120 0 0 0 76 146 152 115 117 0 105 139 207 132 104 0 0 152 101 0 0 139 219 0 0 0 0 0 0 0 0 0 0 0 0 0 0 0 0 0 113 72 113 0 0 0 0 0 0 0 0 0 0 0 0 0 0 0 0 0 0 0 0 0 0 0 0 0 0 0 0 0 0 0 0 0 0 0 0 0 0 0 0 0 72 72 72 72 0 0 0 0 0 0 0 0 113 113 113 144 0 0 0 0 0 0 0 76 0 76 0 76 76 0 107 120 0 0 0 0 0 120 161 107 107 120 0 0 0 0 0 0 0 0 0 0 0 0 0 0 0 0 0 0 0 0 0 0 0 0 0 0 0 0 0 0 0 0 0 0 0 0 0 167 224 212 212 167 74 0 0 0 0 0 0 0 0 0 0 0 0 0 0 0 0 0 0 0 0 0 0 0 0 0 0 0 0 0 0 0 0 0 0 0 0 0 0 0 0 0 0 0 0 0 0 179 234 0 0 0 0 0 0 0 0 0 0 72 0 0 0 0 0 0 0 0 0 0 0 0 0 0 0 0 0 0 0 0 0 0 0 144 0 152 0 74 106 74 0 0 0 0 0 0 0 0 0 0 0 0 0 0 0 0 0 0 0 0 0 0 0 0 0 120 76 120 0 76 107 76 107 120 76 0 0 0 76 76 152 0 0 0 76 0 0 0 0 0 0 0 0 0 0 0 0 0 0 0 72 0 72 0 76 120 107 0 0 152 152 0 0 0 113 152 160 0 0 0 167 0 0 0 0 0 0 0 0 0 0 0 0 0 0 0 0 0 0 0 0 0 0 0 0 74 237 167 120 169 104 160 113 0 0 0 0 0 0 
0 0 0 0 0 0 0 0 0 0 0 0 0 74 106 74 106 0 106 74 149 74 106 0 0 0 0 0 0 152 152 0 120 167 238 0 190 0 72 163 148 216 185 0 0 0 0 0 0 0 0 0 0 0 0 0 0 0 0 113 206 0 0 0 161 113 144 144 0 0 0 0 0 0 0 163 0 0 74 191 160 113 0 113 160 72 160 0 0 0 0 0 0 0 0 152 160 160 152 0 0 0 0 113 152 113 0 76 76 165 0 185 113 0 0 0 113 72 152 0 104 0 213 78 0 0 76 0 0 152 163 163 120 76 107 120 76 0 76 0 215 212 148 113 148 233 210 74 153 0 0 0 0 152 113 233 176 207 241 104 0 0 0 0 0 0 0 0 0 0 0 0 0 0 0 113 72 113 0 0 0 0 0 0 0 0 0 0 0 0 0 0 0 0 0 0 0 0 0 0 0 0 0 0 0 0 0 0 0 0 0 0 0 0 0 0 0 0 0 0 101 0 0 72 0 0 0 0 0 0 72 113 101 0 144 0 0 0 0 0 0 0 76 0 76 0 0 76 107 120 0 0 0 0 0 0 169 76 169 120 0 0 0 0 0 0 0 0 0 0 0 0 0 0 0 0 0 0 0 0 0 0 0 0 0 0 0 0 0 0 0 0 0 0 0 0 0 0 74 167 212 167 167 106 0 0 0 0 0 0 0 0 0 0 0 0 0 0 0 0 0 0 0 0 0 0 0 0 0 0 0 0 0 0 0 0 0 0 0 0 0 0 0 0 0 0 0 0 0 0 0 128 180 0 83 104 0 0 0 0 0 0 72 0 0 0 0 0 0 0 0 0 0 0 0 0 0 0 0 0 0 0 0 0 0 0 144 97 185 74 0 0 0 0 0 0 0 0 0 0 0 0 0 0 0 0 0 0 0 0 0 0 0 0 0 0 0 0 0 76 0 0 120 120 0 76 0 161 120 0 0 120 120 120 0 0 76 0 76 0 0 0 0 0 0 0 0 0 0 0 0 0 0 0 72 0 0 0 120 161 107 76 120 152 0 0 0 0 113 163 218 0 237 74 0 0 0 0 0 0 0 0 0 0 0 0 0 0 0 0 0 0 0 0 0 0 0 0 167 237 128 169 120 113 160 0 0 0 0 0 0 0 
0 0 0 0 0 0 0 0 0 0 0 0 0 167 106 149 74 74 74 106 106 106 106 0 0 0 0 0 0 152 152 120 107 107 0 183 91 191 0 210 220 95 113 0 0 0 0 0 0 0 0 0 0 0 0 0 0 0 0 113 213 155 0 234 0 191 216 0 0 185 144 144 144 185 0 0 163 74 158 0 152 0 0 113 152 152 113 0 0 0 0 0 0 0 152 152 0 101 113 72 0 0 0 0 160 163 107 74 163 164 146 0 0 0 0 0 113 113 101 152 0 116 232 0 76 76 0 107 0 74 218 191 76 107 120 76 107 0 0 120 104 0 0 213 163 115 132 140 76 134 236 0 0 0 101 116 176 207 225 83 0 0 0 0 0 0 0 0 0 0 0 0 0 0 0 0 72 0 0 0 0 0 0 0 0 0 0 0 0 0 0 0 0 0 0 0 0 0 0 0 0 0 0 0 0 0 0 0 0 0 0 0 0 0 0 0 0 0 0 0 113 113 144 113 113 0 0 0 0 0 72 144 72 0 160 0 0 0 0 0 76 0 76 0 120 169 120 0 152 0 0 0 0 0 0 107 76 120 161 0 0 0 0 0 0 0 0 0 0 0 0 0 0 0 0 0 0 0 0 0 0 0 0 0 0 0 0 0 0 0 0 0 0 0 0 0 0 0 0 74 167 237 224 74 0 0 0 0 0 0 0 0 0 0 0 0 0 0 0 0 0 0 0 0 0 0 0 0 0 0 0 0 0 0 0 0 0 0 0 0 0 0 0 0 0 0 0 0 0 0 0 0 128 131 0 132 104 0 0 0 0 72 0 113 113 0 0 0 0 0 0 0 0 0 0 0 0 0 0 0 0 0 0 0 0 0 144 202 185 167 0 0 0 0 0 0 0 0 0 0 0 0 0 0 0 0 0 0 0 0 0 0 0 0 0 0 0 0 0 0 0 76 76 0 107 120 76 120 76 0 76 0 0 107 0 0 0 76 0 0 0 0 0 0 0 0 0 0 0 0 0 0 0 0 0 0 0 0 0 120 107 76 107 120 0 0 0 0 0 120 169 252 212 0 0 0 0 0 0 0 0 0 0 0 0 0 0 0 0 0 0 0 0 0 0 0 0 0 212 212 120 169 104 160 113 0 0 0 0 0 0 0 
0 0 0 0 0 0 0 74 106 74 0 0 0 167 106 74 0 106 0 74 167 74 167 0 0 0 0 0 0 152 120 242 148 148 84 74 229 209 152 104 155 212 0 0 0 0 0 0 0 0 0 0 0 0 0 0 0 0 0 0 163 0 74 234 74 0 150 0 0 0 0 0 0 0 0 118 158 0 0 206 0 0 0 0 113 113 0 72 0 0 0 0 0 152 152 0 113 152 113 0 0 0 0 206 213 104 74 0 212 113 0 72 0 0 0 0 0 152 113 113 72 72 163 164 74 0 107 0 76 76 120 0 76 107 120 76 120 161 0 152 0 0 212 0 72 0 104 0 0 215 152 104 0 0 0 72 0 241 139 241 163 0 0 0 0 0 0 0 0 0 0 0 0 0 0 0 72 0 0 0 0 0 0 0 0 0 0 0 0 0 0 0 0 0 0 0 0 0 0 0 0 0 0 0 0 0 0 0 0 0 0 0 0 0 0 0 0 0 0 0 113 72 0 113 144 0 0 0 0 0 72 144 72 113 152 152 0 0 0 76 0 76 0 120 107 120 107 76 120 0 0 0 0 120 169 76 107 120 0 0 0 0 0 0 0 0 0 0 0 0 0 0 0 0 0 0 0 0 0 0 0 0 0 0 0 0 0 0 0 0 0 0 0 0 0 0 0 0 0 106 106 74 149 74 0 0 0 0 0 0 0 0 0 0 0 0 0 0 0 0 0 0 0 0 0 0 0 0 0 0 0 0 0 0 0 0 0 0 0 0 0 0 0 0 0 0 0 0 0 0 0 0 0 74 73 0 132 104 0 0 0 0 101 0 72 72 0 0 0 0 0 0 0 0 0 0 0 0 0 0 0 0 0 0 0 0 185 0 120 212 0 0 0 0 0 0 0 0 0 0 0 0 0 0 0 0 0 0 0 0 0 0 0 0 0 0 0 0 0 0 0 0 107 107 107 120 0 120 120 76 0 107 169 169 169 120 0 0 0 0 0 0 0 0 0 0 0 0 0 0 0 0 0 0 0 0 0 0 0 76 120 76 120 76 0 0 0 0 0 152 152 212 212 0 0 0 0 0 0 0 0 0 0 0 0 0 0 0 0 0 0 0 0 0 0 0 74 167 224 167 152 152 113 160 0 0 0 0 0 0 0 0 
0 0 0 0 74 167 212 237 212 224 74 0 0 74 106 106 106 74 0 0 167 106 167 0 0 0 0 0 0 120 120 0 240 0 203 78 241 104 144 72 113 160 0 0 0 0 0 0 0 0 0 0 0 0 0 0 0 0 0 0 0 0 163 0 0 0 0 191 120 0 0 0 76 0 120 212 0 160 113 0 113 113 0 0 0 0 72 0 72 0 0 0 152 152 0 0 160 113 0 0 0 0 113 231 0 163 231 206 0 0 72 0 0 0 0 0 0 72 0 0 0 0 113 160 152 0 0 76 0 0 76 161 0 152 0 161 107 107 161 120 120 212 0 163 0 0 0 0 97 74 140 213 179 0 0 0 104 241 253 194 95 0 0 0 0 0 0 0 0 0 0 0 0 0 0 113 72 113 0 0 0 0 0 0 0 0 0 0 0 0 0 0 0 0 0 0 0 0 0 0 0 0 0 0 0 0 0 0 0 0 0 0 0 0 0 0 0 0 0 113 101 0 72 144 144 0 0 0 0 0 0 152 72 113 0 144 72 0 0 0 76 0 0 152 152 0 0 76 0 0 0 120 169 169 76 120 120 0 0 0 0 0 0 0 0 0 0 0 0 0 0 0 0 0 0 0 0 0 0 0 0 0 0 0 0 0 0 0 0 0 0 0 0 0 0 0 0 0 0 74 167 212 237 224 74 0 0 0 0 0 0 0 0 0 0 0 0 0 0 0 0 0 0 0 0 0 0 0 0 0 0 0 0 0 0 0 0 0 0 0 0 0 0 0 0 0 0 0 0 0 0 0 0 0 74 73 0 132 104 0 0 0 0 113 113 0 0 0 0 0 0 0 0 0 0 0 0 0 0 0 0 0 0 0 0 0 0 0 0 212 0 0 0 0 0 0 0 0 0 0 0 0 0 0 0 0 0 0 0 0 0 0 0 0 0 0 0 0 0 0 0 0 76 0 107 0 76 76 0 120 76 169 0 0 76 161 107 120 120 0 0 0 0 0 0 0 0 0 0 0 0 0 0 0 0 0 0 0 0 120 169 76 169 107 120 120 0 0 0 169 120 212 212 0 0 0 0 0 0 0 0 0 0 0 0 0 0 0 0 0 0 0 0 0 0 0 167 224 167 74 152 152 144 144 0 0 0 0 0 0 113 0 
0 0 0 0 106 167 167 106 74 167 106 0 0 0 74 106 74 0 0 0 74 106 74 0 0 0 0 0 0 0 139 0 149 106 148 0 0 101 101 0 0 144 72 0 0 0 0 0 0 0 0 0 0 0 0 0 0 0 0 0 0 0 0 0 113 185 0 0 0 0 0 0 0 0 0 0 206 0 0 72 72 72 72 0 0 0 0 72 0 113 144 160 206 117 74 152 152 0 0 0 0 0 212 163 163 206 113 0 0 0 0 0 0 0 0 0 0 113 113 144 144 152 0 0 160 113 0 0 76 0 107 76 0 107 120 0 169 76 169 0 206 106 97 0 0 0 0 0 0 165 248 0 213 104 0 0 0 0 241 139 241 163 0 0 0 0 0 0 0 0 0 0 0 0 0 113 72 113 0 0 0 0 0 0 0 0 0 0 0 0 0 0 0 0 0 0 0 0 0 0 0 0 0 0 0 0 0 0 0 0 0 0 0 0 0 0 0 0 0 144 113 72 0 113 160 0 0 0 0 0 0 72 113 101 0 144 72 0 0 0 0 0 0 152 152 0 0 0 0 120 169 169 120 0 161 161 0 0 0 0 0 0 0 0 0 0 0 0 0 0 0 0 0 0 0 0 0 0 0 0 0 0 0 0 0 0 0 0 0 0 0 0 0 0 0 0 0 0 74 106 74 0 106 212 106 0 0 0 0 0 0 0 0 0 0 0 0 0 0 0 0 0 0 0 0 0 0 0 0 0 0 0 0 0 0 0 0 0 0 0 0 0 0 0 0 0 0 0 0 0 0 0 0 0 0 74 73 0 132 104 0 0 0 113 113 0 0 0 0 0 0 0 0 0 0 0 0 0 0 0 0 0 0 0 0 0 0 252 0 212 0 0 0 0 0 0 0 0 0 0 0 0 0 0 0 0 0 0 0 0 0 0 0 0 0 0 0 0 0 0 0 0 0 76 0 76 0 0 0 0 76 120 76 0 76 152 0 161 161 120 0 0 0 0 0 0 0 0 0 0 0 0 0 0 0 0 0 0 0 152 152 0 120 107 0 76 76 0 161 161 128 237 167 0 0 0 0 0 0 0 0 0 0 0 0 0 0 0 0 0 0 0 0 0 0 0 212 212 0 0 169 120 144 144 0 0 0 0 0 113 152 0 
0 0 0 0 74 224 237 237 237 167 74 0 74 106 74 0 106 0 0 0 0 0 0 0 0 0 0 0 0 76 197 237 74 74 100 216 116 113 113 144 144 152 0 0 0 0 0 0 0 0 0 0 0 0 0 0 0 0 0 0 0 0 0 0 0 0 0 113 144 144 144 185 220 185 144 113 0 0 0 0 113 113 0 0 0 0 0 113 160 160 144 113 117 0 213 152 0 0 0 0 0 113 0 117 0 144 0 0 0 0 0 0 0 0 0 0 0 144 113 72 72 152 152 0 113 152 144 113 104 107 0 76 0 0 76 76 152 152 152 120 0 120 0 0 113 0 0 179 133 160 0 194 0 83 0 0 72 0 241 253 216 68 0 0 0 0 0 0 0 0 0 0 0 0 0 0 72 0 0 0 0 0 0 0 0 0 0 0 0 0 0 0 0 0 0 0 0 0 0 0 0 0 0 0 0 0 0 0 0 0 0 0 0 0 0 0 0 0 0 144 144 0 0 0 160 113 0 0 0 0 0 72 113 101 101 160 113 0 0 0 0 0 76 120 152 0 0 76 107 161 120 0 120 169 161 0 0 0 0 0 0 0 0 0 0 0 0 0 0 0 0 0 0 0 0 0 0 0 0 0 0 0 0 0 0 0 0 0 0 0 0 0 0 0 0 0 0 0 106 0 106 74 224 224 0 106 74 0 0 0 0 0 0 0 0 0 0 0 0 0 0 0 0 0 0 0 0 0 0 0 0 0 0 0 0 0 0 0 0 0 0 0 0 0 0 0 0 0 0 0 0 0 0 0 0 0 74 73 0 83 0 0 72 113 101 113 0 0 0 0 0 0 0 0 0 0 0 0 0 0 0 0 0 0 0 0 0 252 0 212 0 0 0 0 0 0 0 0 0 0 0 0 0 0 0 0 0 0 0 0 0 0 0 0 0 0 0 0 0 0 0 0 0 0 0 0 76 76 76 0 0 76 0 76 0 152 0 169 120 152 0 0 0 0 0 0 0 0 0 0 0 0 0 0 0 0 0 0 0 120 169 0 76 76 0 76 76 120 169 0 167 237 74 0 0 0 0 0 0 0 0 0 0 0 0 0 0 0 0 0 0 0 0 0 74 167 224 167 0 120 169 104 160 113 0 0 0 0 0 144 144 0 
0 0 0 0 0 74 167 106 74 106 106 74 106 0 74 106 74 0 0 0 0 0 0 0 0 0 0 0 76 0 0 212 0 167 123 0 101 0 72 0 72 0 0 0 0 0 0 0 0 0 0 0 0 0 0 0 0 0 0 0 0 0 0 0 0 0 0 0 0 0 0 0 0 0 0 0 0 0 0 0 0 0 0 0 0 0 152 113 0 113 144 144 185 231 206 0 0 0 0 0 0 212 0 0 0 144 0 72 0 0 0 0 0 0 0 0 0 113 152 113 0 0 160 113 72 0 113 152 113 0 120 107 107 107 120 0 152 152 120 192 179 0 139 0 212 0 0 0 163 146 131 149 0 0 236 113 72 113 68 216 0 215 0 0 0 0 0 0 0 0 0 0 0 0 0 0 0 0 0 0 0 0 0 0 0 0 0 0 0 0 0 0 0 0 0 0 0 0 0 0 0 0 0 0 0 0 0 0 0 0 0 0 0 0 0 0 0 0 0 144 144 0 0 0 113 160 0 0 0 0 0 0 113 113 0 144 144 0 0 76 0 76 0 76 152 0 120 120 120 120 0 161 169 120 0 0 0 0 0 0 0 0 0 0 0 0 0 0 0 0 0 0 0 0 0 0 0 0 0 0 0 0 0 0 0 0 0 0 0 0 0 0 0 0 0 0 0 0 74 106 74 167 167 106 237 167 167 0 0 0 0 0 0 0 0 0 0 0 0 0 0 0 0 0 0 0 0 0 0 0 0 0 0 0 0 0 0 0 0 0 0 0 0 0 0 0 0 0 0 0 0 0 0 0 0 0 0 74 131 0 0 0 0 152 113 113 0 0 0 0 0 0 0 0 0 0 0 0 0 0 0 0 0 0 0 0 0 202 106 167 0 0 0 0 0 0 0 0 0 0 0 0 0 0 0 0 0 0 0 0 0 0 0 0 0 0 0 0 0 0 0 0 0 0 0 0 0 0 0 120 120 161 76 120 152 161 0 152 76 152 0 0 0 0 0 0 0 0 0 0 0 0 0 0 0 0 0 120 152 76 120 120 76 76 0 76 76 152 152 74 237 167 0 0 0 0 0 0 0 0 0 0 0 0 0 0 0 0 0 0 0 0 0 74 224 237 167 74 0 169 167 152 152 0 0 0 0 0 0 144 144 0 
0 0 0 0 0 0 0 167 106 106 106 167 74 106 74 0 74 106 74 0 0 0 0 0 0 0 0 0 0 139 0 167 0 252 115 117 222 0 0 206 0 0 0 0 0 0 0 0 0 0 0 0 0 0 0 0 0 0 0 0 0 0 0 0 0 0 0 0 0 0 113 113 0 0 0 0 0 0 0 0 0 0 0 0 0 72 113 113 160 144 144 144 144 113 0 0 0 0 0 0 113 0 218 107 0 212 0 0 0 72 0 0 0 72 0 0 0 0 113 160 152 0 113 160 101 72 113 144 144 0 120 169 76 169 0 0 120 120 0 236 117 0 158 158 0 206 0 0 0 0 0 0 106 247 224 101 0 144 163 0 74 0 236 0 0 0 0 0 0 0 0 0 0 0 0 0 0 0 0 0 0 0 0 0 0 0 0 0 0 0 0 0 0 0 0 0 0 0 0 0 0 0 0 0 0 0 0 0 0 0 0 0 113 113 0 0 0 0 0 144 144 0 0 0 0 160 113 0 0 0 0 0 0 0 0 160 113 0 76 0 107 0 76 120 152 0 152 120 76 0 161 161 0 0 0 0 0 0 0 0 0 0 0 0 0 0 0 0 0 0 0 0 0 0 0 0 0 0 0 0 0 0 0 0 0 0 0 0 0 0 0 0 0 0 0 0 0 0 0 0 0 167 167 167 0 149 167 0 0 0 0 0 0 0 0 0 0 0 0 0 0 0 0 0 0 0 0 0 0 0 0 0 0 0 0 0 0 0 0 0 0 0 0 0 0 0 0 0 0 0 0 0 0 0 0 0 0 0 128 180 0 0 0 0 72 0 0 0 0 0 0 0 0 0 0 0 0 0 0 0 0 0 0 0 0 0 0 0 106 74 0 0 0 0 0 0 0 0 0 0 0 0 0 0 0 0 0 0 0 0 0 0 0 0 0 0 0 0 0 0 0 0 0 0 0 0 0 0 0 120 107 120 0 120 120 76 0 76 107 120 0 0 0 76 0 0 0 0 0 0 0 0 0 0 0 0 120 161 152 169 120 120 0 107 0 76 76 152 152 167 237 74 0 0 0 0 0 0 0 0 0 0 0 0 0 0 0 0 0 0 0 0 0 167 237 74 0 0 120 169 163 160 0 0 0 0 0 0 113 152 113 0 
0 0 0 0 74 167 212 224 74 74 106 167 0 0 74 106 149 106 149 106 74 0 0 0 0 0 0 0 0 167 237 74 0 72 115 76 107 139 0 208 236 0 0 0 0 0 0 0 0 0 0 0 0 0 0 0 0 0 0 0 0 0 0 0 0 0 0 0 0 113 152 152 113 0 0 0 0 0 0 0 0 0 0 0 0 0 113 113 0 0 0 0 0 0 0 0 0 0 0 0 113 0 212 120 150 231 72 72 0 0 72 0 72 0 72 0 0 0 0 0 152 152 0 152 72 0 113 113 160 0 0 161 107 120 120 120 0 76 161 150 0 116 0 104 167 0 212 113 0 0 214 0 137 195 250 158 0 113 0 215 128 194 191 0 0 0 0 0 0 0 0 0 0 0 0 0 72 0 0 0 0 0 0 0 0 0 0 0 0 0 0 0 0 0 0 0 0 0 0 0 0 0 0 0 0 0 0 0 0 0 0 72 72 72 72 0 0 0 0 160 113 0 0 0 0 144 144 0 0 0 0 0 0 0 72 144 72 0 0 120 0 107 120 107 107 152 161 120 0 161 161 0 0 0 0 0 0 0 0 0 0 0 0 0 0 0 0 0 0 0 0 0 0 0 0 0 0 0 0 0 0 0 0 0 0 0 0 0 0 0 0 0 0 0 0 0 0 0 0 0 74 149 74 74 149 74 106 0 0 0 0 0 0 0 0 0 0 0 0 0 0 0 0 0 0 0 0 0 0 0 0 0 0 0 0 0 0 0 0 0 0 0 0 0 0 0 0 0 0 0 0 0 0 0 0 0 0 0 0 128 187 224 163 0 0 0 0 0 0 0 0 0 0 72 0 0 0 0 0 0 0 0 0 0 0 113 0 191 0 0 0 0 0 0 0 0 0 0 0 0 0 0 0 0 0 0 0 0 0 0 0 0 0 0 0 0 0 0 0 0 0 0 0 0 0 0 76 0 0 0 120 120 76 169 120 120 0 107 76 0 0 0 107 0 76 0 0 0 0 0 0 0 0 0 0 0 152 152 0 0 76 0 0 76 0 120 169 161 120 212 212 0 0 0 0 0 0 0 0 0 0 0 0 0 0 0 0 0 0 0 0 0 0 212 212 0 0 0 169 120 144 144 0 0 0 0 0 113 152 72 72 0 
0 0 0 0 106 167 167 167 167 106 74 149 74 74 149 106 74 74 0 106 149 106 74 0 0 0 0 0 0 167 237 74 74 123 102 165 234 252 0 0 170 0 0 0 0 0 0 0 0 0 0 0 0 0 0 0 0 0 0 0 0 0 0 0 0 0 0 0 0 113 152 152 113 0 0 0 0 0 0 0 0 0 0 0 0 0 0 0 0 0 0 0 0 0 0 0 0 0 0 0 0 206 0 0 150 146 160 0 0 72 0 0 0 72 0 0 72 0 0 0 0 160 113 0 113 72 0 0 152 152 0 76 120 107 120 152 0 120 107 120 0 72 0 158 120 74 155 160 160 161 115 165 183 67 0 0 146 0 0 0 0 139 0 163 0 0 0 0 0 0 0 0 0 0 0 113 72 113 0 0 0 0 0 0 0 0 0 0 0 0 0 0 0 0 0 0 0 0 0 0 0 0 0 0 0 0 0 0 0 0 0 0 113 113 0 0 0 0 113 160 0 0 0 0 0 113 160 0 0 0 0 0 0 0 72 144 72 0 0 169 0 76 76 0 120 152 120 0 161 161 0 0 0 0 0 0 0 0 0 0 0 0 0 0 0 0 0 0 0 0 0 0 0 0 0 0 0 0 0 0 0 0 0 0 0 0 0 0 0 0 0 0 0 0 0 0 0 0 0 0 106 106 74 74 74 74 106 0 0 0 74 106 74 0 0 0 0 0 0 0 0 0 0 0 0 0 0 0 0 0 0 0 0 0 0 0 0 0 0 0 0 0 0 0 0 0 0 0 0 0 0 0 0 0 0 0 0 0 0 0 217 247 136 104 0 0 0 0 0 0 0 0 72 0 72 0 0 0 0 0 0 0 0 0 0 144 97 185 74 0 0 0 0 0 0 0 0 0 0 0 0 0 0 0 0 0 0 0 0 0 0 0 0 0 0 0 0 0 0 0 0 0 0 0 0 76 0 76 0 0 0 0 0 120 161 107 0 76 107 76 120 120 0 107 0 0 0 0 0 0 0 0 0 0 0 0 169 120 0 0 0 0 0 76 0 0 0 0 76 212 212 0 0 0 0 0 0 0 0 0 0 0 0 0 0 0 0 0 0 0 0 0 0 212 212 0 0 161 161 104 160 113 0 0 0 0 0 113 160 0 113 0 
0 0 0 0 74 224 224 74 167 167 237 224 167 106 74 106 106 74 167 74 106 0 106 0 0 0 0 0 0 74 237 167 106 108 111 161 231 173 142 180 199 0 0 0 0 0 0 0 0 0 0 0 0 0 0 0 0 0 0 0 0 0 0 0 0 0 0 0 0 0 113 113 0 0 0 0 0 0 0 0 0 0 0 0 0 0 0 0 0 0 0 0 0 0 0 0 0 0 0 0 0 0 113 160 152 0 160 113 0 0 0 0 0 0 0 72 0 0 72 0 0 113 160 0 113 101 72 101 0 160 113 120 107 120 0 120 0 120 0 76 185 0 185 0 0 0 117 0 72 113 0 113 206 133 117 83 95 0 0 104 0 237 0 68 0 0 0 0 0 0 0 0 0 0 0 144 0 144 0 0 0 0 0 0 0 0 0 0 0 0 0 0 0 0 0 0 0 0 0 0 0 0 0 0 0 0 0 0 0 0 0 0 0 0 0 0 0 0 144 144 0 0 76 0 0 0 160 113 0 0 0 0 0 0 113 160 0 0 76 120 107 107 120 120 0 0 0 161 161 0 0 0 0 0 0 0 0 0 0 0 0 0 0 0 0 0 0 0 0 0 0 0 0 0 0 0 0 0 0 0 0 0 0 0 0 0 0 0 0 0 0 0 0 0 0 0 0 0 0 0 74 167 167 74 74 149 74 0 0 0 167 106 167 0 0 0 0 0 0 0 0 0 0 0 0 0 0 0 0 0 0 0 0 0 0 0 0 0 0 0 0 0 0 0 0 0 0 0 0 0 0 0 0 0 0 0 0 0 0 0 74 73 0 83 0 0 0 0 0 0 0 0 0 72 0 0 0 0 0 0 0 0 0 0 0 144 202 185 167 0 0 0 0 0 0 0 0 0 0 0 0 0 0 0 0 0 0 0 0 0 0 0 0 0 0 0 0 0 0 0 0 0 0 0 0 0 76 0 0 120 152 120 0 0 120 120 107 120 120 0 0 0 107 0 0 0 0 0 0 0 0 0 0 0 0 120 169 0 0 0 0 0 0 0 107 0 0 0 139 237 167 0 0 0 0 0 0 0 0 0 0 0 0 0 0 0 0 0 0 0 0 0 0 212 212 0 161 161 104 152 152 0 0 0 0 0 0 101 113 0 144 0 
0 0 0 0 74 74 167 167 106 0 106 212 212 74 106 106 74 149 224 167 167 106 74 0 0 0 0 0 0 0 167 224 167 0 146 144 0 95 157 106 68 72 0 0 0 0 0 0 0 0 0 0 0 0 0 0 0 0 0 0 0 0 0 0 0 0 0 0 0 0 0 0 0 0 0 0 0 0 0 113 113 0 0 0 0 0 0 0 0 0 0 0 0 0 0 72 0 0 0 0 0 0 0 0 160 113 113 152 113 0 0 0 0 0 0 0 72 72 72 113 0 0 152 152 0 101 72 101 113 144 144 152 120 169 0 0 120 120 0 0 155 116 113 0 161 152 235 101 160 113 72 160 101 0 163 252 0 236 0 0 202 202 172 215 0 0 0 0 0 0 0 0 0 0 0 144 0 144 0 0 0 0 0 0 0 0 0 0 0 0 0 0 0 0 0 0 0 0 0 0 0 0 0 0 0 0 0 0 0 0 0 0 0 0 0 0 0 0 160 113 0 120 76 120 0 0 113 160 0 0 0 0 0 0 160 113 0 0 0 107 0 76 0 0 0 120 169 161 0 0 0 0 0 0 0 0 0 0 0 0 0 0 0 0 0 0 0 0 0 0 0 0 0 0 0 0 0 0 0 0 0 0 0 0 0 0 0 0 0 0 0 0 0 0 0 0 0 0 0 0 0 0 74 167 167 0 167 167 74 0 167 106 167 0 0 0 0 0 0 0 0 0 0 0 0 0 0 0 0 0 0 0 0 0 0 0 0 0 0 0 0 0 0 0 0 0 0 0 0 0 0 0 0 0 0 0 0 0 0 0 0 74 131 0 236 0 0 0 0 0 0 0 0 0 0 0 0 0 0 0 0 0 0 0 0 185 0 120 212 0 0 0 0 0 0 0 0 0 0 0 0 0 0 0 0 0 0 0 0 0 0 0 0 0 0 0 0 0 0 0 0 0 0 0 0 0 0 0 76 76 0 76 76 0 0 0 120 120 76 120 107 76 76 152 120 0 0 0 0 0 0 0 0 0 0 152 152 0 0 0 0 0 0 0 0 76 76 76 217 237 74 0 0 0 0 0 0 0 0 0 0 0 0 0 0 0 0 0 0 0 0 0 74 237 167 76 152 76 72 144 72 0 0 0 0 0 113 152 72 101 152 0 
0 0 0 0 106 0 106 212 167 106 167 167 237 74 0 74 224 224 0 237 106 106 74 0 0 0 0 0 0 0 74 167 252 0 0 160 0 163 0 0 206 0 0 0 0 0 0 0 0 0 0 0 0 0 0 0 0 0 0 0 0 0 0 0 0 0 0 0 0 0 0 0 0 0 0 0 0 0 113 152 152 113 0 0 0 0 0 0 0 0 0 0 0 0 113 113 152 0 0 0 0 0 0 0 144 144 0 113 160 152 0 0 0 0 0 0 0 113 72 113 0 0 0 152 161 76 116 101 160 113 144 152 152 120 120 0 0 0 0 120 150 218 74 120 169 76 0 234 0 146 76 185 72 234 0 195 247 224 104 0 97 0 204 0 163 0 0 0 0 0 0 0 0 0 0 144 0 144 0 0 0 0 0 0 0 0 0 0 0 0 0 0 0 0 0 0 0 0 0 0 0 0 0 0 0 0 0 0 0 0 0 0 0 0 0 0 0 113 160 0 0 120 76 120 0 0 0 160 113 0 0 0 0 72 144 72 0 0 0 76 0 76 0 0 161 169 120 0 0 0 0 0 0 0 0 0 0 0 0 0 0 0 0 0 0 0 0 0 0 0 0 0 0 0 0 0 0 0 0 0 0 0 0 0 0 0 0 0 0 0 0 0 0 0 0 0 74 106 74 0 0 0 0 212 167 224 167 167 106 0 74 106 74 0 0 0 0 0 0 0 0 0 0 0 0 0 0 0 0 0 0 0 0 0 0 0 0 0 0 0 0 0 0 0 0 0 0 0 0 0 0 0 0 0 0 0 0 0 0 0 0 0 128 247 224 104 0 0 0 0 0 0 0 0 0 0 0 0 0 0 0 0 0 0 0 0 199 77 167 0 0 0 0 0 0 0 0 0 0 0 0 0 0 0 0 0 0 0 0 0 0 0 0 0 0 0 0 0 0 0 0 0 0 0 0 0 0 0 0 120 152 120 0 0 0 0 0 0 0 169 120 76 76 0 76 76 0 0 0 0 0 0 0 0 0 152 152 0 0 0 0 0 0 0 0 0 0 0 212 212 0 0 0 0 0 0 0 0 0 0 0 0 0 0 0 0 0 0 0 0 0 0 167 237 74 76 152 117 101 113 72 0 0 0 0 0 144 144 113 160 0 0 
0 0 0 74 74 74 167 212 212 74 237 74 212 106 0 167 237 74 167 237 106 106 167 0 0 0 0 0 0 0 74 106 167 169 74 160 113 0 113 113 0 0 0 0 0 0 0 0 0 0 0 0 0 0 0 0 0 0 0 0 0 0 0 0 0 0 0 0 0 0 0 0 0 0 0 0 0 0 144 144 113 160 0 0 0 0 0 0 0 0 0 0 0 0 144 113 160 113 0 0 0 0 0 0 144 113 72 72 0 113 113 0 0 0 0 0 0 0 72 0 0 0 72 0 231 113 76 0 160 0 144 120 169 0 152 76 0 0 0 152 76 152 0 169 120 0 167 0 220 0 104 220 72 104 224 247 195 250 0 0 0 0 74 0 68 0 0 0 0 0 0 0 0 0 0 144 0 144 0 0 0 0 0 0 0 0 0 0 0 0 0 0 0 0 0 0 0 0 0 0 0 0 0 0 0 0 0 0 0 0 0 0 0 0 0 0 0 144 144 0 0 0 76 0 0 0 0 144 144 0 0 0 0 0 152 152 0 0 0 0 76 0 0 161 161 0 0 0 0 0 0 0 0 0 0 0 0 0 0 0 0 0 0 0 0 0 0 0 0 0 0 0 0 0 0 0 0 0 0 0 0 0 0 0 0 0 0 0 0 0 0 0 0 0 0 0 106 0 106 0 0 0 0 212 106 167 167 224 74 0 0 0 0 0 74 106 74 0 0 0 0 0 0 0 0 0 0 0 0 0 0 0 0 0 0 0 0 0 0 0 0 0 0 0 0 0 0 0 0 0 0 0 0 0 0 0 0 0 0 0 0 0 0 0 0 83 0 0 0 0 0 0 0 0 0 0 0 0 0 0 0 0 0 0 0 0 97 106 74 0 0 76 0 0 0 0 0 0 0 0 0 0 0 0 0 0 0 0 0 0 0 0 0 0 0 0 0 0 0 0 0 0 0 0 0 0 0 0 76 76 76 0 0 0 0 0 0 0 120 169 0 0 120 152 120 0 0 0 0 76 0 0 0 0 0 120 120 0 0 0 0 0 0 0 0 0 0 74 237 167 0 0 0 0 0 0 0 0 0 0 0 0 0 0 0 0 0 0 0 0 0 0 212 212 0 120 169 163 152 113 0 0 0 0 0 113 152 113 144 144 0 0 
0 0 74 224 212 237 224 167 167 167 149 212 224 0 167 149 167 74 212 212 167 106 167 0 0 0 0 0 0 0 167 77 0 120 0 144 144 0 72 0 0 0 0 0 0 0 0 0 0 0 0 0 0 0 0 0 0 0 0 0 0 0 0 0 0 0 0 0 0 0 0 0 0 0 0 0 0 0 160 113 0 160 113 0 0 0 0 0 0 0 0 0 0 0 113 160 113 144 0 0 0 0 0 0 144 0 113 144 113 0 160 0 0 0 0 0 72 0 0 0 0 72 0 72 185 162 0 0 144 0 144 0 169 224 169 0 0 0 0 152 0 169 76 169 128 106 128 212 189 0 166 185 72 0 236 0 234 78 146 163 185 0 0 0 202 0 0 0 0 0 0 0 0 0 0 113 72 113 0 0 0 0 0 0 0 0 0 0 0 0 0 0 0 0 0 0 0 0 0 0 0 0 0 0 0 0 0 0 0 0 0 0 0 0 0 0 0 160 113 0 0 0 76 0 0 0 0 144 144 0 0 0 0 0 72 144 72 0 0 0 0 0 161 161 0 0 0 0 0 0 0 0 0 0 0 0 0 0 0 0 0 0 0 0 0 0 0 0 0 0 0 0 0 0 0 0 0 0 0 0 0 0 0 0 0 0 0 0 0 0 0 0 0 0 0 0 74 106 74 0 0 0 0 167 149 74 106 106 0 0 0 0 0 0 167 106 167 0 0 0 0 0 0 0 0 0 0 0 0 0 0 0 0 0 0 0 0 0 0 0 0 0 0 0 0 0 0 0 0 0 0 0 0 0 0 0 0 0 0 0 0 0 0 74 148 225 206 0 0 0 0 0 0 0 0 0 0 0 0 0 0 0 0 0 0 0 0 0 0 0 120 76 120 0 0 0 0 0 0 0 0 0 0 0 0 0 0 0 0 0 0 0 0 0 0 0 0 0 0 0 0 0 0 0 0 0 0 76 0 0 0 0 76 76 120 120 0 0 120 161 152 152 120 0 0 0 0 0 76 0 76 0 0 0 76 0 120 161 0 0 0 0 0 0 0 0 0 167 237 74 0 0 0 0 0 0 0 0 0 0 0 0 0 0 0 0 0 0 0 0 0 0 212 212 0 169 167 160 113 0 0 0 0 113 160 160 113 0 160 72 113 0 
0 0 106 167 106 0 74 74 0 224 149 74 74 167 224 149 106 224 167 167 74 74 74 0 0 0 0 0 0 0 212 76 108 76 0 155 212 0 0 72 0 0 0 0 0 0 0 0 0 0 0 0 0 0 0 0 0 0 0 0 0 0 0 0 0 0 0 0 0 0 0 0 0 0 0 0 0 113 160 0 0 144 144 0 0 0 0 0 0 0 0 0 0 0 0 160 0 160 0 0 0 0 0 0 144 0 113 72 113 113 160 113 0 0 0 113 72 113 0 0 0 0 72 0 160 113 0 0 160 0 144 0 0 76 0 0 0 0 0 152 0 152 152 152 106 0 106 0 107 120 148 144 72 0 0 152 111 128 185 68 144 252 108 217 0 0 0 0 0 0 0 0 0 0 0 72 0 72 0 0 0 0 0 0 0 0 0 0 0 0 0 0 0 0 0 0 0 0 0 0 0 0 0 0 0 0 0 0 0 0 0 0 0 0 0 0 113 160 0 0 0 76 0 76 0 0 0 160 113 0 0 0 0 0 72 144 72 0 0 0 0 120 169 0 0 0 0 0 0 0 0 0 0 0 0 0 0 0 0 0 0 0 0 0 0 0 0 0 0 0 0 0 0 0 0 0 0 0 0 0 0 0 0 0 0 0 0 0 0 0 0 0 0 0 0 0 0 0 0 0 0 0 0 74 167 212 237 237 167 74 0 0 0 0 167 106 167 0 0 0 0 0 0 0 0 0 0 0 0 0 0 0 0 0 0 0 0 0 0 0 0 0 0 0 0 0 0 0 0 0 0 0 0 0 0 0 0 0 0 0 0 0 0 0 217 216 68 72 0 0 0 0 0 0 0 0 0 0 0 0 0 0 0 0 0 0 0 0 0 0 152 0 152 0 0 0 0 0 0 0 0 0 0 0 0 0 0 0 0 0 0 0 0 0 0 0 0 0 0 0 0 0 0 0 0 0 0 0 76 76 76 76 76 76 161 161 120 0 0 76 152 152 161 120 0 0 0 0 0 76 0 0 0 0 0 76 76 169 120 0 0 0 0 0 0 0 0 212 212 0 0 0 0 0 0 0 0 0 0 0 0 0 0 0 0 0 0 0 0 0 0 74 237 167 120 169 116 144 72 0 0 0 72 72 72 72 0 72 113 113 160 0 
0 0 74 167 212 237 212 167 167 74 224 224 106 237 106 167 106 149 167 0 167 224 74 0 0 0 0 0 0 0 167 77 0 161 0 0 206 187 104 74 234 234 104 0 0 0 0 0 0 0 0 0 0 0 0 0 0 0 0 0 0 0 0 0 0 0 0 0 0 0 0 0 0 0 0 0 0 113 160 0 0 144 144 0 0 0 0 0 0 0 0 0 0 0 0 144 113 160 113 0 0 0 0 0 113 0 113 0 113 101 152 113 0 0 113 152 0 144 0 0 113 144 144 160 152 0 0 152 152 101 160 0 0 72 0 113 113 0 0 169 0 152 120 169 128 106 0 77 92 120 189 144 0 72 0 109 153 0 146 146 185 0 0 0 241 230 72 0 0 0 0 0 0 0 0 72 0 72 0 0 0 0 0 0 0 0 0 0 0 0 0 0 0 0 0 0 0 0 0 0 0 0 0 0 0 0 0 0 0 0 0 0 0 0 0 0 144 144 0 0 0 0 76 0 76 0 113 113 0 0 0 0 0 0 0 152 152 0 0 0 76 76 169 0 0 0 0 0 0 0 0 0 0 0 0 0 0 0 0 0 0 0 0 0 0 0 0 0 0 0 0 0 0 0 0 0 0 0 0 0 0 0 0 0 0 0 0 0 0 0 0 0 0 0 0 0 0 0 0 0 0 0 0 0 74 167 106 106 224 167 74 106 74 0 74 106 74 0 0 0 0 0 0 0 0 0 0 0 0 0 0 0 0 0 0 0 0 0 0 0 0 0 0 0 0 0 0 0 0 0 0 0 0 0 0 0 0 0 0 0 0 0 0 0 74 141 243 230 0 0 0 0 0 0 0 0 0 0 0 0 0 0 0 0 113 0 191 0 0 0 120 76 120 0 0 0 0 0 0 0 0 0 0 0 0 0 0 0 0 0 0 0 0 0 0 0 0 0 0 0 0 76 0 0 0 0 0 0 0 0 0 120 76 76 161 161 120 76 0 76 0 0 120 169 0 0 0 76 0 0 0 0 0 0 0 0 120 161 120 0 0 0 0 0 0 0 0 212 212 0 0 0 0 0 0 0 0 0 0 0 0 0 0 0 0 0 0 0 0 0 0 167 237 74 120 169 104 160 113 0 0 0 101 0 72 72 0 0 101 0 101 0 
0 0 0 0 0 106 74 149 167 0 74 237 106 167 149 167 74 74 74 167 149 237 167 0 0 0 0 0 0 0 74 106 92 169 0 0 104 116 104 215 163 187 148 0 0 0 0 0 0 0 0 0 0 0 0 0 0 0 72 0 0 0 0 0 0 0 0 0 0 0 0 0 0 0 0 0 0 0 160 113 0 144 144 0 0 0 0 0 0 0 0 0 0 0 0 113 160 113 113 72 0 0 0 72 0 101 0 101 0 113 113 0 0 113 152 72 113 113 0 152 113 72 113 113 0 0 152 152 0 0 160 113 0 0 152 113 113 116 107 76 107 120 0 169 120 0 106 76 148 107 150 160 0 0 72 236 219 245 89 0 155 172 0 0 185 78 72 113 0 0 0 0 0 0 0 0 72 0 0 0 0 0 0 0 0 0 0 0 0 0 0 0 0 0 0 0 0 0 0 0 0 0 0 0 0 0 0 0 0 0 0 0 0 0 0 0 113 160 0 0 0 0 0 76 0 76 113 101 0 72 0 0 0 0 0 101 113 72 0 107 0 0 152 76 0 0 0 0 0 0 0 0 0 0 0 0 0 0 0 0 0 0 0 0 0 0 0 0 0 0 0 0 0 0 0 0 0 0 0 0 0 0 0 0 0 0 0 0 0 0 0 0 0 0 0 0 0 0 0 0 0 0 0 74 224 167 149 149 167 212 106 0 106 0 0 0 0 0 0 0 0 0 0 0 0 0 0 0 0 0 0 0 0 0 0 0 0 0 0 0 0 0 0 0 0 0 0 0 0 0 0 0 0 0 0 0 0 0 0 0 0 0 0 0 0 179 234 0 0 113 0 0 0 0 0 0 0 0 0 0 0 0 0 0 185 0 120 0 0 0 0 0 0 0 0 0 0 0 0 0 0 0 0 0 0 0 0 0 0 0 0 0 0 0 0 0 0 0 0 0 76 0 76 0 0 76 0 0 0 0 0 0 76 76 120 120 0 0 76 0 76 76 107 120 76 0 76 0 76 0 0 0 0 0 0 120 161 120 0 0 0 74 167 167 106 106 106 237 167 0 0 0 0 0 0 0 0 0 0 0 0 0 0 0 0 0 0 0 0 74 167 224 167 0 76 152 117 160 72 113 144 160 160 144 113 0 72 72 152 160 152 0 
0 0 0 0 0 167 224 167 74 0 74 237 106 167 224 106 74 106 237 224 0 237 167 0 0 0 0 0 0 0 76 0 0 120 120 78 213 163 116 0 216 0 104 0 0 0 0 0 0 0 0 0 0 0 0 0 0 72 0 72 0 0 0 0 0 0 0 0 0 0 0 0 0 0 0 0 0 0 144 144 0 144 144 0 0 0 0 0 0 0 0 0 0 0 0 0 152 113 0 113 152 0 0 0 72 0 113 0 113 0 0 0 113 152 72 152 152 0 152 101 0 72 113 144 144 160 152 0 0 0 160 113 0 113 113 155 0 218 76 158 189 74 0 152 152 0 74 130 190 107 0 113 113 0 0 0 83 87 128 164 0 0 0 167 172 115 0 144 0 0 0 0 0 0 0 0 0 0 0 0 0 0 0 0 0 0 0 0 0 0 0 0 0 0 0 0 0 0 0 0 0 0 0 0 0 0 0 0 0 0 0 0 0 0 0 0 101 113 72 0 0 0 0 0 76 0 0 113 113 0 0 0 0 0 113 152 113 0 76 0 107 76 169 0 0 0 0 0 0 0 0 0 0 0 0 0 0 0 0 0 0 0 0 0 0 0 0 0 0 0 0 0 0 0 0 0 0 0 0 0 0 0 0 0 0 0 0 0 0 0 0 0 0 0 0 0 0 0 0 0 0 0 74 149 167 74 74 74 74 212 74 106 74 0 0 0 0 0 0 0 0 0 0 0 0 0 0 0 0 0 0 0 0 0 0 0 0 0 0 0 0 0 0 0 0 0 0 0 0 0 0 0 0 0 0 0 0 0 0 0 0 0 0 0 0 0 128 199 111 152 113 0 0 0 0 0 0 0 0 0 0 0 0 0 220 0 76 0 0 120 76 120 0 0 0 0 0 0 0 0 0 0 0 0 0 0 0 0 0 0 0 0 0 0 0 0 0 0 0 0 0 0 0 0 76 0 76 0 0 0 0 0 76 0 0 0 0 76 76 107 0 0 161 120 0 0 0 76 0 0 0 0 0 0 120 161 120 0 0 0 74 224 237 237 212 212 212 224 74 0 0 0 0 0 0 0 0 0 0 0 0 0 0 0 0 0 0 0 0 167 224 167 128 120 169 161 116 144 0 113 113 72 0 0 0 72 0 113 101 72 152 0 
0 0 0 0 0 167 224 167 74 0 167 237 106 106 74 74 224 237 167 74 167 237 74 0 0 0 0 0 0 120 120 161 0 0 76 148 0 117 212 189 212 0 0 0 0 0 0 0 0 0 0 0 0 0 0 0 0 0 72 0 0 0 0 0 0 0 0 0 0 0 0 0 0 0 0 0 0 0 160 113 0 160 113 0 0 0 0 0 0 0 0 0 0 0 0 0 0 72 101 113 113 101 72 0 0 0 113 0 113 0 0 72 113 101 0 144 72 113 160 0 0 72 0 0 0 72 72 0 0 113 160 0 0 160 0 0 212 76 120 189 0 116 76 120 152 0 0 161 161 0 0 72 144 72 0 0 104 0 163 116 104 189 104 212 113 136 163 144 0 0 0 0 0 0 0 0 0 0 0 0 0 0 0 0 0 0 0 0 0 0 0 0 0 0 0 0 0 0 0 0 0 0 0 0 0 0 0 0 0 0 0 0 0 0 0 113 152 113 0 0 0 0 0 0 0 0 0 144 144 0 0 0 0 0 144 144 0 0 0 76 0 152 152 0 0 0 0 0 0 0 0 0 0 0 0 0 0 0 0 0 0 0 0 0 0 0 0 0 0 0 0 0 0 0 0 0 0 0 0 0 0 0 0 0 0 0 0 0 0 0 0 0 0 0 0 0 0 0 0 0 0 0 106 74 167 167 74 74 106 167 0 0 0 0 0 0 0 0 0 0 0 0 0 0 0 0 0 0 0 0 0 0 0 0 0 0 0 0 0 0 0 0 0 0 0 0 0 0 0 0 0 0 0 0 0 0 0 0 0 0 0 0 0 0 0 0 0 0 150 252 144 0 0 0 0 0 0 0 0 0 0 0 0 0 220 0 76 0 0 120 76 120 0 0 0 0 0 0 0 0 0 0 0 0 0 0 0 0 0 0 0 0 0 0 0 0 0 0 0 76 0 76 0 0 0 0 0 0 0 0 0 161 120 107 76 0 120 76 76 0 120 120 152 0 0 0 0 0 0 0 0 0 0 161 169 120 0 0 74 167 237 224 74 74 106 106 106 74 0 0 0 0 0 0 0 0 0 0 0 0 0 0 0 0 0 0 0 0 0 212 212 0 120 161 120 104 101 72 0 113 113 72 0 72 0 0 113 72 101 160 113 0 
0 0 0 0 0 74 167 224 167 0 212 212 0 0 0 106 167 167 212 212 224 167 0 0 0 0 0 0 0 120 120 107 169 109 151 0 114 120 213 0 113 0 0 0 0 0 0 0 0 0 0 0 0 0 0 0 0 0 0 0 0 0 0 0 0 0 0 0 0 0 0 0 0 0 0 0 0 113 212 117 116 144 72 0 0 0 0 0 0 0 0 0 0 0 0 0 0 0 0 160 0 113 113 113 0 72 72 72 72 0 0 0 152 152 0 144 72 113 152 72 0 72 113 144 144 160 160 113 0 113 152 113 0 144 72 0 169 0 152 117 116 212 120 0 169 0 76 191 155 144 113 0 144 72 0 0 0 146 234 107 216 0 111 252 0 145 231 113 0 0 0 0 0 0 0 0 0 0 0 0 0 0 0 0 0 0 0 0 0 0 0 0 0 0 0 0 0 0 0 0 0 0 0 0 0 0 0 0 0 0 0 0 0 0 0 144 144 0 0 0 0 0 0 0 0 0 0 144 144 0 0 0 0 0 144 144 0 0 0 0 76 120 152 0 0 0 0 0 0 0 0 0 0 0 0 0 0 0 0 0 0 0 0 0 0 0 0 0 0 0 0 0 0 0 0 0 0 0 0 0 0 0 0 0 0 0 0 0 0 0 0 0 0 0 0 0 0 0 0 0 0 0 74 106 106 106 149 167 0 74 74 0 0 0 0 0 0 0 0 0 0 0 0 0 0 0 0 0 0 0 0 0 0 0 0 0 0 0 0 0 0 0 0 0 0 0 0 0 0 0 0 0 0 0 0 0 0 0 0 0 0 0 0 0 0 0 0 128 150 170 144 0 0 0 0 0 0 0 0 0 0 0 0 0 220 0 76 0 0 0 76 0 0 0 0 0 0 0 0 0 0 0 0 0 0 0 0 0 0 0 0 0 0 0 0 0 0 0 76 0 76 0 76 0 0 76 0 0 76 0 76 120 0 0 0 76 120 0 0 0 76 120 107 120 0 0 0 0 0 0 0 0 120 169 0 0 0 74 224 237 167 74 0 0 0 0 0 0 0 0 0 0 0 0 0 0 0 0 0 0 0 0 0 0 0 0 0 0 0 212 212 0 152 152 0 72 113 0 0 0 160 0 0 72 144 113 113 0 160 0 0 0 
0 0 0 0 0 74 167 224 167 0 212 212 0 0 0 74 167 212 212 212 167 74 0 0 0 0 0 0 0 0 169 76 150 0 0 91 152 115 187 163 0 0 0 0 0 0 0 0 0 0 0 0 0 0 0 0 0 0 0 0 0 0 0 0 0 0 0 0 0 0 0 0 0 0 0 0 0 144 0 76 189 144 72 0 0 0 104 148 104 0 0 0 0 0 0 0 0 0 0 113 113 0 101 160 0 0 113 0 113 0 0 0 0 152 113 72 113 72 72 152 113 0 0 0 0 0 113 152 113 0 101 113 0 144 0 212 218 76 161 169 169 107 120 107 169 107 0 189 189 0 113 113 113 72 0 0 72 0 216 0 0 166 0 0 72 229 212 0 0 0 0 0 0 0 0 0 0 0 0 0 0 0 0 0 0 0 0 0 0 0 0 0 0 0 0 0 0 0 0 0 0 0 0 0 0 0 0 0 0 0 0 0 0 0 0 144 144 0 0 0 0 0 0 0 0 0 0 144 144 0 0 0 0 0 160 113 0 0 0 120 76 0 152 0 0 0 0 0 0 0 0 0 0 0 0 0 0 0 0 0 0 0 0 0 0 0 0 0 0 0 0 0 0 0 0 0 0 0 0 0 0 0 0 0 0 0 0 0 0 0 0 0 0 0 0 0 0 0 0 0 0 0 0 0 74 106 0 224 212 167 167 0 0 0 0 0 0 0 0 0 0 0 0 0 0 0 0 0 0 0 0 0 0 0 0 0 0 0 0 0 0 0 0 0 0 0 0 0 0 0 0 0 0 0 0 0 0 0 0 0 0 0 0 0 0 0 0 0 72 229 206 113 0 0 0 0 0 0 0 0 0 0 0 0 231 0 76 0 0 0 0 76 0 0 0 0 0 0 0 0 0 0 0 0 0 0 0 0 0 0 0 0 0 0 0 0 0 0 0 76 0 0 0 0 76 0 0 120 76 120 0 120 120 76 107 0 0 120 0 76 107 76 107 161 120 0 0 76 0 0 0 0 169 120 0 74 167 237 224 74 0 0 0 0 0 0 0 0 0 0 0 0 0 0 0 0 0 0 0 0 0 0 0 0 0 0 0 0 0 212 212 0 169 120 0 0 152 113 72 101 113 72 72 113 113 152 0 0 144 0 0 0 
0 0 0 0 0 167 224 167 74 0 167 224 167 74 0 74 167 212 212 212 167 74 0 0 0 0 0 0 0 0 152 152 113 0 157 234 95 0 0 0 0 0 0 0 0 0 0 0 0 0 0 0 0 0 0 0 0 0 0 0 0 0 0 0 0 0 0 0 0 0 0 0 0 0 0 0 0 144 0 0 0 160 0 0 0 0 187 72 187 0 0 0 0 0 0 0 0 0 0 0 152 152 0 152 160 144 152 72 160 0 0 0 0 0 113 101 144 160 152 113 144 0 0 0 0 0 0 144 144 0 72 144 0 160 72 160 234 169 0 120 120 0 120 107 120 76 0 117 235 113 0 113 72 0 0 0 0 72 163 0 120 0 225 197 168 172 113 0 0 0 0 0 0 0 0 0 0 0 0 0 0 0 72 0 0 0 0 0 0 0 0 0 0 0 0 0 0 0 0 0 0 0 0 0 0 0 0 0 0 0 0 0 0 0 0 160 113 0 0 0 0 0 0 0 0 0 0 144 144 0 0 0 0 113 160 0 0 0 0 120 0 0 120 0 0 0 0 0 0 0 0 0 0 0 0 0 0 0 0 0 0 0 0 0 0 0 0 0 0 0 0 0 0 0 0 0 0 0 0 0 0 0 0 0 0 0 0 0 0 0 0 0 0 0 0 0 0 0 0 0 0 0 0 0 167 106 167 106 0 74 237 74 0 0 0 0 0 0 0 0 0 0 0 0 0 0 0 0 0 0 0 0 0 0 0 0 0 0 0 0 0 0 0 0 0 0 0 0 0 0 0 0 0 0 0 0 0 0 0 0 0 0 0 0 0 0 0 0 217 216 255 72 72 0 0 0 0 0 0 0 0 0 0 113 0 218 0 0 0 0 120 76 120 0 0 0 0 0 0 0 0 0 0 0 0 0 0 0 0 0 0 0 0 0 0 0 0 0 0 0 0 76 0 0 0 0 0 120 76 76 76 76 0 0 0 0 0 169 76 107 120 0 161 161 120 0 76 0 76 0 0 120 169 0 0 167 224 167 74 0 0 0 0 0 0 0 0 0 0 0 0 0 0 0 0 0 0 0 0 0 0 0 0 0 0 0 0 0 74 237 167 120 169 0 0 0 0 72 72 113 113 0 0 101 160 152 72 72 113 0 0 0 
0 0 0 0 74 237 167 0 0 0 74 167 224 167 0 167 224 212 212 212 224 167 0 0 0 0 0 0 0 0 152 152 144 138 103 0 115 144 113 0 0 0 0 0 0 0 0 0 0 0 0 0 0 0 0 0 0 0 0 0 0 0 0 0 0 0 0 0 0 0 0 0 0 0 0 0 0 160 222 76 0 144 0 0 0 0 220 0 220 0 0 0 0 0 0 0 0 0 0 0 0 152 152 0 113 144 113 72 160 113 0 0 0 0 113 152 113 0 160 0 160 0 0 0 0 113 113 113 144 0 0 160 0 144 0 144 185 169 120 0 0 0 120 169 120 107 76 107 236 185 72 0 72 0 72 0 0 0 185 0 120 0 212 74 236 0 0 113 0 0 0 0 0 0 0 0 0 0 0 0 0 152 113 113 0 0 0 0 0 0 0 0 0 0 0 0 0 0 0 0 0 0 0 0 0 0 0 0 0 0 0 0 0 0 113 160 0 0 0 0 0 0 0 0 0 0 0 113 152 113 0 0 0 113 160 0 0 0 0 0 120 120 0 0 0 0 0 0 0 0 0 0 0 0 0 0 0 0 0 0 0 0 0 0 0 0 0 0 0 0 0 0 0 0 0 0 0 0 0 0 0 0 0 0 0 0 0 0 0 0 0 0 0 0 0 0 0 0 0 0 0 0 0 0 167 106 167 167 106 106 237 149 106 74 0 0 0 0 0 0 0 0 0 0 0 0 0 0 0 0 0 0 0 0 0 0 0 0 0 0 0 0 0 0 0 0 0 0 0 0 0 0 0 0 0 0 0 0 0 0 0 0 0 0 0 0 0 0 74 167 148 104 101 0 0 0 0 0 0 0 0 0 0 144 0 152 0 0 0 0 120 76 120 0 0 0 0 0 0 0 0 0 0 0 0 0 0 0 0 0 0 0 0 0 0 0 0 0 0 0 76 0 76 0 0 0 0 0 0 76 76 76 76 107 76 0 120 169 76 107 0 0 120 120 0 0 0 76 0 0 0 169 120 74 167 224 167 0 0 0 0 0 0 0 0 0 0 0 0 0 0 0 0 0 0 0 0 0 0 0 0 0 0 0 0 0 0 74 224 224 128 169 120 0 0 72 72 113 144 113 0 113 72 72 113 113 72 72 0 0 0 0 
0 0 0 0 106 212 106 0 0 0 0 0 212 212 0 167 237 74 0 74 237 167 0 0 0 0 0 0 0 0 152 152 144 72 72 0 163 220 206 113 0 0 0 0 0 0 0 0 0 0 0 0 0 0 0 0 0 0 0 0 0 0 0 0 0 0 0 0 0 0 0 0 0 0 0 0 113 212 158 0 220 144 0 0 0 0 220 0 220 0 0 0 0 0 0 0 0 0 0 0 0 0 152 160 144 113 72 113 152 113 0 0 0 72 0 113 152 113 113 113 113 113 0 0 113 101 101 101 113 0 0 113 72 113 0 160 113 152 152 0 0 0 0 76 0 107 0 0 218 0 113 0 0 72 0 0 0 0 0 0 0 74 237 92 0 167 72 113 0 0 0 0 0 0 0 0 0 72 0 0 113 160 113 144 0 0 0 0 0 0 0 0 0 0 0 0 0 0 0 0 0 0 0 0 0 0 0 0 0 0 0 0 0 0 160 113 0 0 0 0 0 0 0 0 0 0 0 0 113 152 113 0 0 0 152 152 0 0 0 0 152 152 0 0 0 0 0 0 0 0 0 0 0 0 0 0 0 0 0 0 0 0 0 0 0 0 0 0 0 0 0 0 0 0 0 0 0 0 0 0 0 0 0 0 0 0 0 0 0 0 0 0 0 0 0 0 0 0 0 0 0 0 0 0 74 106 74 212 0 212 167 167 167 167 0 0 0 0 0 0 0 0 0 0 0 0 0 0 0 0 0 0 0 0 0 0 0 0 0 0 0 0 0 0 0 0 0 0 0 0 0 0 0 0 0 0 0 0 0 0 0 0 0 0 0 0 0 0 0 0 238 0 101 101 0 0 0 0 0 0 0 0 0 144 0 152 0 0 0 0 0 76 0 0 0 0 0 0 0 0 0 0 0 0 0 0 0 0 0 0 0 0 0 0 0 0 0 0 0 0 107 0 76 0 0 0 161 152 161 76 76 76 0 0 0 76 120 169 76 0 0 76 120 0 0 0 0 0 0 0 120 169 0 167 224 167 74 0 0 0 0 0 0 0 0 0 0 0 0 0 0 0 0 0 0 0 0 0 0 0 0 0 0 0 0 0 0 167 237 74 120 169 0 0 113 72 0 72 0 72 72 113 72 113 0 0 0 0 0 0 0 0 
0 0 0 74 149 167 106 0 0 0 74 167 149 149 212 167 167 106 0 167 237 74 0 0 0 0 0 0 0 0 152 152 113 101 0 116 218 107 0 113 0 0 0 0 0 0 0 0 0 0 0 0 0 0 0 0 0 0 0 0 0 0 0 0 0 0 0 0 0 0 0 0 0 0 0 0 185 0 120 120 220 144 0 0 0 0 163 148 163 0 0 0 0 0 0 0 0 0 0 0 0 0 0 113 144 160 144 160 113 0 0 0 113 72 113 0 144 144 0 152 72 113 0 0 160 0 72 72 72 0 113 72 0 0 101 113 72 152 120 76 0 0 120 218 236 224 132 74 152 0 144 0 0 0 0 0 0 0 0 97 106 74 212 182 252 187 72 0 0 0 0 0 0 0 0 0 101 0 72 0 113 160 113 144 0 0 0 0 0 0 0 0 0 0 0 0 0 0 0 0 0 0 0 0 0 0 0 0 0 0 0 0 0 72 144 72 0 0 0 0 0 0 0 0 76 0 0 0 0 160 113 0 0 0 101 113 72 0 0 0 169 120 0 0 0 0 0 0 0 0 0 0 0 0 0 0 0 0 0 0 0 0 0 0 0 0 0 0 0 0 0 0 0 0 0 0 0 0 0 0 0 0 0 0 0 0 0 0 0 0 0 0 0 0 0 0 0 0 0 0 0 0 0 0 0 0 0 167 106 167 106 0 106 212 0 0 0 0 0 0 0 0 0 0 0 0 0 0 0 0 0 0 0 0 0 0 0 0 0 0 0 0 0 0 0 0 0 0 0 0 0 0 0 0 0 0 0 0 0 0 0 0 0 0 0 0 0 0 0 74 100 173 115 0 72 0 0 0 0 0 0 0 0 144 0 152 0 0 0 0 0 0 0 0 0 0 0 0 0 0 0 0 0 0 0 0 0 0 0 0 0 0 0 0 0 0 0 0 0 76 76 76 76 0 0 107 76 0 107 107 0 0 76 0 0 76 120 120 0 76 0 76 76 76 0 0 0 0 0 0 152 152 74 237 167 0 0 0 0 0 0 0 0 0 0 0 0 0 0 0 0 0 0 0 0 0 0 0 0 0 0 0 0 0 0 0 74 237 167 0 169 120 0 0 113 72 101 101 0 72 0 101 72 113 113 0 0 0 0 0 0 0 
0 0 0 106 167 149 0 106 106 167 237 167 106 106 74 0 106 106 0 167 224 167 74 0 0 0 0 0 0 0 152 120 150 216 104 189 189 234 0 0 0 0 0 0 0 0 0 0 0 0 0 0 0 0 0 0 0 0 0 0 0 0 0 0 0 0 0 0 0 0 0 0 0 0 0 0 0 0 76 169 185 144 0 0 0 0 0 72 0 72 0 0 0 0 0 0 0 0 0 0 0 0 0 0 0 0 72 0 0 0 0 0 113 0 113 0 113 160 0 0 113 72 152 0 144 0 113 72 152 0 113 101 113 72 72 0 101 167 120 120 120 120 161 158 0 82 120 148 169 222 160 0 0 0 0 0 0 0 0 202 106 106 231 0 170 220 0 0 0 0 0 0 0 0 0 113 0 113 0 0 0 160 0 144 0 0 0 0 0 0 0 0 0 0 0 0 0 0 0 0 0 0 0 0 0 0 0 0 0 0 0 0 0 72 144 72 0 0 0 0 0 0 0 161 120 120 0 0 113 160 0 0 0 113 152 113 0 0 0 120 169 0 0 0 0 0 0 0 0 0 0 0 0 0 0 0 0 0 0 0 0 0 0 0 0 0 0 0 0 0 0 0 0 0 0 0 0 0 0 0 0 0 0 0 0 0 0 0 0 0 0 0 0 0 0 0 0 0 0 0 0 0 0 0 0 0 0 74 106 0 224 167 74 212 0 0 0 0 0 0 0 0 0 0 0 0 0 0 0 0 0 0 0 0 0 0 0 0 0 0 0 0 0 0 0 0 0 0 0 0 0 0 0 0 0 0 0 0 0 0 0 0 0 0 0 0 0 0 0 0 217 0 0 72 0 0 0 0 0 0 0 0 0 185 0 120 0 0 0 0 0 0 0 0 0 0 0 0 0 0 0 0 0 0 0 0 0 0 0 0 0 0 0 0 0 0 0 0 0 0 120 120 0 0 76 0 120 169 120 120 76 76 0 107 76 107 0 76 76 0 120 120 120 0 76 0 0 0 0 120 161 120 167 237 74 0 0 0 0 0 0 0 0 0 0 0 0 0 0 0 0 0 0 0 0 0 0 0 0 0 0 0 0 0 0 0 167 237 74 120 169 0 0 0 0 72 0 72 72 72 0 113 72 0 72 72 0 0 0 0 0 0 
0 0 0 74 224 224 74 0 74 149 0 167 224 106 224 212 237 224 74 74 167 224 167 0 0 0 0 0 0 0 152 0 236 0 0 165 120 0 163 0 0 0 0 0 0 0 0 0 0 0 0 0 0 0 0 0 0 0 0 0 0 0 0 0 0 0 0 0 0 0 0 0 0 0 0 113 0 150 169 120 144 144 0 0 0 0 0 0 113 72 113 0 0 0 0 0 0 0 0 0 0 0 0 0 0 0 0 0 0 0 0 0 0 113 72 152 0 160 113 0 160 101 160 72 152 152 113 113 160 72 160 0 144 0 113 0 0 148 0 107 76 169 120 0 158 248 77 239 0 116 113 113 0 0 0 0 0 0 0 252 0 212 159 104 83 163 0 0 0 0 0 0 0 0 0 113 72 113 0 0 0 113 72 113 0 0 0 0 0 0 0 0 0 0 0 0 0 0 0 0 0 0 0 0 0 0 0 0 0 0 0 0 0 152 152 0 0 0 0 0 0 0 107 76 107 120 0 0 144 144 0 0 0 144 144 0 0 0 0 152 152 0 0 0 0 0 0 0 0 0 0 0 0 0 0 0 0 0 0 0 0 0 0 0 0 0 0 0 0 0 0 0 0 0 0 0 0 0 0 0 0 0 0 0 0 0 0 0 0 0 0 0 0 0 0 0 0 0 0 0 0 0 0 0 0 0 0 0 0 167 237 167 74 224 167 74 0 0 0 0 0 0 0 0 0 0 0 0 0 0 0 0 0 0 0 0 0 0 0 0 0 0 0 0 0 0 0 0 0 0 0 0 0 0 0 0 0 0 0 0 0 0 0 0 0 0 0 0 0 0 74 236 215 0 0 0 0 0 0 0 0 0 0 0 0 0 0 0 0 0 0 0 0 0 0 0 0 0 0 0 0 0 0 0 0 0 0 0 0 0 0 0 0 0 0 0 0 0 0 120 120 0 0 0 0 76 0 0 120 120 0 0 0 0 169 0 161 161 0 0 152 0 0 76 0 76 0 0 76 120 107 128 237 167 0 0 0 0 0 0 0 0 0 0 0 0 0 0 0 0 0 0 0 0 0 0 0 0 0 0 0 0 0 0 0 0 212 212 0 152 152 0 0 0 0 0 0 72 0 101 72 152 144 160 113 0 0 0 0 0 0 0 
0 0 0 0 106 212 74 106 167 74 149 0 149 167 167 106 0 237 167 74 167 224 167 0 0 0 0 0 0 0 152 74 93 0 0 0 155 212 0 0 0 0 0 0 0 0 0 0 0 0 0 0 0 0 0 0 0 0 0 0 0 0 0 0 0 0 0 0 0 0 0 0 0 0 0 144 0 0 169 0 144 144 0 0 0 0 0 0 113 72 113 0 0 0 0 0 0 0 0 0 0 0 0 0 0 0 0 0 0 0 0 0 0 144 113 160 113 113 160 101 160 0 160 113 0 152 72 113 72 160 72 72 113 0 144 113 116 212 169 120 76 169 0 0 169 120 0 224 224 72 0 160 0 0 0 0 0 0 0 202 106 167 0 0 113 0 0 0 0 0 0 0 0 0 0 0 72 0 0 0 0 0 72 0 0 0 0 0 0 0 0 0 0 0 0 0 0 0 0 0 0 0 0 0 0 0 0 0 0 0 0 0 72 144 72 0 0 0 0 0 0 161 76 107 120 0 0 0 113 160 0 0 0 144 144 0 0 0 0 152 152 0 0 0 0 0 0 0 0 0 0 0 0 0 0 0 0 0 0 0 0 0 0 0 0 0 0 0 0 0 0 0 0 0 0 0 0 0 0 0 0 0 0 0 0 0 0 0 0 0 0 0 0 0 0 0 0 0 0 0 0 0 0 0 0 0 0 0 0 167 224 224 74 74 167 224 74 0 0 0 0 0 0 0 0 0 0 0 0 0 0 0 0 0 0 0 0 0 0 0 0 0 0 0 0 0 0 0 0 0 0 0 0 0 0 0 0 0 0 0 0 0 0 0 0 0 0 0 0 0 0 113 0 163 0 0 0 0 0 0 0 0 0 0 0 0 0 0 0 0 0 0 0 0 0 0 0 0 0 0 0 0 0 0 0 0 0 0 0 0 0 0 0 0 0 0 0 0 76 76 76 76 0 0 0 0 0 0 76 76 161 120 107 161 161 120 120 120 0 0 120 0 0 0 76 0 0 0 0 169 120 167 237 74 0 0 0 0 0 0 0 0 0 0 0 0 0 0 0 0 0 0 0 0 0 0 0 0 0 0 0 0 0 0 0 74 237 167 0 169 120 0 0 0 0 0 0 72 0 72 0 0 72 0 0 0 0 0 0 0 0 0 
0 0 0 0 106 167 167 167 167 0 74 224 224 74 106 0 74 237 106 224 237 167 74 0 0 0 0 0 0 0 152 106 0 0 0 0 144 144 0 0 0 0 0 0 0 0 0 0 0 0 0 0 0 0 0 0 0 0 0 0 0 0 0 0 0 0 0 0 0 0 0 0 0 0 0 160 222 76 120 0 160 113 0 0 0 0 0 0 0 72 0 0 0 0 0 0 0 0 0 0 0 0 0 0 0 0 0 0 0 0 0 0 0 113 160 113 144 0 160 0 144 113 160 0 0 0 113 72 113 72 0 0 0 0 144 144 120 169 0 0 169 120 0 76 152 76 0 150 209 187 255 103 0 113 0 0 0 0 0 97 106 128 0 0 104 234 234 104 0 0 0 0 0 0 0 0 0 0 0 0 0 0 0 0 0 0 0 0 0 0 0 0 0 0 0 0 0 0 0 0 0 0 0 0 0 0 0 0 0 0 0 0 72 144 72 0 0 0 0 0 120 169 120 152 0 76 0 0 72 144 72 0 0 160 113 0 0 0 0 152 152 0 0 0 0 0 0 0 0 0 0 0 0 0 0 0 0 0 0 0 0 0 0 0 0 0 0 0 0 0 0 0 0 0 0 0 0 0 0 0 0 0 0 0 0 0 0 0 0 0 0 0 0 0 0 0 0 0 0 0 0 0 0 0 0 0 0 0 0 74 167 106 149 167 106 237 167 0 0 0 0 0 0 0 0 0 0 0 0 0 0 0 0 0 0 0 0 0 0 0 0 0 0 0 0 0 0 0 0 0 0 0 0 0 0 0 0 0 0 0 0 0 0 0 0 0 0 0 0 0 0 217 0 95 0 0 0 0 0 0 0 0 0 0 0 0 0 0 0 0 0 0 0 0 0 0 0 0 0 0 0 0 0 0 0 0 0 0 0 0 0 0 0 0 0 0 0 0 0 120 120 0 0 0 76 0 0 161 120 0 120 107 0 169 0 120 120 76 0 120 0 0 76 76 76 0 0 0 0 152 152 212 212 0 0 0 0 0 0 0 0 0 0 0 0 0 0 0 0 0 0 0 0 0 0 0 0 0 0 0 0 0 0 0 74 224 224 74 120 169 0 0 0 0 0 0 0 0 72 0 0 0 0 0 0 0 0 0 0 0 0 0 
0 0 0 0 74 149 74 106 106 0 0 212 212 0 167 106 106 237 74 212 106 0 0 0 0 0 0 0 0 0 152 74 0 0 0 72 113 144 0 0 0 0 0 0 0 0 0 0 0 0 0 0 0 0 0 0 0 0 0 0 0 0 0 0 0 0 0 0 0 0 0 0 0 0 152 152 74 76 0 113 160 0 0 0 0 0 0 0 0 0 0 0 0 0 0 0 0 0 0 0 0 0 0 0 0 0 0 0 0 0 0 0 0 0 152 113 113 0 144 0 144 144 144 0 0 0 144 113 113 113 0 72 0 0 113 152 216 191 0 161 107 0 76 107 120 76 167 215 185 101 0 218 82 212 160 113 0 0 0 0 0 212 0 116 83 224 224 83 0 0 0 0 0 0 0 0 0 0 0 0 0 0 0 0 0 0 0 0 0 0 0 0 0 0 0 0 0 0 0 0 0 0 0 0 0 0 0 0 0 0 0 0 152 152 0 0 0 0 0 0 120 169 76 169 0 0 76 0 72 144 72 0 72 144 72 0 0 0 0 120 169 0 0 0 0 0 0 0 0 0 0 0 0 0 0 0 0 0 0 0 0 0 0 0 0 0 0 0 0 0 0 0 0 0 0 0 0 0 0 0 0 0 0 0 0 0 0 0 0 0 0 0 0 0 0 0 0 0 0 0 0 0 0 0 0 0 0 0 0 0 0 167 237 167 212 212 212 0 0 0 0 0 0 0 0 0 0 0 0 0 0 0 0 0 0 0 0 0 0 0 0 0 0 0 0 0 0 0 0 0 0 0 0 0 0 0 0 0 0 0 0 0 0 0 0 0 0 0 0 0 0 74 168 215 113 0 0 0 0 0 0 0 113 0 191 0 0 0 0 0 0 0 0 0 0 0 0 0 0 0 0 0 0 0 0 0 0 0 0 0 0 0 0 0 0 0 0 0 0 0 0 76 0 76 0 76 76 152 76 120 120 120 107 161 152 76 0 76 0 120 0 76 0 0 0 76 0 0 76 120 152 212 212 0 0 0 0 0 0 0 0 0 0 0 0 0 0 0 0 0 0 0 0 0 0 0 0 0 0 0 0 0 0 0 167 237 74 0 169 120 0 0 0 0 0 0 0 0 0 0 0 0 0 0 0 0 0 0 0 0 0 0 
0 0 0 0 74 224 237 167 149 106 74 167 237 106 224 167 167 212 74 224 237 167 74 0 0 0 0 0 0 0 152 0 152 152 0 113 113 113 0 0 0 0 0 0 0 0 0 0 0 0 0 0 0 0 0 0 0 0 0 0 0 0 0 0 0 0 0 0 0 0 0 0 0 163 0 150 0 0 0 113 160 0 0 0 0 0 0 0 0 0 0 0 0 0 0 0 0 0 0 0 0 0 0 0 0 0 0 0 0 0 0 0 0 0 0 72 0 0 144 0 144 144 144 0 76 0 113 160 0 0 72 0 0 0 0 101 0 224 76 120 120 120 76 161 120 0 224 234 187 0 85 182 167 167 146 0 0 0 0 167 76 224 187 163 225 131 142 215 113 0 0 0 0 0 0 0 0 0 0 0 0 0 0 0 0 0 0 0 0 0 0 0 0 0 0 0 0 0 0 0 0 0 0 0 0 0 0 0 0 0 0 113 160 0 0 76 0 0 0 120 120 120 0 169 76 76 0 0 0 160 113 0 0 160 113 0 0 0 0 107 120 76 0 0 0 0 0 0 0 0 0 0 0 0 0 0 0 0 0 0 0 0 0 0 0 0 0 0 0 0 0 0 0 0 0 0 0 0 0 0 0 0 0 0 0 0 0 0 0 0 0 0 0 0 0 0 0 0 0 0 0 0 0 0 0 0 0 0 0 0 74 167 167 167 212 212 212 0 0 0 0 0 0 0 0 0 0 0 0 0 0 0 0 0 0 0 0 0 0 0 0 0 0 0 0 0 0 0 0 0 0 0 0 0 0 0 0 0 0 0 0 0 0 0 0 0 0 0 0 0 0 0 72 0 185 0 0 0 0 0 0 0 144 0 152 0 0 0 0 0 0 0 0 0 0 0 0 0 0 0 0 0 0 0 0 0 0 0 0 0 0 0 0 0 0 0 0 0 0 0 76 0 76 0 76 0 0 161 120 76 76 0 0 120 152 161 76 0 120 0 0 0 76 76 76 0 0 76 0 76 211 237 167 0 0 0 0 0 0 0 0 0 0 0 0 0 0 0 0 0 0 0 0 0 0 0 0 0 0 0 0 0 0 74 237 167 0 120 169 0 0 0 0 0 0 0 0 0 0 0 0 0 0 0 0 0 0 0 0 0 0 0 
0 0 0 0 167 237 74 74 74 0 167 0 167 74 0 149 74 212 0 74 167 224 167 0 0 0 0 0 0 0 152 0 152 152 0 113 0 0 0 0 0 0 0 0 0 0 0 0 0 0 0 0 0 0 0 0 0 0 0 0 0 0 0 0 0 0 0 0 0 0 0 0 0 0 215 120 76 0 0 72 144 72 0 0 0 0 0 0 0 0 0 0 0 0 0 0 0 0 0 0 0 0 0 0 0 0 0 0 0 0 0 0 0 0 0 0 0 0 113 72 113 113 160 150 120 161 104 160 113 0 0 0 0 0 0 113 0 191 76 0 0 120 0 152 0 0 167 74 163 163 0 167 76 191 115 104 116 234 167 0 0 218 215 85 187 148 123 202 144 0 0 0 0 0 0 0 0 0 0 0 0 0 0 0 0 0 0 0 0 0 0 0 0 0 0 0 0 0 0 0 0 0 0 0 0 0 0 0 0 0 0 144 144 0 120 76 120 0 161 169 120 0 120 107 120 0 0 0 0 160 113 0 0 144 144 0 0 0 120 107 0 76 0 0 0 0 0 0 0 0 0 0 0 0 0 0 0 0 0 0 0 0 0 0 0 0 0 0 0 0 0 0 0 0 0 0 0 0 0 0 0 0 0 0 0 0 0 0 0 0 0 0 0 0 0 0 0 0 0 0 0 0 0 0 0 0 0 0 0 0 106 74 167 167 167 212 212 0 0 0 0 0 0 0 0 0 0 0 0 0 0 0 0 0 0 0 0 0 0 0 0 0 0 0 0 0 0 0 0 0 0 0 0 0 0 0 0 0 0 0 0 0 0 0 0 0 0 0 0 0 0 0 217 0 95 0 0 0 0 0 0 0 144 0 120 120 120 0 0 0 0 0 0 0 0 0 0 0 0 0 0 0 0 0 0 0 0 0 0 0 0 0 0 0 0 0 0 0 0 0 0 76 0 0 0 0 0 0 76 76 120 169 152 120 0 152 0 0 120 0 0 76 0 0 76 0 0 0 76 120 0 237 74 0 0 0 0 0 0 0 0 0 0 0 0 0 0 0 0 0 0 0 0 0 0 0 0 0 0 0 0 0 0 167 237 74 0 152 152 0 0 0 0 0 0 0 0 0 0 0 0 0 0 0 0 0 0 0 0 0 0 0 
0 0 0 74 237 167 0 106 74 167 149 106 106 167 167 74 74 149 212 167 74 212 212 0 0 0 0 0 0 0 152 0 169 76 218 212 113 0 0 0 0 0 0 0 0 0 0 0 0 0 0 0 0 0 0 0 0 0 0 0 0 0 0 0 0 0 0 0 0 0 0 0 206 0 0 212 116 0 0 152 152 0 0 0 0 0 0 0 0 0 0 0 0 0 0 0 0 0 0 0 0 0 0 0 0 0 0 0 0 0 0 0 0 0 0 0 0 0 0 72 0 0 152 0 167 107 161 163 160 0 0 0 0 72 0 144 0 152 120 76 76 120 120 76 76 0 0 0 0 0 231 0 76 0 161 0 0 167 0 0 0 169 0 0 197 217 184 95 113 0 0 0 0 0 0 0 0 0 0 0 0 0 0 0 0 0 0 0 0 0 0 0 0 0 0 0 0 0 0 0 0 0 0 0 0 0 0 0 0 0 0 160 113 0 152 0 152 120 169 0 161 169 152 120 0 76 0 0 113 160 0 0 0 160 113 0 0 0 169 0 76 120 0 0 0 0 0 0 0 0 0 0 0 0 0 0 0 0 0 0 0 0 0 0 0 0 0 0 0 0 0 0 0 0 0 0 0 0 0 0 0 0 0 0 0 0 0 0 0 0 0 0 0 0 0 0 0 0 0 0 0 0 0 0 0 0 0 0 0 0 74 74 0 74 74 167 237 74 0 0 0 0 0 0 0 0 0 0 0 0 0 0 0 0 0 0 0 0 0 0 0 0 0 0 0 0 0 0 0 0 0 0 0 0 0 0 0 0 0 0 0 0 0 0 0 0 0 0 0 0 0 0 74 148 241 163 0 0 0 0 0 0 185 0 0 76 76 76 0 0 0 0 0 0 0 0 0 0 0 0 0 0 0 0 0 0 0 0 0 0 0 0 0 0 0 0 0 0 0 0 0 0 0 0 0 0 0 0 0 120 107 0 0 76 0 120 76 0 0 76 76 0 76 76 0 76 0 76 76 169 72 212 0 0 0 0 0 0 0 0 0 0 0 0 0 0 0 0 0 0 0 0 0 0 0 0 0 0 0 0 0 0 0 212 212 0 0 152 152 0 0 0 0 0 0 0 0 0 0 0 0 0 0 0 0 0 0 0 0 0 0 0 
0 0 0 167 237 74 74 74 74 149 167 167 149 167 224 106 149 106 106 167 74 237 167 0 0 0 0 0 0 0 152 120 169 76 169 0 144 0 0 0 0 0 0 0 0 0 0 0 0 0 0 0 0 0 0 0 0 0 0 0 0 0 0 0 0 0 0 0 0 0 0 113 231 74 158 206 113 113 113 160 0 0 0 0 0 0 0 0 0 0 0 0 0 0 0 0 0 0 0 0 0 0 0 0 0 0 0 0 0 72 0 0 0 0 0 0 0 0 0 0 0 0 0 206 0 167 120 117 160 113 0 0 113 113 160 152 0 120 169 76 76 0 169 0 0 76 0 104 0 0 72 0 150 0 113 155 97 235 74 0 212 0 232 97 202 216 136 206 0 0 0 0 0 0 0 0 0 0 0 0 0 0 0 0 0 0 0 0 0 0 0 0 0 0 0 0 0 0 0 0 0 0 0 0 0 0 0 0 0 0 113 160 0 0 152 0 161 161 76 161 161 0 0 0 76 0 0 0 144 144 0 0 113 160 0 0 0 76 120 107 0 152 0 0 0 0 0 0 0 0 0 0 0 0 0 0 0 0 0 0 0 0 0 0 0 0 0 0 0 0 0 0 0 0 0 0 0 0 0 0 0 0 0 0 0 0 0 0 0 0 0 0 0 0 0 0 0 0 0 0 0 0 0 0 0 0 0 0 0 0 0 106 74 149 74 74 224 237 167 74 0 0 0 0 0 0 0 0 0 0 0 0 0 0 0 0 0 0 0 0 0 0 0 0 0 0 0 0 0 0 0 0 0 0 0 0 0 0 0 0 0 0 0 0 0 0 0 0 0 0 0 0 0 252 0 0 0 0 0 0 0 0 0 0 0 76 120 0 0 0 0 0 0 0 0 0 0 0 0 0 0 0 0 0 0 0 0 0 0 0 0 0 0 0 0 0 0 0 0 0 0 0 0 0 0 0 0 0 0 0 120 120 76 107 0 0 107 76 76 0 0 76 0 76 0 76 120 76 76 169 252 212 0 0 0 0 0 0 0 0 0 0 0 0 0 0 0 0 0 0 0 0 0 0 0 0 0 0 0 0 0 74 167 224 167 0 0 169 120 0 0 0 0 0 0 0 0 0 0 0 0 0 0 0 0 0 0 0 0 0 0 0 
0 0 0 167 237 74 106 0 74 167 167 106 167 167 74 0 74 224 212 224 106 237 74 0 0 0 0 0 0 0 152 152 152 120 218 0 113 0 0 0 0 0 0 0 0 0 0 0 0 0 0 0 0 0 0 0 0 0 0 0 0 0 0 0 0 0 0 0 0 0 113 152 146 117 206 152 113 144 144 144 0 0 0 0 0 0 0 0 0 0 0 0 0 0 0 0 0 0 0 0 0 0 0 0 0 0 0 0 72 0 72 0 0 0 0 0 72 0 0 0 0 0 0 101 146 158 120 0 113 160 0 0 144 113 113 113 191 76 152 0 0 120 120 0 0 76 120 0 104 0 0 209 0 187 146 136 234 233 167 120 0 206 185 0 0 0 163 0 0 0 0 0 0 0 0 0 0 0 0 0 0 0 0 0 0 0 0 0 0 0 0 0 0 0 0 0 0 0 0 0 0 0 0 0 0 0 0 0 0 0 160 113 0 0 169 107 120 120 0 152 76 0 0 0 0 0 0 0 144 144 0 0 144 144 0 0 0 0 120 76 120 120 0 0 0 0 0 0 0 0 0 0 0 0 0 0 0 0 0 0 0 0 0 0 0 0 0 0 0 0 0 0 0 0 0 0 0 0 0 0 0 0 0 0 0 0 0 0 0 0 0 0 0 0 0 0 0 0 0 0 0 0 0 0 0 0 0 0 0 0 0 74 149 0 167 167 0 167 224 167 0 0 0 0 0 0 0 0 0 0 0 0 0 0 0 0 0 0 0 0 0 0 0 0 0 0 0 0 0 0 0 0 0 0 0 0 0 0 0 0 0 0 0 0 0 0 0 0 0 0 0 0 0 167 236 114 0 0 0 0 0 0 0 220 0 76 0 0 0 0 0 0 0 0 0 0 0 0 0 0 0 0 0 0 0 0 0 0 0 0 0 0 0 0 0 0 0 0 0 0 0 0 0 0 0 76 0 0 0 0 0 120 120 161 0 0 76 152 0 76 76 76 0 120 76 107 169 76 76 120 212 212 0 0 0 0 0 0 0 0 0 0 0 0 0 0 0 0 0 0 0 0 0 0 0 0 0 0 0 0 0 167 224 167 74 0 120 169 0 0 0 0 0 0 0 0 0 0 0 0 0 0 0 0 0 0 0 0 0 0 0 0 
0 0 0 74 237 167 74 106 74 0 0 0 0 0 0 0 0 74 106 74 212 212 0 0 0 0 0 0 0 0 120 169 76 120 0 212 0 0 0 0 0 0 0 0 0 0 0 0 0 0 0 0 0 0 0 0 0 0 0 0 0 0 0 0 0 0 0 0 0 206 231 116 72 160 152 0 144 144 144 144 0 0 0 0 0 0 0 0 0 0 0 0 0 0 0 0 0 0 0 0 0 0 0 0 0 0 0 0 0 72 0 0 0 0 0 113 72 113 0 0 0 0 113 206 187 74 0 0 0 152 160 113 113 144 0 72 191 120 169 120 120 169 0 167 0 0 0 212 76 74 187 0 192 218 0 180 0 167 252 218 0 113 0 0 0 0 0 0 0 113 113 0 0 0 0 0 0 0 0 0 0 0 0 0 0 0 0 0 0 0 0 0 0 0 0 0 0 0 0 0 0 0 0 0 0 0 0 0 0 113 160 0 0 120 169 0 0 0 0 161 161 76 76 0 0 0 0 0 160 113 0 0 144 144 0 0 0 0 0 161 161 0 0 0 0 0 0 0 0 0 0 0 0 0 0 0 0 0 0 0 0 0 0 0 0 0 0 0 0 0 0 0 0 0 0 0 0 0 0 0 0 0 0 0 0 0 0 0 0 0 0 0 0 0 0 0 0 0 0 0 0 0 0 0 0 0 0 0 0 0 0 0 74 149 106 149 149 167 149 167 74 0 0 0 0 0 0 0 0 0 0 0 0 0 0 0 0 0 0 0 0 0 0 0 0 0 0 0 0 0 0 0 0 0 0 0 0 0 0 0 0 0 0 0 0 0 0 0 0 0 0 0 0 74 168 215 113 0 0 0 0 0 0 0 76 0 0 0 0 0 0 0 0 0 0 0 0 0 0 0 0 0 0 0 0 0 0 0 0 0 0 0 0 0 0 0 0 0 0 0 0 0 0 0 76 0 76 0 0 0 0 120 120 120 76 120 120 120 120 76 76 76 120 120 76 0 120 0 0 0 212 212 0 0 0 0 0 0 0 0 0 0 0 0 0 0 0 0 0 0 0 0 0 0 0 0 0 0 0 0 0 212 212 0 0 0 169 120 0 0 0 0 0 0 0 0 0 0 0 0 0 0 0 0 0 0 0 0 0 0 0 0 
0 0 0 0 212 212 74 106 74 0 0 0 0 0 0 74 167 167 74 0 167 237 74 0 0 0 0 0 0 0 0 169 76 76 185 144 0 0 0 0 0 0 0 0 0 0 0 0 0 0 0 0 0 0 0 0 0 0 0 0 0 0 0 0 0 0 0 0 113 231 0 213 160 113 0 0 160 72 160 113 0 0 0 0 0 0 0 0 0 0 0 0 0 0 0 0 0 0 0 0 0 0 0 0 0 0 0 0 0 0 0 0 0 0 0 144 0 160 0 0 0 0 113 231 0 76 0 0 0 0 146 231 146 113 72 0 189 161 161 120 152 152 120 218 209 163 212 0 167 76 120 152 76 76 183 252 74 0 0 218 185 72 0 0 0 0 0 0 113 101 113 72 0 0 0 0 0 0 0 0 0 0 0 0 0 0 0 0 0 0 0 0 0 0 0 0 0 0 0 0 0 0 0 0 0 0 0 0 0 160 113 0 0 120 161 120 0 0 120 120 120 0 120 161 0 0 0 113 160 0 0 0 144 113 72 0 0 0 120 169 0 0 0 0 0 0 0 0 0 0 0 0 0 0 0 0 0 0 0 0 0 0 0 0 0 0 0 0 0 0 0 0 0 0 0 0 0 0 0 0 0 0 0 0 0 0 0 0 0 0 0 0 0 0 0 0 0 0 0 0 0 0 0 0 0 0 0 0 0 0 0 0 0 74 224 167 74 106 0 74 149 74 0 0 74 106 74 0 0 0 0 0 0 0 0 0 0 0 0 0 0 0 0 0 0 0 0 0 0 0 0 0 0 0 0 0 0 0 0 0 0 0 0 0 0 0 0 0 0 0 0 0 0 0 72 0 185 0 0 0 0 0 0 0 0 0 0 0 0 0 0 0 0 0 0 0 0 0 0 0 0 0 0 0 0 0 0 0 0 0 0 0 0 0 0 0 0 0 0 0 0 0 0 0 0 76 0 0 0 0 0 0 161 120 0 76 0 76 120 76 76 76 120 0 76 0 76 76 76 0 212 212 0 0 0 0 0 0 0 0 0 0 0 0 0 0 0 0 0 0 0 0 0 0 0 0 0 0 0 0 74 237 167 0 0 120 169 0 0 0 0 0 0 0 0 0 0 0 0 0 0 0 0 0 0 0 0 0 0 0 0 0 
0 0 0 0 212 212 167 106 167 0 0 0 74 106 74 167 149 167 74 167 167 167 106 0 0 0 0 0 0 0 0 152 152 0 144 144 0 0 0 0 0 0 0 0 0 0 0 0 0 0 0 0 0 0 0 0 0 0 0 0 0 0 0 0 0 0 0 0 144 163 213 206 0 0 0 113 160 72 160 0 0 0 0 0 0 0 0 0 0 0 0 0 0 0 0 0 0 0 0 0 0 0 0 0 0 0 0 0 0 0 0 0 0 0 0 113 113 101 152 0 0 0 0 206 231 185 144 113 0 0 76 0 116 167 167 116 74 120 120 0 169 120 152 191 152 152 0 212 234 0 76 120 169 161 128 224 252 130 182 117 0 0 163 0 0 0 0 0 113 72 152 0 0 0 0 0 0 0 0 0 0 0 0 0 0 0 0 0 0 0 0 0 0 0 0 0 0 0 0 0 0 0 0 0 0 0 0 0 113 160 0 0 0 0 107 120 76 76 76 0 107 120 120 161 169 120 0 144 144 0 0 0 144 72 0 72 0 0 169 120 0 0 0 0 0 0 0 0 0 0 0 0 0 0 0 0 0 0 0 0 0 0 0 0 0 0 0 0 0 0 0 0 0 0 0 0 0 0 0 0 0 0 0 0 0 0 0 0 0 0 0 0 0 0 0 0 0 0 0 0 0 0 0 0 0 0 0 0 0 0 0 0 0 0 74 106 106 167 149 0 106 224 74 0 106 0 106 0 0 0 0 0 0 0 0 0 0 0 0 0 0 0 0 0 0 0 0 0 0 0 0 0 0 0 0 0 0 0 0 0 0 0 0 0 0 0 0 0 0 0 0 0 0 0 217 0 95 0 0 0 0 113 0 191 0 0 0 0 0 0 0 0 0 0 0 0 0 0 0 0 0 0 0 0 0 0 0 0 0 0 0 0 0 0 0 0 0 0 0 0 0 0 0 0 76 0 0 0 0 0 0 0 76 0 107 0 76 120 0 76 0 0 76 0 120 169 169 120 0 0 212 212 0 0 0 0 0 0 0 0 0 0 0 0 0 0 0 0 0 0 0 0 0 0 0 0 0 0 0 0 167 237 74 0 0 169 120 0 0 0 0 0 0 0 0 0 0 0 0 0 0 0 0 0 0 0 0 0 0 0 0 0 
0 0 0 0 167 237 167 0 167 167 167 106 224 212 237 224 74 167 167 237 212 167 74 0 0 0 0 0 0 0 0 120 169 0 113 160 0 0 0 0 0 0 0 0 0 0 0 0 0 0 0 0 0 0 0 0 0 0 0 0 0 0 0 0 0 0 0 0 113 113 152 0 0 0 0 144 144 144 144 0 0 0 0 0 0 0 0 0 0 0 0 0 0 0 0 0 0 0 0 0 0 0 0 0 0 0 0 0 0 0 0 0 0 0 0 0 160 72 160 113 0 0 0 0 113 144 144 160 152 0 0 76 76 161 161 120 0 0 0 120 169 0 169 120 0 152 152 72 0 158 76 120 120 120 0 167 223 139 120 242 91 229 241 95 163 72 163 231 116 113 0 0 0 0 0 0 0 0 0 0 0 0 0 0 0 0 0 0 0 0 0 0 0 0 0 0 0 0 0 0 0 0 0 0 0 0 0 0 160 113 0 0 0 0 76 120 120 76 76 169 169 107 107 76 76 161 120 144 144 0 0 0 144 113 72 0 0 120 169 0 0 0 0 0 0 0 0 0 0 0 0 0 0 0 0 0 0 0 0 0 0 0 0 0 0 0 0 0 0 0 0 0 0 0 0 0 0 0 0 0 0 0 0 0 0 0 0 0 0 0 0 0 0 0 0 0 0 0 0 0 0 0 0 0 0 0 0 0 0 0 0 0 0 74 167 167 74 74 237 106 149 106 167 167 0 106 74 0 0 0 0 0 0 0 0 0 0 0 0 0 0 0 0 0 0 0 0 0 0 0 0 0 0 0 0 0 0 0 0 0 0 0 0 0 0 0 0 0 0 0 0 0 0 0 74 168 215 113 0 0 0 144 0 152 0 0 0 0 0 0 0 0 0 0 0 0 0 0 0 0 0 0 0 0 0 0 0 0 0 0 0 0 0 0 0 0 0 0 0 0 0 0 0 76 0 76 0 0 0 76 0 0 120 161 120 120 0 152 0 120 120 0 76 120 161 76 0 0 0 0 212 212 0 0 0 0 0 0 0 0 0 0 0 0 0 0 0 0 0 0 0 0 0 0 0 0 0 0 0 0 212 212 0 0 120 169 0 0 0 0 0 0 0 0 0 0 0 0 0 0 0 0 0 0 0 0 0 0 0 0 0 0 
0 0 0 0 74 224 167 106 167 237 237 212 224 106 167 167 106 167 167 74 0 0 0 0 0 0 0 0 0 0 0 76 152 0 117 212 113 0 0 0 0 0 0 0 0 0 0 0 0 0 0 0 0 0 0 0 0 0 0 0 0 0 0 0 72 0 0 0 0 72 0 0 0 0 0 144 144 144 144 0 0 0 0 0 0 0 0 0 0 0 0 0 0 0 0 0 0 0 0 0 0 0 0 0 0 0 0 0 0 0 0 0 0 0 0 0 144 144 144 144 0 0 0 0 0 0 0 0 152 152 0 0 120 169 76 161 120 0 0 120 169 107 169 0 0 0 152 101 155 0 0 163 74 107 0 167 148 117 107 148 106 0 234 83 74 0 74 222 216 160 0 0 72 0 0 0 0 0 0 0 0 0 0 0 0 0 72 0 0 0 0 0 0 0 0 0 0 0 0 0 0 0 0 0 0 0 0 113 160 0 0 0 0 0 76 0 120 161 120 0 120 107 0 107 120 161 167 160 113 0 0 0 144 144 0 0 0 120 169 0 0 0 0 0 0 0 0 0 0 0 0 0 0 0 0 0 0 0 0 0 0 0 0 0 0 0 0 0 0 0 0 0 0 0 0 0 0 0 0 0 0 0 0 0 0 0 0 0 0 0 0 0 0 0 0 0 0 0 0 0 0 0 0 0 0 0 0 0 0 0 0 0 0 106 106 74 167 167 106 74 106 167 106 149 167 0 0 0 0 0 0 0 0 0 0 0 0 0 0 0 0 0 0 0 0 0 0 0 0 0 0 0 0 0 0 0 0 0 0 0 0 0 0 0 0 0 0 0 0 0 0 0 0 0 0 72 0 185 0 0 0 144 0 169 0 0 0 0 0 0 0 0 0 0 0 0 0 0 0 0 0 0 0 0 0 0 0 0 0 0 0 0 0 0 0 0 0 0 76 0 0 0 0 0 76 0 0 0 120 76 120 0 120 161 120 120 0 152 76 76 0 107 0 169 76 161 120 120 0 74 237 167 0 0 0 0 0 0 0 0 0 0 0 0 0 0 0 0 0 0 0 0 0 0 0 0 0 0 0 0 212 212 0 0 152 152 0 0 0 0 0 0 0 0 0 0 0 0 0 0 0 72 0 0 0 0 0 0 0 0 0 0 
0 0 0 0 0 106 74 106 74 106 74 106 74 0 0 0 0 0 0 0 0 0 0 0 0 0 0 0 0 0 0 107 120 0 120 0 212 0 0 0 0 0 0 0 0 0 0 0 0 0 0 0 0 0 0 0 0 0 0 0 0 0 0 152 144 152 0 0 0 0 0 0 0 0 0 113 152 152 113 0 0 0 0 0 0 0 0 0 0 0 0 0 0 0 0 0 0 0 0 0 0 0 0 0 0 0 0 0 0 0 0 0 0 0 0 0 113 152 152 113 0 0 0 0 0 0 0 0 0 160 113 0 0 169 76 120 161 120 0 0 169 0 152 0 0 72 0 160 72 113 185 0 74 0 222 216 163 0 0 69 102 108 0 190 0 148 104 0 212 0 0 0 0 0 185 113 0 0 0 0 0 0 0 0 72 0 0 72 0 0 0 0 0 0 0 0 0 0 0 0 0 0 0 0 0 0 0 160 113 0 0 0 0 0 161 152 161 76 169 0 0 120 120 76 107 120 116 113 101 0 0 0 160 113 0 0 0 0 120 120 0 0 0 0 0 0 0 0 0 0 0 0 0 0 0 0 0 0 0 0 0 0 0 0 0 0 0 0 0 0 0 0 0 0 0 0 0 0 0 0 0 0 0 0 0 0 0 0 0 0 0 0 0 0 0 0 0 0 0 0 0 0 0 0 0 0 0 0 0 0 0 0 0 74 167 167 106 106 74 74 149 0 224 167 167 0 0 0 0 0 0 0 0 0 0 0 0 0 0 0 0 0 0 0 0 0 0 0 0 0 0 0 0 0 0 0 0 0 0 0 0 0 0 0 0 0 0 0 0 0 0 0 0 0 0 217 0 68 0 0 0 144 220 120 107 0 0 76 0 0 0 0 0 0 0 0 0 0 0 0 76 0 0 0 0 0 0 0 0 0 0 0 0 0 0 0 0 76 0 76 0 0 0 0 0 0 0 0 120 76 120 0 0 120 169 120 76 169 0 120 120 0 76 152 0 120 107 120 0 167 237 74 0 0 0 0 0 0 0 0 0 0 0 0 0 0 0 0 0 0 0 0 0 0 0 0 0 0 0 74 237 167 0 0 169 120 0 0 0 0 0 0 0 0 0 0 0 0 0 0 101 0 72 0 0 0 0 0 0 0 0 0 
0 0 0 0 74 224 237 212 224 167 0 0 0 0 0 0 0 0 0 0 0 0 0 0 0 0 0 0 0 0 76 76 76 76 120 236 0 72 0 0 0 0 0 0 0 0 0 0 0 0 0 0 0 0 0 0 0 0 0 0 0 0 72 113 72 113 72 0 0 0 0 0 0 0 0 72 0 101 0 72 0 0 0 0 0 0 0 0 0 0 0 0 0 0 0 0 0 0 0 0 0 0 0 0 0 0 0 0 0 0 0 0 0 0 0 0 101 0 101 0 0 0 0 0 0 0 0 0 0 113 160 0 0 169 120 0 169 120 0 0 120 76 120 0 113 113 152 113 144 0 0 0 163 0 0 120 146 116 0 0 0 0 0 0 0 117 120 120 0 74 222 0 224 0 214 160 185 68 146 68 185 144 144 160 113 72 72 0 0 0 0 0 0 0 0 0 0 0 0 0 0 0 0 0 0 0 113 160 0 0 0 0 0 76 152 0 161 120 120 76 0 0 0 76 107 120 104 101 113 72 0 113 160 0 0 0 120 120 120 120 0 0 0 0 0 0 0 0 0 0 0 0 0 0 0 0 0 0 0 0 0 0 0 0 0 0 0 0 0 0 0 0 0 0 0 0 0 0 0 0 0 0 0 0 0 0 0 0 0 0 0 0 0 0 0 0 0 0 0 0 0 0 0 0 0 0 0 0 0 0 0 0 0 0 0 74 237 106 167 167 74 106 74 74 74 74 0 0 0 0 0 0 0 0 0 0 0 0 0 0 0 0 0 0 0 0 0 0 0 0 0 0 0 0 0 0 0 0 0 0 0 0 0 0 0 0 0 0 0 0 0 0 0 0 0 74 236 215 0 0 0 185 0 120 0 76 76 0 76 0 0 0 0 0 0 0 0 0 0 76 0 76 0 0 0 0 0 0 0 0 0 0 0 0 0 0 0 0 76 0 76 0 0 0 0 0 0 0 0 76 0 0 76 0 76 0 0 169 120 0 76 0 76 152 0 120 120 0 0 212 212 0 0 0 0 0 0 0 0 0 0 0 0 0 0 0 0 0 0 0 0 0 0 0 0 0 0 0 74 224 224 74 0 120 169 0 0 0 0 0 0 0 0 0 0 0 0 0 0 72 0 101 0 0 0 0 0 0 0 0 0 0 
0 0 0 0 167 237 74 0 167 224 167 74 0 0 0 0 0 0 0 0 0 0 0 0 0 0 0 0 0 0 76 76 0 107 76 0 0 0 0 0 0 0 0 0 0 0 0 0 0 0 0 0 0 0 0 0 0 0 0 0 0 0 0 113 144 113 0 0 0 0 0 0 0 0 0 72 0 72 72 0 72 0 0 0 0 0 0 0 0 0 0 0 0 0 0 0 0 0 0 0 0 0 0 0 0 0 0 0 0 0 0 0 0 0 0 113 152 152 113 0 0 0 0 0 0 0 0 0 0 0 160 113 120 169 0 161 161 0 120 120 0 148 0 120 209 163 113 0 160 0 0 0 0 0 113 113 113 113 0 0 113 144 144 144 0 164 215 0 0 0 0 191 152 161 120 0 165 157 202 0 116 0 185 72 113 113 0 0 0 0 0 0 0 0 0 0 0 0 0 0 0 0 0 0 0 0 144 144 0 0 0 0 0 76 152 76 0 120 120 0 0 0 120 0 0 120 117 152 152 0 0 113 160 0 0 0 152 120 76 0 0 0 0 0 0 0 0 0 0 0 0 0 0 0 0 0 0 0 0 0 0 0 0 0 0 0 0 0 0 0 0 0 0 0 0 0 0 0 0 0 0 0 0 0 0 0 0 0 0 0 0 0 0 0 0 0 0 0 0 0 0 0 0 0 0 0 0 0 0 0 0 0 0 0 0 0 212 212 74 149 74 106 0 106 0 106 0 0 0 0 0 0 0 0 0 0 0 0 0 0 0 0 0 0 0 0 0 0 0 0 0 0 0 0 0 0 0 0 0 0 0 0 0 0 0 0 0 0 0 0 0 0 0 0 0 0 113 0 163 0 0 0 0 0 0 0 0 76 0 0 0 0 0 0 0 0 0 0 0 0 76 0 0 0 0 0 0 0 0 0 0 0 0 0 0 0 0 0 0 76 0 76 0 0 0 0 0 0 0 0 0 120 76 120 120 76 120 152 152 120 76 120 120 169 0 0 0 0 0 167 237 74 0 0 0 0 0 0 0 0 0 0 0 0 0 0 0 0 0 0 0 0 0 0 0 0 0 0 167 237 74 0 0 169 120 0 0 0 0 0 0 0 0 0 0 0 0 0 0 0 72 0 0 0 0 0 0 0 0 0 0 0 
0 0 0 0 167 237 74 0 74 167 237 224 74 74 167 167 74 0 74 106 74 0 0 0 0 0 0 0 0 0 76 0 120 76 107 0 185 0 0 0 0 0 0 0 0 0 0 0 0 0 0 0 0 0 0 0 0 0 0 0 0 0 0 0 0 0 0 0 0 0 0 0 0 0 0 0 72 0 0 72 0 0 0 0 0 0 0 0 0 0 0 0 0 0 0 0 0 0 0 0 0 0 0 0 0 0 0 0 0 0 0 0 0 0 0 160 113 144 144 0 0 0 0 0 0 0 0 0 0 0 113 160 191 120 212 218 74 120 107 120 187 113 213 150 167 0 0 113 101 152 0 0 0 0 0 160 0 144 0 0 0 0 0 0 163 187 212 144 144 185 0 0 0 0 185 144 214 157 0 217 220 155 115 0 144 72 0 0 0 0 0 0 0 0 0 0 0 0 0 0 0 0 0 0 0 0 160 113 0 0 0 0 0 161 161 0 0 0 0 0 0 0 152 0 0 169 116 144 72 0 0 72 144 72 0 0 152 152 0 0 0 0 0 0 0 0 0 0 0 0 0 0 0 0 0 0 0 0 0 0 0 0 0 0 0 0 0 0 0 0 0 0 0 0 0 0 0 0 0 0 0 0 0 0 0 0 0 0 0 0 0 0 0 0 0 0 0 0 0 0 0 0 0 0 0 0 0 0 0 0 0 0 0 0 0 0 167 224 237 237 224 167 0 74 106 74 0 0 0 0 0 0 0 0 0 0 0 0 0 0 0 0 0 0 0 0 0 0 0 0 0 0 0 0 0 0 0 0 0 0 0 0 0 0 0 0 0 0 0 0 0 0 0 0 0 0 217 0 68 0 0 0 185 76 120 0 0 0 0 0 0 0 0 0 0 0 0 0 0 0 0 0 0 0 0 0 0 0 0 0 0 0 0 0 0 0 76 0 0 0 76 0 0 0 0 0 0 0 0 0 0 120 0 107 107 0 107 161 76 120 0 107 161 120 0 0 0 0 0 74 237 167 0 0 0 0 0 0 0 0 0 0 0 0 0 0 0 0 0 0 0 0 0 0 0 0 0 0 212 212 0 0 120 169 0 0 0 0 0 0 0 0 0 0 0 0 0 0 0 72 0 0 0 0 0 0 0 0 0 0 0 0 
0 0 0 0 74 237 167 0 0 0 74 237 167 167 149 167 106 74 224 167 167 0 74 106 74 0 0 0 0 0 0 76 0 161 212 212 113 0 0 0 0 0 0 0 0 0 0 0 0 0 0 0 0 0 0 0 0 0 0 0 0 0 0 0 0 0 0 0 0 0 0 0 0 0 0 0 0 0 0 0 0 0 0 0 0 0 0 0 0 0 0 0 0 0 0 0 0 0 0 0 0 0 0 0 0 0 0 0 0 0 0 0 0 0 113 160 0 144 144 0 0 0 72 0 0 0 0 0 0 0 0 113 234 120 0 163 152 191 76 152 187 113 155 0 158 215 0 70 116 213 206 0 0 0 0 144 0 144 0 0 0 0 0 72 0 72 0 0 0 0 0 113 144 144 144 144 185 95 241 202 146 0 161 116 232 0 163 0 0 0 0 0 0 0 0 0 0 0 0 0 0 0 0 0 0 152 152 0 0 0 0 0 161 107 76 120 0 0 0 0 0 0 120 76 0 152 0 160 113 0 0 152 152 0 0 0 169 120 0 0 0 0 0 0 0 0 0 0 0 0 0 0 0 0 0 0 0 0 0 0 0 0 0 0 0 0 0 0 0 0 0 0 0 0 0 0 0 0 0 0 0 0 0 0 0 0 0 0 0 0 0 0 0 0 0 0 0 0 0 0 0 0 0 0 0 0 0 0 0 0 0 0 0 0 0 0 74 167 167 74 167 224 167 74 0 0 0 0 0 0 0 0 0 0 0 0 0 0 0 0 0 0 0 0 0 0 0 0 0 0 0 0 0 0 0 0 0 0 0 0 0 0 0 0 0 0 0 0 0 0 0 0 0 0 0 0 74 236 215 0 0 0 144 0 169 0 0 0 0 0 0 0 0 0 0 0 0 0 0 0 0 0 0 0 0 0 0 0 0 0 0 0 0 0 0 76 0 76 0 0 0 0 0 0 0 0 0 0 0 0 0 0 120 107 107 0 107 76 107 120 76 120 120 0 0 0 0 76 0 0 167 237 74 0 0 0 0 0 0 0 0 0 0 0 0 0 0 0 0 0 0 0 0 0 0 0 0 74 237 167 0 0 152 152 0 0 0 0 0 0 0 0 0 0 0 0 0 0 72 0 72 0 0 0 0 0 0 0 0 0 113 0 
0 0 74 106 74 212 212 0 74 106 74 212 167 237 0 237 0 224 149 167 167 0 106 0 106 0 0 0 0 0 0 0 120 169 116 144 72 0 0 0 0 0 0 0 0 0 0 0 0 0 0 0 0 0 0 0 0 0 0 0 0 0 0 0 0 0 0 0 0 0 0 0 0 0 0 0 0 0 0 0 0 0 0 0 0 0 0 0 0 0 0 0 0 0 0 0 0 0 0 0 0 0 0 0 0 0 0 0 0 0 0 0 0 0 144 144 0 144 144 0 0 72 0 113 113 0 0 0 0 113 72 0 185 76 146 101 113 189 120 107 212 206 101 155 0 107 0 165 234 117 0 113 0 0 0 144 0 160 0 0 0 0 72 0 72 0 0 0 0 0 0 0 0 0 0 0 0 0 163 220 163 0 113 213 104 116 0 206 0 0 0 0 0 0 0 0 0 0 0 0 0 0 0 0 113 160 0 0 0 0 0 161 107 107 120 120 0 120 120 0 0 0 0 0 120 120 0 144 144 0 113 160 0 0 0 120 169 0 0 0 0 0 0 0 0 0 0 0 0 0 0 0 0 0 0 0 0 0 0 0 0 0 0 0 0 0 0 0 0 0 0 0 0 0 0 0 0 0 0 0 0 0 0 0 0 0 0 0 0 0 0 0 0 0 0 0 0 0 0 0 0 0 0 0 0 0 0 0 0 0 0 0 0 0 0 0 0 0 0 0 74 167 224 167 0 0 0 0 0 0 0 0 0 0 0 0 0 0 0 0 0 0 0 0 0 0 0 0 0 0 0 0 0 0 0 0 0 0 0 0 0 0 0 0 0 0 0 0 0 0 0 0 0 0 0 0 0 145 0 113 0 0 144 120 169 120 0 0 0 0 0 0 0 0 0 0 0 0 0 0 0 0 0 0 0 0 0 0 0 0 0 0 0 0 0 0 76 0 0 0 0 0 0 0 0 0 0 0 0 0 0 0 120 107 161 76 161 169 161 76 0 0 0 0 0 0 76 0 76 0 74 224 224 74 0 0 0 0 0 0 0 0 0 0 0 0 0 0 0 0 0 0 0 0 0 0 0 167 237 74 0 0 169 120 0 0 0 0 0 0 0 0 0 0 0 0 0 72 0 72 0 0 0 0 0 0 0 0 0 72 113 0 
0 0 167 106 167 212 212 0 106 0 106 212 106 167 149 167 167 237 106 167 74 74 74 106 74 0 0 0 0 0 0 0 152 152 0 160 113 0 0 0 0 0 0 0 0 0 0 0 0 0 0 0 0 0 0 0 0 0 0 0 0 0 0 0 0 0 0 0 0 0 0 0 0 0 0 0 0 0 0 0 0 0 0 0 0 0 0 0 0 0 0 0 0 0 0 0 0 0 0 0 0 0 0 0 0 0 0 0 0 0 0 0 0 0 144 144 0 144 144 0 0 0 101 72 113 152 0 0 0 144 0 72 113 0 0 113 113 74 169 189 0 167 0 155 163 0 0 166 158 0 234 212 0 0 0 144 113 160 113 0 0 0 0 72 0 0 0 0 0 0 0 0 0 0 0 0 0 0 0 0 0 0 0 163 0 0 0 0 163 0 0 0 0 0 0 0 0 0 0 0 0 0 0 0 144 144 0 0 0 0 76 120 120 107 107 161 0 76 76 0 120 120 0 120 169 0 0 144 144 0 144 144 0 0 0 152 152 0 0 0 0 0 0 0 0 0 0 0 0 0 0 0 0 0 0 0 0 0 0 0 0 0 0 0 0 0 0 0 0 0 0 0 0 0 0 0 0 0 0 0 0 0 0 0 0 0 0 0 0 0 0 0 0 0 0 0 0 0 0 0 0 0 0 0 0 0 0 0 0 0 0 0 0 0 0 0 0 0 0 74 167 212 224 167 74 167 167 74 0 0 0 0 0 0 0 0 0 0 0 0 0 0 0 0 0 0 0 0 0 0 0 0 0 0 0 0 0 0 0 0 0 0 0 0 0 0 0 0 0 0 0 0 0 0 0 0 0 72 0 185 0 0 115 76 169 120 0 0 0 0 0 0 0 0 0 0 0 0 0 0 0 0 0 0 0 0 0 0 76 0 0 0 0 0 0 0 0 0 0 0 0 0 0 0 0 0 0 0 0 0 0 161 76 107 120 76 120 120 0 120 120 0 76 0 0 0 0 76 0 0 0 74 224 224 74 0 0 0 0 0 0 0 0 0 0 0 0 0 0 0 0 0 0 0 0 0 0 212 212 0 0 161 161 0 0 0 0 0 0 0 0 0 0 0 0 72 0 0 72 0 0 0 0 0 0 0 0 113 160 144 113 0 
0 0 167 106 167 167 224 167 74 0 106 167 149 74 106 106 212 167 237 0 167 224 74 0 0 0 0 0 0 0 0 0 152 152 0 144 144 0 0 0 0 0 0 0 0 0 0 0 0 0 0 0 0 0 0 0 0 0 0 0 0 0 0 0 0 0 0 0 0 0 0 0 0 0 0 0 0 0 0 0 0 0 0 0 0 0 0 0 0 0 0 0 0 0 0 0 0 0 0 0 0 0 0 0 0 0 0 0 0 0 0 0 0 0 113 152 144 101 101 113 0 0 0 160 116 206 163 0 0 144 113 0 0 0 0 0 76 0 0 120 158 0 117 213 113 146 107 76 76 76 167 0 163 0 0 113 160 113 144 0 0 0 0 0 0 0 0 0 0 0 0 0 0 0 0 0 0 0 0 0 0 0 0 0 0 206 0 206 187 0 0 0 0 0 0 0 0 0 0 0 0 0 0 0 144 144 0 0 0 0 0 120 76 107 107 76 120 0 107 76 161 161 120 152 152 0 113 152 113 0 144 144 0 0 0 169 120 0 0 0 0 0 0 0 0 0 0 0 0 0 0 0 0 0 0 0 0 0 0 0 0 0 0 0 0 0 0 0 0 0 0 0 0 0 0 0 0 0 0 0 0 0 0 0 0 0 0 0 0 0 0 0 0 0 0 0 0 0 0 0 0 0 0 0 0 0 0 0 0 0 0 0 0 0 0 0 0 0 0 106 106 0 74 167 237 167 167 106 0 0 0 0 0 0 0 0 0 0 0 0 0 0 0 0 0 0 0 0 0 0 0 0 0 0 0 0 0 0 0 0 0 0 0 0 0 0 0 0 0 0 0 0 0 0 0 0 0 217 0 95 0 185 104 76 169 0 0 0 0 0 0 0 0 0 0 0 0 0 0 0 0 0 0 0 0 0 0 120 76 120 0 0 0 0 0 0 0 0 0 0 0 0 0 0 0 0 0 120 120 0 76 120 0 120 0 0 0 76 107 107 76 107 0 0 0 0 0 0 0 0 0 0 74 224 237 212 167 74 0 0 0 0 0 0 0 0 0 0 0 0 0 0 0 0 0 0 0 212 212 0 76 152 76 0 0 0 0 0 0 0 0 0 0 0 72 0 0 72 0 72 0 0 0 0 0 0 72 72 72 0 72 0 
0 0 74 106 74 106 106 74 106 74 106 74 149 74 106 106 212 74 237 167 106 212 106 0 0 0 0 0 0 0 0 0 120 169 0 144 144 0 0 0 0 0 0 0 0 0 0 0 0 0 0 0 0 0 0 0 0 0 0 0 0 0 0 0 0 0 0 0 0 0 0 0 0 0 0 0 0 0 0 0 0 0 0 0 0 0 0 0 0 0 0 0 0 0 0 0 0 0 0 0 0 0 0 0 0 0 0 0 0 0 0 0 0 0 0 113 144 113 72 101 113 0 0 113 231 72 231 0 0 144 144 113 113 152 0 76 0 107 116 0 116 150 234 163 0 72 0 161 107 0 76 0 0 104 0 0 160 0 144 0 0 0 0 0 0 0 0 0 0 0 0 0 0 0 0 0 0 0 0 0 0 0 0 0 0 0 163 187 104 0 0 0 0 0 0 0 0 0 0 0 0 0 0 0 160 113 0 0 0 0 0 0 120 120 0 107 76 107 107 120 120 169 76 169 120 113 152 113 0 0 160 113 0 0 76 152 76 0 0 0 0 0 0 0 0 0 0 0 0 0 0 0 0 0 0 0 0 0 0 0 0 0 0 0 0 0 0 0 0 0 0 0 0 0 74 106 74 0 0 0 0 0 0 0 0 0 0 0 0 0 0 0 0 0 0 0 0 0 0 0 0 0 0 0 0 0 0 0 0 0 0 0 0 0 0 0 0 0 0 74 167 212 212 212 106 149 224 74 74 106 74 0 0 0 0 0 0 0 0 0 0 0 0 0 0 0 0 0 0 0 0 0 0 0 0 0 0 0 0 0 0 0 0 0 0 0 0 0 0 0 0 0 0 0 0 0 0 74 148 241 104 144 116 169 120 0 0 0 0 0 76 0 0 0 0 0 0 0 0 0 0 0 0 0 0 0 0 120 76 120 0 0 0 0 0 0 0 0 0 0 76 0 0 0 0 0 76 76 76 0 0 0 0 76 0 120 169 120 0 120 161 0 0 0 0 0 0 0 0 0 0 0 0 74 167 212 237 237 212 212 167 74 0 0 0 0 0 0 0 0 0 0 0 0 0 0 0 212 212 0 0 169 120 0 0 0 0 0 0 0 0 0 0 0 0 0 72 113 101 113 152 0 0 0 0 0 101 0 72 72 0 0 
0 0 0 0 0 106 167 74 0 167 0 106 149 224 106 74 167 0 212 212 74 237 74 0 0 0 0 0 0 0 0 0 76 152 76 113 160 0 0 0 0 0 0 0 0 0 0 0 0 0 0 0 0 0 0 0 0 0 0 0 0 0 0 0 0 0 0 0 0 0 0 0 0 0 0 0 0 0 0 0 0 0 0 0 0 0 0 0 0 0 0 0 0 0 0 0 0 0 0 0 0 0 0 0 0 0 0 0 0 0 0 0 0 113 113 0 0 0 160 0 152 113 0 0 206 164 101 231 163 72 160 113 113 152 160 163 167 76 218 0 72 72 113 113 160 160 113 104 161 161 76 74 0 0 0 0 144 0 144 0 0 0 0 0 0 0 0 0 0 0 0 0 0 0 0 0 0 0 0 0 0 0 0 0 0 0 0 0 0 0 0 0 0 0 0 0 0 0 0 0 0 0 0 113 160 0 0 0 0 0 0 0 120 120 76 0 76 0 76 120 0 120 107 161 0 144 144 0 0 72 144 72 0 0 76 152 76 0 0 0 0 0 0 0 0 0 0 0 0 0 0 0 0 0 0 0 0 0 0 0 0 0 0 0 0 0 0 0 0 0 0 0 0 0 106 0 106 0 0 0 0 0 0 0 0 0 0 0 0 0 0 0 0 0 0 0 0 0 0 0 0 0 0 0 0 0 0 0 0 0 0 0 0 0 0 0 0 0 0 0 0 0 0 0 167 237 74 0 106 0 106 0 0 0 0 0 0 0 0 0 0 0 0 0 0 0 0 0 0 0 0 0 0 0 0 0 0 0 0 0 0 0 0 0 0 0 0 0 0 0 0 0 0 0 0 0 0 0 252 0 167 212 212 161 0 0 0 0 0 161 120 120 0 0 0 0 0 0 0 0 0 0 0 0 0 0 0 0 76 0 0 0 0 0 0 0 0 0 0 76 0 76 0 0 0 0 0 120 120 0 0 76 0 107 0 76 0 107 107 76 0 0 0 0 0 0 0 0 0 0 0 0 0 0 0 0 74 167 212 212 224 167 0 0 0 0 0 0 0 0 0 0 0 0 0 0 0 212 212 0 0 169 120 0 0 0 0 0 0 0 0 0 0 0 0 72 113 101 0 101 113 72 0 0 0 72 72 0 72 72 0 0 
0 0 0 0 0 74 237 74 0 167 224 212 167 167 167 106 0 106 106 167 74 167 0 0 0 0 0 0 0 0 0 0 76 152 76 0 160 113 0 0 0 0 0 0 0 0 0 0 0 0 0 0 0 0 0 0 0 0 0 0 0 0 0 0 0 0 0 0 0 0 0 0 0 0 0 0 0 0 0 0 0 0 0 0 0 0 0 0 0 0 0 0 0 0 0 0 0 0 0 0 0 0 0 0 0 0 0 0 0 0 0 0 113 206 231 206 0 0 113 113 72 152 113 0 0 152 164 116 0 155 101 72 101 72 72 152 234 120 167 158 0 0 160 113 0 113 160 160 163 212 152 120 0 0 206 0 113 72 113 0 0 0 0 0 0 0 0 0 0 0 0 0 0 0 0 0 0 0 0 0 0 0 0 0 0 0 0 0 0 0 0 0 0 0 0 0 0 0 0 0 0 0 0 160 113 0 0 0 0 0 0 0 0 76 120 0 0 0 120 0 120 0 169 0 0 160 113 0 0 72 144 72 0 0 120 169 0 0 0 0 0 0 0 0 0 0 0 0 0 0 0 0 0 0 0 0 0 0 0 0 0 0 0 0 0 0 0 0 0 0 0 0 0 0 74 106 74 0 0 0 0 0 0 0 0 0 0 0 0 0 0 0 0 0 0 0 0 0 0 0 0 0 0 0 0 0 0 0 0 0 0 0 0 0 0 0 0 0 0 0 0 0 0 74 237 167 0 0 74 106 74 0 0 0 0 0 0 0 0 0 0 0 0 0 0 0 0 0 0 0 0 0 0 0 0 0 0 0 0 0 0 0 0 0 0 0 0 0 0 0 0 0 0 0 0 0 0 0 167 236 240 234 169 0 0 0 0 0 120 169 107 169 0 0 0 0 0 0 0 0 0 0 0 0 0 0 0 0 0 0 0 0 0 0 0 0 0 0 0 0 76 0 0 0 0 0 0 0 0 0 0 76 107 0 0 120 152 120 0 0 0 0 0 0 0 0 0 0 0 0 0 0 0 0 0 0 0 0 0 0 212 212 0 0 0 0 0 0 0 0 0 0 0 0 0 0 74 237 167 0 120 169 0 0 0 0 0 0 0 0 0 0 0 0 0 0 113 0 113 113 113 0 0 0 72 0 101 0 72 72 0 0 
0 0 0 0 0 0 167 106 74 74 237 74 0 106 212 0 167 106 74 74 149 74 0 0 0 0 0 0 0 0 0 0 0 161 169 120 185 144 0 0 0 0 0 0 0 0 0 0 0 0 0 0 0 0 0 0 0 0 0 0 0 0 113 113 0 0 0 0 0 0 0 0 0 0 0 0 0 0 0 0 0 0 0 0 0 0 0 0 0 0 0 0 0 0 0 0 0 0 0 0 0 0 0 0 0 0 0 0 0 0 0 0 144 220 72 220 72 0 0 152 152 72 160 0 0 0 206 0 76 0 163 155 234 0 212 152 116 218 117 120 76 76 185 144 0 0 0 113 152 163 76 107 120 167 0 101 101 0 72 0 0 113 113 0 0 0 0 0 0 0 0 0 0 0 0 0 0 0 0 0 0 0 0 0 0 0 0 0 0 0 0 0 0 0 0 0 0 0 0 0 0 0 113 160 0 0 0 0 0 0 0 0 0 0 120 0 0 107 169 76 169 107 169 0 113 160 0 0 0 152 152 0 0 0 169 120 0 0 0 0 0 0 0 0 0 0 0 0 0 0 0 0 0 0 0 0 0 0 0 0 0 0 0 0 0 0 0 0 0 0 0 0 0 0 0 0 0 0 0 0 0 0 0 0 0 0 0 0 0 0 0 0 0 0 0 0 0 0 0 0 0 0 0 0 0 0 0 0 0 0 0 0 0 0 0 0 0 0 0 0 0 0 0 106 212 106 0 0 0 0 0 0 0 0 0 0 0 0 0 0 0 0 0 0 0 0 0 0 0 0 0 0 0 0 0 0 0 0 0 0 0 0 0 0 0 0 0 0 0 0 0 0 0 0 0 0 0 0 74 168 79 150 169 0 0 0 0 0 152 152 0 161 169 152 152 152 152 152 120 0 0 0 76 0 0 0 0 0 0 0 0 0 0 0 0 0 0 0 0 0 0 0 0 0 0 0 0 0 76 0 0 76 0 0 0 0 0 0 0 0 0 0 0 0 0 0 0 0 0 0 0 0 0 0 0 0 0 0 0 0 167 237 74 0 0 0 0 0 0 0 0 0 0 0 0 0 167 237 74 0 152 152 0 0 0 0 0 0 0 0 0 0 0 0 152 113 0 0 144 0 0 0 0 72 0 0 152 160 113 0 0 0 
0 0 0 0 0 0 106 74 149 74 212 167 106 167 167 106 167 0 74 106 74 0 0 0 0 0 0 0 0 0 0 0 0 0 107 120 220 144 0 0 0 0 0 0 0 0 0 0 0 0 0 0 0 0 0 0 0 0 0 0 113 113 0 72 72 0 0 0 0 0 0 0 0 0 0 0 0 0 0 0 0 0 0 0 0 0 0 0 0 0 0 0 0 0 0 0 0 0 0 72 0 0 0 0 0 0 0 0 0 0 0 0 113 206 231 206 0 0 0 0 160 116 206 163 0 0 0 0 0 131 167 167 204 189 104 216 167 0 209 74 0 0 187 152 144 113 0 0 144 144 0 0 158 0 0 163 212 213 163 0 206 231 206 113 0 0 0 0 0 0 0 0 0 0 0 0 0 0 0 0 0 0 0 0 0 0 0 0 0 0 0 0 0 0 0 0 0 0 0 0 0 0 160 113 0 0 0 0 0 0 0 0 0 0 0 120 76 0 120 0 161 120 120 76 144 144 0 0 113 160 0 0 0 120 169 0 0 0 0 0 0 0 0 0 0 0 0 0 0 0 0 0 0 0 0 0 0 0 0 0 0 0 0 0 0 0 0 0 0 0 0 0 0 0 0 0 0 0 0 0 0 0 0 0 0 0 0 0 0 0 0 0 0 0 0 0 0 0 0 0 0 0 0 0 0 0 0 0 0 0 0 0 0 0 0 0 0 0 0 0 0 0 0 74 224 224 74 0 0 0 0 0 0 0 0 0 0 0 0 0 0 0 0 0 0 0 0 0 0 0 0 0 0 0 0 0 0 0 0 0 0 0 0 0 0 0 0 0 0 0 0 0 0 0 0 0 0 0 0 72 115 0 169 120 0 0 0 0 152 152 0 0 120 152 152 152 152 152 161 107 76 107 76 107 76 0 0 0 0 0 0 0 0 0 0 0 0 0 0 0 0 0 0 0 0 0 0 0 0 76 0 0 0 0 0 0 0 0 0 0 0 0 0 0 0 0 0 0 0 0 0 0 0 0 0 0 0 0 0 0 106 212 106 0 0 0 0 0 0 0 0 0 0 0 0 0 212 212 0 0 152 152 0 0 0 0 0 0 0 0 0 0 0 72 113 101 72 72 113 0 72 0 0 72 0 0 144 72 0 0 0 0 
0 0 0 0 0 0 167 224 167 167 167 237 74 212 74 106 0 106 74 74 106 74 0 0 0 0 0 0 0 0 0 0 0 0 120 218 212 113 0 0 0 0 0 0 0 0 0 0 0 0 0 0 0 0 0 0 0 0 113 113 0 0 113 113 0 0 0 0 0 0 0 0 0 0 0 0 0 0 0 0 0 0 0 0 0 0 0 0 0 0 0 0 0 0 0 0 0 0 113 72 113 0 0 0 0 0 0 0 0 0 0 0 0 113 113 0 0 0 0 0 144 220 113 231 0 0 0 104 0 87 216 0 0 0 72 222 167 0 0 155 117 187 116 0 0 72 72 0 113 160 150 104 0 189 158 212 74 113 220 163 0 150 0 144 0 0 0 0 0 0 0 0 0 0 0 0 0 0 0 0 0 0 0 0 0 0 0 0 0 0 0 0 0 0 0 0 0 0 0 0 0 152 152 0 0 0 0 0 0 0 0 0 0 76 76 169 0 76 0 120 76 152 120 0 144 144 0 0 144 144 0 0 0 152 152 0 0 0 0 0 0 0 0 0 0 0 0 0 0 0 0 0 0 0 0 0 0 0 0 0 0 0 0 0 0 0 0 0 0 0 0 0 0 0 0 0 0 0 0 0 0 0 0 0 0 0 0 0 0 0 0 0 0 0 0 0 0 0 0 0 0 0 0 0 0 0 0 0 0 0 0 0 0 0 0 0 0 0 0 0 0 0 0 0 74 224 224 74 0 0 0 0 0 0 0 0 0 0 0 0 0 0 0 0 0 0 0 0 0 0 0 0 0 0 0 0 0 0 0 0 0 0 0 0 0 0 0 0 0 0 0 0 0 0 0 0 0 0 0 217 150 190 152 152 0 0 0 120 161 120 0 0 0 0 0 0 0 0 120 120 152 120 76 120 120 120 0 0 0 0 0 0 0 0 0 0 0 0 0 0 0 0 0 0 0 0 0 0 0 0 0 0 0 0 0 0 0 0 0 0 0 0 0 0 0 0 0 0 0 0 0 0 0 0 0 0 0 0 0 0 167 237 74 0 0 0 0 0 0 0 0 0 0 0 0 74 237 167 0 0 169 120 0 0 0 0 0 0 0 0 0 0 0 0 113 113 72 72 0 72 0 72 0 113 113 113 113 72 0 0 72 0 
0 0 0 0 0 0 212 212 0 212 106 212 106 212 74 106 74 0 106 167 167 224 74 0 0 0 0 0 0 0 0 0 0 0 152 0 160 0 0 0 72 0 0 0 0 0 0 0 0 0 0 0 0 0 0 0 113 160 113 72 113 113 0 0 0 0 0 0 0 0 0 0 0 0 0 0 0 0 0 0 0 0 0 0 0 0 0 0 0 0 0 0 0 0 0 0 0 0 113 72 113 0 0 0 0 0 0 0 0 0 113 113 0 0 0 0 0 0 0 0 113 206 148 115 152 0 0 0 104 132 0 202 112 0 0 222 76 222 104 163 104 146 113 144 160 113 0 0 0 160 234 0 104 118 131 234 182 74 152 132 82 210 0 113 0 0 0 0 0 0 0 0 0 0 0 0 0 0 0 0 0 0 0 0 0 0 0 0 0 0 0 0 0 0 0 0 0 0 0 0 101 113 72 0 0 0 0 0 0 0 0 120 169 120 76 169 120 0 120 120 107 76 0 0 160 113 0 0 160 113 0 0 0 169 120 0 0 0 0 0 0 0 0 0 0 0 0 0 0 0 0 0 0 0 0 0 0 0 0 0 0 0 0 0 0 0 0 0 0 0 0 0 0 0 0 0 0 0 0 0 0 0 0 0 0 0 0 0 0 0 0 0 0 0 0 0 0 0 0 0 0 0 0 0 0 0 0 0 0 0 0 0 0 0 0 0 0 0 0 0 0 0 0 0 0 74 237 167 0 0 0 0 0 0 0 0 0 0 0 0 0 0 0 0 0 0 0 0 0 0 0 0 0 0 0 0 0 0 0 0 0 0 0 0 0 0 0 0 0 0 0 0 0 0 0 0 0 0 0 74 100 80 120 152 0 0 161 169 167 163 113 0 0 0 0 0 0 0 0 76 76 76 76 76 107 169 0 0 120 152 120 0 0 0 0 0 0 0 0 0 0 0 0 0 0 0 0 0 0 0 0 0 0 0 0 0 0 0 0 0 0 0 0 0 0 0 0 0 0 0 0 0 0 0 0 0 0 0 0 0 212 212 0 0 0 0 0 0 0 0 0 0 0 0 0 167 237 74 0 161 161 0 0 0 0 0 0 0 0 0 0 0 0 0 0 0 0 0 0 0 72 0 113 152 101 113 113 0 0 0 72 0 
0 0 0 0 0 0 167 237 74 212 167 237 74 212 167 106 106 106 74 167 149 167 106 0 0 0 0 0 0 0 0 0 0 0 152 0 144 0 0 72 0 72 0 0 0 0 0 0 0 0 0 0 0 72 72 152 113 0 113 152 0 0 0 0 0 0 0 0 0 0 0 0 0 0 0 0 0 0 0 0 0 0 0 0 0 0 0 0 0 0 0 0 0 0 0 0 0 0 0 72 0 0 0 0 0 0 0 0 0 113 152 152 113 0 0 0 0 0 0 0 0 113 152 72 160 113 0 0 0 104 0 202 202 0 155 155 150 107 0 167 117 0 72 72 0 0 0 0 0 113 206 209 0 107 223 128 109 0 0 82 0 126 0 0 0 0 0 0 0 0 0 0 0 0 0 0 0 0 0 0 0 0 0 0 0 0 0 0 0 0 0 0 0 0 0 0 0 0 0 113 0 0 113 0 0 0 0 0 0 0 120 107 0 107 0 120 169 107 169 0 0 76 150 152 152 0 0 113 160 0 0 0 120 169 0 0 0 0 0 0 0 0 0 0 0 0 0 0 0 0 0 0 0 0 0 0 0 0 0 0 0 0 0 0 0 0 0 0 0 0 0 0 0 0 0 0 0 0 0 0 0 0 0 0 0 0 0 0 0 0 0 0 0 0 0 0 0 0 0 0 0 0 0 0 0 0 0 0 0 0 0 0 0 0 0 0 0 0 0 0 0 0 0 0 0 74 237 106 106 74 0 0 0 0 0 0 0 0 0 0 0 0 0 0 0 0 0 0 0 0 0 0 0 0 0 0 0 0 0 0 0 0 0 0 0 0 0 0 0 0 0 0 0 0 0 0 0 0 0 0 252 115 0 152 0 161 161 0 113 152 152 113 0 0 0 72 0 0 0 0 0 0 0 0 0 161 169 169 120 76 107 120 0 0 0 0 0 0 76 0 0 0 0 0 0 0 0 0 0 0 0 0 0 0 0 0 76 0 0 0 0 0 0 0 0 0 0 0 0 0 0 0 0 0 0 0 0 0 0 0 212 212 0 0 0 0 0 0 0 0 0 0 0 0 74 237 167 0 120 169 0 0 0 0 0 0 0 0 0 0 0 0 0 72 0 0 0 0 0 72 72 152 160 113 0 0 0 0 113 144 160 0 
0 0 0 0 0 74 74 149 237 224 167 167 74 149 149 0 149 167 74 106 106 106 106 0 0 0 0 0 0 0 120 120 0 0 152 0 160 0 0 0 72 0 0 0 0 0 0 0 0 0 0 0 72 0 0 113 113 160 113 0 0 0 0 0 0 0 0 0 0 0 0 0 0 0 0 0 0 0 0 0 0 0 0 0 0 0 0 0 0 0 0 0 0 0 0 0 0 0 0 0 0 0 0 0 0 0 0 0 0 144 144 144 144 0 0 0 0 0 0 0 0 0 160 72 160 113 0 72 0 0 0 0 0 0 163 231 185 113 0 152 0 0 206 113 0 0 0 0 0 0 113 0 0 78 74 80 74 0 0 106 0 136 163 0 0 0 0 0 0 0 0 0 0 0 0 0 0 0 0 0 0 0 0 0 0 0 0 0 0 0 0 0 0 0 0 0 0 0 0 160 72 72 113 0 0 0 0 0 0 76 76 107 0 76 76 0 120 76 161 76 0 0 234 160 0 0 0 144 144 0 0 0 120 120 0 0 0 0 0 0 0 0 0 0 0 0 0 0 0 0 0 0 0 0 0 0 0 0 0 0 0 0 0 0 0 0 0 0 0 0 0 0 0 0 0 0 0 0 0 0 0 0 0 0 0 0 0 0 0 0 0 0 0 0 0 0 0 0 0 0 0 0 0 0 0 0 0 0 0 0 0 0 0 0 0 0 0 0 0 0 0 0 0 0 0 106 167 106 74 106 74 106 74 0 0 0 0 0 0 0 0 0 0 0 0 0 0 0 0 0 0 0 0 0 0 0 0 0 0 0 0 0 0 0 0 0 0 0 0 0 0 0 0 0 0 0 0 0 0 0 167 123 74 152 120 169 0 0 113 160 72 152 113 0 72 0 0 72 0 0 0 0 0 0 0 0 120 120 0 0 0 161 152 152 152 120 76 161 120 107 76 0 0 0 0 0 0 0 76 0 0 0 0 0 0 76 0 76 0 0 0 0 0 0 0 0 0 0 0 0 0 0 0 0 0 0 0 0 0 74 237 167 0 0 0 0 0 0 0 0 0 0 0 0 167 237 74 0 152 152 0 0 0 0 0 0 0 0 0 0 0 113 160 113 113 0 0 0 72 0 72 72 101 0 0 0 0 72 72 0 101 0 
0 0 0 0 0 167 106 106 149 0 149 0 149 74 74 74 149 224 167 167 149 167 106 0 0 0 0 0 0 120 161 161 120 0 152 224 144 72 0 0 72 0 0 0 0 0 0 0 0 0 0 0 0 72 72 113 113 0 0 0 0 0 0 0 0 0 0 0 0 0 0 0 0 0 0 0 0 0 0 0 0 0 0 0 0 0 0 0 0 0 0 0 0 0 0 0 0 0 0 0 0 0 0 0 0 0 0 0 0 144 113 160 113 0 0 0 0 0 0 0 0 113 160 0 113 101 0 0 101 0 0 0 0 0 0 0 113 160 160 209 167 158 0 206 113 0 0 0 0 0 0 104 0 232 118 80 183 74 77 0 140 206 0 0 0 0 0 0 0 0 0 0 0 0 0 0 0 0 0 0 0 0 0 0 0 0 0 0 0 0 0 0 0 0 0 0 0 0 72 144 0 72 0 0 0 0 0 0 120 76 76 107 76 120 120 0 76 120 0 0 107 107 185 144 0 0 0 144 144 0 0 120 107 0 76 0 0 0 0 0 0 0 0 0 0 0 0 0 0 0 0 0 0 0 0 0 0 0 0 0 0 0 0 0 0 0 0 0 0 0 0 0 0 0 0 0 0 0 0 0 0 0 0 0 0 0 0 0 0 0 0 0 0 0 0 0 0 0 0 0 0 0 0 0 0 0 0 0 0 0 0 0 0 0 0 0 0 0 0 0 0 0 0 0 0 74 167 149 106 74 74 0 106 0 0 0 0 0 0 0 0 0 0 0 0 0 0 0 0 0 0 0 0 0 0 0 0 0 0 0 0 0 0 0 0 0 0 0 0 0 0 0 0 0 0 0 0 0 0 0 74 100 217 107 161 120 0 0 72 144 0 113 152 113 72 0 113 113 113 0 0 0 0 0 0 0 0 0 0 76 76 120 152 152 152 169 152 161 107 120 120 120 0 0 0 76 0 76 0 76 0 0 0 0 0 0 76 0 0 0 0 0 0 0 0 0 0 0 0 0 0 0 0 0 0 0 0 0 0 167 237 74 0 0 0 0 0 0 0 0 0 0 0 74 237 167 0 0 152 152 0 0 0 0 0 0 0 0 113 144 160 160 72 113 113 0 0 0 72 113 72 0 72 72 0 0 0 0 0 113 72 0 
0 0 0 0 0 167 74 167 74 106 106 106 106 74 149 167 212 212 167 237 0 237 74 0 0 0 0 0 0 120 169 76 169 0 152 0 160 0 0 72 0 72 0 0 0 0 0 0 0 0 0 0 0 0 0 0 0 0 0 0 0 0 0 0 0 0 0 0 0 0 0 0 0 0 0 0 0 0 0 0 0 0 0 0 0 0 0 0 0 0 0 0 0 0 0 0 0 0 0 0 0 0 0 0 0 0 0 0 0 144 0 160 0 0 0 0 0 0 0 0 113 152 113 0 113 152 72 113 72 152 0 0 0 0 0 0 0 0 113 212 0 117 161 0 185 0 0 0 0 0 72 0 104 213 185 0 0 182 0 157 0 0 0 0 0 0 0 0 0 0 0 0 0 0 0 0 0 0 0 0 0 0 0 0 0 0 0 0 0 0 0 0 0 0 0 0 0 0 0 160 113 0 0 0 0 0 0 0 120 76 120 0 161 107 0 120 0 152 0 161 120 104 160 113 0 0 0 160 113 0 0 169 107 76 0 0 0 0 0 0 0 0 0 0 0 0 0 0 0 0 0 0 0 0 0 0 0 0 0 0 0 0 0 0 0 0 0 0 0 0 0 0 0 0 0 0 0 0 0 0 0 0 0 0 0 0 0 0 0 0 0 0 0 0 0 0 0 0 0 0 0 0 0 0 0 0 0 0 0 0 0 0 0 0 0 0 0 0 0 0 0 0 0 0 0 0 74 237 0 106 106 106 74 0 0 0 0 0 0 0 0 0 0 0 0 0 0 0 0 0 0 0 0 0 0 0 0 0 0 0 0 0 0 0 0 0 0 0 0 0 0 0 0 0 0 0 0 0 0 0 0 252 72 107 120 104 113 144 160 152 0 0 160 113 113 152 113 113 113 72 72 113 144 113 0 0 0 0 0 0 0 0 0 0 0 0 76 0 0 76 107 161 152 152 169 152 161 0 0 107 0 0 0 0 0 0 0 0 0 0 0 0 0 0 0 0 0 0 0 120 152 152 152 120 0 0 0 0 0 212 212 0 0 0 0 0 0 0 0 0 0 0 0 167 237 74 0 0 169 120 0 0 0 0 0 0 0 152 160 144 113 0 113 160 0 0 0 0 152 152 72 113 113 0 0 0 72 0 113 152 0 0 
0 0 0 0 0 74 149 74 74 167 167 74 167 167 224 106 224 224 74 212 106 212 0 0 0 0 0 0 0 0 169 76 169 120 152 0 144 0 0 0 0 0 0 0 0 0 0 0 0 0 0 0 0 0 0 0 0 0 0 0 0 0 0 0 0 0 0 0 0 0 0 0 0 0 0 0 0 0 0 0 0 0 0 0 0 0 0 0 0 0 0 0 0 0 0 0 0 0 0 0 0 0 0 0 0 0 0 0 0 113 72 113 0 0 0 0 0 0 0 72 113 101 0 0 0 155 212 72 113 101 152 0 0 0 0 0 0 0 0 0 0 0 0 0 0 0 0 0 0 113 113 160 144 72 72 212 0 167 167 231 113 0 0 0 0 0 0 0 0 0 0 0 0 0 0 0 0 0 0 0 0 0 0 0 0 0 0 0 0 0 0 0 0 0 0 0 0 0 0 160 113 0 0 0 0 0 0 0 0 76 0 0 0 161 152 107 107 161 120 152 0 113 160 0 0 0 113 160 0 0 120 169 0 0 0 0 0 0 0 0 0 0 0 0 0 0 0 0 0 0 0 0 0 0 0 0 0 0 0 0 0 0 0 0 0 0 0 0 0 0 0 0 0 0 0 0 0 0 0 0 0 0 0 0 0 0 0 0 0 0 0 0 0 0 0 0 0 0 0 0 0 0 0 0 0 0 0 0 0 0 0 0 0 0 0 0 0 0 0 0 0 0 0 0 0 0 167 237 149 106 167 0 0 0 0 0 0 0 0 0 0 0 0 0 0 0 0 0 0 0 0 0 0 0 0 0 0 0 0 0 0 0 0 0 0 0 0 0 0 0 0 0 0 0 0 0 0 0 0 0 0 167 123 211 0 113 152 144 113 0 0 72 113 113 152 113 0 113 113 144 144 160 144 152 101 72 0 0 72 0 0 0 0 0 0 0 0 0 0 0 0 120 152 152 120 76 161 152 169 161 120 0 76 0 0 0 0 0 0 0 0 0 0 0 0 0 0 0 76 120 120 152 120 120 76 0 0 0 74 237 167 0 0 0 0 0 0 0 0 0 0 0 0 212 212 0 0 120 169 0 0 0 0 0 72 72 152 152 0 0 0 0 144 144 0 0 0 72 113 101 0 0 0 0 0 0 0 0 113 72 0 0 
0 0 0 0 0 0 74 106 74 0 0 0 167 149 167 0 106 106 0 212 106 212 0 0 0 0 0 0 0 0 152 152 120 169 120 0 144 0 113 72 113 0 0 0 0 0 0 0 0 0 0 0 0 0 0 0 0 0 0 0 0 0 0 0 0 0 0 0 0 0 0 0 0 0 0 0 0 0 0 0 0 0 0 0 0 0 0 0 0 0 0 0 0 0 0 0 0 0 0 0 0 0 0 0 0 0 0 0 0 0 0 0 0 0 0 0 0 0 0 0 160 113 0 0 76 74 0 116 152 113 113 72 0 0 0 0 0 0 0 0 163 0 0 161 0 113 0 0 0 144 113 146 220 212 152 0 206 0 115 0 0 0 0 0 0 0 0 0 0 0 0 0 0 0 0 0 0 0 0 0 0 0 0 0 0 0 0 0 0 0 0 0 0 0 0 0 0 0 152 152 0 0 0 0 0 0 0 0 0 76 76 76 0 0 76 0 120 120 161 120 0 144 144 0 0 0 144 144 0 0 169 120 0 0 0 0 0 0 0 0 0 0 0 0 0 0 0 0 0 0 0 0 0 0 0 0 0 0 0 0 0 0 0 0 0 0 0 0 0 0 0 0 0 0 0 0 0 0 0 0 0 0 0 0 0 0 0 0 0 0 0 0 0 0 0 0 0 0 0 0 0 0 0 0 0 0 0 0 0 0 0 0 0 0 0 0 0 0 0 0 0 0 0 0 0 0 212 212 74 106 74 0 0 0 0 0 0 0 0 0 0 0 0 0 0 0 0 0 0 0 0 0 0 0 0 0 0 0 0 0 0 0 0 0 0 0 0 0 0 0 0 0 0 0 0 0 0 0 0 0 0 74 123 0 0 160 113 0 72 0 0 0 101 72 101 0 0 101 0 0 72 0 0 113 113 113 101 152 144 152 0 0 0 0 0 0 0 0 0 0 0 0 0 0 0 0 0 76 0 120 161 169 120 107 76 0 0 0 0 0 0 0 0 0 0 0 0 0 76 152 76 0 76 152 76 0 0 0 167 237 74 0 0 0 0 0 0 0 0 0 0 74 167 224 167 0 0 152 152 0 0 0 0 113 113 144 152 0 0 0 0 0 160 113 0 0 0 72 72 72 72 0 0 0 0 113 72 0 144 72 0 0 
0 0 0 0 0 0 0 0 0 0 0 0 74 167 167 74 106 106 0 212 106 212 0 0 0 0 0 0 0 0 152 152 0 169 0 0 144 0 144 0 144 0 0 0 0 0 0 0 0 0 0 0 0 0 0 0 0 0 0 0 0 0 0 0 0 0 0 0 0 0 0 0 0 0 0 0 0 0 0 0 0 0 0 0 0 0 0 0 0 0 0 0 0 0 0 0 0 0 0 0 0 0 0 0 0 0 0 0 72 0 72 0 0 0 0 0 0 0 0 0 113 160 0 0 74 158 104 0 0 113 113 0 0 0 0 0 0 0 0 0 0 163 0 0 206 113 0 0 0 144 144 76 0 117 152 152 0 0 0 0 0 0 0 0 0 0 0 0 0 0 0 0 0 0 0 0 0 0 0 0 0 0 0 0 0 0 0 0 0 0 0 0 0 0 0 0 0 113 160 0 0 0 0 0 0 0 0 0 120 76 76 76 120 0 0 76 76 0 107 0 0 160 113 0 0 0 160 113 0 120 169 0 0 0 0 0 0 0 0 0 0 0 0 0 0 0 0 0 0 0 0 0 0 0 0 0 0 0 0 0 0 0 0 0 0 0 0 0 0 0 0 0 0 0 0 0 0 0 0 0 0 0 0 0 0 0 0 0 0 0 0 0 0 0 0 0 0 0 0 0 0 0 0 0 0 0 0 0 0 0 0 0 0 0 0 0 0 0 0 0 0 0 0 0 0 0 167 224 212 167 74 0 0 0 0 0 0 0 0 0 0 0 0 0 0 0 0 0 0 0 0 0 0 0 0 0 0 0 0 0 0 0 0 0 0 0 0 0 0 0 0 0 0 0 0 0 0 0 0 0 0 0 72 115 146 160 0 72 0 72 0 0 72 0 72 0 72 72 72 72 0 0 0 0 72 101 113 101 0 72 113 144 144 144 113 0 0 72 0 0 0 0 0 0 0 0 0 0 0 0 120 120 107 107 0 76 0 0 0 0 0 0 0 0 0 0 0 0 76 120 120 152 120 120 76 0 0 0 212 212 0 0 0 0 0 0 0 0 0 0 0 167 224 167 74 0 0 169 120 0 0 0 0 113 72 0 0 0 0 0 0 113 160 0 0 0 0 113 152 113 0 0 0 0 0 144 0 113 152 0 0 0 
0 0 0 0 0 0 0 0 0 0 0 0 0 0 0 74 149 74 0 212 106 167 106 74 0 0 0 0 0 0 152 152 0 120 76 0 144 0 113 72 113 0 0 0 0 0 0 0 0 0 0 0 0 0 0 0 0 0 0 0 0 0 0 0 0 0 0 0 0 0 0 0 0 0 0 0 0 0 0 0 0 0 0 0 0 0 0 0 0 0 0 0 0 0 0 0 0 0 0 0 0 0 0 0 0 0 0 0 0 72 0 0 0 0 0 0 72 0 0 72 0 152 152 74 115 104 189 0 0 0 0 0 0 0 72 0 0 0 0 0 0 0 0 113 113 0 0 0 0 144 144 74 187 146 0 152 160 232 0 0 72 0 0 0 0 0 0 0 0 0 0 0 0 0 0 0 0 0 0 0 0 0 0 0 0 0 0 0 0 0 0 0 0 0 0 0 0 160 113 0 0 0 0 0 0 0 0 0 120 76 76 76 120 0 0 120 161 161 120 0 152 152 0 0 0 113 160 0 0 152 152 0 0 0 0 0 0 0 0 0 0 0 0 0 0 0 0 0 0 0 0 0 0 0 0 0 0 0 0 0 0 0 0 0 0 0 0 0 0 0 0 0 0 0 0 0 0 0 0 0 0 0 0 0 0 0 0 0 0 0 0 0 0 0 0 0 0 0 0 0 0 0 0 0 0 0 0 0 0 0 0 0 0 0 0 0 0 0 0 0 0 0 0 0 0 0 74 167 212 224 167 0 0 0 0 0 0 0 0 0 0 0 0 0 0 0 0 0 0 0 0 0 0 0 0 0 0 0 0 0 0 0 0 0 0 0 0 0 0 0 0 0 0 0 0 0 0 0 0 0 0 0 217 150 68 144 0 72 0 101 0 0 101 0 72 0 0 113 113 0 0 0 0 0 0 0 72 0 72 0 113 144 144 144 160 160 160 113 113 0 0 0 113 113 0 0 0 0 0 0 0 0 0 107 107 120 120 0 0 0 0 0 0 0 0 0 0 0 0 120 152 152 152 120 0 0 0 0 212 212 0 0 0 0 0 0 0 0 0 0 0 212 212 0 0 0 161 161 0 0 0 72 101 0 0 0 0 72 0 0 0 144 144 0 0 0 113 152 113 0 0 0 0 0 0 160 101 72 0 0 0 0 
0 0 0 0 0 0 0 0 0 0 74 106 74 0 0 0 167 106 74 212 106 74 106 167 0 0 0 0 0 0 152 152 0 0 76 185 144 0 0 72 0 0 0 0 0 0 0 0 0 0 0 0 0 0 0 0 0 0 0 0 0 0 0 0 0 0 0 0 0 0 0 0 0 0 0 0 0 0 0 0 0 0 0 0 0 0 0 0 0 0 0 0 0 0 0 0 0 0 0 0 0 0 0 0 0 0 0 0 0 0 0 0 0 0 0 113 163 231 185 144 160 72 113 222 155 104 0 0 74 163 0 0 0 72 0 101 0 0 0 0 0 0 0 0 0 0 0 0 0 144 144 113 152 160 160 72 116 163 116 212 0 0 0 0 0 0 0 0 0 0 0 0 0 0 0 0 0 0 0 0 0 0 0 0 0 0 0 0 0 0 0 0 0 0 0 0 113 160 0 0 0 0 0 0 0 0 0 0 0 76 0 0 76 0 76 76 161 161 120 113 160 0 0 0 0 144 144 0 0 169 120 0 0 0 0 0 0 0 0 0 0 0 0 0 0 0 0 0 0 0 0 0 0 0 0 0 0 0 0 0 0 0 0 0 0 0 0 0 0 0 0 0 0 0 0 0 0 0 0 0 0 0 0 0 0 0 0 0 0 0 0 0 0 0 0 0 0 0 0 0 0 0 0 0 0 0 0 0 0 0 0 0 0 0 0 0 0 0 0 0 0 0 0 0 0 0 74 106 74 212 212 0 0 74 167 167 74 0 0 0 0 0 0 0 0 0 0 0 0 0 0 0 0 0 0 0 0 0 0 0 0 0 0 0 0 0 0 0 0 0 0 0 0 0 0 0 0 0 0 0 0 0 74 123 202 144 0 72 72 72 72 72 113 101 113 0 0 0 0 0 0 0 0 0 0 0 0 0 113 113 0 0 0 0 0 113 113 101 152 144 113 101 152 160 152 0 0 113 113 0 0 0 0 0 120 152 169 161 0 0 0 0 0 0 0 0 0 0 0 0 0 0 0 0 0 0 0 74 237 167 0 0 0 0 0 0 0 0 0 0 74 237 167 0 0 161 161 0 0 72 0 0 101 72 72 101 72 0 0 0 0 160 113 0 0 152 160 113 0 0 0 0 0 72 101 160 0 0 0 0 0 0 
0 0 0 0 0 0 74 106 74 0 106 0 74 106 74 0 167 106 149 224 106 74 106 237 74 0 0 0 0 0 120 161 120 0 0 113 160 0 0 0 0 0 0 0 0 0 0 0 0 0 0 0 0 0 0 0 0 0 0 0 0 0 0 0 0 0 0 0 0 0 0 0 0 0 0 0 0 0 0 0 0 0 0 0 0 0 0 0 0 0 0 0 0 0 0 0 0 0 0 0 0 0 0 0 0 0 0 0 0 0 0 0 0 72 0 113 187 116 188 116 113 152 0 0 0 158 167 120 0 0 104 0 0 0 101 0 101 0 0 0 0 0 0 0 0 0 0 0 0 212 155 185 144 0 113 152 187 0 220 144 0 0 0 0 0 0 0 0 0 0 0 0 0 0 0 0 0 0 0 0 0 0 0 0 0 0 0 0 0 0 0 0 0 0 0 113 152 113 0 0 0 0 0 0 0 0 0 0 0 0 76 0 76 76 0 0 120 120 104 160 113 0 0 0 0 160 113 0 161 161 0 0 0 0 0 0 0 0 0 0 0 0 0 0 0 0 0 0 0 0 0 0 0 0 0 0 0 0 0 0 0 0 0 0 0 0 0 0 0 0 0 0 0 0 0 0 0 0 0 0 0 0 0 0 0 0 0 0 0 0 0 0 0 0 0 0 0 0 0 0 0 0 0 0 0 0 0 0 0 0 0 0 0 0 0 0 0 0 0 0 0 0 0 0 0 0 167 106 149 237 106 167 167 74 106 74 149 74 0 0 0 0 0 0 0 0 0 0 0 0 0 0 0 0 0 0 0 0 0 0 0 0 0 0 0 0 0 0 0 0 0 0 0 0 0 0 0 0 0 0 0 0 0 108 252 144 0 101 0 101 0 72 113 101 113 0 72 0 0 0 0 0 0 0 0 0 0 0 0 0 0 0 0 0 0 0 0 0 113 144 160 113 113 0 152 160 160 160 160 160 144 113 0 0 0 0 0 169 120 0 0 0 0 0 0 0 0 0 0 0 0 0 0 0 0 0 0 167 237 74 0 0 0 0 0 0 0 0 0 0 167 237 74 0 120 169 0 0 72 0 72 101 101 72 72 0 0 0 0 0 72 113 101 0 113 160 0 0 0 0 0 0 113 113 113 113 0 0 0 0 152 0 
0 0 0 0 0 0 106 0 106 0 74 74 149 212 224 74 74 106 74 106 167 74 74 167 106 0 0 0 0 0 0 107 120 76 0 72 144 72 0 0 0 0 0 0 0 0 0 0 0 0 0 0 0 0 0 0 0 0 0 0 0 0 0 0 0 0 0 0 0 0 0 0 0 0 0 0 0 0 0 0 0 0 0 0 0 0 0 0 0 0 0 0 0 0 0 0 0 0 0 0 0 0 0 0 0 0 0 0 0 0 0 0 152 113 113 0 206 0 74 76 0 113 113 163 215 0 74 212 0 0 0 104 0 0 0 101 0 113 113 0 0 0 0 0 0 0 0 0 163 136 0 68 144 0 0 113 206 220 206 113 0 0 0 0 0 0 0 0 0 0 0 0 0 0 0 0 0 0 0 0 0 0 0 0 0 0 0 0 0 0 0 0 0 0 101 101 101 0 0 0 0 0 0 76 0 0 0 0 0 0 0 76 0 0 76 0 0 0 152 152 0 0 0 0 152 152 0 120 169 0 0 0 0 0 0 0 0 0 0 0 0 0 0 0 0 0 0 0 0 0 0 0 0 0 0 0 0 0 0 0 0 0 0 0 0 0 0 0 0 0 0 0 0 0 0 0 0 0 0 0 0 0 0 0 0 0 0 0 0 0 0 0 0 0 0 0 0 0 0 0 0 0 0 0 0 0 0 0 0 0 0 0 0 0 0 0 0 0 0 0 0 0 0 0 0 0 167 74 106 224 74 106 106 0 74 106 74 106 0 0 0 0 0 0 0 0 0 0 0 0 0 0 0 0 0 0 0 0 0 0 0 0 0 0 0 0 0 0 0 0 0 0 0 0 0 0 0 0 0 0 0 0 0 72 0 185 72 72 72 72 0 152 113 113 0 101 0 72 0 0 0 0 0 0 0 0 0 0 0 0 0 0 0 0 0 0 0 0 0 0 0 72 0 0 0 113 113 0 0 113 144 160 160 144 113 0 0 120 161 152 152 152 120 0 0 74 167 212 212 167 74 0 0 0 0 0 74 237 167 0 0 0 0 0 0 0 0 0 0 74 237 167 0 0 169 120 0 0 101 101 113 113 0 0 0 0 0 0 0 113 72 72 160 160 152 113 0 0 0 0 0 0 144 113 72 0 0 0 0 113 160 0 
0 0 0 0 0 0 74 106 74 0 0 106 167 106 167 106 0 0 74 224 224 106 224 167 74 0 0 0 0 0 0 120 169 0 0 72 144 72 0 0 0 0 0 0 0 0 0 0 0 0 0 0 0 0 0 0 0 0 0 0 0 0 0 0 0 0 0 0 0 0 0 0 0 0 0 0 0 0 0 0 0 0 0 0 0 0 0 0 0 0 0 0 0 0 0 0 0 0 0 0 0 0 0 0 0 0 0 0 0 0 0 152 152 113 144 0 0 206 213 74 0 0 101 113 146 76 155 218 0 195 208 83 72 72 0 0 101 72 113 152 0 0 113 144 144 113 0 0 220 109 158 124 113 0 0 0 113 144 113 0 0 0 0 0 0 0 0 0 0 0 0 0 0 0 0 0 0 0 0 0 0 0 0 0 0 0 0 0 0 0 0 0 0 113 101 0 72 0 0 0 0 0 76 0 76 0 76 0 0 0 0 0 0 0 0 0 0 113 160 0 0 0 0 113 160 0 0 169 120 0 0 0 0 0 0 0 0 0 0 0 0 0 0 0 0 0 0 0 0 0 0 0 0 0 0 0 0 0 0 0 0 0 0 0 0 0 0 0 0 0 0 0 0 0 0 0 0 0 0 0 0 0 0 0 0 0 0 0 0 0 0 0 0 0 0 0 0 0 0 0 0 0 0 0 0 0 0 0 0 0 0 0 0 0 0 0 0 0 0 0 0 0 0 0 0 0 74 149 149 149 74 106 106 0 74 74 74 74 0 0 0 0 0 0 0 0 0 0 0 0 0 0 0 0 0 0 0 0 0 0 0 0 0 0 0 0 0 0 0 0 0 0 0 0 0 0 0 0 0 0 0 0 0 217 0 95 0 113 72 72 160 152 72 152 144 113 101 113 144 113 0 0 0 0 0 0 0 0 0 0 0 0 0 0 0 0 0 0 0 0 0 0 0 0 0 0 0 0 0 0 0 0 113 144 160 152 0 0 120 152 152 152 161 120 0 167 224 212 212 237 237 167 74 0 0 0 167 237 74 0 0 0 0 0 0 0 0 0 0 167 237 74 0 120 169 0 0 113 152 113 0 0 0 0 0 0 0 0 72 113 101 113 0 113 113 0 0 0 0 0 113 144 152 113 0 0 0 0 0 160 113 0 
0 0 0 0 0 0 0 0 0 0 0 74 167 212 167 74 0 0 167 237 74 212 212 0 0 0 0 0 0 0 0 152 152 0 0 0 160 113 0 0 0 0 0 0 0 0 0 0 0 0 0 0 0 0 0 0 0 0 0 0 0 0 0 0 0 0 0 0 0 0 0 0 0 0 0 0 0 0 0 0 0 0 0 0 0 0 0 0 0 0 0 0 0 0 0 0 0 0 0 0 0 0 0 0 0 0 0 0 0 0 72 113 113 152 113 0 0 0 160 113 72 0 72 0 72 0 113 0 104 67 0 225 185 144 152 0 0 152 113 72 113 113 101 163 220 206 113 0 163 83 124 0 0 0 0 0 0 0 0 0 0 0 0 0 0 0 0 0 0 0 0 0 0 0 0 0 0 0 0 0 0 0 0 0 0 0 0 0 0 0 0 0 0 160 101 72 0 0 0 0 0 0 0 76 0 120 76 107 76 0 0 0 0 0 0 0 0 160 113 0 0 0 0 144 144 0 120 169 0 0 0 0 0 0 0 0 0 0 0 0 0 0 0 0 0 0 0 0 0 0 0 0 0 0 0 0 0 0 0 0 0 0 0 0 0 0 0 0 0 0 0 0 0 0 0 0 0 0 0 0 0 0 0 0 0 0 0 0 0 0 0 0 0 0 0 0 0 0 0 0 0 0 0 0 0 0 0 0 0 0 0 0 0 0 0 0 0 0 0 0 0 0 0 0 0 0 0 74 167 237 212 167 167 74 149 74 106 0 0 0 0 0 0 0 0 0 0 0 0 0 0 0 0 0 0 0 0 0 0 0 0 0 0 0 0 0 0 0 0 0 0 0 0 0 0 0 0 0 0 0 0 0 0 74 168 215 113 0 72 72 0 113 144 72 0 0 72 0 0 113 152 72 72 72 72 0 0 0 0 0 0 0 0 0 0 0 0 0 0 0 0 0 0 0 0 0 0 0 0 0 0 0 0 0 0 152 160 113 0 0 0 0 152 211 167 224 167 0 0 74 167 224 167 0 0 0 212 212 0 0 0 0 0 0 0 0 0 0 0 212 212 0 0 152 152 0 0 144 144 0 0 0 0 0 0 0 0 0 0 152 113 113 0 0 0 0 0 72 0 113 152 144 113 0 0 0 0 0 113 160 0 0 
0 0 0 0 0 0 0 0 74 167 212 167 74 0 74 106 74 0 167 224 212 224 167 0 0 0 0 0 0 0 0 152 152 0 72 0 144 144 0 0 72 0 0 0 0 0 0 0 0 0 0 0 0 0 0 0 0 0 0 0 0 0 0 0 0 0 0 0 0 0 0 0 0 0 0 0 0 0 0 0 0 0 0 0 0 0 0 0 0 0 0 0 0 0 0 0 0 0 0 0 0 0 0 0 0 0 0 0 0 0 0 113 144 113 0 0 0 0 113 160 0 101 72 113 152 0 74 164 74 231 0 0 218 148 206 163 0 0 113 113 72 0 0 187 0 215 212 0 0 113 113 0 0 0 0 0 0 0 0 0 0 0 0 0 0 0 0 0 0 0 0 0 0 0 0 0 0 0 0 0 0 0 0 0 0 0 0 0 0 0 0 0 113 160 0 0 0 0 0 0 0 0 0 0 0 120 76 0 0 76 0 0 0 0 0 0 152 152 0 0 0 0 0 160 113 0 169 120 0 0 0 0 0 0 0 0 0 0 0 0 0 0 0 0 0 0 0 0 0 0 0 0 0 0 0 0 0 0 0 0 0 0 0 0 0 0 0 0 0 0 0 0 0 0 0 0 0 0 0 0 0 0 0 0 0 0 0 0 0 0 0 0 0 0 0 0 0 0 0 0 0 0 0 0 0 0 0 0 0 0 0 0 0 0 0 0 0 0 0 0 0 0 0 0 0 0 0 74 106 74 74 106 106 149 0 106 74 0 0 0 0 0 0 0 0 0 0 0 0 0 0 0 0 0 0 0 0 0 0 0 0 0 0 0 0 0 0 0 0 0 0 0 0 0 0 0 0 0 0 0 0 0 0 0 72 0 185 0 101 0 0 0 0 72 72 72 72 0 72 0 152 113 72 113 144 152 0 0 0 0 0 0 0 0 0 0 0 0 0 0 0 0 0 0 0 0 0 0 0 0 0 0 0 0 0 0 113 160 152 0 0 0 169 0 224 167 74 0 0 0 0 212 212 0 0 0 212 212 0 0 0 0 0 0 0 0 0 0 0 212 212 0 0 169 120 0 113 152 113 0 0 0 0 0 0 0 0 0 0 0 72 0 0 0 0 0 113 72 113 144 144 0 0 0 0 0 0 0 113 160 101 0 
0 0 0 0 0 0 0 0 106 106 0 106 106 0 106 0 106 0 74 167 212 167 74 0 0 0 0 0 0 0 0 169 167 152 113 113 113 160 0 113 72 113 0 0 0 0 0 0 0 0 0 0 0 0 0 0 0 0 0 0 0 0 0 0 0 0 0 0 0 0 0 0 0 0 0 0 0 0 0 0 0 0 0 0 0 0 0 0 0 0 0 0 0 0 0 0 0 0 0 0 0 0 0 0 0 0 0 0 0 0 0 0 0 0 0 0 0 0 0 152 160 72 101 101 101 152 150 150 0 90 0 131 107 152 216 0 104 104 234 189 70 0 0 163 158 74 213 152 0 0 0 0 0 0 0 0 0 0 0 0 0 0 0 0 0 0 0 0 0 0 0 0 0 0 0 0 0 0 0 0 0 0 0 0 0 0 0 0 0 0 0 0 144 144 0 0 0 0 0 0 0 0 0 0 0 0 0 0 0 0 0 0 0 0 0 113 160 0 0 0 0 0 152 152 0 120 169 0 0 0 0 0 0 0 0 0 0 0 0 0 0 0 0 0 0 0 0 0 0 0 0 0 0 0 0 0 0 0 0 0 0 0 0 0 0 0 0 0 0 0 0 0 0 0 0 0 0 0 0 0 0 0 0 0 0 0 0 0 0 0 0 0 0 0 0 0 0 0 0 0 0 0 0 0 0 0 0 0 0 0 0 0 0 0 0 0 0 0 0 0 0 0 0 0 0 0 0 106 74 167 167 106 106 167 106 0 0 0 0 0 0 0 0 0 0 0 0 0 0 0 0 0 0 0 0 0 0 0 0 0 0 0 0 0 0 0 0 0 0 0 0 0 0 0 0 0 0 0 0 0 0 0 0 0 217 0 95 101 101 72 113 144 144 113 0 0 113 144 113 0 0 101 0 72 0 160 113 0 0 0 0 0 0 0 0 0 0 0 0 0 0 0 0 0 0 0 0 0 0 0 0 0 0 0 0 0 0 0 152 152 0 120 242 0 167 0 0 0 0 0 74 237 167 0 0 74 237 167 0 0 0 0 0 0 0 0 0 0 74 237 167 0 161 161 0 113 152 113 0 0 0 0 0 0 0 0 0 0 0 0 0 0 0 0 0 0 113 72 113 113 160 0 0 0 0 0 0 113 72 113 0 0 
0 0 0 0 0 0 0 0 74 167 212 167 74 0 74 106 74 0 0 0 0 0 0 0 0 0 0 0 0 0 120 169 163 160 113 144 0 160 113 113 72 113 0 0 0 0 0 0 0 0 0 0 0 0 0 0 0 0 0 0 0 0 0 0 0 0 0 0 0 0 0 0 0 0 0 0 0 0 0 0 0 0 0 0 0 0 0 0 0 0 0 0 0 0 0 0 0 0 0 0 0 0 0 0 0 0 0 0 0 0 0 0 0 0 0 0 0 0 0 0 113 152 72 152 101 113 234 107 117 189 117 118 189 104 74 0 0 209 0 0 158 72 72 72 212 187 0 152 152 0 0 0 0 0 0 0 0 0 0 0 0 0 0 0 0 0 0 0 0 0 0 0 0 0 0 0 0 0 0 0 0 0 0 0 0 0 0 0 0 0 0 0 144 144 0 0 0 0 0 0 0 0 0 0 0 0 76 0 76 0 0 0 0 0 0 160 113 0 0 0 0 113 160 0 0 169 120 0 0 0 0 0 0 0 0 0 0 0 0 0 0 0 0 0 0 0 0 0 0 0 0 0 0 0 0 0 0 0 0 0 0 0 0 0 0 0 0 0 0 0 0 0 0 0 0 0 0 0 0 0 0 0 0 0 0 0 0 0 0 0 0 0 0 0 0 0 0 0 0 0 0 0 0 0 0 0 0 0 0 0 0 0 0 0 0 0 0 0 0 0 0 0 0 0 0 0 0 74 149 149 106 167 0 212 106 0 0 0 0 0 0 0 0 0 0 0 0 0 0 0 0 0 0 0 0 0 0 0 0 0 0 0 0 0 0 0 0 0 0 0 0 0 0 0 0 0 0 0 0 0 0 0 0 0 74 148 241 0 101 0 72 0 0 0 0 0 0 0 0 0 0 0 113 0 113 144 144 0 0 0 0 0 0 0 0 0 0 0 0 0 0 0 0 0 0 0 0 0 0 0 0 0 0 0 0 0 0 0 0 160 146 169 0 237 74 0 0 0 0 0 167 237 74 0 0 167 237 74 0 0 0 0 0 0 0 0 0 0 167 237 74 120 169 0 0 160 113 0 0 0 0 0 0 0 0 0 0 0 0 0 0 0 0 0 0 0 0 0 72 113 113 72 0 0 0 0 113 152 152 0 113 0 
0 0 0 0 0 0 0 0 0 0 0 74 167 167 74 0 0 0 0 74 167 167 74 0 0 0 0 0 0 0 152 191 160 72 160 113 0 160 113 0 72 0 0 0 0 0 0 0 0 0 0 0 0 0 0 0 0 0 0 0 0 0 0 72 0 0 0 0 0 0 0 0 0 0 0 0 0 0 0 0 0 0 0 0 0 0 0 0 0 0 0 0 0 0 0 0 0 0 0 0 0 0 0 0 0 0 0 0 0 0 0 0 0 0 0 0 0 0 0 0 0 113 152 72 101 113 116 189 158 107 169 166 117 0 0 76 0 148 209 218 189 72 72 72 72 160 152 0 152 152 0 0 0 0 0 0 0 0 0 0 0 0 0 0 0 0 0 0 0 0 0 0 0 0 0 0 0 0 0 0 0 0 0 0 0 0 0 0 0 0 0 0 160 113 0 0 0 0 0 0 76 0 0 0 0 0 0 76 0 76 0 0 0 0 152 152 0 0 0 0 0 160 113 0 120 169 0 0 0 0 0 0 0 0 0 0 0 0 0 0 0 0 0 0 0 0 0 0 0 0 0 0 0 0 0 0 0 0 0 0 0 0 0 0 0 0 0 0 0 0 0 0 0 0 0 0 0 0 0 0 0 0 0 0 0 0 0 0 0 0 0 0 0 0 0 0 0 0 0 0 0 0 0 0 0 0 0 0 0 0 0 0 0 0 0 0 0 0 0 0 0 0 0 0 0 0 0 0 74 167 149 106 167 167 106 0 0 0 0 0 0 0 0 0 0 0 0 0 0 0 0 0 0 0 0 0 0 0 0 0 0 0 0 0 0 0 0 0 0 0 0 0 0 0 0 0 0 0 0 0 0 0 0 0 0 252 0 222 101 101 113 144 113 0 0 0 0 0 0 0 0 0 113 72 113 144 113 72 0 0 72 0 0 0 0 0 0 0 0 0 0 0 0 0 0 0 0 0 0 0 0 0 0 0 0 0 0 0 0 144 0 242 0 167 0 0 0 0 0 0 212 212 0 0 0 212 212 0 0 0 0 0 0 0 0 0 0 74 237 167 0 169 120 0 152 152 0 0 0 0 0 0 0 0 0 0 0 0 0 0 0 0 0 0 0 0 0 152 160 144 113 0 0 0 0 0 113 160 72 0 113 0 
0 0 0 0 0 0 0 0 0 0 0 106 106 106 106 0 0 0 0 167 224 224 167 0 0 0 0 0 0 0 152 0 160 0 144 72 113 160 0 0 0 0 0 0 0 0 0 0 0 0 0 0 0 0 0 0 0 0 0 0 0 0 72 0 72 0 0 0 0 0 0 0 0 0 0 0 0 0 0 0 0 0 0 0 0 0 0 0 0 0 0 0 0 0 0 0 0 0 0 0 0 0 0 0 0 0 0 0 0 0 0 0 0 0 0 0 0 0 0 0 0 0 113 160 101 0 0 0 189 169 74 0 81 72 234 0 107 155 148 188 116 72 0 0 101 0 152 160 113 113 72 0 0 0 0 0 0 0 0 72 0 0 0 0 0 0 0 0 0 0 0 0 0 0 0 0 0 0 0 0 0 0 0 0 0 0 0 0 0 0 0 152 152 0 0 0 0 0 0 76 0 76 0 0 0 0 0 0 107 0 76 0 0 152 152 0 0 0 0 0 113 160 0 0 169 120 0 0 0 0 0 0 0 0 0 0 0 0 0 0 0 0 0 0 0 0 0 0 0 0 0 0 0 0 0 0 0 0 0 0 0 0 0 0 0 0 0 0 0 0 0 0 0 0 0 0 0 0 0 0 0 0 0 0 0 0 0 0 0 0 0 0 0 0 0 0 0 0 0 0 0 0 0 0 0 0 0 0 0 0 0 0 0 0 0 0 0 0 0 0 0 0 0 0 0 0 0 0 0 0 167 167 106 167 74 0 0 0 0 0 0 0 0 0 0 0 0 0 0 0 0 0 0 0 0 0 0 0 0 0 0 0 0 0 0 0 0 0 0 0 0 0 0 0 0 0 0 0 0 0 0 0 0 0 0 167 0 97 0 113 113 0 72 72 0 0 0 0 0 0 0 0 0 72 0 113 72 113 113 72 0 0 72 0 0 0 0 0 0 0 0 0 0 0 0 0 0 0 0 0 0 0 0 0 0 0 0 0 0 144 0 0 237 74 0 0 0 0 0 74 237 167 0 0 74 237 167 0 0 0 0 0 0 0 0 0 0 167 237 128 161 161 0 113 160 0 0 0 0 0 0 0 0 0 0 0 0 0 0 0 0 0 0 0 0 0 113 160 0 0 0 0 0 0 0 113 113 113 0 101 0 0 
0 0 0 0 0 0 0 0 74 106 74 74 167 167 74 0 0 0 0 167 237 106 237 74 0 0 0 0 0 0 152 0 144 0 160 113 144 144 0 0 0 0 0 0 0 0 0 0 0 0 0 0 0 0 0 0 0 0 0 0 0 0 0 72 0 0 0 0 0 0 0 0 0 0 0 0 0 0 0 0 0 0 0 0 0 0 0 0 0 0 0 0 0 0 0 0 0 0 0 0 0 0 0 0 0 0 0 0 0 0 0 0 0 0 0 0 0 0 0 0 0 0 0 0 152 160 72 0 74 161 247 0 0 0 216 101 0 107 0 216 0 0 0 0 0 113 113 0 0 101 0 0 0 0 0 0 0 0 72 0 72 0 0 0 0 0 0 0 0 0 0 0 0 0 0 0 0 0 0 0 0 0 0 0 0 0 0 0 0 0 113 160 0 0 0 0 0 0 0 0 76 0 0 0 0 0 0 76 0 107 0 0 152 152 0 0 0 0 0 0 160 113 0 120 169 0 0 0 0 0 0 0 0 0 0 0 0 0 0 0 0 0 0 0 0 0 0 0 0 0 0 0 0 0 0 0 0 0 0 0 0 0 0 0 0 0 0 0 0 0 0 0 0 0 0 0 0 0 0 0 0 0 0 0 0 0 0 0 0 0 0 0 0 0 0 0 0 0 0 0 0 0 0 0 0 0 0 0 0 0 0 0 0 0 0 0 0 0 0 0 0 0 0 0 0 0 0 0 0 0 74 224 237 167 106 106 74 0 0 0 0 0 0 0 0 0 0 0 0 0 0 0 0 0 0 0 0 0 0 0 0 0 0 0 0 0 0 0 0 0 0 0 0 0 0 0 0 0 0 0 0 0 0 0 0 74 236 215 0 0 72 113 101 0 0 0 0 0 0 0 0 0 0 0 72 0 101 101 160 0 72 0 0 72 0 0 0 0 0 0 0 0 0 0 0 0 0 0 0 0 0 0 0 0 0 0 0 0 0 185 0 72 212 0 0 0 0 0 0 167 237 74 0 0 167 237 74 0 0 0 0 0 0 0 0 74 167 224 167 120 218 163 144 152 113 0 0 0 0 0 0 0 0 0 0 0 0 0 0 0 0 0 0 0 0 0 160 113 0 0 0 0 0 0 113 152 144 113 0 0 72 0 
0 0 0 0 0 0 0 0 167 106 149 167 167 74 0 0 0 74 106 0 237 106 237 167 0 0 0 0 0 0 152 0 160 72 212 209 209 212 0 0 0 0 0 0 0 0 0 0 0 0 0 0 0 0 0 0 0 0 0 0 0 0 0 0 0 0 0 0 0 0 0 0 0 0 0 0 0 0 0 0 0 0 0 0 0 0 0 0 0 0 0 0 0 0 0 0 0 0 0 0 0 0 0 0 0 0 0 0 0 0 0 0 0 0 0 0 0 0 0 0 0 0 0 0 0 113 160 152 0 0 236 247 74 167 0 0 113 218 107 0 72 101 0 0 72 101 185 0 0 206 0 0 0 0 0 0 0 0 0 72 0 0 0 0 0 0 0 0 0 0 0 0 0 0 0 0 0 0 0 0 0 0 0 0 0 0 0 0 0 0 160 113 0 0 0 0 0 0 0 0 0 0 0 0 0 0 0 0 76 0 0 113 160 0 0 0 0 0 0 152 152 0 0 169 120 0 0 0 0 0 0 0 0 0 0 0 0 0 0 0 0 0 0 0 0 0 0 0 0 0 0 0 0 0 0 0 0 0 0 0 0 0 0 0 0 0 0 0 0 0 0 0 0 0 0 0 0 0 0 0 0 0 0 0 0 0 0 0 0 0 0 0 0 0 0 0 0 0 0 0 0 0 0 0 0 0 0 0 0 0 0 0 0 0 0 0 0 0 0 0 0 0 0 0 0 0 0 0 0 0 0 74 167 224 106 106 167 0 0 0 0 0 0 0 0 0 0 0 0 0 0 0 0 0 0 0 0 0 0 0 0 0 0 0 0 0 0 0 0 0 0 0 0 0 0 0 0 0 0 0 0 0 0 0 0 0 113 0 163 0 0 101 152 0 0 0 0 0 0 0 0 0 0 0 0 72 0 0 152 152 0 0 72 0 0 0 0 0 0 0 0 0 0 0 0 0 0 0 0 0 0 0 0 0 0 0 0 0 0 220 0 0 212 0 0 0 0 0 0 212 212 0 0 74 237 167 0 0 0 0 0 0 0 0 0 167 224 167 128 169 234 152 144 113 0 0 0 0 0 0 0 0 0 0 0 0 0 0 0 0 0 0 0 0 0 113 160 0 0 0 0 0 0 0 160 113 0 0 0 0 0 0 
0 0 0 0 0 0 0 0 167 74 106 167 149 149 74 0 0 106 74 167 224 106 167 167 74 0 0 0 0 0 218 216 113 0 0 218 212 0 113 0 0 0 0 0 0 0 0 0 0 0 0 0 0 0 0 0 0 0 0 0 0 0 0 0 0 0 0 0 0 0 0 0 0 0 0 0 0 0 0 0 0 0 0 0 0 0 0 0 0 0 0 0 0 0 0 0 0 0 0 0 0 0 0 0 0 0 0 0 0 0 0 0 0 0 0 0 0 0 0 0 0 0 0 0 0 0 0 152 160 113 117 120 120 120 0 0 165 74 76 146 160 0 113 116 148 0 155 117 117 206 213 104 0 0 0 0 0 0 0 0 0 0 72 0 0 0 0 0 0 0 0 0 0 0 0 0 0 0 0 0 0 0 0 0 0 0 0 0 0 152 152 0 0 0 0 0 0 0 0 0 0 0 76 0 0 0 0 0 0 0 0 160 113 0 0 0 0 0 113 160 0 0 120 169 0 0 0 0 0 0 0 0 0 0 0 0 0 0 0 0 0 0 0 0 0 0 0 0 0 0 0 0 0 0 0 0 0 0 0 0 0 0 0 0 0 0 0 0 0 0 0 0 0 0 0 0 0 0 0 0 0 0 0 0 0 0 0 0 0 0 0 0 0 0 0 0 0 0 0 0 0 0 0 0 0 0 0 0 0 0 0 0 0 0 0 0 0 0 0 0 0 0 0 0 0 0 0 0 0 0 0 0 0 212 0 74 224 167 106 106 74 0 0 0 0 0 0 0 0 0 0 0 0 0 0 0 0 0 0 0 0 0 0 0 0 0 0 0 0 0 0 0 0 0 0 0 0 0 0 0 0 0 0 0 0 0 217 0 68 113 113 101 113 113 0 0 0 0 0 0 0 0 0 0 0 0 0 0 0 152 160 144 113 0 0 0 0 0 0 0 0 0 0 0 0 0 0 0 0 0 0 0 0 0 0 0 0 0 0 185 0 72 212 0 0 0 0 0 0 212 212 0 0 167 237 74 0 0 0 0 0 0 0 74 167 224 217 120 169 212 212 113 0 0 0 0 0 0 0 0 0 0 0 0 0 0 0 0 0 0 0 0 0 0 0 160 113 0 0 0 0 0 113 160 152 0 0 0 0 0 0 0 
0 0 0 0 0 0 0 74 74 106 106 149 167 74 106 0 0 74 167 149 167 106 149 74 106 0 0 0 0 120 236 116 72 0 0 189 169 0 144 0 0 0 0 0 0 0 0 0 0 0 0 0 0 0 0 0 0 0 0 0 0 0 0 0 0 0 0 0 0 0 0 0 0 0 0 0 0 0 0 0 0 0 0 0 0 0 0 0 0 0 0 0 0 0 0 0 0 0 0 0 0 0 0 0 0 0 0 0 0 0 0 0 0 0 0 0 0 0 72 0 0 0 0 0 0 0 0 0 113 160 213 117 0 120 161 76 161 152 120 104 152 152 72 187 0 148 163 0 187 0 212 187 0 0 0 0 0 0 0 0 0 72 0 72 0 0 0 0 0 0 0 0 0 0 0 0 0 0 0 0 0 0 0 0 0 0 0 113 113 113 72 0 0 0 0 0 0 0 0 0 0 76 0 76 0 0 0 0 0 0 152 152 0 0 0 0 0 0 160 113 0 76 120 152 0 0 0 0 0 0 0 0 0 0 0 0 0 0 0 0 0 0 0 0 0 0 0 0 0 0 0 0 0 0 0 0 0 0 0 0 0 0 0 0 0 0 0 0 0 0 0 0 0 0 0 0 0 0 0 0 0 0 0 0 0 0 0 0 0 0 0 0 0 0 0 0 0 0 0 0 0 0 0 0 0 0 0 0 0 0 0 0 0 0 0 0 0 0 0 0 0 0 0 0 0 0 0 0 0 0 0 0 0 212 0 106 74 149 74 0 106 0 0 0 0 0 0 0 0 0 0 0 0 0 0 0 0 0 0 0 0 0 0 0 0 0 0 0 0 0 0 0 0 0 0 0 0 0 0 0 0 0 0 0 0 0 74 236 215 113 113 152 113 113 0 72 0 0 0 0 0 0 0 0 0 0 0 0 0 0 113 144 152 113 0 0 0 0 0 0 0 0 0 0 0 0 0 0 0 0 0 0 0 0 0 0 0 0 72 144 224 0 237 74 0 0 0 0 0 167 224 212 212 224 167 0 0 0 0 0 0 0 74 224 237 167 190 212 234 212 152 0 0 0 0 0 0 0 0 0 0 0 0 0 0 0 0 0 0 0 0 0 0 0 152 152 0 0 0 0 0 152 160 113 0 0 0 0 0 0 0 0 
0 0 0 0 0 0 0 167 167 106 106 224 106 106 74 0 0 0 212 212 0 212 167 106 74 0 0 0 0 152 191 113 152 72 0 107 161 185 144 0 0 0 0 0 0 0 0 0 0 0 0 0 0 0 0 0 0 0 0 0 0 0 0 0 0 0 0 0 0 0 0 0 0 0 0 0 0 0 0 0 0 0 0 0 0 0 0 0 0 0 0 0 0 0 0 0 0 0 0 0 0 0 0 0 0 0 0 0 0 0 0 0 0 0 0 0 0 113 72 113 0 0 0 0 0 0 0 0 0 0 206 0 0 107 107 107 76 211 0 242 167 212 0 185 76 146 0 0 187 116 232 185 0 0 0 0 0 0 0 0 0 0 72 0 0 0 0 0 0 0 0 0 0 0 0 0 0 0 0 0 0 0 0 0 0 0 113 101 72 101 113 0 0 0 0 0 0 0 0 0 0 0 76 0 0 0 0 0 0 152 152 0 0 0 0 0 0 152 152 104 161 152 120 120 0 0 0 0 0 0 0 0 0 0 0 0 0 0 0 0 0 0 0 0 0 0 0 0 0 0 0 0 0 0 0 0 0 0 0 0 0 0 0 0 0 0 0 0 0 0 0 0 0 0 0 0 0 0 0 0 0 0 0 0 0 0 0 0 0 0 0 0 0 0 0 0 0 0 0 0 0 0 0 0 0 0 0 0 0 0 0 0 0 0 0 0 0 0 0 0 0 0 0 0 0 0 0 74 106 74 0 0 0 212 0 74 106 74 167 106 74 0 0 0 0 0 0 0 0 0 0 0 0 0 0 0 0 0 0 0 0 0 0 0 0 0 0 0 0 0 0 0 0 0 0 0 0 0 0 0 0 0 0 0 0 0 0 113 0 0 152 113 0 72 72 0 72 0 0 0 0 0 0 0 0 0 0 0 0 0 113 144 152 113 0 0 0 0 0 0 0 0 0 0 0 0 0 0 0 0 0 0 0 0 0 0 0 0 0 160 0 211 237 167 0 0 0 0 0 74 167 212 212 167 74 0 0 0 0 0 0 74 224 224 74 0 169 234 152 113 0 0 0 0 0 0 0 0 0 0 0 0 0 0 0 0 0 0 0 0 0 0 0 152 152 0 0 0 0 0 152 152 0 0 0 0 0 0 0 0 0 0 
0 0 0 0 0 0 0 212 167 167 106 74 74 0 0 0 0 0 212 212 0 167 237 74 0 0 0 0 0 169 120 0 144 0 185 76 0 144 144 0 0 0 0 0 0 0 0 0 0 0 0 0 0 0 0 0 0 0 0 0 0 0 0 0 0 0 0 0 0 0 0 0 0 0 0 0 0 0 0 0 0 0 0 0 0 0 0 0 0 0 0 0 0 0 0 0 0 0 0 0 0 0 0 0 0 0 0 0 0 0 0 0 0 0 0 0 0 113 72 113 0 0 0 0 0 0 0 0 0 0 0 0 0 0 0 107 169 183 0 183 161 0 72 144 0 0 116 0 0 74 187 160 0 0 0 0 0 0 0 0 0 0 0 0 0 0 0 0 0 0 0 0 0 0 0 0 0 0 0 0 0 0 0 0 0 0 113 113 152 113 144 0 0 0 0 0 0 0 0 0 0 0 0 0 0 0 0 0 152 152 0 0 0 0 0 113 160 152 104 161 161 76 76 0 0 0 0 0 0 0 0 0 0 0 0 0 0 0 0 0 0 0 0 0 0 0 0 0 0 0 0 0 0 0 0 0 0 0 0 0 0 0 0 0 0 0 0 0 0 0 0 0 0 0 0 0 0 0 0 0 0 0 0 0 0 0 0 0 0 0 0 0 0 0 0 0 0 0 0 0 0 0 0 0 0 0 0 0 0 0 0 0 0 0 0 0 0 0 0 0 0 0 0 0 0 0 0 106 0 106 0 0 0 167 106 74 0 0 212 0 0 0 0 0 0 0 0 0 0 0 0 0 0 0 0 0 0 0 0 0 0 0 0 0 0 0 0 0 0 0 0 0 0 0 0 0 0 0 0 0 0 0 0 0 0 0 0 217 0 0 72 144 160 152 0 72 0 0 0 0 0 0 0 0 0 0 0 0 0 72 113 113 113 0 0 0 113 113 0 0 0 0 0 0 0 0 0 0 0 0 0 0 0 0 0 0 0 0 0 144 0 152 212 212 0 0 0 0 0 0 0 0 0 0 0 0 0 74 106 106 167 237 224 128 120 218 0 206 113 0 0 0 0 0 0 0 0 0 0 0 0 0 0 0 0 0 0 0 0 0 0 0 113 160 0 0 0 0 0 152 152 0 0 0 0 0 0 0 0 0 0 0 
0 0 0 0 0 0 0 167 224 224 74 0 106 0 74 106 74 0 212 212 0 106 167 149 74 0 0 0 120 169 0 0 144 0 144 0 0 144 144 0 0 0 0 0 0 0 0 0 0 0 0 0 0 0 0 0 0 0 0 0 0 0 0 0 0 0 0 0 0 0 0 0 0 0 0 0 0 0 0 0 0 0 0 0 0 0 0 0 0 0 0 0 0 72 0 0 0 0 0 0 0 0 0 0 0 0 0 0 0 0 0 0 0 0 0 0 0 0 72 0 0 0 0 0 0 0 0 0 0 0 0 104 0 0 146 0 76 139 130 74 120 0 209 0 113 72 187 117 0 76 148 144 72 0 0 0 0 0 0 0 0 0 0 0 0 0 0 0 0 0 0 0 0 0 0 0 0 0 0 0 0 0 0 0 0 113 113 72 113 152 113 0 0 0 0 0 0 0 0 0 0 0 0 0 0 0 0 152 152 0 0 0 0 0 113 152 113 0 120 169 0 0 0 0 0 0 0 0 0 0 0 0 0 0 0 0 0 0 0 0 0 0 0 0 0 0 0 0 0 0 0 0 0 0 0 0 0 0 0 0 0 0 0 0 0 0 0 0 0 0 0 0 0 0 0 0 0 0 0 0 0 0 0 0 0 0 0 0 0 0 0 0 0 0 0 0 0 0 0 0 0 0 0 0 0 0 0 0 0 0 0 0 0 0 0 0 0 0 0 0 0 0 0 0 0 0 0 74 106 74 0 74 106 74 0 74 106 106 224 167 74 0 0 0 0 0 0 0 0 0 0 0 0 0 0 0 0 0 0 0 0 0 0 0 0 0 0 0 0 0 0 0 0 0 0 0 0 0 0 0 0 0 0 0 0 0 0 74 168 192 160 113 0 144 72 0 0 0 0 0 0 0 0 0 0 0 0 0 0 0 152 160 144 144 113 101 152 152 113 0 0 0 0 0 0 0 0 0 0 0 0 0 0 0 0 0 0 0 0 144 0 152 212 212 0 0 0 0 0 0 0 0 0 0 0 0 74 224 212 212 237 167 128 161 169 209 206 113 0 0 0 0 0 0 0 0 0 0 0 0 0 0 0 0 0 0 0 0 0 0 0 0 144 144 0 0 0 0 152 152 0 0 0 0 0 0 0 0 0 0 0 0 
0 0 0 0 0 0 0 74 167 167 74 0 106 0 106 0 106 0 167 224 167 74 74 149 167 0 0 0 120 169 0 0 113 72 113 0 0 160 113 0 0 0 0 0 0 0 0 0 0 0 0 0 0 0 0 0 0 0 0 0 0 0 0 0 0 0 0 0 0 0 0 0 0 0 0 0 0 0 0 0 0 0 0 0 0 0 0 0 0 0 0 0 72 0 72 0 0 0 0 0 0 0 0 0 0 0 0 0 0 0 0 0 0 0 0 0 0 0 0 0 0 0 0 0 0 0 0 0 0 0 0 0 0 163 231 212 162 163 167 152 76 117 0 0 74 0 163 234 0 0 212 152 0 0 0 0 0 0 0 0 0 0 0 0 0 0 0 0 0 0 0 0 0 0 0 0 0 0 0 0 0 0 0 0 113 152 113 72 113 113 0 0 0 0 0 0 76 0 0 0 0 0 0 0 0 0 152 152 0 0 0 0 0 0 160 113 0 0 169 120 0 0 0 0 0 0 0 0 0 0 0 0 0 0 0 0 0 0 0 0 0 0 0 0 0 0 0 0 0 0 0 0 0 0 0 0 0 0 0 0 0 0 0 0 0 0 0 0 0 0 0 0 0 0 0 0 0 0 0 0 0 0 0 0 0 0 0 0 0 0 0 0 0 0 0 0 0 0 0 0 0 0 0 0 0 0 0 0 0 0 0 0 0 0 0 0 0 0 0 0 0 0 0 0 0 0 0 0 0 0 0 106 74 106 74 74 74 0 106 224 167 0 0 0 0 0 0 0 0 0 0 0 0 0 0 0 0 0 0 0 0 0 0 0 0 0 0 0 0 0 0 0 0 0 0 0 0 0 0 0 0 0 0 0 0 0 0 0 72 186 116 0 113 152 0 72 0 0 0 0 0 0 0 0 0 0 0 0 0 0 0 113 113 0 0 0 101 152 113 0 0 0 0 0 0 0 0 0 0 0 0 0 0 0 0 0 0 0 0 144 0 152 212 212 0 0 0 0 0 0 0 0 0 0 0 74 224 224 106 106 74 0 161 212 163 152 113 0 0 0 0 0 0 0 0 0 0 0 0 0 0 0 0 0 0 0 0 0 0 0 0 113 152 113 0 0 0 72 144 72 0 0 0 0 0 0 0 0 0 0 0 0 
0 0 0 0 0 0 0 0 0 0 167 106 167 0 74 106 74 74 149 74 106 74 74 167 167 0 0 0 76 152 76 0 0 72 0 0 113 160 0 0 0 0 0 0 0 0 0 0 0 0 0 0 0 0 0 0 0 0 0 0 0 0 0 0 0 0 0 0 0 0 0 0 0 0 0 0 0 0 0 0 0 0 0 0 0 0 0 0 0 0 0 0 0 72 0 0 0 0 0 0 0 0 0 0 0 0 0 0 0 0 0 0 0 0 0 0 0 0 0 72 0 0 0 0 0 0 0 0 0 0 0 0 0 72 0 163 0 0 0 0 0 212 0 0 0 160 72 101 144 144 113 0 0 0 0 0 0 0 0 0 0 0 0 0 0 0 0 0 0 0 0 0 0 0 0 0 0 0 0 0 0 0 0 0 144 144 72 0 72 0 0 0 0 0 0 76 0 76 0 0 0 0 0 0 113 160 152 0 0 0 0 0 0 152 152 0 0 120 169 0 0 0 0 0 0 0 0 0 0 0 0 0 0 0 0 0 0 0 0 0 0 0 0 0 0 0 0 0 0 0 0 0 0 0 0 0 0 0 0 0 0 0 0 0 0 0 0 0 0 0 0 0 0 0 0 0 0 0 0 0 0 0 0 0 0 0 0 0 0 0 0 0 0 0 0 0 0 0 0 0 0 0 0 0 0 0 0 0 0 0 0 0 0 0 0 0 0 0 0 0 0 0 0 0 0 0 0 0 0 0 0 74 149 106 149 74 106 0 74 237 167 0 0 0 0 0 0 0 0 0 0 0 0 0 0 0 0 0 0 0 0 0 0 0 0 0 0 0 0 0 0 0 0 0 0 0 0 0 0 0 0 0 0 0 0 0 0 0 252 186 222 0 72 72 113 0 0 113 113 0 0 0 0 0 0 0 0 0 0 0 0 0 72 72 0 72 0 0 101 0 0 0 0 0 0 0 0 0 0 0 0 0 0 0 0 0 0 0 0 160 0 152 212 212 0 0 0 0 0 0 0 0 0 0 0 167 237 74 0 0 0 161 161 163 152 113 0 0 0 0 0 0 0 0 0 0 0 0 0 0 0 0 0 0 0 0 0 0 0 0 113 152 113 0 0 0 0 72 144 72 0 0 0 0 0 0 0 0 0 0 0 0 
0 0 0 0 0 0 74 106 74 74 167 74 167 0 0 0 0 167 224 212 167 74 167 237 74 0 0 0 76 152 117 72 0 0 0 0 144 144 0 0 0 0 0 0 0 0 0 0 0 0 0 0 0 0 0 0 0 0 0 0 0 0 0 0 0 0 0 0 0 0 0 0 0 0 0 0 0 0 0 0 0 0 0 0 0 0 0 0 0 0 0 0 0 0 0 0 0 0 0 0 0 0 0 0 0 0 0 0 0 0 0 0 72 0 0 0 0 0 72 0 72 0 0 0 0 0 0 0 72 0 0 0 72 0 101 0 0 72 0 113 212 0 0 107 215 0 216 212 0 0 0 0 0 0 0 0 0 0 0 0 0 0 0 0 0 0 0 0 0 0 0 0 0 0 0 0 0 0 0 0 0 0 0 72 72 152 72 0 0 0 0 0 0 0 0 0 76 0 0 76 0 0 0 152 160 113 0 0 0 0 0 113 160 152 0 0 0 169 120 0 76 0 0 0 0 0 0 0 0 0 0 0 0 0 0 0 0 0 0 0 0 0 0 0 0 0 0 0 0 0 0 0 0 0 0 0 0 0 0 0 0 0 0 0 0 0 0 0 0 0 0 0 0 0 0 0 0 0 0 0 0 0 0 0 0 0 0 0 0 0 0 0 0 0 0 0 0 0 0 0 0 0 0 0 0 0 0 0 0 0 0 0 0 0 0 0 0 0 0 0 0 0 0 0 0 0 0 0 0 0 0 0 74 106 74 0 74 106 106 237 0 106 74 0 0 0 0 0 0 0 0 0 0 0 0 0 0 0 0 0 0 0 0 0 0 0 0 0 0 0 0 0 0 0 0 0 0 0 0 0 0 0 0 0 0 0 0 0 167 168 114 0 113 113 72 0 0 0 72 72 0 0 0 0 0 0 0 0 0 0 0 72 0 113 113 72 101 0 0 113 144 113 0 0 0 0 0 0 0 0 0 0 0 0 0 0 0 0 113 160 191 152 212 212 0 0 0 0 0 0 0 0 0 0 74 237 167 0 0 120 169 212 163 152 113 0 0 0 0 0 0 0 0 0 0 0 0 0 0 0 0 0 0 0 0 0 0 0 0 113 152 113 0 0 0 0 113 160 152 0 0 0 0 0 0 0 0 0 0 0 0 0 
0 0 0 0 0 0 106 0 106 167 74 106 74 74 0 0 0 167 224 212 167 74 212 212 0 0 0 0 0 169 222 72 113 0 0 0 144 144 0 0 0 0 0 0 0 0 0 0 0 0 0 0 0 0 0 0 0 0 0 0 0 0 0 0 0 0 0 0 0 0 0 0 0 0 0 0 0 0 0 0 0 0 0 0 0 0 0 0 0 0 0 0 0 0 0 0 0 0 0 0 0 0 0 0 0 0 0 0 0 0 0 101 0 72 0 0 0 0 0 0 0 0 0 0 0 0 0 113 163 213 104 0 0 113 72 160 113 101 113 152 0 163 0 0 117 120 212 0 113 0 0 0 0 0 0 0 0 0 0 0 0 0 0 0 0 0 0 0 0 0 0 0 0 0 0 0 0 0 0 0 0 0 72 0 0 0 113 72 0 0 0 0 0 0 0 0 0 0 76 0 117 113 160 152 0 0 0 0 0 0 152 160 113 0 0 76 107 169 0 76 0 76 0 0 0 0 0 0 0 0 0 0 0 0 0 0 0 0 0 0 0 0 0 0 0 0 0 0 0 0 0 0 0 0 0 0 0 0 0 0 0 0 0 0 0 0 0 0 0 0 0 0 0 0 0 0 0 0 0 0 0 0 0 0 0 0 0 0 0 0 0 0 0 0 0 0 0 0 0 0 0 0 0 0 0 0 0 0 0 0 0 0 0 0 0 0 0 0 0 0 0 0 0 0 0 0 0 0 0 0 0 0 0 0 0 0 0 0 212 212 106 0 106 74 106 74 0 0 0 0 0 0 0 0 0 0 0 0 0 0 0 0 0 0 0 0 0 0 0 0 0 0 0 0 0 0 0 0 0 0 0 0 0 0 0 0 0 0 74 100 216 146 72 0 144 0 0 101 113 0 0 0 0 0 0 0 0 0 0 0 72 0 72 0 0 0 113 152 113 72 72 113 72 0 0 0 0 0 0 0 0 0 0 0 72 0 0 0 144 144 152 152 212 212 0 0 0 0 0 0 0 0 0 74 224 224 74 0 161 218 234 212 160 113 0 0 0 0 0 0 0 0 0 0 0 0 0 0 0 0 0 0 0 0 0 0 0 0 113 152 113 0 0 0 0 101 101 101 0 0 0 0 0 0 0 0 0 0 0 0 0 0 
0 0 0 0 0 0 106 0 106 212 0 106 0 74 106 74 0 106 106 0 106 106 212 212 0 0 0 0 0 152 0 0 144 0 0 0 144 144 0 0 0 0 0 0 0 0 0 0 0 0 0 0 0 0 0 0 0 0 0 0 0 0 0 0 0 0 0 0 0 0 0 0 0 0 0 0 0 0 0 0 0 0 0 0 0 0 0 0 0 0 0 0 0 0 0 0 0 0 0 0 0 0 0 0 0 0 0 0 0 0 113 101 113 72 0 0 0 0 0 113 72 113 0 0 0 0 0 113 187 101 213 0 0 113 113 72 160 163 164 212 113 0 0 206 0 218 161 222 160 0 0 0 0 0 0 0 0 0 0 0 0 0 0 0 0 0 0 0 0 0 0 0 0 0 0 0 0 0 0 0 0 0 101 101 113 144 152 0 0 0 0 0 0 0 0 0 0 0 0 117 206 160 113 0 0 0 0 0 0 152 152 0 0 0 76 0 0 169 0 0 76 0 0 0 0 0 0 0 0 0 0 0 0 0 0 0 0 0 0 0 0 0 0 0 0 0 0 0 0 0 0 0 0 0 0 0 0 0 0 0 0 0 0 0 0 0 0 0 0 0 0 0 0 0 0 0 0 0 0 0 0 0 0 0 0 0 0 0 0 0 0 0 0 0 0 0 0 0 0 0 0 0 0 0 0 0 0 0 0 0 0 0 0 0 0 0 0 0 0 0 0 0 0 0 0 0 0 0 0 0 0 0 0 0 0 0 0 0 212 212 74 106 74 167 106 167 0 0 0 0 0 0 0 0 0 0 0 0 0 0 0 0 0 0 0 0 0 0 0 0 0 0 0 0 0 0 0 0 0 0 0 0 0 0 0 0 0 0 0 252 229 0 113 0 152 72 0 72 72 0 0 0 0 0 0 0 0 0 0 0 0 72 0 0 0 0 113 160 0 144 0 144 72 0 0 0 0 0 0 0 0 113 113 101 113 160 144 113 113 185 169 120 167 237 74 0 0 0 0 0 0 0 74 224 224 128 120 169 212 206 160 113 0 0 0 0 0 0 0 0 0 0 0 0 0 0 0 0 0 0 0 0 0 0 0 0 0 0 160 113 0 0 0 0 113 0 0 113 0 0 0 0 0 0 0 0 0 0 0 0 0 0 
0 0 0 0 0 74 224 167 167 212 0 167 106 74 0 106 74 224 237 212 167 74 212 212 0 0 0 0 0 152 0 0 144 0 0 0 160 113 0 0 0 0 0 0 0 0 0 0 0 0 0 0 0 0 0 0 0 0 0 0 0 0 0 0 0 0 0 0 0 0 0 0 0 0 0 0 0 0 0 0 0 0 0 0 0 0 0 0 0 0 0 0 0 0 0 72 0 0 0 0 0 0 0 0 0 0 0 0 0 0 113 113 101 152 0 0 0 0 0 144 0 160 0 0 0 0 0 0 212 104 185 113 0 0 160 113 74 218 150 0 144 0 0 0 206 0 0 116 113 113 0 0 0 0 0 0 0 0 0 0 0 0 0 0 0 0 0 0 0 0 0 0 0 0 0 0 0 0 0 0 0 152 160 72 0 0 0 0 0 0 0 0 0 0 0 0 0 113 144 160 152 0 0 0 0 0 0 113 160 152 0 0 0 0 0 76 76 169 120 0 0 0 0 0 0 0 0 0 0 0 0 0 0 0 0 0 0 0 0 0 0 0 0 0 0 0 0 0 0 0 0 0 0 0 0 0 0 0 0 0 0 0 0 0 0 0 0 0 0 0 0 0 0 0 0 0 0 0 0 0 0 0 0 0 0 0 0 0 0 0 0 0 0 0 0 0 0 0 0 0 0 0 0 0 0 0 0 0 0 0 0 0 0 0 0 0 0 0 0 0 0 0 0 0 0 0 0 0 0 0 0 0 0 0 0 74 106 106 237 167 74 167 167 106 106 167 0 0 0 0 0 0 0 0 0 0 0 0 0 0 0 0 0 0 0 0 0 0 0 0 0 0 0 0 0 0 0 0 0 0 0 0 0 0 0 0 0 0 0 167 168 0 101 113 113 101 101 0 0 72 0 0 0 0 0 0 0 0 0 0 0 0 0 0 0 72 0 160 0 113 72 113 0 113 144 144 144 144 144 144 160 160 152 0 113 113 144 152 0 220 152 76 106 212 106 0 0 0 0 0 0 74 224 224 128 161 169 167 206 152 0 0 0 0 0 0 0 0 0 0 0 0 0 0 0 0 0 0 0 0 0 0 0 0 0 113 144 160 152 0 0 0 0 72 113 0 72 113 0 0 0 0 0 0 0 0 0 0 0 0 0 0 
0 0 0 0 0 0 0 0 0 0 0 0 0 0 0 0 0 0 0 0 0 0 0 0 0 0 0 0 0 0 0 0 0 0 0 0 0 0 0 0 0 0 0 0 0 0 0 0 0 0 0 0 0 0 0 0 0 0 0 0 0 0 0 0 0 0 0 0 0 0 0 0 0 0 0 0 0 0 0 0 0 0 0 0 0 0 0 0 0 0 0 0 0 0 0 0 0 0 0 0 0 0 0 0 0 0 0 0 0 0 0 0 0 0 0 0 0 0 0 0 0 0 0 0 0 0 0 0 0 0 0 0 0 0 0 0 0 0 0 0 0 0 0 0 0 0 0 0 0 0 0 0 0 0 0 0 0 0 0 0 0 0 0 0 0 0 0 0 0 0 0 0 0 0 0 0 0 0 0 0 0 0 0 0 0 0 0 0 0 0 0 0 0 0 0 0 0 0 0 0 0 0 0 0 0 0 0 0 0 0 0 0 0 0 0 0 0 0 0 0 0 0 0 0 0 0 0 0 0 0 0 0 0 0 0 0 0 0 0 0 0 0 0 0 0 0 0 0 0 0 0 0 0 0 0 0 0 0 0 0 0 0 0 0 0 0 0 0 0 0 0 0 0 0 0 0 0 0 0 0 0 0 0 0 0 0 0 0 0 0 0 0 0 0 0 0 0 0 0 0 0 0 0 0 0 0 0 0 0 0 0 0 0 0 0 0 0 0 0 0 0 0 0 0 0 0 0 0 0 0 0 0 0 0 0 0 0 0 0 0 0 0 0 0 0 0 0 0 0 0 0 0 0 0 0 0 0 0 0 0 0 0 0 0 0 0 0 0 0 0 0 0 0 0 0 0 0 0 0 0 0 0 0 0 0 0 0 0 0 0 0 0 0 0 0 0 0 0 0 0 0 0 0 0 0 0 0 0 0 0 0 0 0 0 0 0 0 0 0 0 0 0 0 0 0 0 0 0 0 0 0 0 0 0 0 0 0 0 0 0 0 0 0 0 0 0 0 0 0 0 0 0 0 0 0 0 0 0 0 0 0 0 0 0 0 0 0 0 0 0 0 0 0 0 0 0 0 0 0 0 0 0 0 0 0 0 0 0 0 0 0 0 0 0 0 0 0 0 0 0 0 0 0 0 0 0 0 0 0 0 0 0 
