P2
512 512
255
0 0 0 0 0 0 0 0 0 0 0 0 0 0 0 0 0 0 0 0 0 0 0 0 0 0 0 0 0 0 0 0 0 0 0 0 0 0 0 0 0 0 0 0 0 0 0 0 0 0 0 0 0 0 0 0 0 0 0 0 0 0 0 0 0 0 0 0 0 0 0 0 0 0 0 0 0 0 0 0 0 0 0 0 0 0 0 0 0 0 0 0 0 0 0 0 0 0 0 0 0 0 0 0 0 0 0 0 0 0 0 0 0 0 0 0 0 0 0 0 0 0 0 0 0 0 0 0 0 0 0 0 0 0 0 0 0 0 0 0 0 0 0 0 0 0 0 0 0 0 0 0 0 0 0 0 0 0 0 0 0 0 0 0 0 0 0 0 0 0 0 0 0 0 0 0 0 0 0 0 0 0 0 0 0 0 0 0 0 0 0 0 0 0 0 0 0 0 0 0 0 0 0 0 0 0 0 0 0 0 0 0 0 0 0 0 0 0 0 0 0 0 0 0 0 0 0 0 0 0 0 0 0 0 0 0 0 0 0 0 0 0 0 0 0 0 0 0 0 0 0 0 0 0 0 0 0 0 0 0 0 0 0 0 0 0 0 0 0 0 0 0 0 0 0 0 0 0 0 0 0 0 0 0 0 0 0 0 0 0 0 0 0 0 0 0 0 0 0 0 0 0 0 0 0 0 0 0 0 0 0 0 0 0 0 0 0 0 0 0 0 0 0 0 0 0 0 0 0 0 0 0 0 0 0 0 0 0 0 0 0 0 0 0 0 0 0 0 0 0 0 0 0 0 0 0 0 0 0 0 0 0 0 0 0 0 0 0 0 0 0 0 0 0 0 0 0 0 0 0 0 0 0 0 0 0 0 0 0 0 0 0 0 0 0 0 0 0 0 0 0 0 0 0 0 0 0 0 0 0 0 0 0 0 0 0 0 0 0 0 0 0 0 0 0 0 0 0 0 0 0 0 0 0 0 0 0 0 0 0 0 0 0 0 0 0 0 0 0 0 0 0 0 0 0 0 0 0 0 0 0 0 0 0 0 0 0 0 0 0 0 0 0 0 0 0 0 0 0 0 0 0 0 0 0 0 0 0 0 0 0 0 0 0 0 0 0 0 0 0 0 0 0 0 0 0 0 0 0 0 0 0 
0 8 4 7 13 21 14 23 8 25 34 18 8 13 29 9 10 22 14 22 30 37 52 58 27 38 49 41 45 21 38 31 22 15 9 7 18 19 24 47 19 6 32 34 7 14 24 24 13 18 33 27 7 52 50 47 44 8 31 15 17 28 18 34 10 15 34 31 26 17 21 12 9 22 33 12 17 25 33 6 29 25 27 22 18 16 15 4 30 28 22 17 17 18 11 5 19 8 18 17 12 26 24 40 22 31 18 22 21 18 11 11 9 8 18 22 1 15 3 3 6 3 10 10 5 8 15 16 18 15 15 20 5 20 18 14 19 23 27 34 21 16 23 5 22 21 14 4 17 7 20 38 6 27 8 13 18 17 26 10 2 19 24 8 14 10 7 11 17 10 12 9 6 10 20 16 29 25 16 12 16 8 25 28 21 33 28 49 35 35 10 18 17 10 26 28 13 30 7 30 11 25 22 17 22 38 14 35 22 43 7 21 16 14 10 14 21 19 22 25 21 12 6 3 10 14 23 27 20 17 8 16 19 14 12 12 31 15 18 34 6 14 28 21 16 18 32 17 22 17 10 14 6 21 17 8 15 10 2 16 13 26 19 15 8 26 20 38 43 37 22 16 6 20 8 8 8 9 14 17 24 19 29 19 47 21 18 8 20 21 12 12 26 31 46 46 47 40 18 6 30 13 31 20 21 49 37 17 23 54 56 37 28 11 22 26 36 24 17 35 20 20 24 33 22 15 23 37 17 32 28 17 29 50 49 36 38 50 61 47 24 21 26 43 41 31 28 25 21 29 30 18 9 15 3 18 5 14 22 17 18 27 22 11 19 2 23 15 24 36 7 18 13 12 17 10 11 26 25 33 17 18 28 23 6 10 19 10 23 9 14 2 5 9 5 9 21 3 12 10 12 10 6 2 2 17 18 16 22 18 8 16 17 5 5 8 18 16 27 5 22 5 16 10 3 21 90 158 129 91 58 47 43 43 33 6 28 16 11 9 9 13 16 47 68 85 117 117 155 223 220 143 42 17 24 33 21 20 40 32 25 3 26 28 38 18 7 37 16 51 21 40 24 19 17 5 15 19 35 20 39 26 7 5 19 32 34 27 29 35 25 42 23 18 29 30 19 20 12 24 27 23 3 8 23 15 4 4 2 6 4 0 
0 6 13 16 13 4 4 24 20 37 23 9 27 33 42 19 15 21 12 25 23 32 59 44 29 56 34 43 53 22 32 28 7 22 24 10 14 33 29 26 47 54 25 17 31 18 38 30 3 20 11 40 2 49 36 20 36 18 24 13 9 8 20 29 17 2 17 17 14 17 7 28 38 18 31 31 19 17 4 21 9 10 26 10 9 12 11 5 21 17 15 15 7 16 15 22 21 27 10 19 1 21 10 16 19 16 10 9 4 21 5 11 15 13 2 25 11 22 2 7 7 8 7 4 5 10 9 10 24 33 11 17 14 17 4 7 5 31 32 23 24 30 39 13 44 10 17 10 7 27 26 19 22 5 35 27 3 16 7 16 7 16 13 21 15 17 14 19 17 20 26 24 16 35 13 16 8 7 4 8 5 7 14 14 12 33 14 24 26 8 24 13 22 8 7 15 18 24 12 20 13 18 27 15 36 41 6 34 20 37 27 13 13 19 4 4 15 4 17 21 15 12 10 8 4 12 11 16 17 8 18 12 16 14 11 7 22 31 10 31 21 29 33 21 12 20 29 21 26 15 10 10 11 13 10 18 4 7 2 5 0 14 24 22 20 15 15 20 1 18 14 14 15 18 18 9 5 21 40 49 24 12 22 9 40 40 32 22 15 10 7 11 13 30 11 22 15 16 9 21 34 17 21 25 30 27 10 18 26 14 30 31 5 32 21 26 23 29 18 23 21 6 25 27 2 21 8 37 6 29 8 17 32 55 52 42 35 26 34 31 36 42 28 34 20 19 21 18 37 60 63 73 90 96 76 31 5 9 8 28 17 2 10 20 22 11 16 5 30 24 28 4 12 11 7 5 11 23 15 20 25 17 14 24 15 16 18 26 26 14 4 1 14 14 8 5 14 14 5 5 10 10 1 7 5 18 17 18 17 8 10 13 10 12 12 7 8 8 15 14 15 8 6 17 27 28 37 123 144 111 63 56 56 34 47 22 17 16 8 3 10 21 8 28 47 72 98 97 111 197 9 198 90 40 37 35 30 23 14 55 29 24 18 14 26 20 21 34 14 41 12 25 33 8 27 19 30 51 16 44 9 23 11 12 4 13 25 21 32 13 29 17 12 18 14 47 29 23 29 28 24 12 7 8 15 24 18 9 12 9 9 0 
0 6 18 26 1 6 11 14 4 32 14 15 12 19 38 18 26 41 34 15 15 38 49 45 52 79 34 48 47 7 21 26 23 18 27 13 24 12 9 10 18 40 41 6 33 26 24 27 12 25 48 27 8 27 62 52 16 30 22 11 8 13 4 19 36 29 24 8 5 21 16 32 18 7 11 5 29 25 8 27 4 14 20 15 5 2 12 13 19 33 37 17 21 34 28 3 20 16 21 17 14 20 16 29 33 30 5 11 18 30 10 22 18 24 23 11 21 10 25 10 12 11 10 7 2 18 37 46 15 34 17 1 17 20 18 5 11 19 34 46 58 38 55 20 48 14 38 14 24 11 20 19 9 26 10 21 31 22 25 24 33 33 35 32 29 29 27 37 31 31 7 19 19 35 37 11 38 27 13 11 16 9 16 28 19 11 27 14 20 19 8 17 7 15 26 21 21 16 7 10 23 34 20 19 41 17 19 21 23 18 30 9 24 16 12 13 8 8 8 10 9 5 3 10 26 22 6 20 18 4 13 22 6 8 9 4 24 29 14 23 4 24 18 31 27 19 42 24 10 12 14 11 12 18 23 5 24 23 11 8 10 6 3 5 4 8 32 39 46 34 7 17 10 12 15 17 14 5 14 24 10 7 15 9 3 14 15 11 11 4 17 2 23 12 23 22 41 19 15 32 27 14 32 25 12 36 12 10 20 31 63 52 39 22 13 18 26 23 11 21 36 28 13 24 12 21 12 30 17 22 18 18 27 48 46 50 47 40 39 32 25 22 48 73 61 41 47 37 28 34 26 11 15 4 32 41 13 15 19 23 5 5 17 21 36 43 34 18 34 7 33 23 16 10 2 4 11 4 14 11 8 30 45 36 12 12 28 32 19 4 6 12 18 5 8 17 17 7 7 12 4 6 7 2 8 12 10 8 9 12 7 4 2 1 4 5 4 5 14 13 10 10 5 14 5 30 7 79 135 139 100 79 68 34 49 34 28 28 22 18 6 12 3 13 34 67 91 93 83 145 249 246 174 91 26 10 5 3 38 25 34 16 16 25 31 17 9 39 21 21 17 9 18 28 17 36 22 50 44 24 21 27 5 15 2 10 7 13 32 15 20 21 28 32 38 4 26 4 35 18 26 15 6 5 19 21 5 22 24 16 20 0 
0 5 14 22 5 6 9 12 4 28 14 11 13 17 32 8 6 41 48 5 11 38 27 32 52 76 34 53 53 14 18 37 42 38 34 32 40 41 37 16 21 28 34 19 21 32 41 35 13 13 12 36 40 57 41 53 14 38 12 12 18 12 12 13 21 13 26 23 18 22 4 12 16 15 29 34 25 14 10 15 16 20 24 34 28 35 23 8 11 15 10 18 38 29 25 30 9 28 16 20 24 11 27 15 24 21 7 15 11 15 23 31 14 10 18 14 16 22 15 19 25 32 21 11 11 17 20 25 37 30 10 8 17 7 15 11 21 14 20 15 27 10 43 21 31 17 51 18 37 19 9 18 2 18 22 35 21 16 34 15 8 7 27 24 17 23 10 19 37 14 14 8 15 27 27 15 22 13 8 10 4 10 18 5 20 7 22 22 10 20 8 5 9 16 17 19 5 14 7 3 16 13 15 31 15 22 7 26 31 12 19 19 23 13 27 14 18 20 16 12 10 11 14 20 18 14 18 18 13 29 44 32 13 2 9 2 19 19 17 22 17 33 20 29 30 9 16 12 8 8 15 18 15 14 19 15 15 8 11 22 26 23 15 9 8 10 31 25 7 32 31 22 14 5 11 18 12 28 53 42 18 15 7 2 10 14 15 4 6 21 18 15 26 18 34 9 27 25 1 23 21 22 17 5 11 18 14 10 4 19 35 32 29 9 17 0 16 11 12 23 30 39 7 32 26 17 16 17 25 10 6 6 28 36 19 48 48 29 30 41 32 10 5 22 39 9 27 58 69 76 82 85 103 105 75 40 12 2 5 23 24 18 16 1 7 21 19 30 27 8 24 10 9 2 10 8 8 24 32 32 24 16 10 7 5 8 5 12 24 21 7 20 12 11 12 11 8 7 7 7 7 7 8 11 13 11 4 3 4 2 2 6 7 5 4 2 4 12 19 24 22 19 12 8 2 25 9 43 106 143 129 97 76 44 49 28 27 31 21 27 17 12 17 12 7 42 75 97 82 97 175 207 186 122 24 16 16 16 39 35 42 30 28 9 31 12 17 19 29 30 13 21 20 10 28 7 56 46 3 20 19 17 13 21 10 7 7 7 18 11 14 18 10 8 24 21 15 11 22 20 30 35 32 15 18 26 8 22 20 3 17 0 
0 4 11 16 12 7 7 8 17 30 18 14 17 18 25 5 15 46 37 13 27 37 18 53 60 62 18 41 54 24 34 28 22 31 26 23 23 18 21 17 3 24 44 34 21 11 18 5 27 16 13 30 8 25 31 18 25 19 29 25 5 16 8 10 24 25 21 14 14 37 31 21 7 34 32 14 22 25 15 5 8 20 14 41 33 29 31 18 14 38 40 24 30 29 20 26 19 22 13 25 14 28 18 31 39 21 5 5 9 6 18 15 12 19 7 19 11 22 28 14 20 4 14 18 15 8 7 7 23 27 12 9 13 10 22 7 34 13 44 31 47 35 24 17 19 29 46 19 41 18 14 24 12 13 5 21 16 11 24 18 22 29 39 34 29 38 37 39 14 34 14 18 10 27 22 13 24 25 12 6 7 7 9 10 5 13 14 12 25 26 6 10 3 23 7 22 12 17 16 14 19 24 40 33 15 14 23 24 11 12 20 20 7 3 17 22 23 19 16 13 11 9 9 3 15 15 10 25 35 31 16 18 20 8 7 4 13 8 16 13 8 25 44 34 7 20 20 15 10 2 7 11 14 14 18 15 8 14 8 17 22 19 14 10 17 12 16 31 18 15 38 38 22 10 13 23 9 21 43 25 17 21 5 6 18 16 13 10 2 16 24 21 9 7 17 16 20 19 31 34 18 10 6 6 12 5 10 24 21 7 28 31 37 25 10 7 13 9 7 32 50 28 19 12 27 31 31 25 18 18 15 16 28 25 10 53 57 24 23 30 35 22 18 22 30 15 14 19 23 4 22 16 5 19 3 19 17 7 10 24 9 21 18 7 3 14 27 23 29 5 25 6 9 15 13 15 14 24 14 18 22 11 15 15 9 6 8 22 22 17 21 18 9 10 9 11 10 5 7 10 5 3 2 1 5 8 9 7 7 9 10 10 11 11 10 5 5 18 7 29 25 13 21 8 7 19 17 15 60 123 146 110 85 59 52 25 21 27 5 27 17 4 8 15 17 18 56 85 92 94 131 180 211 177 80 16 17 35 12 7 30 12 39 33 47 7 12 18 3 14 32 37 24 34 8 37 24 42 43 33 15 19 4 18 24 16 8 11 20 21 6 4 8 14 2 32 40 16 17 8 21 11 3 35 42 39 20 12 18 8 16 0 
0 9 12 10 18 8 4 11 18 26 17 15 16 16 17 11 13 35 32 33 49 60 14 65 63 52 11 36 56 32 40 7 27 40 33 31 39 37 33 20 12 46 54 29 29 15 21 20 27 20 19 24 13 32 28 19 31 14 12 31 44 45 19 7 6 5 26 30 27 28 10 18 8 23 41 43 46 46 30 8 20 28 48 34 12 13 22 24 7 20 7 10 15 22 16 26 3 19 3 26 16 20 16 21 10 11 3 3 4 14 22 30 30 24 29 8 20 12 31 26 38 33 23 15 12 13 17 9 18 25 4 17 11 17 28 29 42 22 46 9 25 5 10 25 5 30 25 20 33 4 30 12 10 14 10 23 31 29 23 14 12 12 24 27 23 17 10 23 22 11 28 8 31 8 17 8 9 8 24 21 5 4 12 15 7 6 7 10 29 19 33 13 15 24 18 28 15 14 13 20 30 26 21 8 24 18 23 23 15 7 4 10 18 24 15 5 2 4 4 5 7 9 12 11 8 5 10 12 14 21 31 29 5 15 8 13 8 4 13 9 13 22 23 26 21 7 6 9 9 9 8 7 10 17 18 8 16 17 8 13 18 17 13 4 5 10 8 25 38 34 30 38 36 17 9 27 22 20 35 11 1 19 4 8 17 14 16 10 5 13 27 27 15 2 15 31 30 17 23 11 22 31 24 14 14 15 4 3 23 21 31 24 46 25 16 10 12 11 9 15 11 25 8 22 23 27 21 39 21 20 7 28 29 18 9 38 67 50 36 17 25 41 38 21 18 18 2 25 18 12 11 28 18 4 21 14 14 19 21 10 18 5 26 21 20 20 29 17 30 2 21 22 18 25 2 5 14 32 37 37 26 8 13 16 23 8 18 28 29 23 21 9 14 10 5 15 15 8 7 14 16 17 19 21 24 26 25 21 14 9 7 5 4 5 6 9 10 16 15 25 15 1 25 11 16 17 13 11 18 93 145 121 103 80 61 31 31 36 3 28 21 11 15 12 20 8 44 64 90 106 109 157 223 232 160 57 14 42 33 30 39 12 30 13 50 14 13 12 24 41 29 37 5 37 36 31 15 18 15 30 17 22 18 8 14 12 0 15 13 19 18 1 12 13 13 29 22 41 31 22 24 25 25 40 27 24 15 21 18 10 33 0 
0 14 14 9 20 13 2 22 12 16 8 5 8 5 9 16 3 25 44 54 40 92 7 60 73 56 18 44 55 22 34 23 11 27 35 30 30 12 21 16 11 35 41 40 51 35 35 8 29 30 16 23 7 28 20 6 21 21 6 33 26 42 34 24 28 30 34 2 10 24 49 43 29 22 7 18 16 46 45 19 16 50 5 18 22 17 29 20 19 37 21 16 16 29 18 30 18 28 15 18 14 4 3 21 24 26 18 6 9 14 23 32 19 10 27 21 17 24 17 1 12 5 7 8 7 5 3 13 24 14 21 19 11 26 20 24 27 5 28 36 22 7 4 24 7 19 7 20 18 15 22 10 14 16 8 7 9 5 16 15 4 4 12 16 15 8 5 5 12 21 2 44 25 30 22 16 23 26 10 23 18 9 28 14 15 8 4 15 27 7 42 8 24 13 20 22 6 9 2 14 18 21 7 24 15 9 18 4 9 13 19 17 15 11 28 13 11 9 7 5 5 8 13 12 14 18 18 29 33 27 18 7 19 22 16 24 8 11 13 20 12 33 25 15 20 16 16 16 10 18 10 9 14 17 20 15 13 12 8 18 22 19 11 4 3 17 27 18 15 14 15 20 14 10 8 28 40 43 38 20 11 10 3 4 7 12 14 8 9 19 15 12 25 5 28 21 22 25 37 11 35 25 31 33 19 23 13 24 38 21 32 15 43 24 31 19 13 8 15 15 3 8 28 31 17 10 26 7 22 21 21 37 27 16 15 30 49 39 35 18 17 39 45 37 26 17 9 18 14 9 27 18 24 25 10 3 15 12 19 13 25 3 26 19 22 18 22 38 8 10 13 24 22 19 17 18 32 12 1 2 9 14 14 18 27 5 10 23 32 28 12 5 7 13 12 4 7 13 13 4 4 8 13 15 16 14 12 12 10 2 3 8 11 13 12 8 11 12 27 16 5 6 22 11 25 18 6 10 7 57 121 130 126 100 71 40 45 51 8 23 25 10 11 9 13 3 26 42 76 102 91 116 180 236 227 114 37 14 6 4 31 30 18 21 45 15 18 17 32 26 25 18 27 9 17 7 17 14 24 33 16 15 21 11 22 24 13 7 25 8 20 7 6 10 19 42 49 59 43 48 22 8 8 16 19 19 4 13 4 42 66 0 
0 11 11 7 20 18 3 26 11 13 10 5 7 5 8 24 10 31 52 67 45 100 7 49 69 69 23 40 43 10 23 21 40 17 27 26 39 7 17 28 29 7 22 19 22 12 25 31 8 4 11 28 28 11 14 32 31 10 22 52 65 58 10 42 16 28 37 1 18 13 26 19 70 11 23 21 30 10 49 12 11 37 37 38 15 33 20 33 9 16 18 20 24 30 34 30 9 35 15 17 20 5 19 36 29 15 15 5 1 18 27 20 23 18 3 25 12 24 22 21 29 19 2 15 17 7 7 4 34 38 24 10 15 12 40 51 19 8 8 11 16 12 11 6 23 17 9 21 12 30 8 26 11 22 44 41 22 12 12 12 19 14 7 1 6 7 7 7 18 14 15 36 26 49 18 4 11 36 20 21 19 8 29 17 27 16 16 6 31 24 22 14 16 2 19 11 15 16 12 18 32 12 19 14 7 14 5 4 9 5 18 17 21 32 22 16 12 8 11 12 12 11 8 15 17 18 20 38 44 32 15 10 34 21 24 35 8 16 14 14 23 6 30 28 4 14 8 18 5 21 4 5 12 13 25 15 17 23 11 8 10 7 1 6 12 17 15 14 8 15 18 25 19 16 10 4 16 15 5 5 4 4 10 7 7 14 13 3 9 5 17 2 26 24 30 13 26 16 38 21 32 20 34 13 38 1 18 21 25 28 11 5 28 25 28 34 19 7 8 31 34 34 32 13 38 30 13 18 22 13 15 27 16 22 28 37 38 30 32 22 26 37 41 41 29 22 19 11 13 20 13 10 4 12 7 10 20 9 31 15 31 21 27 12 2 31 16 26 15 10 12 10 21 21 21 30 25 27 18 17 17 7 14 32 21 7 21 23 13 5 8 12 3 12 12 10 8 11 13 13 20 23 19 12 9 14 17 15 8 7 13 17 19 19 16 8 7 14 18 10 6 5 12 8 25 18 16 8 16 22 84 125 144 110 76 44 54 65 15 14 31 35 12 14 17 18 11 18 67 103 89 95 129 198 249 161 62 13 14 7 10 36 22 28 42 28 31 22 51 40 27 4 18 32 34 41 43 31 14 7 21 14 12 23 30 20 21 17 20 3 21 5 29 52 46 45 33 26 27 26 29 27 15 9 9 8 8 24 43 73 83 0 
0 2 12 6 24 25 13 29 15 11 10 6 8 11 8 29 26 30 36 47 54 73 5 53 60 65 22 39 52 22 38 32 30 26 22 10 41 6 20 29 37 7 4 19 24 27 8 20 18 21 17 29 40 40 41 21 38 18 15 2 24 16 23 21 23 21 28 2 22 16 44 47 60 13 19 31 2 21 32 30 2 10 6 9 21 31 17 8 21 16 10 9 16 21 31 29 25 13 26 22 13 11 17 23 17 35 31 20 8 19 17 8 21 2 24 12 24 13 17 16 2 28 27 13 8 8 4 16 9 10 4 5 3 13 33 10 35 6 10 21 20 4 9 5 19 6 9 20 14 28 26 22 24 32 18 10 25 24 8 15 11 10 11 13 20 27 28 20 15 5 8 32 27 22 19 6 10 26 10 19 15 11 27 34 20 7 18 20 4 22 16 33 32 29 12 11 13 13 18 14 8 29 18 38 19 18 4 3 10 14 19 29 14 29 9 22 13 11 7 14 23 25 24 10 14 8 19 26 38 49 50 24 37 13 21 34 27 14 11 11 22 29 11 17 20 11 22 8 6 13 5 11 11 7 15 8 10 4 13 18 24 26 22 19 25 32 39 33 25 34 26 21 20 5 12 21 33 29 8 4 2 8 9 12 3 20 14 17 21 25 7 18 11 26 16 8 2 2 21 27 28 5 19 22 27 18 8 12 17 18 18 0 26 28 37 44 22 18 10 45 15 13 15 24 5 38 13 23 24 29 17 19 7 5 18 42 60 56 38 31 29 35 43 43 30 19 27 16 20 32 32 29 17 17 28 23 31 35 28 4 17 25 24 21 21 31 16 21 11 4 14 4 18 16 11 30 26 11 6 5 4 21 8 17 15 13 5 8 11 2 5 13 4 7 11 10 13 13 12 20 11 16 12 18 13 16 10 8 11 10 10 14 7 7 6 14 10 5 6 14 14 19 7 13 15 12 12 15 18 8 35 101 156 136 96 44 49 62 37 19 15 31 26 16 7 10 1 25 38 83 82 110 114 154 229 234 156 34 27 22 15 31 1 21 28 29 24 12 28 12 8 3 14 10 30 22 24 44 26 14 24 15 14 28 29 10 28 15 25 17 32 10 16 29 11 25 11 19 31 11 13 34 15 7 12 14 38 54 66 93 96 0 
0 9 4 24 13 20 20 38 32 27 22 20 20 21 22 26 17 26 36 13 49 51 25 49 40 60 32 39 57 46 25 23 22 13 15 20 26 22 12 8 31 20 18 36 36 25 13 2 8 9 3 19 5 34 29 2 27 21 14 31 48 36 18 5 11 5 17 19 23 36 27 33 28 7 7 15 17 2 35 24 9 10 6 2 18 17 18 15 18 18 10 10 16 21 14 15 36 29 25 25 22 21 29 43 6 48 7 23 4 21 29 20 28 38 40 28 37 41 39 37 40 47 28 26 16 2 5 14 20 14 4 9 13 5 21 26 20 14 10 22 4 9 13 3 22 10 7 13 18 13 22 5 4 31 63 53 32 21 4 23 9 4 10 29 6 9 14 7 8 0 9 4 12 17 10 24 20 25 9 22 15 7 4 10 19 18 4 27 34 23 43 20 15 8 25 16 7 9 18 22 33 28 20 26 23 16 5 13 21 24 28 18 12 14 7 18 14 25 5 27 15 16 1 26 38 44 24 14 26 24 48 32 10 18 12 15 31 35 13 15 20 22 21 19 21 17 9 22 25 20 19 24 26 28 37 38 21 12 18 18 21 14 10 7 10 19 21 8 4 19 30 24 26 27 19 16 18 26 25 15 4 1 6 8 18 12 36 22 34 29 8 18 21 8 10 6 2 28 31 34 22 28 4 19 28 11 28 22 14 17 7 12 31 23 19 27 24 10 11 36 7 17 22 8 8 15 21 8 3 14 10 12 13 14 13 5 26 60 49 25 12 19 33 28 22 20 16 11 14 18 6 6 22 24 13 6 5 5 11 13 7 9 5 14 9 23 11 23 13 17 8 17 8 20 22 15 28 20 11 8 11 20 25 25 32 6 10 13 11 5 6 19 7 4 7 9 9 2 13 26 12 27 16 5 7 18 8 18 20 15 7 17 6 16 22 4 14 13 9 11 8 11 11 18 5 9 8 10 11 2 3 55 133 159 139 83 54 53 41 26 14 8 15 13 16 12 5 31 20 60 52 113 121 118 169 233 237 120 6 22 27 50 11 15 23 7 9 21 26 10 5 17 19 8 8 25 62 40 34 20 10 13 30 35 11 30 18 24 27 32 40 34 23 45 41 29 19 22 8 22 24 32 4 21 32 15 75 48 59 118 122 0 
0 8 19 17 10 7 30 29 14 11 5 1 4 5 7 17 16 14 30 10 43 49 29 36 26 65 64 56 43 24 30 31 16 39 15 20 23 27 14 12 18 20 18 8 11 16 23 15 23 28 27 36 38 33 29 17 21 43 10 21 28 28 5 24 24 13 12 15 16 45 14 31 26 14 23 6 15 10 26 14 10 21 29 32 34 23 4 12 10 20 9 4 10 11 5 7 24 20 13 4 16 12 7 35 13 37 27 11 17 15 15 3 10 12 12 16 14 19 12 17 17 10 22 18 23 35 24 4 4 10 8 10 14 5 4 8 15 16 17 15 14 18 25 27 27 11 3 4 11 8 5 14 15 19 11 31 32 14 21 25 8 23 25 29 8 12 11 2 10 8 11 9 17 7 23 29 18 19 11 19 4 16 11 9 8 9 15 2 17 18 36 5 22 24 6 27 21 13 1 15 29 38 32 31 31 16 9 17 15 17 13 7 14 20 28 16 14 16 35 11 35 24 23 13 21 9 15 19 24 17 21 12 25 18 16 5 9 28 28 16 28 5 14 26 18 25 8 29 7 7 4 15 16 3 4 11 33 36 9 9 24 33 25 19 8 15 4 7 3 0 16 8 29 31 26 18 32 28 25 22 8 31 39 40 8 23 34 9 38 10 23 17 8 22 9 3 15 41 11 54 15 28 15 5 25 32 3 14 12 7 8 12 27 33 19 19 21 8 13 23 5 15 8 15 15 13 14 24 37 28 8 6 13 15 19 30 32 58 48 20 12 22 33 21 25 28 14 11 22 20 12 12 5 5 7 8 8 5 5 3 14 14 19 17 24 28 23 25 8 9 10 8 34 35 17 30 13 9 17 16 5 20 22 15 30 5 11 15 16 11 10 29 8 14 9 13 10 17 26 17 8 26 16 20 15 12 14 17 33 18 21 26 20 13 13 14 18 15 12 15 21 21 10 18 1 8 14 15 8 5 13 16 81 134 148 121 87 63 51 45 24 6 9 20 19 7 9 27 20 42 18 84 125 111 140 200 243 191 65 6 25 49 39 23 39 21 7 16 36 39 30 17 8 10 20 26 43 36 4 27 18 23 19 38 25 17 17 19 14 32 24 46 16 18 7 9 29 16 11 19 29 25 13 18 26 24 101 57 91 145 116 0 
0 8 12 1 8 24 28 14 12 12 14 20 22 23 23 29 31 13 22 6 34 53 46 49 32 69 69 52 36 16 8 44 12 61 15 26 35 34 7 7 17 13 20 10 24 5 15 12 10 8 5 10 18 12 7 28 28 26 41 21 8 15 23 17 24 11 11 21 15 31 15 23 24 26 18 10 6 18 32 32 11 5 9 4 25 30 15 10 2 10 11 20 28 22 15 19 8 39 26 38 19 26 15 28 48 22 4 8 10 14 21 10 14 13 12 22 25 35 50 41 23 21 24 22 19 10 41 11 7 13 11 3 13 13 20 17 13 8 8 19 24 22 23 25 14 4 7 3 7 15 15 11 25 17 4 8 5 11 27 10 27 18 20 16 21 3 5 12 7 19 9 10 9 17 10 13 12 9 12 14 5 16 8 18 28 27 15 10 11 9 15 21 22 53 60 45 42 38 31 22 25 15 4 24 24 7 4 8 26 36 22 11 16 17 15 22 21 26 17 18 31 38 38 15 30 41 36 37 31 34 18 4 33 12 26 9 4 4 2 17 26 30 31 34 18 29 21 27 12 13 15 24 24 21 23 31 21 11 12 9 19 1 9 13 17 14 5 7 5 1 16 7 39 5 26 9 16 9 27 21 5 40 17 38 17 22 16 19 20 19 17 24 17 4 21 17 34 44 26 35 31 27 23 21 28 32 12 7 4 4 11 11 37 42 43 30 7 17 20 32 15 18 2 9 19 21 28 34 14 28 24 17 11 19 27 18 21 34 43 43 33 27 27 15 21 31 17 15 27 19 7 11 0 5 7 8 7 3 4 7 2 7 15 10 16 20 16 32 38 29 6 10 24 11 27 17 7 13 15 15 4 7 7 20 13 11 8 7 12 17 15 28 17 21 17 23 13 20 32 15 18 28 22 16 26 18 18 7 26 14 10 20 9 12 18 10 13 15 24 18 17 21 14 22 4 14 13 18 9 4 15 10 57 112 134 119 93 64 44 54 41 13 14 20 17 10 11 16 12 25 17 55 111 106 132 191 245 252 151 39 27 28 31 14 48 24 1 13 11 7 9 15 25 18 15 7 26 38 30 42 32 32 32 17 4 2 8 21 18 31 25 24 21 26 26 14 26 0 9 5 30 21 16 13 24 68 130 106 120 130 83 0 
0 20 13 0 8 31 9 6 17 15 13 8 4 1 3 31 36 13 16 10 21 36 30 50 64 70 41 38 52 42 22 22 20 46 21 41 31 56 34 16 23 44 27 4 20 26 31 41 14 13 18 8 15 16 10 4 24 20 24 39 41 46 30 13 22 13 4 20 8 22 5 12 38 17 9 11 5 22 15 39 17 8 16 23 26 22 15 12 8 10 26 35 34 15 5 22 28 27 48 17 47 19 30 21 22 32 30 24 10 15 10 14 21 24 24 31 31 6 6 34 44 31 40 30 24 5 32 21 10 11 13 7 13 14 18 24 20 9 10 13 10 2 2 2 13 15 14 6 21 13 27 34 29 17 14 18 19 12 13 17 22 13 6 7 25 9 21 20 17 28 9 17 11 15 8 2 5 4 11 19 15 1 19 17 5 10 7 21 30 32 19 21 26 9 10 6 15 21 37 6 35 20 25 27 15 3 5 3 7 19 22 26 19 9 21 20 17 17 39 23 11 41 17 37 9 30 25 10 21 21 17 19 15 26 29 14 12 11 12 11 7 12 10 12 11 27 42 34 12 5 5 19 13 0 1 19 27 24 4 10 19 20 10 3 18 14 7 9 9 5 15 9 43 14 39 16 15 12 24 18 11 39 37 36 17 19 19 18 19 26 9 18 28 24 22 16 19 41 29 26 38 20 26 22 34 23 15 11 10 4 8 38 40 35 36 29 21 15 10 19 29 15 4 10 16 2 25 32 21 14 13 16 12 18 31 39 25 17 26 30 27 22 24 27 29 31 17 14 26 21 19 13 7 6 4 2 1 4 7 7 16 21 26 25 25 24 19 33 11 18 15 10 23 13 11 29 16 8 25 4 11 21 5 19 15 11 2 12 17 13 11 13 8 1 10 20 8 12 23 14 28 16 40 11 15 27 19 12 27 12 16 24 27 25 25 1 25 26 18 9 14 15 4 25 4 22 9 17 7 4 14 23 35 98 133 138 115 71 32 44 48 22 19 20 13 9 8 14 10 20 26 35 79 85 101 137 201 11 225 95 11 20 9 12 21 31 20 15 18 16 12 21 20 20 23 16 18 35 12 24 20 17 4 2 2 2 12 15 10 21 19 4 18 14 27 23 18 13 13 17 26 12 26 39 68 103 135 92 75 91 56 0 
0 18 21 10 5 29 4 13 25 15 19 11 4 3 10 22 34 10 15 20 24 42 37 53 68 57 31 27 52 51 18 4 12 35 29 20 14 23 32 23 16 5 31 13 10 20 22 29 10 12 18 15 15 19 5 17 15 41 38 18 1 7 6 8 26 14 9 12 6 14 13 2 41 11 19 9 11 8 24 33 13 7 17 26 18 2 18 23 18 15 18 24 28 8 13 19 25 42 25 56 44 19 34 34 33 8 29 36 38 28 7 23 13 4 15 32 26 12 34 27 32 26 13 12 5 11 17 26 17 18 14 13 7 13 8 21 19 5 11 8 12 23 29 25 17 13 12 5 27 3 19 30 5 21 17 14 7 5 6 10 9 14 9 9 20 16 24 14 14 29 16 19 9 13 8 13 19 20 11 8 17 17 12 5 8 2 11 24 20 12 34 18 18 38 27 23 16 33 31 13 33 20 23 25 38 41 37 31 19 16 20 17 6 12 35 26 30 17 24 18 23 26 18 34 41 52 54 27 15 17 24 14 12 10 12 14 18 13 14 5 7 12 13 16 14 3 18 17 15 4 4 20 12 3 4 17 9 12 11 12 12 13 13 10 10 12 9 11 11 8 12 16 36 12 37 6 7 7 7 18 36 22 10 10 11 14 23 5 35 14 8 1 19 24 8 15 21 27 13 11 28 20 26 27 12 20 25 17 8 10 30 39 8 8 18 15 14 16 14 5 24 25 16 11 24 20 29 17 4 15 27 27 20 11 7 32 37 21 36 43 33 17 2 22 41 27 12 14 26 18 13 8 13 7 7 5 4 4 6 4 8 8 11 8 10 12 5 20 29 19 10 16 14 6 24 19 30 8 21 13 9 27 4 10 9 13 16 20 16 4 7 9 10 29 20 6 19 5 12 17 14 18 26 22 10 8 34 24 17 3 31 20 25 23 33 21 17 20 18 15 4 22 43 41 19 27 4 21 13 8 9 22 15 51 111 155 157 120 68 56 55 36 30 20 9 4 2 20 5 5 14 19 43 80 99 109 155 236 6 166 49 7 17 14 19 24 24 21 13 4 7 4 21 16 12 6 20 38 24 15 5 13 12 15 15 9 7 23 20 9 3 9 15 14 31 22 14 19 22 21 2 23 45 68 93 107 112 73 63 74 36 0 
0 12 17 16 3 22 12 18 16 21 30 23 19 18 21 27 57 55 51 38 22 50 30 42 51 58 52 46 41 32 27 15 15 26 27 12 22 29 38 25 15 20 15 19 17 19 24 21 17 24 15 22 11 19 11 13 4 9 13 8 16 22 22 13 40 22 23 8 13 1 3 12 30 15 14 7 14 14 15 29 20 4 18 14 10 14 9 7 18 18 18 21 20 6 13 14 31 12 26 35 73 34 34 15 8 37 22 4 22 34 27 22 44 34 14 22 31 34 22 16 2 25 28 42 44 36 20 13 15 18 12 13 3 11 12 19 15 4 10 5 13 22 17 16 2 9 7 6 18 20 10 17 20 8 17 28 27 10 15 4 7 4 8 18 9 14 15 4 9 19 6 8 8 11 5 11 16 23 29 19 7 21 16 7 4 14 16 14 24 11 21 28 19 23 24 29 6 34 9 31 18 6 16 11 20 20 6 16 28 28 28 26 15 16 25 15 34 21 32 37 15 20 4 34 24 37 38 23 20 18 33 25 12 3 5 5 14 17 18 16 10 14 7 4 10 18 17 13 13 16 16 25 23 20 21 33 23 15 0 15 15 8 5 8 2 9 8 8 11 11 9 17 31 20 29 19 12 18 20 29 25 30 12 11 5 4 33 18 42 7 5 11 7 9 18 16 12 15 12 27 28 27 30 23 8 8 16 13 5 16 33 16 8 8 18 25 15 17 10 14 6 19 26 8 12 9 34 18 8 27 12 13 26 19 20 41 47 29 36 31 20 10 17 26 36 22 10 13 27 18 4 4 10 7 9 10 9 6 0 3 9 12 11 13 15 15 11 8 5 15 1 16 7 23 41 34 20 15 10 15 5 20 4 7 6 17 20 13 2 4 5 2 7 29 23 16 19 8 16 9 11 28 4 21 22 21 36 6 27 27 30 10 11 13 30 5 18 21 17 19 13 16 28 17 27 27 6 27 17 7 3 9 11 14 73 135 163 143 87 56 51 46 43 24 8 4 4 23 13 14 8 14 15 59 77 87 125 191 4 224 123 40 8 14 13 9 17 29 27 18 9 11 1 20 15 11 21 29 47 40 41 35 22 18 7 10 15 12 23 16 9 2 15 29 32 12 13 18 29 17 34 49 69 82 105 97 103 89 64 50 12 0 
0 23 14 11 13 13 8 28 10 13 27 12 0 5 19 19 22 20 35 41 21 58 35 25 40 61 61 52 42 28 15 24 42 28 35 41 11 11 45 49 43 17 7 1 14 32 18 26 8 35 17 29 14 18 15 7 12 11 6 9 5 11 28 23 57 20 39 6 22 2 3 13 42 54 25 12 5 24 8 18 28 23 33 31 27 27 13 25 8 14 0 4 18 19 7 25 14 30 21 20 33 48 37 16 25 29 25 49 34 12 48 18 15 16 27 4 9 16 5 17 19 22 24 31 23 25 12 7 15 5 3 14 10 8 10 17 15 13 18 19 25 27 16 18 12 14 13 4 13 25 24 13 13 14 15 16 40 17 27 16 16 10 4 25 3 10 5 14 7 10 5 2 22 21 21 17 22 15 20 25 17 28 19 9 11 13 4 4 19 11 17 23 12 20 33 9 22 15 40 28 4 10 21 20 18 25 22 14 24 12 0 15 10 7 19 27 33 11 6 20 18 20 29 32 7 33 23 10 20 3 10 28 12 12 20 8 6 4 9 8 4 14 25 26 22 19 18 2 4 4 4 17 15 3 4 17 13 8 4 15 19 11 8 10 8 10 10 10 13 13 8 16 25 27 11 18 12 26 14 15 24 43 10 11 12 18 40 34 32 10 4 10 21 25 21 5 25 29 31 15 18 10 10 11 16 17 26 24 10 11 41 35 17 8 19 15 14 8 14 22 33 34 28 7 15 10 36 8 20 23 20 3 29 36 24 29 33 31 34 25 14 13 10 17 30 23 14 13 31 27 10 10 0 7 9 10 8 5 6 3 12 12 5 4 11 10 8 14 6 10 34 43 11 33 16 2 7 6 22 18 26 17 13 15 17 15 14 12 12 5 5 13 21 39 24 7 18 7 14 11 18 10 13 11 20 20 5 32 23 9 17 28 22 11 18 5 14 22 25 23 8 15 37 41 18 25 11 32 17 7 3 3 11 17 24 86 134 138 102 67 51 49 50 28 8 6 8 26 18 15 8 2 9 43 57 78 104 152 230 245 176 90 37 26 30 25 17 19 23 14 12 17 14 21 23 20 12 19 11 14 6 14 11 31 39 15 25 9 17 10 7 8 16 19 8 11 7 13 31 4 71 65 76 91 123 104 84 55 23 19 10 0 
0 19 12 19 31 29 27 27 7 12 23 14 14 3 22 21 43 45 48 44 38 56 36 13 40 77 43 31 58 40 4 10 38 47 19 53 19 14 55 65 46 29 8 14 9 38 32 7 14 35 5 25 5 10 10 20 20 17 17 15 22 12 8 17 34 32 36 8 18 15 7 16 23 39 37 7 4 25 4 24 28 15 20 22 15 19 14 19 26 24 11 10 14 29 39 23 21 7 7 28 34 7 12 15 14 9 40 25 35 7 50 14 34 27 10 27 29 28 13 15 8 13 6 37 59 42 31 27 10 4 8 17 11 8 5 10 11 10 14 13 18 26 7 13 18 13 15 7 21 10 29 13 12 22 33 22 37 15 34 13 13 18 13 30 13 22 20 5 12 18 11 9 20 16 33 25 11 18 4 21 19 10 9 16 8 22 16 24 32 33 23 9 7 30 16 21 5 31 34 26 13 15 25 13 19 19 31 21 17 24 32 23 18 11 4 5 18 4 8 14 23 9 26 17 21 21 10 14 17 11 14 11 8 3 31 18 12 11 5 8 14 19 31 17 12 30 36 18 4 14 18 10 10 15 11 11 24 25 14 8 15 10 2 17 8 18 24 32 15 14 29 13 24 14 23 19 6 28 14 6 21 33 25 31 20 10 9 25 15 7 18 18 6 11 22 21 31 16 26 11 13 28 37 29 18 15 14 10 4 15 7 22 21 9 16 5 24 10 21 26 27 17 10 16 34 24 45 4 24 30 14 8 28 36 32 27 12 44 46 14 23 18 7 17 17 21 17 8 29 37 15 2 13 16 10 5 3 7 9 4 11 17 13 7 12 11 4 15 7 16 20 36 28 20 27 23 14 4 26 14 39 14 20 9 2 5 13 5 2 9 4 17 24 11 6 12 12 5 7 15 14 7 18 4 12 13 21 11 29 18 14 13 17 25 27 24 23 20 20 13 21 35 20 20 8 11 27 19 17 18 9 4 13 22 11 61 125 164 134 85 55 52 67 50 20 14 12 20 19 14 12 11 9 30 46 77 94 114 169 233 225 143 78 7 21 22 12 24 16 19 25 16 13 12 15 10 18 19 13 25 21 17 26 14 30 29 36 13 20 8 19 19 7 13 11 4 14 18 18 47 92 77 91 108 120 76 39 22 3 7 9 0 
0 17 13 24 14 7 19 15 5 12 13 8 13 17 28 29 13 15 22 23 45 41 27 14 54 90 28 19 73 42 14 32 54 3 34 42 32 41 24 63 63 32 18 13 21 5 44 34 20 20 11 14 8 4 8 26 17 39 39 46 29 14 6 3 17 27 10 9 13 17 17 18 34 26 27 14 11 24 27 26 12 7 20 18 6 11 20 16 15 13 5 5 14 24 29 13 22 17 18 28 19 7 21 12 17 19 40 29 41 29 30 17 27 31 38 41 29 27 14 8 10 22 22 40 25 36 30 18 3 12 8 9 4 5 16 12 6 13 12 10 22 23 4 14 9 17 24 16 12 25 22 24 10 15 28 17 23 35 28 5 21 18 2 30 7 23 32 17 26 12 15 21 8 36 25 15 28 3 24 15 22 19 9 7 22 14 17 7 19 4 14 17 16 19 6 3 22 18 17 24 9 17 29 13 15 7 11 32 12 21 18 15 7 26 22 22 24 20 15 7 9 30 16 31 13 21 28 35 34 10 8 16 11 23 24 12 7 5 11 16 29 31 13 11 30 16 45 14 20 37 16 24 21 10 14 12 19 10 12 21 20 17 14 5 7 18 21 28 35 26 8 33 38 21 11 0 12 18 13 17 24 18 10 22 6 14 28 23 7 4 7 26 7 29 20 8 17 28 6 4 8 14 8 17 13 10 8 18 19 12 24 23 5 8 5 15 28 8 13 37 13 11 14 20 35 19 41 12 20 17 18 27 62 43 12 37 14 36 55 22 31 30 12 25 8 5 24 7 14 35 20 17 15 11 5 2 4 9 12 14 15 4 4 12 21 17 8 8 9 7 28 14 22 14 29 4 19 2 22 2 29 26 12 11 6 2 22 4 8 15 4 21 18 13 7 19 3 13 12 13 16 18 20 9 17 7 5 27 23 8 6 16 22 17 12 16 12 13 27 14 13 16 22 10 7 24 28 14 10 7 15 18 16 16 8 17 77 160 166 128 70 34 58 63 43 16 2 15 16 8 18 16 12 21 30 66 101 105 107 181 251 215 116 34 27 22 19 14 29 32 17 24 17 14 12 24 8 25 23 11 13 12 24 42 24 10 17 28 7 20 52 42 37 10 25 28 15 31 45 73 89 90 99 94 74 34 20 12 2 3 1 0 
0 16 12 11 14 16 17 14 7 7 12 10 17 26 22 41 11 11 16 20 43 41 32 29 73 84 14 26 67 40 22 34 24 35 20 28 29 42 27 18 22 40 14 24 11 35 18 24 28 16 10 19 34 36 20 24 17 35 52 37 23 22 9 12 21 16 26 16 15 34 15 10 5 8 18 12 5 10 33 22 8 17 8 20 26 13 11 12 4 4 5 24 49 47 41 24 8 4 29 31 27 4 5 15 15 10 33 28 15 44 4 10 12 36 4 25 11 20 37 43 27 8 25 27 60 40 17 7 10 12 14 18 7 24 14 17 2 11 7 20 30 16 19 5 15 21 25 27 17 17 39 35 27 18 11 28 8 12 6 7 25 33 12 34 18 37 10 17 21 37 19 22 14 44 13 24 36 22 40 7 11 37 21 29 10 13 19 17 37 33 40 26 13 14 12 13 27 16 22 7 23 11 22 28 6 14 24 24 23 28 15 20 19 38 3 11 21 27 24 13 20 19 30 25 12 22 19 28 48 29 20 29 3 32 20 23 15 8 10 20 27 7 24 15 20 31 32 32 16 34 15 19 17 17 5 9 19 21 8 5 34 30 14 4 11 22 37 24 22 35 42 48 24 19 27 11 11 19 17 17 10 13 30 34 9 22 12 24 36 25 18 19 9 19 26 33 30 11 23 22 10 18 19 24 11 13 9 12 11 32 25 10 12 5 15 10 33 16 20 39 17 11 26 11 38 33 16 15 36 25 38 15 44 22 32 60 4 23 52 10 40 28 14 35 9 8 20 10 13 22 13 10 24 24 12 8 16 14 5 7 7 14 8 22 22 3 18 12 1 13 11 5 10 14 25 19 15 4 15 12 11 15 8 21 19 13 17 18 14 23 9 28 24 5 13 15 6 10 24 15 12 26 15 15 19 4 11 16 6 13 9 32 6 23 20 24 35 46 31 9 12 17 15 18 22 20 5 23 12 22 26 10 14 27 21 15 18 105 155 177 122 42 49 56 54 30 12 20 24 4 2 4 9 17 25 56 106 119 110 145 242 17 195 81 25 24 22 34 29 25 18 25 11 29 20 29 12 18 25 21 14 25 14 8 16 10 12 34 25 27 69 38 37 19 32 31 41 52 66 77 95 109 97 69 42 26 18 5 6 5 7 0 
0 12 7 2 4 4 8 6 2 5 11 9 15 26 14 38 22 8 10 26 26 34 25 22 84 73 25 45 56 45 12 17 16 34 25 11 14 29 18 17 33 19 15 28 42 7 25 13 5 11 15 19 12 17 27 19 11 33 23 34 29 10 17 21 44 26 39 26 9 33 17 17 17 12 21 16 13 3 24 37 32 14 14 14 17 16 11 22 24 18 13 23 34 24 49 16 20 21 33 15 43 17 5 24 14 34 14 5 11 32 17 12 7 32 20 33 31 24 16 10 25 24 7 25 41 12 50 40 12 15 22 17 13 34 2 25 7 27 32 30 13 2 17 15 1 19 32 9 24 18 18 10 26 5 17 12 25 33 24 26 14 48 14 31 15 13 24 28 17 15 21 12 23 29 23 9 22 11 38 22 18 38 17 21 20 30 37 13 29 22 10 7 5 11 5 5 21 14 14 8 26 28 10 21 12 1 6 13 2 19 20 13 25 41 12 19 11 13 10 4 17 10 22 17 11 18 38 35 30 16 14 25 17 24 14 19 17 12 6 17 21 26 13 25 27 24 17 38 18 28 8 7 11 24 21 8 7 19 18 32 31 26 32 29 27 9 24 28 4 17 30 18 7 11 14 21 9 23 34 7 3 14 34 31 29 11 30 19 20 22 14 25 27 14 31 24 11 28 10 34 8 21 20 3 28 12 12 26 31 9 31 42 1 12 11 18 37 12 28 24 17 21 35 18 12 4 14 17 40 24 27 21 37 16 9 55 5 29 47 7 32 24 10 29 19 7 10 21 20 8 19 8 8 13 19 12 3 7 12 8 6 13 15 18 20 19 13 6 13 7 6 11 3 18 12 16 10 7 13 12 8 8 14 18 11 16 0 10 2 28 13 13 8 21 17 7 16 10 28 17 12 18 13 15 14 4 15 7 3 24 6 32 21 20 20 17 22 10 10 9 10 5 18 24 4 13 20 15 23 11 8 7 16 8 18 19 15 58 112 170 162 103 70 56 64 45 8 17 29 11 12 12 12 10 5 27 71 86 89 104 182 252 220 148 78 42 27 18 15 46 22 3 17 11 29 23 16 13 17 24 17 4 21 16 16 14 23 27 13 9 39 46 52 27 32 57 55 66 84 100 113 112 87 50 25 18 11 5 9 6 2 0 
0 10 8 9 11 13 20 18 7 13 9 5 10 24 8 32 30 2 10 35 21 38 31 22 74 62 24 47 54 38 31 34 24 39 32 13 33 34 11 32 33 14 27 42 40 13 11 21 8 8 1 12 25 22 14 28 28 31 15 18 21 12 13 11 25 32 23 13 18 16 10 6 8 16 19 16 9 5 4 37 44 30 19 1 19 17 8 23 12 12 6 15 40 41 34 32 32 34 25 9 43 32 13 11 15 28 15 13 11 17 26 13 18 18 5 22 18 10 25 26 24 41 20 40 33 34 22 31 5 14 18 19 11 30 14 17 6 22 32 33 26 21 18 12 14 14 32 25 23 18 14 29 12 28 35 28 25 4 12 35 29 42 22 18 5 8 3 12 7 38 16 21 31 17 17 32 48 47 24 8 18 22 38 50 43 24 33 11 16 7 19 17 7 27 29 25 14 8 28 27 25 31 28 23 12 7 24 23 36 41 42 35 34 38 21 23 13 19 19 24 28 13 4 18 29 36 34 35 25 30 39 31 12 15 13 9 20 19 12 8 28 25 12 26 8 5 32 8 50 20 15 10 26 12 15 13 2 12 22 35 14 20 9 10 29 34 7 24 14 5 12 7 10 8 7 25 34 29 25 7 7 10 28 42 21 10 18 28 24 12 24 15 16 12 36 31 31 17 14 29 18 32 40 3 30 17 26 26 30 45 27 41 16 15 11 7 36 24 5 14 11 10 29 17 32 25 8 19 41 21 22 24 32 22 35 35 4 44 36 15 25 26 27 27 7 14 15 30 29 17 25 18 11 15 25 31 36 33 27 18 10 11 20 9 11 17 9 6 8 2 18 14 12 20 3 8 17 8 11 12 5 5 14 9 8 11 9 10 13 19 16 5 14 24 27 16 8 21 20 5 17 18 9 9 12 20 26 17 12 22 8 21 27 11 15 2 26 25 7 7 22 17 22 11 15 12 7 5 31 4 15 25 28 34 18 7 14 11 74 141 161 137 88 59 72 61 13 16 24 7 8 9 12 16 17 11 43 63 85 80 122 210 229 234 139 37 23 17 27 49 6 16 16 17 39 13 17 17 16 16 19 4 6 12 21 7 16 8 15 18 4 29 18 22 41 35 66 97 103 103 97 73 29 2 7 14 7 6 9 5 10 0 
0 10 12 13 15 17 21 23 11 17 13 4 4 19 5 25 30 7 13 39 24 42 33 29 58 56 35 43 54 18 22 50 21 28 26 26 25 15 25 49 44 18 21 17 10 34 28 9 16 14 19 15 8 8 24 30 14 14 34 26 31 18 4 5 4 0 14 17 13 20 23 18 25 21 10 8 12 18 24 11 31 43 31 17 16 29 28 15 17 29 18 23 5 7 4 42 19 32 27 22 49 34 13 17 24 5 18 10 5 17 19 7 21 19 4 17 21 2 20 6 8 44 5 27 20 12 31 31 16 10 9 13 3 15 14 4 3 20 36 36 27 23 20 17 20 34 12 13 10 11 23 7 40 23 5 25 31 26 12 17 25 12 32 10 15 14 12 17 17 48 31 31 15 14 25 37 29 13 23 31 26 13 8 23 23 4 39 8 27 22 18 18 28 22 9 15 11 1 21 27 20 2 18 17 8 14 25 14 56 36 35 28 27 32 31 34 17 8 21 27 10 4 5 11 38 33 31 25 5 21 6 13 5 5 19 7 27 23 10 34 24 22 31 55 49 45 26 14 40 19 14 4 29 8 18 15 3 6 20 12 27 31 21 5 11 39 18 18 7 14 21 14 7 6 6 12 24 23 8 7 10 4 15 38 12 24 12 12 25 37 50 36 29 24 29 34 5 10 21 34 19 31 36 8 21 10 24 34 18 14 39 39 4 9 19 29 10 15 19 7 20 28 28 20 18 25 21 29 28 16 11 11 29 31 35 15 4 42 29 17 17 23 44 15 11 14 10 24 27 15 19 22 0 4 7 7 3 8 17 18 5 12 1 10 11 12 13 8 10 7 19 6 11 17 10 9 16 8 11 13 7 5 13 4 9 0 9 13 18 7 11 11 4 18 30 28 17 17 13 4 10 17 18 15 9 13 18 5 20 8 21 7 15 16 7 11 5 25 14 11 21 12 13 9 14 16 26 27 35 18 24 41 24 17 6 21 8 13 39 107 143 138 95 61 74 70 25 22 26 5 8 11 10 5 3 3 21 51 88 76 87 164 213 8 205 90 28 10 24 44 14 15 22 27 52 30 19 12 11 39 46 31 10 18 14 21 20 14 18 24 21 11 40 16 42 73 83 93 92 82 75 47 12 9 8 13 8 5 6 4 9 0 
0 10 11 10 8 4 11 20 4 18 22 12 8 11 5 21 22 13 20 36 31 35 26 29 43 52 47 46 49 10 25 45 10 12 7 13 14 20 24 47 36 11 32 10 34 16 31 12 22 10 2 17 19 21 25 12 37 41 30 11 14 27 38 27 18 17 31 13 23 32 25 28 35 5 7 14 24 17 12 3 9 5 21 23 4 7 37 40 19 40 20 31 22 15 11 24 43 46 43 22 41 21 40 37 27 15 14 15 19 13 4 11 16 30 31 34 39 23 25 15 7 36 31 32 18 9 36 24 18 8 8 2 3 8 7 5 5 14 23 23 5 8 12 33 26 31 27 5 7 9 21 20 29 19 27 23 1 12 15 14 14 24 7 19 14 8 12 16 17 15 24 17 11 24 21 15 10 21 33 26 13 17 12 8 35 20 29 11 22 5 20 16 17 30 17 15 8 25 33 38 28 20 5 9 5 7 27 22 32 30 22 11 19 7 12 22 6 5 27 9 18 11 5 12 28 40 31 10 26 7 10 13 3 8 23 10 31 26 15 27 18 17 26 27 38 35 25 24 31 33 20 12 16 3 24 12 14 17 18 11 24 30 21 5 8 23 14 18 9 8 14 14 16 15 15 18 24 22 12 5 12 1 4 30 24 25 21 19 36 39 34 13 3 36 50 54 26 23 2 31 4 30 16 10 21 21 20 11 28 25 27 12 26 30 14 29 11 9 22 12 13 30 15 33 15 38 26 8 15 17 13 12 24 22 23 23 17 31 12 12 24 13 38 26 8 6 4 16 16 5 13 14 21 21 16 12 10 8 8 8 16 8 5 4 13 13 3 4 6 7 13 14 4 4 11 6 11 5 14 15 10 9 9 7 2 7 8 11 12 17 2 11 14 21 7 15 36 31 30 20 9 4 3 8 14 15 14 11 20 5 22 14 11 18 5 14 26 26 14 9 8 9 5 10 9 17 19 10 23 13 25 19 33 26 8 17 22 18 17 81 129 134 114 82 77 71 38 36 34 7 7 8 11 10 5 2 1 31 76 80 74 122 169 235 229 139 62 17 25 41 14 15 30 5 46 10 38 47 27 37 22 38 32 15 16 31 2 4 19 13 20 7 21 57 98 103 100 89 76 61 59 39 26 25 9 11 6 5 7 7 11 0 
0 12 10 2 8 12 20 21 8 17 28 19 8 2 4 20 11 16 26 25 40 30 25 39 45 53 63 64 32 6 33 37 26 15 24 33 31 41 50 45 13 10 25 18 20 32 22 15 7 18 14 9 29 27 1 25 9 7 9 14 5 23 11 21 17 17 23 8 8 21 36 28 47 20 28 36 39 24 22 10 27 40 40 23 8 11 5 4 26 23 14 26 12 17 14 16 6 5 23 26 30 10 9 18 29 5 24 31 18 5 16 12 42 40 20 15 30 10 31 30 36 22 15 19 15 3 14 13 3 10 8 15 3 20 14 7 7 6 14 14 22 13 17 32 38 20 42 22 21 18 25 25 14 8 14 8 12 10 29 4 31 11 18 5 34 41 25 7 14 18 6 31 26 37 17 33 28 29 14 15 28 15 12 23 15 37 30 17 22 9 11 11 4 19 4 13 12 27 18 10 22 32 5 22 15 12 10 29 38 34 26 27 20 20 11 13 8 21 34 30 30 20 12 11 6 51 36 39 19 13 14 18 13 18 24 15 33 30 20 9 18 22 30 31 31 36 34 7 13 18 15 8 13 16 32 27 21 17 9 5 20 22 6 21 31 19 16 15 21 15 10 4 3 15 10 11 26 24 22 19 7 5 18 39 11 24 7 38 11 50 27 14 20 5 25 7 21 11 39 40 21 26 8 10 20 25 7 5 18 20 17 32 7 20 24 29 10 12 18 15 3 19 15 27 8 36 8 29 31 13 11 21 23 22 17 4 33 43 31 30 9 20 39 42 6 6 18 14 8 20 17 7 7 10 10 14 7 10 27 27 9 8 19 14 5 10 0 13 13 11 18 24 17 9 11 4 6 3 15 13 10 15 7 4 8 8 15 15 14 18 7 20 21 6 16 12 28 34 10 10 10 3 6 9 15 13 8 7 16 10 8 16 27 7 14 22 20 16 4 6 14 17 21 22 10 1 9 22 35 20 1 11 14 27 10 7 11 3 11 55 109 135 141 111 85 70 46 43 42 31 24 15 6 7 9 12 12 9 52 82 81 98 128 184 248 212 108 60 56 39 18 15 39 26 42 21 25 32 13 22 16 17 16 14 9 31 38 27 34 12 23 4 15 84 114 111 108 111 78 44 32 24 24 19 7 12 4 9 11 12 16 0 
0 18 6 12 18 16 24 25 25 15 28 18 7 7 10 15 9 22 22 16 39 28 26 29 31 49 69 79 27 11 27 30 38 22 35 18 36 26 17 20 28 28 31 30 13 32 11 3 13 13 28 41 29 20 27 5 16 20 24 31 32 46 41 22 10 20 22 16 11 23 34 22 37 8 12 18 20 24 14 12 24 21 19 21 7 13 2 15 13 30 35 12 30 36 20 2 18 14 13 22 14 15 23 15 8 17 31 21 32 33 7 30 22 15 25 32 32 18 40 14 39 22 12 17 10 18 19 4 11 13 13 14 20 28 8 20 5 2 18 14 12 21 15 8 43 54 29 11 7 23 18 18 14 12 11 15 12 12 36 27 10 29 14 21 30 8 4 14 14 18 15 31 15 43 8 17 17 31 24 17 19 5 27 15 24 18 9 15 23 4 11 11 22 24 15 14 6 17 15 2 23 28 3 27 22 15 18 18 31 38 14 12 16 39 24 23 11 23 20 4 11 11 23 34 10 46 32 40 6 18 2 11 8 20 10 15 35 18 27 32 29 18 16 16 18 15 0 16 11 10 23 5 15 21 7 20 22 14 9 11 18 22 10 5 20 21 17 19 26 7 15 18 21 11 5 16 14 24 43 17 10 1 19 20 14 11 27 29 38 38 18 21 9 17 20 31 21 28 15 8 13 19 13 15 6 24 17 17 17 4 19 15 11 7 15 16 34 17 11 5 26 32 28 26 17 31 16 19 22 24 12 17 31 31 16 14 31 43 24 18 7 15 18 56 16 12 27 12 3 27 12 13 7 24 25 13 2 12 14 14 13 20 21 22 20 9 19 17 13 7 22 20 18 12 6 20 11 15 16 4 18 7 10 19 22 12 16 18 11 17 11 22 26 19 15 17 10 27 8 8 11 8 8 17 11 19 25 19 12 12 8 7 29 16 14 20 12 9 5 2 27 8 18 8 9 6 1 10 19 6 7 12 16 24 10 9 20 10 13 40 83 109 149 149 97 65 69 55 28 27 28 20 15 24 20 13 17 16 18 56 77 95 113 137 224 246 154 46 10 19 20 22 13 4 29 23 18 26 15 8 24 13 10 21 20 6 12 19 44 10 39 32 38 103 103 70 86 80 32 13 10 13 16 8 15 19 18 14 7 1 5 0 
0 19 16 21 8 4 19 7 22 16 21 8 8 9 8 3 15 28 13 18 32 26 41 25 19 55 74 74 37 22 18 8 22 27 7 25 31 55 26 7 13 11 11 2 20 24 7 10 10 11 16 6 39 33 13 12 17 18 1 11 17 10 21 21 10 14 14 28 3 12 13 13 31 26 51 52 30 18 18 18 25 47 50 17 16 1 16 12 14 20 11 11 36 19 31 11 25 27 29 36 31 15 12 17 15 8 20 31 48 10 29 24 39 24 28 17 9 13 27 18 33 22 16 17 13 29 8 22 26 12 18 24 18 25 15 17 14 27 29 13 4 13 28 40 32 8 19 24 25 25 23 33 27 20 26 21 14 17 2 19 24 12 19 8 27 34 24 11 17 21 7 21 22 27 14 8 21 34 39 21 8 17 8 22 21 24 6 18 5 10 15 18 31 27 24 1 14 4 16 17 16 17 29 7 42 16 13 27 28 46 49 36 22 27 43 46 29 25 26 8 25 26 18 21 41 11 19 11 10 15 32 11 16 6 17 21 25 5 33 17 30 18 14 17 12 10 7 13 14 8 20 19 5 18 12 7 4 21 8 18 9 8 28 28 28 20 6 36 17 10 10 10 12 17 22 18 7 20 24 34 12 12 14 5 20 13 18 15 13 18 4 9 10 9 4 17 20 17 34 13 10 14 21 24 28 23 29 18 10 22 5 27 13 16 30 41 22 19 23 21 16 10 15 14 4 33 16 8 19 19 27 32 31 27 18 18 21 17 24 24 15 10 26 45 20 24 26 27 12 26 27 23 29 41 31 20 13 9 18 17 10 9 7 32 14 34 26 9 22 17 24 12 7 18 15 20 27 28 16 10 16 13 21 25 12 14 8 10 1 18 14 26 13 6 7 8 11 16 10 23 34 35 18 20 2 22 18 43 9 26 5 6 11 27 9 10 11 11 2 12 21 4 10 4 6 15 18 22 17 3 8 8 8 10 11 13 2 11 21 8 55 73 124 176 120 50 73 71 23 21 30 20 15 20 14 2 7 9 11 36 62 96 112 117 185 236 192 105 39 47 26 17 8 7 17 19 24 32 22 8 23 13 21 17 30 39 44 40 37 10 65 53 76 136 108 74 66 29 18 5 7 8 12 18 5 5 2 4 11 15 15 0 
0 40 29 5 10 10 21 23 8 10 11 8 11 13 10 9 20 36 15 28 30 16 37 40 30 52 67 66 50 24 14 34 48 47 41 13 38 32 26 11 8 6 11 20 17 2 18 29 23 17 23 37 11 8 4 15 7 33 25 15 5 13 16 11 9 24 43 29 21 19 7 24 26 32 42 32 29 17 13 19 23 17 46 14 11 32 16 13 17 31 36 27 21 20 25 18 27 21 8 13 17 20 13 22 10 17 18 7 48 71 32 21 25 24 22 17 22 27 19 14 27 20 14 15 5 19 22 21 28 15 16 14 14 20 20 14 12 20 19 21 24 28 32 14 29 33 28 9 29 21 29 24 32 27 25 29 27 30 29 19 10 22 23 18 7 12 19 6 18 26 20 16 3 14 29 22 46 21 31 34 25 17 11 15 24 30 15 21 8 18 11 10 15 24 22 22 22 27 32 31 12 7 26 22 35 10 25 46 40 12 25 35 51 46 39 11 52 12 34 12 31 29 44 38 15 22 18 6 8 25 12 21 9 18 12 5 27 27 7 13 9 22 17 8 7 10 20 17 15 13 16 23 3 20 16 11 6 19 34 27 30 15 30 12 24 17 15 26 35 22 12 28 21 7 20 11 22 12 23 27 22 17 13 17 7 15 11 19 17 16 17 16 17 20 22 11 22 13 38 18 18 18 22 9 16 17 24 7 15 15 5 27 5 15 23 32 27 28 10 18 17 18 25 20 32 30 13 22 41 32 12 11 11 17 20 23 43 30 16 13 13 28 18 21 34 8 23 31 21 13 28 12 12 30 33 18 20 3 5 7 20 11 21 28 14 47 17 23 13 20 30 23 14 18 18 32 38 15 11 14 29 22 21 5 13 5 9 16 12 10 10 23 11 15 18 11 18 21 15 17 5 25 17 18 3 26 15 46 5 21 21 13 1 17 28 17 13 10 10 17 13 0 13 3 15 11 0 9 11 6 4 4 11 10 4 12 12 6 28 27 22 50 96 171 148 70 71 71 40 34 39 25 12 7 16 8 7 12 14 24 37 76 97 86 151 227 218 179 93 10 31 14 6 7 9 23 36 20 18 25 7 27 27 50 19 23 42 34 43 48 81 66 95 139 94 66 52 24 16 7 5 8 11 5 15 22 16 8 1 4 8 0 
0 14 22 18 4 10 10 2 8 11 10 5 9 14 12 7 14 33 21 39 32 9 12 53 58 50 58 55 44 33 21 28 22 11 29 26 15 12 22 29 14 13 18 13 8 1 23 24 18 14 31 15 31 29 24 12 22 40 15 18 8 5 9 4 15 16 20 8 27 22 11 24 15 30 28 21 5 24 41 50 34 16 23 11 30 23 36 19 47 32 14 6 8 20 20 37 25 31 22 21 25 9 25 29 2 25 11 30 29 24 31 32 25 18 7 29 28 24 17 12 21 20 25 2 10 7 24 8 21 6 25 35 35 24 7 11 9 14 11 7 10 11 17 21 6 14 12 14 24 13 24 22 14 4 7 12 10 12 13 16 24 22 8 22 10 11 8 12 17 4 12 8 21 18 39 10 58 38 33 24 7 9 22 4 5 20 24 25 13 31 11 16 12 3 17 18 16 10 4 15 12 9 17 12 32 28 31 18 32 17 19 18 28 8 57 41 49 21 33 19 46 14 30 22 35 14 29 13 22 24 6 2 10 27 4 13 5 10 22 21 5 16 10 2 13 19 27 27 24 16 19 21 4 17 8 19 14 21 16 13 37 24 32 35 23 11 2 9 27 10 34 8 28 29 29 31 34 25 43 16 29 21 12 21 17 13 7 12 5 11 11 10 11 13 16 22 12 15 32 23 29 4 26 28 8 29 11 10 10 4 10 16 21 13 14 24 11 15 29 25 5 7 20 13 28 52 43 21 34 27 24 13 8 14 24 24 29 57 19 4 9 32 17 7 25 19 22 21 28 7 24 9 26 23 14 14 31 29 41 37 13 7 19 21 30 44 29 20 24 39 41 30 16 13 8 5 24 11 5 17 27 10 20 14 12 21 18 34 8 13 15 17 15 18 21 21 25 27 14 21 2 20 18 16 5 20 8 32 7 8 9 18 10 5 32 32 15 2 9 15 10 7 14 6 15 12 8 3 7 15 20 17 4 16 7 7 15 15 5 18 15 19 74 140 163 127 83 74 55 34 39 27 9 2 14 9 8 13 11 23 33 70 94 73 115 196 219 218 152 32 39 11 27 43 51 27 31 53 59 31 21 21 40 48 26 31 31 44 61 73 104 95 101 111 56 36 32 15 8 1 3 3 1 4 5 4 10 12 13 16 19 0 
0 7 29 23 13 24 22 17 8 10 9 5 5 12 13 5 25 28 17 44 36 10 13 62 69 46 56 48 32 25 21 35 31 24 24 26 10 16 6 23 21 10 21 22 13 17 24 24 8 5 24 9 9 11 15 37 13 31 22 13 11 24 19 20 15 24 31 31 24 24 27 29 21 30 12 23 24 10 22 20 45 24 17 12 43 36 55 55 24 16 20 14 10 31 27 29 25 29 5 22 30 25 28 7 16 16 10 32 43 69 45 10 7 3 14 27 29 17 8 8 19 22 36 34 36 15 8 22 15 7 3 5 5 3 4 8 4 7 13 12 18 10 17 20 4 16 10 11 11 13 27 17 16 13 18 19 20 11 16 19 10 27 8 22 14 21 20 28 25 49 41 34 14 25 35 35 25 14 24 30 34 26 33 16 9 19 14 17 9 50 21 29 5 9 20 14 22 13 13 11 8 10 14 14 14 24 22 21 22 10 27 31 49 43 15 10 29 17 33 19 36 19 30 37 44 46 31 11 13 24 22 5 2 23 11 8 7 12 15 8 14 12 13 9 8 7 8 6 12 11 22 31 24 10 13 25 29 26 26 41 42 26 20 21 14 15 7 2 17 15 29 17 32 17 10 5 18 3 36 28 41 24 8 17 14 15 8 2 5 2 5 5 5 5 2 29 2 25 17 11 7 10 7 9 20 29 7 25 20 13 10 13 19 13 7 9 21 14 13 9 3 10 32 23 14 34 34 11 38 23 16 16 13 15 11 10 20 52 28 34 41 33 11 17 24 15 19 29 17 8 14 21 8 14 15 18 27 15 21 23 11 18 34 37 24 43 31 15 20 10 13 24 25 10 8 15 13 27 7 28 24 7 21 26 15 39 14 49 21 18 9 13 14 12 7 17 20 13 8 18 12 15 20 14 11 19 13 22 20 9 14 3 23 22 27 27 21 8 13 14 8 11 17 15 12 10 15 17 12 4 12 13 2 12 8 3 8 19 23 14 12 8 45 95 148 160 97 82 76 38 37 26 11 8 10 12 12 9 3 14 24 58 85 77 103 153 194 252 227 90 20 5 11 20 23 38 6 52 23 56 28 14 27 24 14 20 28 30 45 76 113 96 75 67 25 16 18 6 6 4 1 5 8 9 6 5 9 10 11 13 15 0 
0 2 29 22 16 24 8 11 1 5 10 12 14 13 8 16 31 21 9 40 41 8 21 49 57 58 62 44 27 21 17 25 15 14 10 10 19 18 34 29 24 5 6 17 20 15 20 27 1 23 31 27 42 32 25 28 31 15 4 9 25 14 15 26 11 3 7 24 27 27 13 31 54 31 12 21 30 29 33 21 14 29 29 15 30 53 21 36 26 11 12 8 26 23 5 22 11 15 8 27 24 5 31 24 3 19 28 9 18 21 18 19 9 3 14 27 29 17 8 8 11 22 34 26 43 6 13 30 13 5 1 5 5 2 3 5 11 10 23 10 16 9 18 12 33 25 10 18 21 18 5 18 14 8 5 5 22 7 17 13 28 32 24 27 8 11 8 14 25 34 30 33 19 27 11 23 15 22 33 25 19 19 22 7 4 19 16 17 9 51 23 27 4 8 23 40 43 28 10 10 21 8 21 21 13 35 34 32 41 101 145 127 98 85 89 108 120 113 98 101 107 107 40 24 29 5 30 20 8 12 19 27 34 35 23 24 28 22 2 8 19 32 27 17 10 7 8 5 14 5 15 15 1 13 25 24 28 18 33 27 22 29 29 29 18 25 11 10 13 17 5 18 18 8 20 11 13 12 13 24 29 15 20 27 12 18 2 3 4 4 5 8 11 12 12 29 9 28 15 8 9 12 8 20 28 16 19 24 14 23 3 16 19 11 10 9 22 16 3 7 4 17 35 12 33 40 25 5 17 13 20 34 37 27 14 11 19 38 13 7 35 43 23 6 24 15 23 41 16 17 5 14 28 34 22 13 27 3 13 20 6 25 28 52 10 34 19 17 14 25 26 19 22 10 5 7 13 25 7 28 27 11 17 20 5 42 18 48 29 24 20 10 8 8 13 15 12 8 11 7 20 8 20 14 20 17 12 18 23 26 15 32 22 24 21 5 14 15 17 13 3 4 11 14 10 13 17 18 13 10 18 14 13 4 7 10 3 11 22 35 14 21 30 57 116 163 106 91 95 52 42 30 21 15 7 15 16 6 12 11 8 39 70 73 95 123 150 231 10 160 27 22 8 34 18 34 17 55 37 59 4 39 18 4 21 24 34 58 64 86 103 73 47 37 22 16 9 8 5 2 4 7 8 4 3 3 3 6 9 12 15 0 
0 16 27 20 6 27 26 12 3 5 12 18 19 15 8 15 34 17 5 32 38 18 30 27 37 74 75 49 24 21 24 33 21 20 8 8 23 35 19 28 16 17 29 21 8 22 20 14 18 33 30 24 22 22 37 11 12 12 11 5 29 23 28 18 12 14 39 55 44 43 24 29 14 13 13 7 9 2 14 10 27 32 22 12 11 48 37 8 16 36 29 28 34 41 30 23 23 38 22 14 26 27 18 5 24 26 33 20 17 26 27 14 12 18 7 29 28 24 17 10 14 29 40 45 34 17 12 17 11 12 26 35 34 24 11 6 16 6 27 15 25 27 32 24 31 20 28 34 26 22 24 26 4 14 1 1 26 8 19 4 25 8 16 14 19 12 20 26 24 25 50 24 24 24 35 33 24 31 38 46 23 32 31 20 7 11 8 21 13 44 33 21 10 8 7 26 19 26 29 31 37 34 31 32 46 76 75 73 94 174 167 138 113 126 192 213 198 194 177 157 159 195 184 195 220 202 144 101 69 51 26 43 38 33 16 21 29 41 41 34 13 7 8 12 17 21 21 15 8 11 9 8 20 18 23 18 23 3 20 24 41 38 29 37 17 26 8 14 17 13 5 9 13 20 9 14 8 7 4 4 16 14 23 29 18 15 5 2 6 4 0 3 5 7 7 20 13 21 25 16 24 2 20 26 9 8 12 19 12 15 17 18 12 24 15 16 18 10 8 9 13 21 36 29 24 35 31 5 12 21 22 10 19 28 17 10 19 37 33 44 36 23 37 10 30 5 39 44 34 14 9 4 23 8 13 1 26 18 19 22 13 16 3 42 31 17 4 15 16 10 21 11 17 7 15 27 27 6 22 18 29 8 8 7 25 31 17 40 45 29 34 17 12 11 23 21 14 19 15 7 23 6 23 11 26 8 11 15 17 28 7 42 10 10 17 18 10 21 17 7 6 6 6 8 11 16 12 4 7 18 24 25 18 13 4 10 10 7 1 26 15 24 26 33 80 149 126 108 103 71 56 42 35 26 5 13 19 13 19 17 10 19 53 65 81 94 118 195 254 219 125 14 39 24 2 14 15 41 22 35 18 41 22 33 17 16 43 72 94 100 85 49 37 31 26 13 4 4 0 3 4 3 8 13 19 20 19 17 16 17 19 0 
0 31 24 12 12 8 17 12 1 8 14 17 16 12 8 7 36 34 9 25 29 21 40 21 26 77 76 49 29 25 26 34 12 24 12 11 22 22 42 12 17 10 26 35 29 15 15 11 11 55 24 36 31 9 35 0 5 7 21 15 13 14 13 25 28 28 38 19 39 32 18 38 21 8 12 23 22 27 29 17 21 18 28 8 29 22 22 8 20 46 15 41 25 33 33 28 22 12 24 23 9 6 14 24 15 18 26 40 14 24 34 29 23 24 22 17 22 27 19 14 13 21 8 38 18 22 6 8 14 23 23 13 10 26 25 11 18 24 34 21 35 27 20 6 21 17 4 17 18 6 15 25 9 18 9 10 31 5 20 12 23 11 16 7 27 21 28 1 21 5 31 28 14 19 16 3 35 61 47 61 10 21 29 43 24 8 7 18 16 29 17 21 17 38 72 96 103 92 74 66 72 63 47 40 58 79 65 76 104 134 29 69 64 112 99 53 79 126 113 77 96 162 229 220 177 204 251 16 6 252 230 158 111 69 25 18 11 15 14 19 16 10 4 8 12 18 20 26 12 11 11 12 14 5 32 2 30 24 13 33 34 8 19 28 14 15 7 9 26 22 12 20 31 6 12 16 28 15 30 37 25 20 18 20 2 12 15 18 17 11 8 5 1 4 4 8 17 18 30 18 13 10 16 17 14 10 8 23 25 6 19 31 9 24 14 26 5 26 37 17 17 6 19 6 5 23 8 10 26 13 24 27 3 30 45 47 45 10 51 46 15 7 39 11 21 18 32 47 10 14 17 30 24 20 18 11 14 17 15 18 15 13 26 12 38 22 12 10 10 5 19 3 15 18 23 20 33 31 26 15 30 8 5 4 15 24 33 25 34 17 48 22 15 7 20 19 14 15 10 10 20 8 23 9 30 8 17 10 13 10 26 23 8 11 15 24 23 25 14 4 8 10 14 4 16 13 6 11 13 8 5 11 5 15 6 8 10 9 20 24 13 13 22 20 45 120 146 129 107 82 65 49 47 37 7 8 13 15 20 17 25 11 35 62 82 83 106 174 229 246 220 103 9 25 25 16 8 40 15 31 17 47 20 17 30 51 72 117 131 93 56 31 25 23 12 0 8 4 7 6 1 5 12 11 3 7 4 0 4 7 8 0 
0 29 17 14 20 12 14 15 15 1 14 14 18 11 12 2 29 29 22 26 18 18 44 35 40 77 62 38 42 42 36 34 11 26 13 20 10 12 51 29 13 14 11 2 14 16 22 8 25 29 26 31 13 20 34 17 10 10 14 11 20 7 11 12 15 12 36 22 18 21 31 31 37 27 25 14 8 8 13 16 20 14 25 29 26 5 25 15 18 9 37 26 7 17 7 36 15 11 10 11 25 21 10 3 18 11 13 7 22 13 28 17 18 10 23 18 21 21 23 14 12 22 29 15 9 21 5 8 14 15 15 27 21 11 34 20 19 24 27 15 38 39 44 29 15 11 24 30 18 5 14 15 9 10 16 26 19 14 16 7 17 23 13 16 27 2 26 11 14 9 18 7 3 27 15 14 24 63 10 56 29 15 23 15 36 33 15 12 30 61 56 38 24 73 86 72 66 47 35 30 44 71 77 71 65 84 68 80 68 64 22 31 55 32 21 48 62 43 41 42 70 57 71 58 40 88 137 158 169 186 1 50 34 231 161 88 73 68 48 26 48 21 5 13 15 19 26 36 21 15 15 12 0 14 26 18 23 28 3 29 17 29 15 12 24 7 20 26 22 10 20 39 31 13 22 23 21 7 27 12 32 14 13 27 19 14 11 21 17 19 21 10 3 3 3 2 9 10 10 27 38 21 13 27 22 15 20 11 11 21 11 35 8 26 5 31 3 19 17 32 4 14 12 11 1 18 19 18 26 28 27 18 8 30 47 42 10 33 28 54 15 22 44 9 11 32 37 5 18 33 18 48 9 25 19 12 7 9 1 14 24 17 29 12 24 14 3 11 18 2 23 11 8 8 22 39 37 40 3 14 24 6 4 7 24 36 32 22 35 25 36 10 19 3 8 15 19 10 5 12 15 6 14 24 27 5 11 12 20 18 29 7 5 17 20 10 9 11 5 11 14 6 18 14 20 24 17 6 6 7 13 18 22 26 24 4 10 2 11 10 17 11 28 12 8 66 131 153 138 102 54 42 62 49 15 15 15 7 16 7 34 21 15 34 75 92 89 142 196 232 242 178 95 40 20 18 17 25 8 25 35 60 4 44 65 106 116 110 79 28 22 21 12 7 8 10 2 2 3 7 8 8 8 8 11 9 3 6 8 5 10 0 
0 13 9 11 15 12 8 19 20 18 20 24 23 18 11 17 30 2 32 36 10 6 38 50 53 76 51 25 64 49 13 25 11 34 10 16 27 21 43 37 29 14 12 14 8 13 32 17 24 10 30 18 11 15 22 21 12 17 17 21 15 15 25 33 31 31 22 10 8 17 8 26 34 11 17 26 20 10 15 11 24 30 23 23 17 17 22 8 12 9 24 12 19 2 4 38 7 30 21 31 5 23 3 6 14 19 31 29 7 41 14 32 25 19 15 16 10 19 18 7 17 8 29 5 11 16 4 12 41 29 26 16 25 18 39 10 28 14 18 23 22 11 28 20 26 14 7 11 16 10 16 22 25 18 29 11 31 36 15 11 20 18 8 8 7 27 31 20 9 21 18 17 13 27 5 14 23 62 44 21 42 45 40 34 43 44 52 12 79 70 48 44 32 74 50 31 58 45 32 12 37 42 27 56 129 102 31 37 34 15 15 24 12 29 15 28 12 18 5 68 41 18 33 18 52 40 24 41 7 32 73 116 157 201 238 250 4 227 183 128 63 57 41 29 27 14 4 28 20 14 11 17 17 16 15 11 10 14 11 16 14 14 33 41 29 11 24 9 13 17 24 20 26 12 15 28 21 7 13 18 13 10 13 22 13 12 25 33 16 38 15 21 7 7 10 14 4 23 24 18 6 17 24 10 7 19 16 15 17 17 24 16 21 22 28 29 28 39 44 40 14 15 4 18 5 5 15 22 58 39 61 19 0 39 17 48 66 16 21 45 17 42 36 18 4 25 36 23 9 13 18 32 11 17 7 9 9 11 2 21 15 24 25 9 28 18 8 7 20 17 22 8 17 17 14 16 22 23 20 17 12 14 3 9 19 13 22 27 22 10 25 24 11 10 3 6 9 14 14 16 18 11 13 25 12 8 7 14 24 22 11 13 4 18 18 5 4 4 10 12 19 9 22 14 5 4 15 11 18 12 26 10 41 4 40 5 12 14 18 23 19 15 24 11 5 22 78 130 163 149 63 44 75 63 30 21 19 1 16 4 30 25 10 4 35 81 66 94 144 195 224 199 147 63 11 32 30 16 11 25 68 49 64 67 82 122 69 33 43 18 16 15 7 10 10 3 7 3 3 3 5 11 16 8 14 27 18 9 10 14 18 0 
0 8 11 12 11 11 13 15 31 27 11 4 6 24 9 11 30 29 46 48 15 21 41 46 50 82 52 21 65 42 37 48 14 35 10 3 5 25 32 8 29 19 19 21 7 12 23 12 17 15 27 35 22 9 25 8 17 18 33 6 34 20 3 15 7 12 6 5 10 7 14 1 28 22 8 12 19 24 29 19 32 12 11 17 19 22 49 36 23 5 26 13 17 23 15 15 26 15 21 24 5 20 12 8 13 3 34 26 20 42 23 26 30 22 17 27 12 11 2 5 6 17 20 19 11 9 3 5 28 29 37 6 17 36 31 9 30 15 7 6 8 3 16 8 13 11 11 16 8 20 19 24 15 21 44 14 36 10 17 16 13 8 8 7 8 12 11 31 12 32 43 37 24 23 14 10 12 15 39 32 19 72 91 67 47 29 64 61 119 65 71 56 52 41 38 45 45 9 37 41 34 32 54 110 95 47 14 61 20 20 33 35 36 70 59 46 64 61 44 57 8 24 21 17 35 29 52 29 33 29 37 64 71 39 93 190 235 253 31 52 7 192 149 95 24 29 20 8 31 34 28 21 11 15 20 24 17 18 23 14 10 11 19 32 23 13 30 27 30 14 25 47 31 7 5 28 36 24 18 27 18 18 25 24 23 31 22 45 45 38 7 21 15 3 15 8 22 15 33 14 24 15 8 24 17 19 23 24 19 24 17 5 38 13 41 24 45 28 33 13 25 5 10 11 3 2 10 24 74 36 49 28 7 44 14 30 62 39 36 33 11 43 25 8 31 23 14 9 6 4 12 26 9 11 7 14 10 13 2 23 5 15 11 26 15 8 19 21 25 13 27 27 12 7 18 25 32 19 14 5 4 17 8 6 18 17 21 18 11 6 8 7 7 14 10 15 10 2 5 17 20 24 15 10 7 8 12 8 11 15 7 19 6 20 18 4 8 12 18 9 19 9 20 21 7 20 10 15 10 7 16 39 14 35 40 3 18 13 11 8 13 23 29 9 11 16 42 85 154 172 99 57 73 68 44 30 20 8 6 12 21 18 1 4 22 56 65 85 107 156 208 216 195 108 7 49 37 44 34 20 50 32 107 96 103 104 34 24 48 21 11 15 16 7 7 9 3 8 3 2 5 7 9 11 16 5 19 20 19 20 4 0 
0 11 8 10 19 26 29 28 26 16 8 2 8 22 2 3 3 9 48 50 24 16 35 37 40 78 58 35 65 34 1 42 12 31 13 6 10 28 32 8 19 10 11 22 11 12 20 11 13 36 43 45 38 29 22 35 12 49 17 48 33 21 8 22 6 13 5 8 10 9 20 24 36 30 25 33 30 27 22 3 26 31 7 15 26 54 39 27 36 6 27 9 14 25 8 11 14 22 22 13 5 6 10 9 18 30 22 15 34 11 34 20 18 14 7 24 6 17 17 22 30 38 25 29 17 15 5 6 21 27 9 37 40 24 21 27 17 5 15 20 17 12 18 30 27 18 3 10 18 18 37 16 34 27 22 26 58 69 30 4 5 4 4 1 5 10 12 14 24 14 3 15 11 10 23 30 34 31 24 31 43 62 55 69 43 27 47 64 58 26 22 80 70 19 14 8 48 59 71 48 57 114 115 62 15 54 20 54 20 9 35 27 35 57 71 31 10 22 45 18 37 39 51 27 5 31 42 32 68 73 68 55 29 20 51 59 21 41 94 163 197 204 239 253 205 139 83 47 48 42 25 36 31 43 31 23 26 12 4 17 22 19 18 22 22 7 17 1 7 16 12 8 17 29 20 33 3 21 32 22 7 8 19 13 12 25 12 5 20 5 8 5 22 18 5 7 17 8 28 10 26 19 15 2 21 15 32 27 5 36 18 4 44 10 45 7 28 20 51 7 39 14 10 5 2 4 13 28 45 35 45 28 8 29 15 7 75 40 5 30 47 64 26 4 48 10 7 5 6 6 2 22 8 11 8 14 11 14 4 16 6 5 19 19 7 13 8 12 25 43 26 19 12 21 33 24 23 15 7 4 4 15 8 7 19 18 17 12 10 7 7 13 15 19 11 11 13 5 5 17 9 12 2 4 2 10 21 16 11 14 14 18 8 19 17 6 9 7 13 5 22 13 9 28 9 22 17 12 13 3 39 40 24 24 24 8 15 9 24 15 17 10 23 15 21 17 31 59 130 158 116 74 58 53 60 50 21 17 13 19 13 5 14 7 21 38 70 96 99 124 180 223 240 178 63 52 30 3 5 18 17 63 114 105 77 61 35 47 45 16 7 4 9 11 9 12 16 17 15 13 13 15 16 7 15 17 9 13 15 14 12 0 
0 14 13 9 6 3 5 2 7 13 8 0 7 18 14 8 22 27 31 36 40 43 50 52 44 63 50 30 67 45 22 29 14 31 21 18 22 36 38 24 24 21 14 25 16 14 15 10 17 21 36 30 22 33 9 24 35 39 31 48 10 22 20 32 13 15 4 10 5 7 19 24 22 5 17 4 4 27 16 26 14 17 24 17 14 50 25 33 29 22 12 5 5 15 15 25 18 29 2 8 13 20 13 6 20 8 30 4 27 29 24 8 6 7 10 25 8 18 14 12 20 24 18 24 5 31 11 16 24 25 25 24 19 10 21 22 12 2 25 17 14 10 21 12 10 9 14 7 27 15 36 17 29 22 14 56 38 40 30 15 16 11 10 11 12 13 16 14 22 38 26 31 17 17 33 38 32 45 66 70 36 55 18 39 22 17 48 55 21 44 62 32 54 37 17 22 5 3 65 67 89 87 17 30 11 18 22 15 18 19 38 26 42 62 39 58 36 39 30 40 43 14 65 25 35 58 61 42 46 72 53 25 50 50 25 54 82 67 35 17 36 74 156 252 30 13 2 233 136 81 46 10 54 53 37 5 19 16 10 10 7 2 12 22 3 14 19 13 20 19 24 10 10 39 18 37 26 33 30 28 19 17 26 8 4 23 13 21 43 62 55 36 4 24 31 21 29 38 18 18 20 17 24 29 11 33 29 25 26 36 21 23 38 28 26 47 44 27 42 12 35 22 15 16 7 3 12 16 24 15 33 3 13 21 20 29 67 24 28 52 28 19 23 12 43 11 7 7 3 5 14 18 2 8 11 12 11 12 4 4 13 15 7 19 20 2 20 16 28 48 32 20 13 21 15 24 17 16 8 1 3 15 8 3 17 17 11 2 3 16 35 43 36 34 31 24 18 10 7 13 8 10 6 1 6 14 19 7 4 3 14 27 22 11 9 16 21 15 12 4 17 15 13 9 15 15 22 10 11 13 25 31 21 27 25 2 12 8 13 8 14 14 10 22 25 7 23 28 97 148 147 115 58 34 63 61 23 17 31 26 8 7 23 10 13 12 43 89 99 102 139 189 251 231 106 36 10 34 27 16 47 85 104 83 59 38 28 33 16 7 11 11 11 10 9 13 15 16 15 12 7 1 4 8 2 12 19 31 31 17 10 0 
0 17 11 9 12 1 8 4 7 11 11 3 4 12 18 23 20 17 21 24 21 31 46 57 45 57 51 34 66 45 24 21 17 16 16 11 7 30 26 6 18 26 15 28 19 19 14 11 19 15 30 24 20 33 5 28 43 7 11 27 42 26 14 17 5 16 3 8 2 1 18 22 10 7 31 19 13 40 12 5 21 13 31 8 13 41 34 8 27 16 11 8 7 22 22 25 30 27 13 16 19 12 37 28 12 18 32 7 15 15 10 14 15 9 2 21 8 19 22 19 26 34 27 28 15 32 4 40 14 20 10 12 14 10 26 8 15 12 27 23 30 20 32 13 18 5 12 18 31 12 39 4 39 23 18 38 41 45 33 23 9 11 9 8 8 8 9 29 21 20 16 14 23 54 48 42 28 15 60 40 51 42 45 34 32 14 46 57 35 14 68 62 55 19 14 24 16 17 110 64 11 52 3 43 32 27 24 37 7 32 32 8 22 89 42 29 22 25 34 54 12 58 27 51 79 63 31 16 27 59 24 16 43 21 53 63 50 39 4 14 15 17 42 57 109 157 230 61 60 18 222 143 99 19 39 33 38 30 19 18 15 8 2 13 8 10 21 15 20 18 22 8 14 35 19 28 15 26 8 27 31 7 24 5 12 22 15 13 11 26 22 46 45 47 52 49 18 18 6 19 16 32 27 11 38 11 5 7 7 15 11 37 9 40 15 19 20 17 24 5 29 25 19 12 15 21 30 31 14 7 13 10 10 14 11 33 50 18 32 51 28 44 22 24 8 19 17 8 5 9 14 12 13 4 13 10 11 10 7 8 20 16 3 4 16 32 26 17 11 36 46 38 12 17 2 19 15 16 12 8 8 18 10 17 29 33 23 11 2 19 28 20 25 27 27 27 25 17 10 10 15 17 19 7 10 13 12 17 10 8 12 25 22 8 4 12 24 24 13 7 6 12 18 15 15 25 12 24 6 13 20 17 14 12 29 10 17 9 23 22 15 29 8 22 15 5 20 20 70 141 180 172 95 42 64 64 25 17 38 28 11 12 24 15 22 19 9 49 91 103 121 150 229 10 154 53 23 5 16 41 88 94 82 73 60 33 16 18 15 4 5 12 11 3 6 3 11 17 15 12 9 8 9 12 10 11 22 21 22 25 16 0 
0 33 21 17 21 15 16 10 10 3 18 4 2 3 16 15 11 16 17 18 24 43 50 47 36 60 61 35 56 30 21 30 10 24 30 29 24 36 30 15 21 27 12 33 20 21 17 21 15 7 19 29 26 29 17 30 26 32 27 31 23 25 18 14 2 17 1 5 5 6 19 27 30 39 43 31 3 45 31 8 35 50 25 5 14 24 43 24 27 16 20 22 10 30 13 27 26 19 17 16 10 6 33 11 21 12 33 8 31 34 25 16 12 13 8 18 16 15 25 24 25 32 18 25 10 17 9 32 34 37 22 12 10 21 14 17 4 13 15 15 25 13 28 20 31 24 26 8 35 7 39 13 18 11 12 10 18 8 31 10 28 0 2 6 7 5 4 17 32 21 38 45 48 58 27 21 8 10 62 26 74 31 72 24 20 25 41 45 46 16 33 11 18 6 18 33 56 53 88 48 15 31 26 54 37 17 33 42 19 45 20 10 12 69 45 48 60 59 10 29 28 37 29 50 37 36 29 25 22 33 35 13 37 33 29 1 47 43 45 54 35 43 36 23 40 18 16 99 182 240 30 50 44 213 93 34 23 37 31 12 23 28 18 15 2 6 17 11 31 41 34 32 29 10 27 20 16 20 27 16 22 21 30 23 26 27 18 8 11 35 16 15 37 41 44 26 32 29 10 10 20 45 52 43 20 36 34 29 28 29 26 23 17 26 27 38 37 21 21 11 29 22 9 2 15 13 13 17 16 14 11 12 18 25 31 33 32 17 46 36 7 15 58 13 20 19 21 11 2 12 15 9 15 1 16 10 12 8 8 16 3 9 5 8 12 12 21 11 27 17 12 34 31 22 23 26 5 16 8 10 14 24 24 20 5 5 11 15 5 21 34 20 11 10 10 14 17 18 17 10 20 10 22 15 8 10 14 15 18 10 12 21 18 5 10 19 16 26 10 10 7 11 10 19 20 12 10 13 14 2 8 15 21 11 32 13 24 2 16 21 30 36 8 20 7 7 13 31 34 90 167 208 146 72 70 68 40 34 36 18 15 7 16 15 24 15 31 8 56 89 113 125 195 13 203 123 56 7 28 72 105 90 75 60 38 17 11 16 18 8 7 4 3 3 2 4 13 18 17 15 17 19 18 19 25 13 8 7 10 10 6 0 
0 32 16 7 13 4 17 5 9 12 20 4 7 7 23 12 4 36 36 34 34 39 38 39 32 59 70 46 58 29 25 38 5 5 18 17 17 33 23 4 22 33 16 42 27 14 14 11 10 11 8 21 24 21 20 36 16 45 17 16 22 26 21 18 10 20 4 4 7 5 20 36 24 27 35 33 7 49 33 11 45 19 31 21 26 27 25 21 17 9 26 9 11 20 10 24 37 38 19 20 15 19 11 11 15 17 28 12 30 10 33 26 13 24 24 23 28 5 5 11 15 25 27 26 9 10 13 14 18 8 8 18 27 14 6 20 17 35 25 20 10 16 20 10 25 11 41 13 24 26 26 32 14 25 29 21 16 25 21 9 26 9 11 13 14 13 12 10 24 26 55 52 41 31 14 35 18 18 48 73 36 40 54 62 61 56 55 30 42 41 38 32 25 11 27 49 48 13 45 79 21 26 36 55 46 47 4 14 55 21 3 17 37 44 46 10 4 5 45 47 27 31 30 52 10 21 32 53 36 19 18 19 52 56 54 37 18 41 14 18 48 87 32 49 38 34 31 12 20 42 83 168 22 80 56 234 101 17 43 62 49 28 20 19 38 43 37 7 17 8 24 41 24 24 21 7 23 12 17 11 15 8 22 11 13 22 18 6 14 10 22 16 15 37 53 43 23 38 44 31 5 38 14 40 10 10 7 11 4 25 15 14 22 4 5 1 5 17 25 21 16 26 8 12 6 11 14 24 13 9 11 11 24 28 14 18 29 28 43 18 13 18 56 22 14 17 16 11 3 8 20 23 7 3 18 8 12 8 8 15 16 9 16 7 18 13 10 29 15 22 22 27 32 7 19 33 15 20 1 10 15 24 30 19 16 19 10 27 28 21 26 5 19 19 9 10 8 15 21 2 20 11 20 16 8 9 11 7 30 8 5 22 18 5 12 27 15 26 3 10 11 19 2 11 20 17 8 8 4 15 21 31 18 17 32 17 22 15 30 18 17 34 8 22 15 23 26 12 17 7 102 194 173 95 74 72 57 53 31 6 9 4 4 10 5 17 15 19 15 46 94 96 143 241 232 185 101 38 55 89 108 89 69 22 20 20 14 22 12 4 9 13 11 4 6 8 8 8 5 0 8 14 14 9 13 9 15 22 24 17 8 0 
0 32 18 8 12 16 17 13 13 10 17 7 11 14 27 14 2 41 29 18 20 30 34 25 27 55 75 58 51 40 29 22 2 12 9 12 15 35 35 31 25 26 4 42 29 6 13 10 18 13 15 6 10 20 23 8 28 9 33 19 5 6 17 17 8 16 11 17 20 20 19 26 26 48 65 19 12 28 18 10 35 32 36 16 13 21 21 14 14 21 3 9 2 5 20 21 2 36 8 11 24 18 6 4 17 24 12 2 32 25 24 27 31 18 17 14 29 18 4 21 21 33 25 8 15 19 20 9 14 7 6 11 43 6 21 18 17 36 18 21 6 16 8 5 24 24 36 12 15 27 4 30 8 31 11 31 25 22 7 19 34 21 11 11 4 2 8 33 16 35 59 62 10 21 25 41 33 18 14 68 39 22 34 73 51 34 47 24 6 28 43 41 47 48 55 34 62 45 37 86 76 39 18 65 35 80 12 12 44 61 35 32 26 47 42 50 65 46 43 21 69 13 11 51 46 72 74 23 21 7 18 50 87 44 35 22 2 16 26 25 42 93 32 61 17 35 32 14 27 46 35 36 60 170 12 74 36 186 89 43 53 36 7 22 20 13 33 24 20 4 34 14 28 25 13 12 23 10 10 10 11 13 6 21 30 18 10 19 18 22 18 11 18 26 16 13 25 28 4 32 7 26 30 34 4 17 21 9 17 31 14 4 19 5 11 16 22 17 4 20 28 20 2 25 15 2 9 10 22 17 21 4 26 8 22 26 34 40 36 7 6 16 30 36 18 11 13 13 9 7 8 20 9 4 14 3 12 6 14 10 9 22 30 24 7 13 12 16 18 23 16 26 23 12 12 16 22 15 2 11 17 15 20 17 32 21 8 6 12 15 14 6 13 12 15 2 13 13 11 12 4 15 11 19 17 20 22 14 37 17 13 18 9 18 11 21 12 20 8 12 16 22 3 14 13 25 14 6 4 5 5 15 8 10 32 20 24 21 8 11 13 13 17 18 17 33 33 23 6 26 44 155 189 136 88 75 76 72 31 8 7 17 13 10 14 15 14 16 12 8 74 83 99 184 239 254 171 67 71 101 93 56 26 20 5 26 18 22 17 7 1 2 6 13 15 3 14 15 9 4 5 9 13 13 11 8 17 11 21 14 5 0 
0 23 13 15 12 15 30 26 14 17 6 12 4 35 35 40 4 28 25 28 33 38 39 19 29 54 83 60 26 51 25 17 27 4 22 32 23 18 8 11 20 21 19 34 17 20 28 23 16 8 7 9 11 9 6 30 28 35 16 33 2 25 31 34 28 16 6 7 8 12 3 15 10 18 34 48 10 15 24 31 23 25 14 8 21 27 10 1 19 7 10 15 22 26 14 16 31 32 10 10 10 25 15 9 16 13 16 26 11 18 2 13 8 18 30 33 17 13 15 7 31 20 19 28 22 34 15 27 27 15 6 12 40 11 18 8 15 17 20 10 15 18 6 7 10 7 31 9 20 12 11 14 6 17 37 30 25 22 18 34 22 38 9 11 13 28 14 27 24 38 37 75 25 25 27 75 48 37 35 20 41 36 52 48 48 44 44 45 32 11 7 35 97 24 58 44 45 31 21 47 12 55 55 38 45 51 43 41 48 62 82 46 79 88 54 72 11 47 28 33 84 20 57 57 40 28 40 29 8 44 56 30 65 63 76 37 31 23 18 46 52 94 46 27 49 15 43 53 11 43 31 56 46 24 76 157 245 49 56 195 59 31 51 27 8 8 26 1 16 32 22 13 10 18 28 16 14 15 6 12 4 5 12 21 18 10 23 13 2 5 4 5 15 26 9 37 14 19 38 24 15 27 38 18 36 18 7 14 11 10 14 17 14 2 13 25 21 9 1 15 15 28 25 32 3 18 10 12 40 28 21 19 29 14 1 42 39 26 37 14 14 34 30 19 11 13 12 14 13 8 5 19 10 18 21 15 15 18 15 10 20 13 15 16 15 17 20 12 13 19 9 21 7 9 13 19 32 22 8 7 24 31 39 14 17 17 4 11 15 14 12 3 16 17 17 17 7 19 14 13 19 18 12 22 13 17 23 7 41 21 30 7 4 25 8 16 10 11 16 1 24 21 10 7 17 16 10 15 10 5 7 6 20 23 26 10 34 31 33 24 10 7 10 14 17 23 26 14 17 19 12 93 168 177 127 80 87 94 61 37 26 26 28 18 16 14 23 21 15 7 57 70 77 121 210 56 254 110 96 100 54 27 17 7 18 22 18 5 14 11 1 4 5 3 13 7 10 15 20 23 22 16 9 10 8 7 21 8 14 9 19 0 
0 8 17 15 10 12 15 36 13 15 9 4 8 38 23 47 8 17 20 17 28 43 36 41 48 38 66 61 28 62 31 13 32 12 41 17 21 10 15 17 13 12 26 26 5 7 17 20 28 30 10 11 19 11 5 27 13 30 18 24 25 31 11 12 14 23 23 21 21 15 13 20 21 41 34 50 20 15 30 30 22 31 8 7 13 33 10 11 17 12 22 32 36 24 6 31 33 25 14 12 8 10 21 27 2 7 19 31 11 3 15 14 23 1 3 26 32 11 12 18 13 33 9 24 19 16 23 25 5 13 10 22 17 16 31 38 48 36 29 14 13 21 20 17 12 7 39 8 30 13 9 13 24 24 18 10 25 42 30 44 62 44 35 11 33 11 58 67 51 12 85 101 38 14 30 79 18 54 1 19 22 16 33 51 38 5 18 19 35 56 59 30 90 53 75 63 43 30 25 33 41 38 65 12 25 18 25 14 23 33 66 86 75 49 77 74 41 40 4 42 77 23 75 21 45 44 9 56 30 44 24 36 35 32 58 44 38 4 24 7 17 53 34 25 26 30 33 43 35 52 57 37 25 48 51 28 68 166 45 79 237 100 20 41 31 34 45 22 23 29 36 24 21 16 14 22 41 27 15 23 14 10 18 35 42 13 22 27 14 14 11 7 7 29 2 47 8 35 10 17 17 7 46 15 58 30 31 33 48 41 29 46 29 25 31 32 28 13 1 11 8 24 13 40 25 15 37 29 34 29 20 18 34 10 17 45 33 11 49 19 12 39 4 6 17 16 12 11 11 9 8 15 7 10 23 33 4 26 6 23 12 29 42 22 5 14 18 30 22 22 22 12 17 15 20 25 22 18 11 14 18 1 29 26 11 5 9 11 8 11 18 15 19 11 27 10 17 17 25 12 24 16 12 16 0 16 21 4 44 5 25 16 10 26 13 17 4 15 12 17 19 10 5 4 7 11 5 4 11 17 22 22 16 10 9 25 18 19 12 1 5 4 5 10 9 15 21 8 8 6 11 32 108 182 176 102 74 82 79 63 23 4 24 23 20 17 19 16 17 14 47 52 57 80 161 53 52 180 136 84 24 18 13 4 0 7 12 7 14 12 6 7 9 9 18 4 25 24 21 19 16 13 11 1 14 9 26 21 21 12 8 0 
0 10 12 6 24 27 34 12 21 20 7 0 10 27 41 37 3 17 26 17 25 42 27 53 49 33 60 64 52 73 41 23 33 25 52 41 34 30 36 31 15 21 10 20 26 18 18 8 14 28 14 9 21 13 8 26 27 25 23 15 23 14 33 21 19 9 11 10 6 2 6 22 25 17 7 26 46 62 102 65 13 11 10 5 4 26 11 14 15 8 21 7 18 11 18 18 19 22 7 11 20 13 3 23 18 18 33 7 31 24 25 22 29 37 36 24 13 24 10 21 10 34 16 12 5 17 21 21 6 17 9 16 5 2 22 23 17 9 11 18 24 29 10 9 28 32 29 12 15 20 35 22 3 15 29 54 81 75 51 33 21 14 63 24 56 60 65 7 35 46 72 45 43 45 29 35 26 17 35 3 8 13 11 34 25 38 21 23 15 63 77 77 59 33 58 38 63 41 60 79 35 7 57 40 19 17 28 38 15 22 38 25 44 51 36 82 98 5 25 24 77 51 88 37 45 32 61 63 56 12 55 49 10 92 58 64 9 28 45 93 91 50 13 20 44 19 47 41 40 12 20 40 50 46 31 14 20 8 79 191 48 68 210 64 16 34 46 61 41 27 24 19 21 42 13 21 20 36 15 22 25 29 14 16 24 12 12 15 11 12 15 17 13 32 30 36 14 23 21 21 12 23 11 28 46 19 20 17 10 36 14 42 10 16 16 14 11 12 9 5 14 23 29 20 36 28 35 39 9 15 11 4 39 13 10 39 25 7 67 13 4 44 7 10 22 2 6 8 9 9 8 20 19 21 25 30 15 28 17 16 14 40 15 41 38 21 7 21 17 41 7 26 13 24 22 14 25 21 8 7 20 12 25 22 3 10 12 2 20 29 18 1 21 4 18 9 4 24 21 9 17 10 12 14 4 15 15 11 35 14 17 2 20 33 14 10 10 20 11 25 11 23 34 30 18 12 13 6 3 9 5 10 24 21 12 28 5 38 26 25 11 7 8 14 12 17 22 14 10 15 7 7 51 149 202 145 73 47 46 59 43 10 15 16 21 25 17 6 17 9 38 41 45 58 133 31 64 227 167 63 19 17 13 4 3 5 9 5 13 18 13 11 9 5 15 7 22 23 19 13 7 2 7 14 18 11 21 24 20 8 3 0 
0 10 7 20 20 4 17 17 1 16 10 5 15 17 39 22 5 21 26 19 24 36 26 36 40 42 68 75 61 52 25 11 23 19 27 22 17 8 2 35 42 13 2 4 11 20 33 28 15 19 23 10 13 29 26 26 24 23 29 27 29 19 41 5 26 8 9 15 5 7 2 11 35 30 24 18 39 115 47 89 4 14 20 18 15 16 15 20 9 21 19 7 15 11 22 11 4 11 11 7 14 18 13 18 11 24 24 8 29 14 12 16 8 15 12 34 22 11 11 11 13 31 11 23 16 18 10 22 8 19 15 6 12 6 14 22 15 5 16 24 13 29 23 23 23 25 34 33 21 30 58 64 60 65 71 79 81 51 33 24 39 61 75 46 47 51 9 59 58 19 68 83 66 46 46 33 3 20 55 11 19 22 8 45 9 33 12 18 28 60 27 20 23 26 59 57 36 31 14 52 30 20 31 77 20 47 13 69 40 24 38 21 32 30 32 37 118 42 55 44 65 29 55 48 27 14 75 10 70 34 25 17 28 71 57 43 43 80 67 26 30 10 15 31 55 40 38 25 44 41 29 1 33 47 36 19 17 59 45 51 191 74 97 2 118 40 18 39 18 35 32 12 18 57 36 7 22 2 29 31 36 17 11 16 13 8 6 25 17 4 20 26 32 7 19 17 8 21 30 6 29 3 21 9 21 27 12 8 6 32 10 40 17 11 8 9 8 11 8 9 18 15 22 13 31 36 12 29 20 13 18 22 28 21 16 30 12 20 71 44 24 43 12 15 15 11 10 10 9 10 6 15 12 0 7 21 14 14 27 10 20 30 25 32 24 39 25 30 29 9 22 10 6 24 18 11 5 15 11 2 15 9 25 13 8 4 12 15 13 7 8 17 14 11 8 2 13 18 17 2 5 3 12 10 7 13 8 15 39 17 14 13 7 13 21 24 10 25 14 15 10 11 14 27 26 11 17 13 16 21 24 25 22 10 7 23 9 32 12 12 7 6 8 14 11 14 20 27 16 15 19 10 4 92 184 186 113 49 43 64 59 32 25 17 17 25 8 8 23 13 32 32 37 73 164 43 72 243 160 44 19 15 11 5 5 3 7 13 8 16 10 5 14 12 13 13 19 28 26 24 18 11 5 6 18 13 23 25 4 12 4 0 
0 16 13 24 22 25 16 19 10 20 5 1 21 16 32 26 4 26 21 19 24 31 32 36 58 77 84 73 56 30 43 38 25 12 14 1 21 42 38 10 39 21 24 27 24 18 8 11 21 20 17 11 11 8 13 37 31 49 30 40 29 33 35 16 32 18 16 9 10 6 15 14 4 33 11 22 3 69 94 86 32 32 24 20 14 17 28 17 10 34 25 14 14 5 19 25 10 7 21 39 41 30 16 18 28 44 25 20 37 47 42 41 34 27 23 6 20 17 26 16 14 30 7 24 17 12 20 4 21 22 11 0 12 23 14 7 13 17 23 36 32 31 23 13 29 25 29 22 77 104 127 115 83 64 53 39 25 74 89 73 65 73 78 37 8 10 45 71 14 30 32 42 35 26 25 40 12 38 51 39 42 44 42 50 31 52 46 62 50 18 48 56 52 19 40 38 36 14 41 48 43 54 52 85 70 38 45 104 84 85 42 53 67 31 51 51 103 13 86 56 25 22 37 62 22 49 49 50 60 34 31 38 35 2 31 46 93 72 8 37 35 13 36 29 44 4 69 36 40 17 48 48 23 5 12 18 27 41 36 86 41 107 230 54 49 217 76 24 56 36 15 23 18 26 49 31 26 44 22 9 5 19 12 14 13 3 9 13 45 56 56 21 36 13 20 15 22 19 29 13 19 15 21 10 11 28 19 40 40 42 53 41 8 20 18 19 14 4 7 24 18 42 32 38 4 42 34 18 18 5 8 18 11 22 31 20 10 10 46 35 17 20 25 28 11 8 8 8 10 10 5 10 19 23 8 13 21 15 15 16 21 11 24 17 46 37 21 11 10 32 30 23 17 14 11 7 11 12 12 5 15 8 25 16 15 12 14 11 4 8 7 21 13 13 9 16 15 7 12 11 12 10 12 8 10 12 2 2 29 4 18 10 8 14 16 5 26 12 19 9 15 26 34 12 21 9 15 13 19 25 31 30 20 8 18 18 22 17 24 6 4 5 8 13 8 8 17 25 25 18 28 17 25 42 129 201 172 86 58 60 56 41 38 20 3 21 19 24 28 15 26 21 50 122 218 60 67 233 134 29 18 13 8 5 7 1 6 13 9 15 7 3 15 14 7 18 14 13 9 7 8 11 12 15 10 28 15 17 29 14 17 0 
0 7 6 14 30 41 37 30 28 19 17 13 17 23 28 24 15 26 16 17 25 32 37 38 56 62 50 47 52 18 20 53 29 15 15 11 37 42 27 19 38 33 8 18 17 8 5 8 10 27 17 11 33 41 34 35 35 44 21 39 28 24 29 7 24 19 20 14 4 9 14 12 20 27 21 9 24 18 15 20 13 23 12 12 4 5 18 7 11 30 30 20 20 6 8 29 20 32 38 41 39 33 28 28 23 14 16 24 27 29 27 27 21 2 21 20 28 27 23 28 16 20 20 25 28 16 7 14 12 4 4 2 26 31 33 26 11 14 28 10 24 7 41 115 153 132 94 76 112 86 64 64 55 10 8 30 67 103 90 51 33 39 8 29 15 16 59 54 79 47 27 8 15 19 14 33 18 42 35 50 47 51 63 68 56 95 72 11 18 26 48 16 48 7 41 10 22 25 39 47 24 57 57 74 52 20 46 89 49 20 37 85 60 93 71 45 55 58 90 45 25 40 43 45 38 61 28 35 33 41 31 61 22 40 48 62 36 69 77 29 40 33 27 23 31 39 41 40 46 32 12 16 35 41 39 27 17 39 41 48 82 68 52 159 28 103 31 140 30 97 60 17 12 18 29 34 33 12 18 11 8 16 23 18 13 21 12 32 38 10 51 17 29 11 10 5 18 30 35 10 12 17 14 11 14 30 33 25 18 10 8 7 28 4 12 24 24 7 11 31 33 46 11 30 35 18 21 10 27 17 10 12 17 28 40 24 43 48 50 43 13 4 16 31 11 17 21 22 19 11 2 12 10 39 20 19 20 29 29 23 10 25 15 5 31 24 38 18 20 36 10 31 23 9 1 9 15 16 8 2 20 12 21 11 0 13 19 10 13 16 1 19 3 15 16 22 14 7 3 12 13 16 12 7 15 12 8 17 35 34 14 6 8 18 25 33 11 10 7 6 21 15 27 23 9 8 14 8 10 10 19 10 21 13 28 5 28 17 22 12 8 7 8 11 4 9 18 12 16 21 24 10 17 7 62 168 198 132 96 70 49 28 43 28 7 21 24 21 11 22 42 55 103 186 17 72 51 206 90 5 14 12 6 4 8 2 6 6 12 16 12 9 13 14 7 5 21 24 16 9 4 4 7 13 18 14 18 30 21 24 26 0 
0 13 13 9 26 5 16 11 30 9 10 23 6 8 9 21 27 17 14 15 26 37 36 26 49 79 48 34 51 16 45 46 6 6 10 7 36 41 28 29 38 43 7 16 8 10 4 7 8 28 34 34 21 10 23 29 28 9 20 21 44 24 23 18 10 27 32 30 22 19 17 13 16 22 4 15 27 8 15 24 17 16 8 20 16 11 13 8 4 24 52 42 47 15 15 17 12 21 23 37 43 32 12 10 15 14 16 16 21 9 10 2 5 7 14 25 8 27 36 21 20 14 25 37 43 25 7 15 32 33 18 6 34 20 24 23 25 20 34 23 16 32 87 176 195 210 165 90 80 30 53 77 58 34 45 59 80 61 40 5 10 29 42 54 43 41 33 36 54 41 47 16 20 22 40 28 21 20 39 54 36 20 13 33 54 99 48 91 107 75 65 39 51 4 28 66 79 58 21 34 66 50 8 50 36 34 40 32 50 60 44 52 105 104 62 55 63 60 45 52 25 37 17 28 65 40 52 7 28 58 27 74 70 34 22 66 74 44 13 47 30 57 47 43 28 20 22 29 26 60 56 29 11 28 8 21 21 16 19 32 47 54 34 44 89 230 89 117 3 67 42 47 17 20 32 33 16 7 20 44 27 5 9 20 12 17 31 19 58 38 37 19 24 11 10 17 33 39 25 24 12 31 6 25 11 30 7 25 24 33 44 31 18 9 8 16 25 11 13 12 20 12 41 22 13 15 8 30 20 27 1 11 13 38 32 36 31 38 50 30 16 15 28 37 26 31 32 29 21 13 8 7 4 36 14 19 7 12 13 8 21 16 11 10 18 15 21 34 21 17 24 13 26 18 12 14 8 10 5 8 19 7 19 11 1 7 15 17 11 5 10 18 16 29 25 7 24 7 12 5 8 23 12 5 19 12 15 23 18 16 11 13 4 23 17 24 12 18 21 14 16 29 36 26 10 7 14 0 5 5 17 20 20 17 31 9 17 11 3 13 8 5 5 9 1 12 18 11 8 5 9 10 12 7 11 102 178 169 145 112 74 38 44 31 9 20 28 22 26 58 72 91 145 232 56 71 16 155 26 28 13 12 7 4 8 4 7 5 11 9 12 10 14 19 15 12 4 7 5 4 3 3 7 10 5 14 19 10 27 38 1 0 
0 18 4 3 27 14 23 13 22 1 10 20 7 11 12 26 40 13 14 22 39 46 34 15 31 92 69 42 44 20 38 41 21 16 13 17 17 33 35 4 41 36 11 15 2 7 5 2 1 20 34 20 2 3 14 4 12 36 31 42 20 9 27 11 10 17 42 30 20 40 35 12 10 17 20 4 17 22 13 8 22 15 8 20 26 18 15 3 7 12 41 20 38 28 14 13 20 17 5 11 28 38 39 25 35 12 5 20 14 7 16 3 7 14 21 5 19 12 9 13 16 15 1 6 10 22 19 16 18 11 29 26 31 25 14 12 26 49 31 34 3 78 119 130 74 94 98 31 40 42 98 112 88 80 88 87 70 27 8 23 12 8 5 29 13 29 5 15 32 67 63 49 57 45 19 12 16 21 63 26 41 10 27 31 50 66 29 90 71 86 53 45 60 31 23 42 32 60 41 21 18 17 42 70 54 32 41 29 17 20 12 17 88 71 100 80 60 6 41 34 7 30 6 19 74 21 75 48 25 62 100 87 54 27 47 4 51 50 33 17 70 62 48 54 38 32 32 49 49 24 27 38 26 33 41 22 34 15 12 38 47 77 13 45 66 43 99 26 137 104 204 21 46 43 29 26 27 10 27 18 22 14 11 16 12 14 34 24 24 31 17 13 31 18 15 13 13 5 15 26 5 21 20 12 41 30 20 18 7 31 17 37 19 16 23 10 22 17 13 9 4 25 16 36 21 11 5 30 21 22 19 13 5 42 21 30 55 39 60 35 5 35 33 36 18 6 16 13 7 8 22 24 8 23 12 4 10 13 20 5 21 18 18 22 13 9 30 3 31 13 11 12 8 7 9 8 17 17 2 5 17 12 19 5 4 18 18 12 5 3 17 35 13 28 13 4 22 16 1 5 4 22 8 6 22 6 19 7 13 9 14 4 4 16 22 13 3 17 14 19 3 8 7 23 23 15 6 14 15 8 18 25 21 27 17 20 3 28 25 5 24 6 8 2 9 14 10 15 12 3 8 4 2 7 7 36 111 154 152 148 120 61 48 40 11 13 23 14 39 59 93 143 205 31 74 43 194 70 17 17 15 15 10 2 8 9 13 7 11 6 7 10 13 16 5 3 4 7 8 11 17 18 13 13 10 16 17 10 16 19 21 0 
0 15 5 11 21 14 26 22 18 9 11 20 22 3 10 24 29 19 13 11 45 50 37 21 20 76 89 52 38 39 41 24 21 18 9 20 26 30 20 26 24 31 45 42 42 48 40 24 8 26 17 29 14 9 17 5 18 30 22 23 16 20 8 36 18 22 23 42 42 23 49 3 16 19 18 1 2 12 34 38 7 26 8 8 10 10 16 7 5 5 23 14 18 20 7 13 17 14 7 26 52 35 30 11 19 16 5 24 18 34 36 21 9 7 23 26 20 6 14 2 9 26 7 12 17 15 9 12 29 25 12 14 12 19 4 10 28 59 38 35 13 92 76 138 239 237 152 94 78 62 69 25 31 52 58 59 33 29 14 22 10 11 7 11 24 17 24 27 38 42 41 6 14 18 29 31 15 21 67 27 33 21 17 51 70 39 58 70 16 43 58 68 47 31 16 44 66 40 41 44 70 63 49 68 29 68 39 79 38 46 38 32 93 66 94 48 71 74 56 35 31 51 32 17 63 17 84 24 77 84 104 68 10 22 34 39 49 31 73 42 36 48 82 55 13 41 34 26 37 61 32 30 29 31 26 6 27 1 9 36 39 22 64 60 45 42 64 59 200 73 135 14 78 21 37 35 48 62 35 8 8 21 32 29 4 2 20 22 29 8 6 6 14 16 9 7 26 23 12 22 7 16 17 30 30 6 14 9 12 28 32 29 17 7 12 14 18 27 3 11 18 33 20 23 23 22 21 14 43 27 15 22 17 29 19 21 19 41 50 31 20 25 36 39 15 10 14 26 15 13 16 14 15 8 5 9 8 5 10 19 20 24 17 20 12 20 41 49 13 42 13 22 2 16 17 17 21 31 14 16 21 25 12 10 17 31 21 14 7 8 18 7 23 2 14 13 17 19 32 28 9 14 8 12 15 22 19 12 16 17 1 10 8 7 6 21 19 26 19 18 3 8 25 24 24 21 14 16 12 24 12 24 19 34 19 21 21 31 29 29 21 11 6 10 10 1 15 19 17 7 8 13 11 7 10 17 62 123 136 157 159 72 42 58 20 0 18 42 74 78 148 199 250 64 57 246 107 15 9 26 10 17 12 3 4 3 8 10 20 12 11 14 12 6 4 3 4 5 12 15 6 13 21 3 4 14 12 9 14 17 5 0 
0 25 8 13 19 8 12 17 19 5 20 29 31 24 8 16 14 17 20 22 42 37 43 44 37 48 65 63 55 60 41 25 12 22 8 13 10 8 26 25 20 25 14 14 13 12 25 31 15 25 24 33 5 13 20 21 14 12 27 22 13 7 11 35 20 39 23 23 65 55 41 4 16 34 47 26 1 11 36 22 26 25 18 4 2 13 27 30 20 21 32 21 20 18 10 21 12 27 18 22 14 26 5 11 13 12 12 39 52 32 15 25 25 29 35 26 9 22 34 20 21 36 3 14 32 46 31 31 27 7 14 23 5 15 15 16 133 231 237 155 17 73 112 137 128 114 86 24 23 55 46 40 36 25 35 22 33 32 16 39 13 11 8 4 7 10 18 12 25 50 56 46 75 70 51 50 31 8 47 40 35 45 31 20 53 60 52 60 15 36 41 32 24 34 41 11 56 47 38 39 47 31 78 46 24 51 33 69 21 70 75 49 93 66 95 10 103 51 28 48 29 26 38 28 69 29 75 50 62 49 14 67 39 52 31 19 33 71 27 62 40 50 63 7 13 15 47 56 43 8 29 45 43 27 16 13 17 19 14 2 29 45 29 18 54 55 65 26 25 70 232 120 75 182 46 30 24 14 31 33 19 16 23 38 27 7 10 19 16 20 36 40 22 13 24 30 23 24 10 21 17 22 16 7 8 13 17 19 2 21 11 33 5 22 20 21 7 24 22 24 36 32 5 11 15 25 31 35 4 48 21 37 18 25 25 22 34 61 38 25 9 22 49 49 14 15 7 28 16 2 21 16 12 8 9 11 13 16 17 7 17 22 17 33 29 21 11 53 27 35 19 10 23 24 15 14 17 28 21 16 17 35 4 3 13 24 20 17 17 18 23 26 14 31 22 15 17 31 15 14 20 8 17 24 27 31 20 26 8 8 19 10 22 17 8 22 5 21 20 4 7 11 27 29 18 10 16 21 17 24 8 21 21 33 9 14 21 46 27 22 4 20 23 15 3 11 11 15 21 2 10 6 13 1 19 13 39 85 128 178 204 95 41 75 48 24 40 77 102 111 186 229 12 55 1 164 41 15 27 17 17 17 9 5 12 15 17 4 21 30 25 18 10 4 3 7 21 24 9 14 31 30 17 4 10 4 2 4 9 16 20 0 
0 27 14 14 26 22 20 5 21 18 25 20 27 30 10 17 17 15 38 27 28 22 41 57 38 29 42 71 76 51 36 8 18 19 5 21 23 13 15 32 15 18 23 22 16 24 51 38 34 30 17 26 9 8 17 23 5 5 21 40 20 10 10 24 35 21 14 22 24 6 14 12 10 22 27 36 5 16 33 12 33 39 17 3 4 10 21 19 7 4 18 10 23 20 10 22 32 23 4 12 21 22 15 10 15 7 24 23 28 42 34 29 8 2 16 21 31 13 8 30 17 41 8 6 14 20 22 10 33 36 21 26 8 11 12 39 209 236 198 224 58 17 7 35 34 23 74 44 56 75 90 88 72 61 36 5 24 20 39 34 33 23 20 11 5 18 26 40 33 47 56 41 43 29 19 32 27 44 60 13 46 37 22 32 34 35 23 48 65 37 6 40 56 58 42 10 17 31 72 94 110 86 22 40 21 35 22 50 21 45 45 7 63 53 66 40 91 58 63 60 45 37 23 23 74 67 25 21 36 29 17 39 13 12 59 9 39 73 61 55 20 32 30 19 12 28 31 8 49 72 65 30 51 32 21 9 12 29 18 18 16 19 41 47 25 29 16 45 72 71 31 155 60 111 33 139 30 5 12 12 21 9 16 7 29 34 22 18 21 25 27 13 46 5 53 25 33 19 7 14 4 16 23 35 30 14 12 12 14 18 14 36 24 8 7 23 9 13 7 3 22 9 24 9 9 22 23 4 25 53 27 41 18 25 27 15 32 61 38 15 17 20 31 39 42 33 22 33 10 20 29 24 13 0 3 5 7 7 5 15 21 14 11 15 17 8 11 24 40 27 15 15 19 16 7 11 17 17 23 13 14 40 12 13 29 28 12 4 8 18 32 28 9 20 10 9 8 30 45 39 21 15 26 7 7 23 22 23 7 8 11 7 31 5 15 14 18 11 11 8 3 9 4 12 24 15 8 11 4 15 18 22 11 8 10 9 24 5 27 20 8 7 8 12 13 9 15 12 14 15 18 33 34 17 27 21 26 18 82 178 238 164 79 76 57 32 45 80 107 131 212 14 38 21 178 66 22 23 29 20 6 14 5 7 9 3 8 14 11 12 12 12 11 7 4 10 14 10 15 15 18 19 11 7 7 10 5 2 4 8 8 0 
0 17 15 5 22 31 20 11 5 19 5 21 25 10 16 15 24 27 39 25 22 24 31 49 53 39 49 93 84 28 15 32 18 6 10 16 7 10 6 40 22 28 12 30 11 19 22 31 18 22 17 22 10 9 12 37 18 6 18 32 46 21 9 8 30 39 27 33 17 8 7 14 16 34 44 26 12 10 21 33 14 7 15 15 8 24 37 30 11 13 17 17 12 23 10 15 17 2 8 10 9 10 7 30 20 29 14 38 24 13 20 14 17 15 21 28 33 28 34 21 5 25 19 16 9 17 16 5 28 21 31 2 16 23 35 84 180 168 236 17 112 61 19 18 35 29 36 53 53 33 9 17 10 8 19 19 20 12 15 24 16 13 8 16 14 23 27 4 30 41 28 43 36 37 48 66 40 24 35 47 93 77 24 23 20 16 27 31 33 15 19 14 48 49 27 20 24 19 42 27 46 108 53 58 27 40 28 55 31 13 16 54 67 60 77 75 47 2 50 63 53 44 31 22 42 58 27 39 35 3 49 54 27 6 49 37 56 38 28 15 24 49 32 25 26 8 68 68 35 19 15 62 84 37 25 14 4 25 18 24 31 35 31 5 10 8 18 26 28 22 45 42 39 196 86 85 202 59 64 54 18 21 13 16 14 26 6 7 14 14 3 9 40 24 44 17 26 13 15 7 5 4 3 19 20 27 18 17 35 39 38 28 27 20 24 7 20 33 29 24 38 37 19 11 17 18 12 21 21 48 16 40 18 29 29 11 22 55 54 36 21 29 27 8 11 12 20 34 1 10 11 19 9 8 4 5 10 12 12 8 17 15 20 32 28 15 19 23 10 16 8 2 8 34 30 18 15 8 21 6 8 42 22 21 12 16 12 2 9 31 18 10 20 15 15 21 22 16 10 22 10 7 26 12 17 14 25 10 18 6 18 8 25 11 9 7 18 25 13 10 13 16 23 10 14 7 5 8 9 3 13 23 3 11 9 25 23 30 16 34 12 23 10 8 13 8 14 12 4 9 9 21 17 21 16 24 23 23 20 115 202 200 131 79 64 71 81 110 161 207 18 55 31 204 88 0 31 14 15 8 9 12 4 8 11 12 17 7 20 31 28 24 18 13 9 14 18 7 13 22 16 5 16 5 3 2 5 10 13 16 16 0 
0 6 20 24 11 6 17 6 20 8 13 14 5 12 8 18 30 40 23 21 29 33 21 32 61 46 51 88 73 25 18 41 30 1 8 19 17 10 18 22 31 10 31 26 15 2 3 17 7 18 12 22 10 8 23 21 11 30 44 48 12 37 22 16 10 3 14 38 42 23 12 4 20 20 14 8 19 4 23 21 27 34 24 15 21 30 43 41 15 15 20 18 11 22 14 17 20 27 27 28 18 18 24 32 9 32 18 12 10 18 29 26 11 19 23 25 34 14 9 10 15 5 16 8 11 24 12 9 31 10 28 18 20 28 108 223 129 111 19 12 151 144 87 69 34 32 13 38 41 14 10 17 29 37 26 7 17 7 10 14 15 18 4 15 37 32 40 31 32 11 22 49 28 42 56 45 24 22 61 43 50 57 10 15 21 24 27 33 41 37 17 27 30 35 15 55 62 34 34 47 39 88 28 60 28 42 71 46 19 30 25 49 75 76 68 29 31 35 72 68 55 66 30 52 59 49 28 22 32 35 76 58 67 23 41 51 9 58 51 15 34 60 20 38 39 30 67 21 65 63 60 88 59 40 29 22 39 45 41 25 16 26 30 26 17 14 18 24 33 44 24 10 35 26 126 40 124 61 156 17 34 42 50 27 16 33 27 26 21 9 21 10 17 34 10 28 7 7 4 15 22 23 23 26 19 15 16 18 34 19 41 27 36 31 34 18 11 26 17 15 41 5 24 14 2 19 19 5 18 51 21 37 13 26 29 12 22 49 54 33 26 30 18 3 34 35 26 24 6 11 17 12 15 24 21 17 14 11 8 10 12 9 21 24 24 15 17 16 25 14 7 5 12 40 31 33 14 14 17 5 4 39 29 8 25 32 35 17 17 38 19 21 5 19 17 7 8 13 17 29 22 24 33 18 25 14 13 11 24 25 22 10 15 19 12 8 8 18 0 4 16 13 20 8 17 14 22 24 24 17 19 26 4 8 10 24 20 27 19 42 12 22 15 5 11 2 10 13 7 10 11 15 7 22 19 18 13 22 7 58 121 181 163 89 69 100 132 166 243 36 55 38 220 107 18 19 14 37 23 20 13 9 3 5 7 10 16 14 17 6 3 1 7 13 18 11 8 14 2 17 22 17 12 8 14 19 16 13 8 5 4 0 
0 6 5 16 23 22 12 23 24 32 12 16 13 8 29 21 28 34 10 22 31 43 19 24 51 43 56 74 64 29 32 46 26 2 5 19 28 13 26 4 31 21 16 23 35 34 11 10 10 18 4 18 17 17 17 10 19 24 15 24 56 38 7 24 8 24 15 15 26 29 27 22 21 48 33 23 14 14 25 15 34 32 20 14 12 10 27 27 18 4 21 13 22 18 10 14 13 31 29 34 5 5 11 8 13 8 25 41 30 27 38 33 11 7 27 21 24 5 4 10 15 21 22 21 26 23 15 17 28 3 23 15 49 19 232 60 193 35 229 185 77 144 30 6 59 22 34 12 7 5 5 9 21 19 32 30 40 25 17 14 23 27 8 23 21 14 51 39 34 40 14 28 37 31 32 57 49 57 39 28 58 27 20 28 13 18 9 46 61 42 31 16 43 44 41 70 17 60 16 25 19 61 18 53 31 25 41 34 72 59 54 44 87 58 38 37 37 26 49 87 61 39 40 31 41 25 9 52 53 13 80 46 53 48 21 19 35 60 28 71 41 17 32 70 50 39 53 78 57 20 40 50 31 24 23 38 42 23 3 44 48 29 22 18 15 17 34 31 25 25 21 31 40 35 32 82 231 103 134 251 77 57 71 37 13 27 2 2 18 14 35 13 14 22 28 19 32 34 22 21 13 10 7 18 15 17 10 13 33 46 22 44 35 18 17 12 23 13 7 37 15 34 17 11 13 10 11 19 17 50 21 36 14 15 15 18 31 46 47 13 19 32 28 14 36 14 3 15 10 21 25 21 23 11 14 14 16 20 23 13 23 16 29 19 36 36 37 33 36 22 13 16 8 52 26 30 19 29 19 14 7 32 35 30 43 21 24 19 24 48 7 8 21 15 19 24 20 26 30 36 11 7 22 4 17 15 15 12 22 33 22 17 2 4 12 9 16 18 7 8 7 13 16 2 21 10 20 11 17 11 11 17 13 18 20 7 24 9 17 26 5 17 18 10 6 6 10 15 13 16 14 2 10 22 35 13 5 14 21 45 73 157 158 97 75 142 188 224 48 66 10 198 109 15 16 12 3 40 0 23 12 7 2 8 8 11 17 19 23 7 5 4 4 4 3 7 6 7 5 3 12 13 7 11 13 10 10 7 2 8 14 0 
0 24 33 19 10 16 17 31 9 25 25 18 18 16 22 20 27 13 17 35 19 43 36 20 32 49 72 64 56 60 49 22 12 16 11 30 43 17 28 25 11 22 28 13 25 21 27 9 15 7 10 17 20 11 4 14 14 27 16 33 24 26 27 12 9 35 32 18 15 25 25 9 26 16 25 11 22 9 22 5 30 32 23 21 16 16 24 24 30 18 30 17 21 17 8 10 8 17 31 29 10 11 10 25 20 17 31 11 43 46 8 31 2 13 21 7 10 17 20 2 9 4 13 0 16 20 10 3 22 26 17 22 31 63 21 2 181 121 213 103 73 163 45 29 26 16 21 29 66 56 29 26 26 17 41 18 30 32 24 37 19 27 18 40 18 17 58 43 27 31 31 27 29 20 10 63 35 31 24 33 50 32 33 31 45 38 34 1 20 13 45 21 54 51 24 57 39 49 23 13 25 59 62 49 31 53 46 27 48 30 27 30 37 74 27 58 61 10 40 8 47 7 48 32 37 25 17 55 50 64 52 53 47 16 52 52 9 83 44 75 19 32 32 34 49 55 7 16 14 19 13 18 22 16 22 30 37 42 46 34 24 57 72 56 53 26 11 12 17 7 29 63 45 10 43 12 31 138 55 141 73 162 18 45 18 39 25 21 26 14 31 44 29 5 29 9 24 26 10 13 8 17 5 8 22 21 15 19 15 16 31 55 7 35 26 10 15 25 26 26 4 22 44 36 12 12 5 32 29 44 5 39 21 27 29 30 18 39 54 24 11 50 48 18 26 18 3 19 11 29 30 25 7 20 17 10 3 4 11 27 27 21 32 9 30 29 5 13 5 29 16 12 33 38 13 12 38 31 22 21 14 25 34 30 46 36 19 12 7 54 14 27 35 33 18 21 12 14 6 21 21 13 17 11 4 22 24 1 22 22 23 11 12 14 6 26 4 2 5 8 7 12 5 11 11 21 29 22 24 23 18 19 13 22 14 29 12 29 5 20 26 27 29 19 6 13 18 8 7 19 22 12 17 17 20 8 22 27 31 26 46 147 152 89 98 209 231 246 56 35 178 96 35 16 4 18 17 35 4 20 10 4 5 15 17 20 26 18 13 9 8 6 2 3 4 8 20 16 2 8 4 4 7 7 17 16 12 8 5 5 4 0 
0 13 9 23 34 8 30 21 18 6 22 24 23 19 13 16 31 10 23 46 15 40 46 14 23 53 79 61 46 66 48 36 13 41 34 26 37 31 21 10 4 15 45 44 22 5 23 13 30 35 15 29 51 45 14 12 10 19 28 14 17 24 16 14 7 11 17 36 63 52 20 8 10 24 31 10 0 13 14 20 11 14 7 14 14 2 14 15 29 5 18 16 15 30 24 11 13 17 25 26 17 21 22 21 20 15 36 44 34 39 33 27 24 6 14 22 23 22 21 7 5 12 13 25 25 19 28 20 25 32 5 17 35 34 229 20 26 49 165 103 109 110 44 15 11 17 10 48 56 60 74 45 46 29 14 26 35 47 31 32 32 18 24 36 14 26 62 54 40 9 49 28 27 14 23 58 37 49 32 8 42 13 24 8 25 36 34 3 13 28 41 28 36 65 74 72 26 40 17 30 20 8 25 21 55 48 13 31 38 60 8 56 48 59 58 37 31 53 31 50 33 39 25 71 78 68 5 61 30 73 125 101 51 13 26 20 31 51 25 64 32 11 32 60 55 25 27 16 19 38 44 27 3 17 11 19 31 19 13 37 55 47 19 15 38 40 39 40 39 47 58 40 37 18 48 23 10 38 69 248 138 133 214 40 38 72 72 57 34 20 11 32 20 24 31 11 27 33 31 21 16 24 8 25 27 14 5 19 28 39 51 21 27 16 35 28 23 18 27 18 8 15 9 27 27 6 26 13 31 48 32 54 26 17 12 11 14 28 42 37 46 50 24 10 29 26 12 16 14 20 21 16 12 13 10 31 30 10 11 29 32 28 22 15 23 30 26 11 13 12 34 12 29 43 39 45 34 24 26 29 8 9 32 34 51 43 14 17 26 31 22 26 24 34 20 14 8 17 25 43 41 11 22 5 8 28 28 30 36 10 18 3 14 8 12 24 9 11 12 13 14 20 12 5 6 8 10 19 31 17 4 12 14 21 12 22 11 14 26 16 51 13 21 24 24 5 25 18 19 18 12 6 17 29 15 7 9 8 8 21 34 121 146 142 162 237 236 251 19 193 63 18 5 13 17 9 18 24 5 16 10 5 8 11 19 15 7 7 10 10 6 4 4 3 2 10 14 8 10 6 12 13 8 22 17 7 5 7 9 10 12 0 
0 36 44 21 28 34 21 5 14 26 25 22 17 9 5 8 30 23 32 42 13 34 35 25 43 48 63 67 40 47 36 17 41 43 11 48 25 5 18 9 8 40 43 14 25 14 23 27 24 24 19 23 17 28 32 12 21 26 2 12 5 15 8 14 12 8 17 30 28 17 43 35 28 25 13 27 29 17 15 25 27 20 10 15 14 4 15 15 25 19 21 12 9 2 21 38 18 32 38 49 20 27 21 38 25 29 8 24 13 34 15 13 7 21 18 10 9 15 14 6 5 9 13 3 15 4 42 41 43 23 5 5 8 34 141 230 237 178 74 73 98 48 32 21 20 1 25 52 58 54 74 47 21 2 25 25 15 43 2 36 21 5 16 5 32 43 48 38 31 31 31 2 22 29 18 41 23 30 47 43 28 13 17 37 44 40 24 5 8 16 36 18 13 38 35 35 39 73 97 83 50 16 45 33 27 31 20 38 71 46 37 25 51 59 30 70 67 52 41 43 10 42 31 11 53 73 21 38 9 49 68 74 77 4 26 34 66 66 35 54 47 54 49 21 36 40 16 45 52 25 15 33 21 31 41 46 44 45 20 10 35 37 43 47 25 14 28 35 18 17 24 35 32 8 48 5 31 43 59 31 164 85 150 17 86 57 79 51 21 26 25 26 14 25 41 11 31 22 31 18 14 31 2 26 3 12 12 13 13 14 32 25 34 24 24 1 34 14 40 12 9 13 32 31 33 4 29 14 16 32 12 32 35 26 15 21 23 39 22 36 72 31 14 12 27 19 12 9 19 4 7 18 24 32 22 28 31 28 24 14 36 21 3 18 11 11 39 12 17 43 33 26 15 52 39 26 15 21 35 36 17 18 18 29 59 63 15 13 7 10 14 8 14 19 10 7 7 2 10 47 34 50 25 18 32 21 5 29 27 8 24 12 1 9 7 16 5 8 12 17 2 10 9 20 21 16 13 20 8 4 9 3 17 2 20 11 8 11 7 23 38 23 28 15 13 16 34 17 32 17 31 24 26 18 31 15 5 20 12 19 17 64 137 210 242 19 14 240 179 76 1 12 7 5 2 10 3 13 4 17 15 12 14 7 9 21 2 8 8 13 15 15 12 9 7 11 18 17 4 13 9 11 26 18 22 19 13 10 4 16 23 0 
0 4 26 36 15 11 10 6 14 1 26 33 20 5 4 13 40 28 23 31 10 28 26 36 61 43 57 67 50 44 35 35 37 26 31 30 13 2 25 27 19 28 51 65 47 18 20 21 34 30 8 22 42 44 28 25 29 24 17 16 20 11 3 11 18 11 4 30 48 37 39 13 28 13 16 6 22 10 7 8 23 23 22 22 17 4 16 5 19 29 15 19 41 50 39 35 29 48 14 43 30 14 22 12 17 21 32 26 11 17 19 15 6 3 21 15 12 16 10 25 25 16 18 13 18 16 81 52 56 19 1 29 38 79 38 102 110 53 19 54 27 27 31 45 21 28 17 15 47 27 32 23 18 4 35 18 18 50 49 31 3 15 19 39 21 14 35 43 4 24 50 42 43 32 23 40 40 34 31 24 14 13 31 28 28 12 8 17 20 32 18 7 21 62 59 56 21 16 63 63 67 43 28 28 42 49 26 12 49 17 17 43 38 24 33 49 31 16 45 27 71 55 14 76 68 18 49 29 8 49 120 135 67 37 73 53 12 38 61 77 69 24 16 62 25 60 45 35 4 48 47 18 30 55 15 6 25 8 38 32 26 27 15 7 17 24 37 36 18 14 11 12 14 17 34 10 29 23 15 40 13 117 48 156 65 126 22 54 16 9 21 6 17 11 48 38 24 17 13 13 21 41 38 38 26 34 41 30 23 2 34 23 26 47 14 6 27 21 19 19 12 15 9 9 28 23 31 10 8 32 29 18 24 27 20 8 32 59 30 33 57 35 23 17 20 24 8 15 33 28 35 34 17 34 20 17 29 29 24 2 17 9 18 15 1 16 36 13 22 26 12 28 25 48 12 10 7 17 39 44 41 31 14 7 36 63 31 5 25 23 27 17 9 12 11 7 12 10 8 39 41 31 16 4 45 13 23 36 32 11 21 3 18 22 15 19 19 16 17 21 16 14 18 18 22 25 24 10 32 24 13 4 17 19 8 8 11 24 28 4 27 25 36 32 20 8 18 18 18 12 17 14 31 27 26 24 38 29 15 27 15 45 91 139 218 15 241 145 52 7 5 9 5 12 7 8 11 11 8 15 10 8 12 12 8 21 1 5 7 3 4 4 5 8 10 14 16 4 12 4 16 25 15 13 13 5 4 9 17 19 16 0 
0 14 12 19 22 12 22 17 11 22 15 12 21 10 5 12 41 30 25 31 9 25 23 36 52 50 66 60 62 41 24 24 19 14 18 18 11 20 32 26 24 14 14 27 28 21 22 29 39 29 4 26 31 20 16 22 21 27 17 18 26 27 16 4 13 14 13 21 34 27 12 25 26 7 22 19 27 12 8 19 9 11 21 24 18 5 8 13 16 15 22 37 27 13 37 17 21 14 42 36 11 2 12 22 11 15 24 15 7 20 3 16 20 14 22 21 15 11 5 35 16 43 13 19 12 16 83 59 90 34 39 63 75 125 98 12 10 15 26 32 18 41 11 55 21 15 28 28 13 38 57 51 11 10 36 32 53 39 26 7 8 27 60 55 29 31 30 47 24 30 22 23 14 28 38 43 48 39 33 37 14 51 29 32 45 22 25 12 28 63 50 37 24 58 27 50 41 55 95 111 124 39 2 21 59 25 87 81 91 22 10 20 39 33 72 55 54 40 55 41 23 18 31 55 39 21 11 44 64 60 43 14 30 54 29 68 88 86 82 64 17 24 20 50 65 69 20 28 48 14 55 81 72 27 32 42 36 31 9 50 63 43 14 24 33 34 27 12 13 35 42 43 17 18 22 19 25 43 43 17 51 11 70 245 137 83 139 30 55 42 35 19 23 24 35 41 39 29 18 5 4 18 25 19 9 13 17 11 20 19 21 4 20 18 2 18 38 34 27 17 24 30 26 22 13 15 28 10 12 25 20 13 17 19 15 13 53 53 18 24 26 36 43 15 23 29 13 17 31 5 1 7 9 23 43 40 43 45 17 12 7 3 29 4 11 22 22 18 41 14 10 21 35 46 19 17 17 18 27 41 27 26 27 10 24 47 25 18 25 9 41 14 11 12 14 10 5 1 3 17 30 17 13 12 29 22 24 8 14 23 18 10 10 34 3 20 18 2 10 11 14 8 14 15 14 16 25 23 9 30 14 7 10 21 7 5 17 28 16 27 9 2 27 7 34 24 14 6 10 13 2 18 12 23 24 27 15 13 4 6 40 79 94 134 182 185 127 42 4 4 4 10 2 12 5 7 12 12 7 13 7 4 10 8 7 15 2 3 5 1 3 5 8 11 10 7 7 7 11 10 8 7 1 3 7 7 5 14 20 13 1 0 
0 12 16 15 15 8 16 7 25 24 7 8 18 15 5 9 33 28 24 33 11 28 23 36 43 50 68 53 70 40 23 21 25 25 14 27 18 17 34 29 11 11 26 36 31 25 24 32 18 25 12 5 12 33 47 38 20 12 10 4 5 14 21 27 38 36 8 18 2 30 8 11 24 16 25 16 16 36 19 18 15 11 18 17 15 15 12 11 18 22 19 22 40 43 27 13 8 19 11 24 34 19 6 17 19 28 8 17 21 20 20 11 15 10 10 10 14 13 15 46 19 48 2 22 2 5 52 61 56 14 72 66 35 103 118 24 12 8 16 35 9 33 41 35 25 30 60 84 67 56 37 49 22 14 17 42 34 46 56 38 8 54 18 2 26 58 52 22 27 56 67 103 90 62 59 33 36 47 56 44 49 31 8 24 14 27 37 8 26 53 48 55 8 68 89 49 4 32 69 70 42 37 7 30 40 81 75 32 77 20 27 35 7 21 65 80 122 66 53 11 56 48 43 83 83 33 37 44 35 11 18 58 55 20 89 85 32 23 29 10 32 25 24 45 35 16 60 43 16 41 67 4 29 35 18 54 45 35 31 44 25 35 25 32 13 22 16 23 39 25 5 8 22 12 20 22 19 5 46 5 37 54 43 56 223 176 178 179 29 58 62 51 34 22 27 21 21 14 18 11 5 3 7 11 19 14 23 19 4 15 5 10 15 25 30 36 10 1 4 30 9 7 9 11 16 4 31 12 2 25 14 15 30 29 16 24 59 33 24 32 18 45 49 14 28 24 13 10 27 15 20 26 24 23 20 15 21 31 34 12 12 9 22 23 9 26 25 34 43 5 7 18 36 39 23 21 24 24 13 23 20 17 21 25 29 41 21 16 32 31 26 10 15 8 10 8 2 0 2 11 17 13 7 13 11 15 7 10 14 24 21 14 25 17 16 24 21 10 10 4 22 7 13 21 25 18 4 23 17 21 18 12 17 29 2 15 21 12 19 11 24 17 16 28 38 11 18 11 19 5 13 18 29 17 10 32 36 24 16 26 60 111 141 165 167 132 50 18 7 13 5 14 4 12 5 5 12 12 5 15 9 18 17 17 23 22 15 12 5 0 0 3 7 8 5 9 7 8 13 10 1 7 6 8 7 9 7 18 14 4 15 0 
0 8 16 24 8 8 7 6 0 15 29 28 18 22 31 28 28 29 23 31 10 28 24 49 60 55 67 54 71 41 27 8 11 40 10 33 22 26 18 25 42 32 21 14 21 37 37 37 46 31 5 8 10 17 16 20 39 34 17 10 31 34 15 11 16 41 42 43 29 34 7 10 24 18 5 18 15 24 42 9 13 12 13 7 14 19 19 19 15 13 20 13 11 27 29 11 15 27 48 31 17 23 9 24 23 34 19 21 19 16 24 9 21 16 15 14 19 30 37 21 17 16 27 8 9 8 16 14 28 46 122 56 32 121 107 21 7 14 21 23 8 10 29 12 35 9 18 17 22 22 17 46 27 32 19 47 10 69 35 41 34 51 14 31 24 2 13 20 13 24 62 60 67 32 17 33 59 51 66 48 42 31 21 42 50 40 55 27 11 56 61 62 57 38 41 48 23 10 38 57 64 19 13 56 71 33 21 54 40 50 53 38 31 10 55 79 38 54 31 45 61 56 59 18 78 71 1 50 68 46 19 32 29 48 52 8 34 27 52 16 21 52 27 8 25 29 21 45 31 10 45 71 61 20 43 78 56 54 9 51 53 27 19 51 51 26 5 5 29 25 23 16 19 36 21 11 50 78 86 74 78 71 47 15 92 220 213 175 171 37 50 44 37 61 74 43 5 12 12 31 31 21 8 15 7 12 11 7 20 20 19 12 19 25 7 42 11 1 4 27 11 7 23 31 23 38 30 17 0 32 10 27 37 13 13 27 50 23 37 50 26 49 38 2 28 21 16 9 23 4 7 5 11 31 18 18 22 28 39 8 12 22 10 15 21 26 32 35 31 2 12 18 30 30 17 24 26 23 25 16 18 21 21 25 41 45 25 19 25 24 14 23 7 9 7 4 6 11 17 22 15 16 16 18 11 15 8 8 24 15 22 19 27 17 17 15 21 4 7 13 32 14 18 34 15 35 14 2 23 14 19 19 20 23 16 22 25 12 22 20 5 33 5 28 14 13 19 12 7 18 8 11 4 29 35 17 28 32 29 48 67 119 157 142 114 72 15 28 9 16 15 16 14 13 8 5 11 11 5 12 12 11 13 12 7 9 14 10 7 3 1 4 7 7 5 9 7 7 7 0 9 9 4 13 11 10 9 14 8 12 20 0 
0 14 18 29 12 15 22 21 12 16 11 13 11 22 27 9 18 31 25 34 15 34 31 45 56 41 59 56 63 47 30 5 10 26 10 25 42 21 24 34 22 22 17 32 44 38 29 5 20 24 18 14 10 12 39 60 56 44 17 17 24 5 19 29 31 26 32 35 28 37 8 15 12 13 8 10 14 23 44 7 7 14 9 4 7 11 12 17 21 36 17 11 17 17 26 11 31 17 32 30 32 27 26 27 21 23 25 13 9 25 14 4 15 11 12 19 22 20 18 28 26 24 19 25 6 4 14 20 44 222 25 210 117 109 51 12 22 43 46 39 18 17 34 44 54 37 3 33 40 42 29 21 15 16 18 40 29 66 14 11 53 34 29 19 40 64 56 27 32 31 34 36 32 61 17 9 53 11 53 48 37 44 36 29 27 63 62 41 55 45 40 36 27 71 27 62 14 33 43 17 55 14 50 35 46 72 46 27 76 56 24 48 48 58 29 17 47 35 47 83 101 54 41 105 92 49 55 52 60 37 30 41 57 11 65 56 18 52 28 13 27 37 21 25 14 51 67 41 17 40 27 11 26 55 37 38 39 53 31 25 29 24 31 31 40 18 24 30 40 44 8 10 21 53 63 74 89 100 98 68 32 20 67 67 93 47 253 216 241 202 170 118 50 191 16 66 51 29 39 43 44 40 40 30 5 10 15 11 16 17 8 12 27 15 12 32 27 17 21 31 9 13 13 18 10 36 9 23 4 25 26 33 34 16 21 33 25 17 49 53 31 46 29 8 25 25 13 11 27 10 14 23 29 19 5 7 10 15 31 36 25 5 25 2 25 25 33 33 29 9 21 18 20 26 16 26 21 12 30 37 27 29 36 24 29 46 32 12 6 25 32 11 23 5 4 2 4 8 10 19 10 12 17 15 35 12 18 13 17 14 16 26 21 35 8 7 27 7 3 17 33 13 18 45 22 23 21 22 22 32 15 18 16 17 18 20 22 18 9 25 20 37 19 24 15 12 11 17 18 15 1 10 22 45 17 41 24 23 26 50 80 143 183 144 76 29 1 11 27 28 33 37 19 12 8 7 9 9 8 5 7 8 8 10 11 13 4 3 7 4 3 3 5 8 10 7 5 3 5 8 3 2 7 13 8 7 8 4 11 18 14 0 
0 15 15 18 29 18 9 7 17 10 24 30 21 25 26 16 30 34 28 36 10 28 27 34 55 36 54 65 51 48 33 13 7 9 19 21 25 24 20 12 28 26 29 32 46 55 31 19 24 21 14 8 12 17 25 68 101 70 25 21 10 26 5 21 10 12 31 48 26 53 12 22 10 15 14 15 31 32 26 3 17 25 19 18 15 12 10 17 41 33 9 14 7 10 19 8 38 3 25 6 17 30 20 24 20 4 21 21 25 33 13 4 12 12 11 9 11 13 7 24 21 48 21 19 29 8 5 9 74 48 179 245 205 86 19 23 8 36 18 10 12 35 26 23 21 12 21 22 32 9 14 30 35 18 25 19 9 45 14 23 59 61 57 31 4 31 44 39 38 70 32 2 21 57 19 47 84 57 34 22 7 36 36 59 56 61 89 62 52 23 21 25 62 27 38 25 55 45 24 49 32 38 44 43 93 31 27 51 23 82 38 33 53 25 48 48 19 35 34 32 78 53 67 38 11 37 38 43 54 45 34 32 27 38 37 65 28 23 27 34 56 41 31 9 37 5 20 12 18 8 20 34 48 55 19 28 44 21 29 38 37 30 18 43 68 39 21 32 31 61 17 59 101 130 103 49 17 56 95 113 119 155 178 135 89 68 124 51 218 55 46 3 44 67 145 110 65 66 33 16 18 8 33 48 20 4 20 12 23 41 37 20 20 14 11 28 21 17 21 38 11 15 9 20 18 32 14 17 41 25 10 13 19 26 27 31 14 22 71 36 24 46 38 7 20 24 9 16 31 8 9 11 4 15 13 4 12 13 5 15 32 14 14 19 23 36 24 17 34 20 30 14 10 27 24 17 18 17 27 38 41 32 45 34 17 30 31 19 18 18 25 16 18 32 21 7 7 17 22 8 15 21 47 16 46 21 23 13 5 20 6 23 32 25 8 19 32 19 15 25 34 11 14 24 21 13 25 36 28 37 12 14 23 25 6 9 15 7 9 6 25 15 22 10 11 17 23 14 20 7 5 3 26 21 32 8 33 27 69 110 150 189 183 109 34 5 1 4 12 23 13 15 10 10 9 9 8 7 11 2 8 10 11 14 14 18 4 4 12 4 4 1 3 5 8 13 13 13 18 8 15 22 9 8 11 5 5 8 17 16 6 0 
0 25 22 18 27 21 29 18 18 34 36 26 22 17 13 23 39 20 21 39 18 23 12 34 68 40 52 71 50 49 38 12 13 14 10 8 4 11 23 36 24 15 35 21 17 7 16 7 5 7 7 3 4 21 35 60 31 43 49 21 17 13 32 28 8 17 20 34 54 48 7 17 24 3 25 27 15 18 19 5 12 15 8 9 15 10 25 28 20 13 12 10 10 14 19 17 33 16 28 17 24 11 15 18 4 7 26 22 22 24 8 12 18 12 17 10 16 24 28 47 39 27 21 29 24 25 28 31 107 31 170 58 199 38 16 19 10 17 25 44 45 39 38 28 9 13 10 7 18 20 7 26 15 29 19 39 15 37 8 16 12 13 29 9 52 57 32 21 47 47 26 60 63 28 5 41 46 17 63 53 32 36 65 31 28 78 72 48 28 25 27 60 8 34 9 17 27 38 29 58 69 45 42 71 25 37 6 49 55 55 58 41 76 62 31 55 69 28 83 128 95 47 15 57 17 41 45 39 41 17 17 33 20 71 68 24 35 61 40 21 38 31 9 16 27 50 62 57 28 69 73 18 45 69 18 40 13 43 58 48 11 42 51 46 43 29 43 26 4 34 89 88 58 19 73 95 115 177 217 197 153 142 111 78 65 70 64 66 95 124 158 209 49 218 89 226 176 17 20 22 13 10 14 41 22 24 34 6 28 14 21 4 29 35 35 33 11 4 11 40 21 25 30 38 36 24 17 19 1 21 24 22 19 33 39 20 29 44 75 19 26 52 27 11 28 30 12 26 23 2 6 8 5 5 12 13 18 25 29 36 12 20 13 11 12 34 30 36 48 31 33 12 11 31 30 4 9 40 30 15 25 41 60 56 38 32 38 42 36 20 21 31 18 16 27 18 4 17 12 17 18 31 45 29 33 4 14 14 9 21 12 15 34 5 22 37 21 9 7 17 37 21 30 15 7 25 21 18 24 25 13 19 17 5 14 5 5 9 7 11 25 8 22 9 6 22 14 31 10 23 17 4 28 23 17 30 18 92 132 158 157 159 113 34 13 11 9 8 9 13 21 11 2 14 16 18 3 13 5 10 14 15 21 24 18 20 2 1 14 4 4 0 1 4 7 11 16 27 7 17 13 4 10 21 26 9 14 19 2 16 11 0 
0 18 8 10 14 5 14 20 24 4 24 25 14 6 15 24 30 29 28 47 39 15 6 28 77 48 45 64 56 45 46 11 7 13 22 11 5 22 28 14 12 1 36 24 11 7 5 10 9 19 17 12 10 16 36 45 70 51 28 49 22 27 12 35 7 25 25 23 4 14 32 25 12 20 34 26 6 18 16 23 30 18 36 41 16 12 30 26 26 5 20 17 12 7 7 9 28 17 35 17 24 27 28 24 17 24 19 22 35 34 20 19 31 1 5 13 10 24 34 29 4 17 23 33 25 16 13 58 154 128 179 237 109 22 21 12 15 16 22 29 39 39 30 25 49 21 5 12 8 29 26 5 16 20 32 3 38 29 3 16 25 11 24 63 70 17 51 38 10 29 38 61 12 33 10 26 17 32 28 25 10 47 68 42 36 62 82 49 25 34 43 33 5 42 58 29 52 32 72 87 41 63 83 13 37 26 23 28 29 29 45 36 82 43 76 31 33 67 105 24 43 27 25 79 72 28 20 10 20 10 19 44 79 52 80 76 67 7 48 55 20 30 58 59 35 18 44 22 89 78 54 94 62 74 38 13 26 29 39 77 51 28 19 12 19 23 45 95 82 62 71 18 93 156 192 164 129 114 73 68 70 48 20 19 13 35 57 54 26 40 41 8 12 120 90 46 197 112 62 52 29 22 15 34 14 21 49 25 27 5 14 11 24 7 13 14 5 8 21 21 11 21 9 21 22 15 9 15 24 16 5 9 17 29 38 37 25 59 66 22 37 53 3 2 39 22 16 16 12 6 8 10 14 17 6 17 18 24 32 18 24 20 34 17 14 24 16 23 51 42 36 23 27 37 28 15 35 48 41 23 24 31 46 57 61 48 33 33 37 11 14 32 24 5 30 28 27 37 36 16 14 8 37 17 28 23 26 15 5 17 15 20 19 23 8 23 11 2 11 7 29 15 16 8 16 8 31 17 11 12 36 10 24 15 4 12 0 10 22 7 34 21 20 33 15 12 19 22 3 36 2 28 22 14 6 18 73 106 125 147 123 137 75 23 8 8 12 13 17 21 19 7 3 15 5 22 17 10 13 7 17 9 15 24 22 18 5 2 14 4 4 1 4 7 9 8 10 18 4 17 15 14 7 28 2 16 8 16 13 6 14 0 
0 7 15 20 18 8 7 12 13 18 14 14 7 7 18 19 11 22 29 38 37 42 27 34 64 52 44 62 61 38 46 17 21 27 29 19 12 23 25 18 15 23 21 45 21 2 4 5 18 28 32 17 24 4 35 7 19 39 40 46 13 15 36 17 28 8 25 19 7 25 24 8 10 2 15 25 19 2 11 10 17 14 35 29 25 17 6 23 35 24 11 6 8 9 8 5 24 11 27 32 37 34 55 13 26 25 26 30 15 18 21 31 41 25 36 38 31 11 19 28 38 16 36 24 25 17 24 133 174 62 161 116 41 16 20 24 28 36 26 18 38 30 37 43 28 41 22 3 7 41 20 34 23 11 36 6 41 14 33 46 19 28 28 15 44 12 65 49 46 19 20 54 25 30 3 42 67 18 34 27 32 17 48 34 15 21 41 43 49 17 20 29 37 23 50 90 40 53 73 72 93 69 57 15 34 50 6 48 42 50 51 26 51 44 42 72 87 58 41 50 32 41 42 47 27 33 18 48 59 60 62 53 33 56 116 34 62 31 35 14 46 37 30 40 55 32 59 73 74 44 126 75 64 100 29 13 32 58 86 86 35 31 21 45 77 93 78 30 34 79 122 153 159 149 128 113 110 43 35 27 16 19 9 4 27 51 56 74 42 25 29 37 27 20 99 109 79 123 24 60 7 21 32 37 18 7 27 26 33 28 32 31 12 17 24 11 4 25 34 19 1 12 11 8 5 3 12 10 10 8 16 18 8 18 21 4 4 56 69 30 32 54 23 25 46 7 15 32 28 12 18 18 13 18 13 21 12 7 33 48 17 0 24 11 13 23 3 27 46 31 36 37 32 30 20 23 39 13 18 41 48 42 30 41 59 48 47 50 34 32 37 30 30 21 23 19 18 10 16 25 17 12 21 7 25 21 10 27 7 8 7 32 10 20 21 6 12 16 18 18 14 28 5 6 15 28 23 41 32 14 32 11 5 11 4 13 13 18 25 23 25 30 21 40 16 17 16 18 9 30 13 24 31 24 5 46 112 107 127 166 127 109 27 27 19 16 11 4 4 11 16 14 8 14 13 19 19 4 12 14 22 13 19 19 18 18 12 12 10 3 4 4 5 7 7 15 22 32 13 22 12 16 19 10 25 18 45 53 21 21 10 0 
0 2 4 10 14 17 12 7 13 16 16 13 7 17 20 20 6 25 36 25 14 29 59 41 43 56 51 70 61 27 34 15 8 15 25 8 11 18 18 19 17 22 12 39 26 38 43 35 19 32 37 23 21 39 35 14 43 41 37 20 17 20 41 37 20 49 31 17 23 27 34 21 8 10 6 3 15 21 18 21 16 22 19 33 25 10 14 11 27 28 23 22 19 6 8 3 17 17 7 29 78 55 28 31 34 26 29 10 40 36 31 41 16 14 17 21 18 18 14 22 35 17 14 30 16 11 18 148 107 135 170 72 12 17 19 8 37 52 31 34 22 15 17 32 31 29 7 28 48 48 10 38 16 18 40 7 44 4 52 41 47 39 32 63 74 44 57 44 36 29 37 39 11 57 62 29 13 33 84 73 19 69 45 24 6 37 18 25 42 46 20 39 51 56 64 39 31 34 62 54 32 34 23 7 9 17 32 28 49 53 72 59 50 47 25 20 24 38 25 27 54 79 22 34 54 13 31 75 50 32 29 82 102 70 33 68 60 9 50 54 38 31 60 62 53 27 24 27 47 62 48 65 100 34 32 48 76 51 10 42 34 53 53 76 64 44 59 126 166 183 157 141 102 55 18 64 40 83 35 35 33 33 20 7 32 18 21 58 62 24 9 15 21 7 19 151 241 71 241 20 40 48 59 54 41 29 14 30 25 14 11 24 44 41 8 13 21 27 15 35 8 23 26 16 8 7 10 27 21 26 30 18 10 25 22 21 34 35 63 45 28 29 14 41 45 7 16 20 16 22 19 16 12 11 7 15 24 28 18 24 14 6 20 9 7 24 10 34 49 11 35 48 46 41 38 53 40 24 18 50 45 61 38 39 64 35 45 67 29 37 55 39 48 41 24 6 4 32 29 7 21 7 18 7 22 18 5 25 14 1 6 29 13 8 21 14 14 32 6 29 10 20 25 5 21 24 14 28 32 1 13 14 11 14 4 4 8 3 24 18 11 15 13 27 9 5 7 20 10 25 18 26 40 22 35 64 128 127 144 165 93 44 7 15 19 8 4 3 3 4 8 8 10 10 14 12 9 5 2 11 12 8 17 10 12 14 8 6 3 1 3 4 7 8 5 23 4 42 10 35 31 14 3 7 10 32 19 31 25 21 9 0 
0 7 8 7 5 11 19 23 17 12 12 8 7 26 21 22 12 10 43 31 8 12 68 50 38 49 50 74 65 27 29 22 24 17 32 12 7 16 15 12 25 16 19 38 14 21 25 31 15 38 20 39 16 4 15 37 17 32 29 23 29 30 21 27 24 56 7 17 25 38 29 17 16 22 14 7 23 24 20 14 10 7 33 8 4 6 8 26 44 31 18 1 20 10 11 15 21 17 4 27 25 39 32 21 12 4 17 28 24 35 45 9 22 10 6 9 11 18 11 20 27 5 13 7 32 15 49 103 102 139 106 61 14 27 27 18 13 10 5 37 63 46 43 5 7 20 24 38 29 5 12 18 18 3 32 21 20 52 21 70 56 12 40 55 47 22 34 19 61 49 29 4 31 33 12 38 4 54 38 28 56 33 10 5 63 77 43 37 12 38 27 50 89 46 32 58 55 25 27 34 32 43 18 48 60 56 34 15 47 9 44 64 108 47 41 89 68 54 38 0 29 48 51 17 60 65 54 24 51 70 86 72 47 40 47 29 41 47 33 22 41 77 73 43 12 58 76 68 41 35 66 57 17 65 71 53 56 44 24 59 49 75 28 60 108 147 184 174 160 110 43 43 54 28 29 80 76 37 75 22 36 53 55 34 24 47 30 5 51 65 17 4 19 18 37 43 239 15 169 128 31 7 36 21 36 51 28 22 19 8 15 27 21 25 17 8 10 41 56 42 15 26 34 32 20 5 16 10 8 8 28 38 33 26 15 11 15 18 46 51 40 27 12 33 39 17 17 23 27 12 22 31 6 20 25 22 14 6 16 13 10 2 20 14 13 24 5 30 49 17 35 54 53 43 37 55 29 49 39 46 22 53 34 34 57 33 43 64 10 7 40 24 38 41 8 16 14 43 20 13 30 8 19 12 14 15 16 20 13 7 12 24 9 4 26 21 30 26 1 24 18 11 27 16 9 18 29 32 30 12 9 2 17 10 4 4 3 19 28 6 9 3 6 16 13 11 6 26 12 25 14 5 14 44 73 87 145 151 135 118 39 18 15 13 5 5 4 3 3 4 5 4 4 10 10 5 2 5 9 7 4 14 11 6 8 7 11 4 2 1 1 5 8 7 4 18 17 21 29 42 17 13 11 12 10 23 64 65 36 11 3 0 
0 6 9 9 6 1 11 14 15 5 8 5 10 25 20 30 8 14 37 44 14 28 52 47 43 51 53 77 67 29 33 35 29 9 30 11 13 21 21 12 11 2 35 24 2 25 40 21 10 36 22 26 24 25 24 7 38 48 34 10 6 28 17 18 35 21 15 16 5 18 9 12 7 17 13 12 15 16 14 33 9 13 31 25 21 16 13 14 27 14 28 4 28 24 23 34 45 12 5 23 33 18 17 41 6 15 20 11 22 28 13 19 9 8 4 2 5 15 15 24 19 16 19 23 31 22 68 26 86 95 46 39 43 28 34 18 20 26 39 48 15 45 56 18 30 41 32 18 23 22 33 33 21 10 26 16 1 31 62 43 30 39 19 12 25 37 38 49 44 38 52 45 21 21 50 17 24 35 74 48 18 38 33 30 49 31 71 16 36 14 46 45 56 74 16 3 28 56 49 12 75 64 54 55 50 19 18 41 28 14 54 101 57 54 64 25 90 76 8 37 49 51 2 80 89 32 32 99 116 74 19 81 113 84 9 77 69 24 32 50 57 20 53 77 58 24 7 29 70 26 32 40 53 86 65 50 56 50 69 69 21 56 121 150 172 166 139 96 55 30 39 51 1 55 29 37 86 56 24 69 57 20 45 72 40 8 25 34 9 72 60 29 22 24 50 43 63 100 254 84 74 35 41 4 17 42 21 11 30 11 6 4 20 17 28 14 7 5 15 27 28 12 5 7 18 31 34 19 2 19 7 30 57 59 38 27 37 47 39 44 46 36 33 36 21 22 31 23 10 15 18 10 10 20 9 19 20 16 4 15 26 18 8 22 20 36 22 20 27 22 60 64 39 25 32 65 28 25 33 32 22 52 68 65 66 68 75 86 64 19 36 19 27 48 8 21 5 46 25 11 37 7 14 15 4 11 14 1 17 23 25 18 4 15 28 17 12 13 25 8 20 30 22 8 3 2 20 19 14 31 25 24 7 3 8 14 7 31 17 18 10 8 5 9 13 15 10 28 11 32 13 8 38 72 99 126 180 180 117 66 15 3 29 13 14 9 6 2 2 6 9 7 7 5 4 2 2 7 10 3 15 18 9 6 6 5 14 10 4 4 5 9 8 5 4 9 4 11 22 14 16 21 3 22 4 37 22 9 13 11 13 0 
0 3 1 1 2 7 12 11 12 13 15 14 13 18 16 29 8 21 31 50 30 31 33 38 39 45 51 80 69 26 25 22 26 18 24 5 12 15 14 43 35 37 24 34 28 32 29 43 38 13 15 10 4 10 22 30 13 22 41 31 24 24 23 8 27 14 24 22 20 27 37 31 36 40 20 10 25 18 17 32 17 12 7 25 11 38 13 4 26 19 34 12 35 31 39 43 17 29 16 5 7 8 24 34 17 12 15 20 13 9 18 21 5 10 22 22 13 14 39 28 15 21 14 23 5 51 42 40 85 51 50 64 42 13 24 14 11 54 29 72 65 48 27 12 45 62 25 4 27 33 47 5 25 32 56 32 72 91 45 34 33 18 20 21 24 38 13 45 31 51 26 14 25 47 55 33 17 23 2 13 27 25 38 4 47 69 18 36 17 25 25 90 110 26 63 47 39 33 40 64 70 6 93 54 47 43 26 56 48 13 41 68 99 56 51 104 114 23 53 46 39 66 85 89 5 54 79 86 24 69 87 78 21 27 62 60 45 109 99 55 21 77 96 69 32 62 80 74 30 58 95 70 63 100 81 91 61 26 39 71 131 151 171 123 107 88 53 41 16 62 64 80 50 42 36 11 44 99 93 38 64 38 13 58 87 59 19 29 24 28 56 49 25 14 34 14 32 198 195 27 72 27 70 34 23 17 19 14 27 18 22 24 17 7 29 12 4 19 43 24 20 15 30 26 8 17 20 11 17 13 14 7 29 51 49 12 48 58 37 57 62 31 21 28 17 18 21 18 28 25 2 14 10 30 34 29 14 10 13 25 18 25 9 4 8 47 28 17 18 28 64 56 32 31 52 72 39 32 46 36 28 33 53 62 55 57 50 59 73 32 36 16 31 59 29 34 25 23 7 5 27 18 10 18 4 5 6 9 4 12 23 9 11 12 13 13 10 23 2 21 18 14 6 13 2 8 8 0 18 24 5 24 6 7 14 18 3 34 13 24 4 3 5 17 25 6 13 21 33 32 4 10 49 76 104 152 174 134 68 21 18 21 22 3 7 0 2 2 2 2 0 13 10 8 11 7 8 8 4 4 17 11 14 4 5 14 9 10 1 7 7 8 5 3 1 14 12 3 14 12 14 7 16 10 29 26 17 21 5 11 5 0 
0 2 10 13 10 10 23 27 10 22 14 8 7 8 13 21 24 8 33 41 38 33 21 44 51 38 42 80 75 35 35 20 13 16 19 3 8 24 31 48 18 40 29 29 18 7 20 14 15 22 18 9 9 19 8 8 28 30 12 25 47 25 25 25 21 27 8 2 7 10 13 6 9 12 26 21 10 26 30 33 27 18 20 6 8 37 17 11 26 16 33 9 23 11 38 62 41 6 13 23 12 7 19 17 19 13 10 26 25 18 3 18 8 17 8 2 13 23 26 32 34 22 14 13 20 51 19 52 70 29 24 45 21 20 7 17 4 40 55 28 5 7 12 29 48 41 18 15 34 22 51 0 16 35 22 78 84 11 64 29 29 34 31 27 22 44 57 26 25 9 49 26 43 35 35 25 21 45 48 54 57 7 49 27 23 25 62 36 34 13 35 12 56 75 35 59 53 66 63 13 52 85 73 25 47 17 62 72 67 15 65 107 72 45 44 29 30 42 35 17 60 66 62 67 72 17 48 99 109 116 45 71 91 60 25 52 113 86 22 63 62 17 34 57 73 62 21 25 79 110 96 87 93 73 32 38 69 124 154 187 208 154 57 75 39 38 10 20 30 44 74 35 86 11 41 25 22 18 83 55 37 24 53 31 66 83 51 29 8 27 9 49 42 16 24 10 31 40 241 1 58 5 17 54 16 38 39 29 18 11 7 9 10 19 14 12 20 26 21 21 19 22 14 11 12 7 30 31 11 6 8 25 51 68 63 42 31 20 31 68 43 15 28 44 25 12 11 4 3 11 13 1 24 8 10 18 22 5 16 24 18 11 25 40 41 41 14 18 17 30 55 39 18 42 83 74 31 28 41 37 26 26 37 55 58 57 22 47 80 61 39 34 29 50 14 15 30 18 28 9 16 29 10 16 2 8 8 5 17 15 36 10 11 17 15 15 5 29 10 29 10 8 4 15 20 11 9 18 18 8 28 29 10 12 19 27 15 37 32 25 16 7 15 24 40 10 26 17 27 3 29 29 60 98 130 171 135 78 40 14 18 16 6 6 5 8 6 2 2 6 8 17 7 20 14 11 16 8 5 4 15 11 19 2 3 19 12 13 4 8 8 8 5 3 3 19 7 15 15 17 22 23 5 25 13 4 4 12 12 15 21 0 
0 13 10 9 19 24 11 13 15 15 14 14 8 9 26 16 22 17 29 27 33 39 18 42 48 33 31 72 82 43 27 10 7 12 14 5 7 26 24 36 24 27 11 18 7 13 11 18 23 13 7 3 6 11 5 2 22 13 8 4 27 32 28 28 25 24 6 12 33 53 52 43 47 45 43 30 18 17 19 39 19 18 13 17 1 19 18 8 22 11 20 21 30 26 38 21 27 24 1 26 35 25 12 12 16 12 21 23 10 16 24 12 11 14 9 7 8 13 18 15 21 4 28 21 38 18 44 46 50 46 19 27 25 25 14 23 25 17 31 38 25 30 15 35 59 49 38 31 32 11 32 8 8 32 72 61 33 94 91 64 68 29 52 32 18 27 17 22 17 62 11 79 51 61 43 17 21 72 24 75 34 43 59 7 30 40 27 81 43 5 19 72 78 34 74 48 50 94 9 42 45 31 24 31 18 29 32 99 60 34 87 31 118 71 14 64 58 15 48 70 53 22 75 72 28 66 56 47 15 47 31 70 15 69 83 87 55 19 63 78 7 74 94 73 5 67 99 105 129 119 84 57 28 68 129 188 214 174 147 123 81 83 79 58 78 37 49 50 26 17 66 61 56 40 31 19 25 41 37 28 13 21 67 90 15 72 82 51 34 21 11 23 65 29 36 32 40 69 16 7 51 251 150 57 13 22 31 31 21 19 20 26 36 30 38 43 38 21 5 17 48 38 16 19 34 35 27 11 16 26 16 23 45 50 31 18 31 23 39 68 21 29 41 54 14 24 14 8 18 26 11 7 13 17 14 9 29 7 9 17 22 14 27 7 19 17 2 22 27 22 47 43 30 43 78 76 32 27 40 27 37 38 41 66 90 71 29 39 60 69 53 18 33 52 19 14 40 24 27 18 2 19 14 7 12 2 7 2 19 15 31 12 11 19 5 18 21 13 10 17 14 17 13 7 12 15 10 20 24 15 15 12 8 14 17 31 17 28 19 12 33 15 8 27 34 18 28 24 24 34 36 30 79 130 163 176 102 42 19 22 9 18 12 13 7 3 0 3 4 4 1 15 7 24 23 17 21 7 16 7 6 15 15 5 10 14 18 15 11 9 7 6 5 7 9 15 2 9 20 25 2 22 24 10 12 5 4 11 4 29 18 0 
0 14 5 5 19 37 10 17 6 6 5 6 12 24 43 25 13 30 32 21 21 33 29 43 54 52 24 52 86 52 21 18 23 16 14 16 15 24 33 51 35 36 18 26 15 22 16 5 19 13 15 15 7 10 13 8 13 20 10 22 35 32 10 14 18 19 15 22 39 23 21 8 6 9 23 8 28 19 51 36 13 19 4 20 16 21 12 8 17 18 15 14 19 10 21 19 20 19 17 13 10 11 15 16 12 8 10 15 10 21 9 13 8 12 12 8 8 11 18 25 27 20 37 50 31 37 74 58 41 39 16 18 29 19 10 5 15 25 49 45 10 12 19 17 29 18 25 22 33 6 26 6 21 7 34 39 54 24 35 2 81 40 61 21 23 63 66 30 9 41 62 47 54 87 10 32 48 47 17 49 13 19 14 5 40 46 63 23 61 25 68 45 45 86 20 50 54 21 66 21 36 34 21 42 34 26 77 74 21 59 29 120 126 32 62 23 57 77 51 8 33 23 16 84 113 61 45 96 87 83 33 39 64 78 61 29 48 47 35 52 58 41 35 90 102 102 107 100 84 33 60 105 157 164 168 215 187 115 65 31 27 30 65 19 77 54 44 13 22 32 4 59 61 20 36 11 27 18 8 21 23 40 27 96 97 10 59 73 57 43 26 10 36 93 15 55 37 32 87 38 82 80 121 41 21 8 17 34 34 27 18 2 25 6 7 5 8 17 10 17 10 32 27 28 16 24 13 10 23 21 42 15 46 62 24 5 26 27 41 61 28 32 57 58 17 31 10 7 28 15 20 8 15 25 13 13 27 22 17 10 18 14 22 22 21 14 5 13 25 24 32 57 46 32 60 69 42 41 47 25 26 23 16 43 84 87 48 51 38 31 60 18 30 53 21 24 37 18 13 21 10 5 24 15 17 13 15 2 13 15 6 12 14 21 5 3 24 34 30 10 15 19 29 21 16 14 22 3 26 28 13 21 10 14 17 20 10 15 12 20 33 8 16 28 14 14 18 31 15 47 47 49 117 165 172 141 56 4 14 5 18 18 8 2 5 5 4 2 4 5 4 11 16 1 17 13 20 11 25 6 1 16 6 15 12 4 26 9 8 10 7 3 4 11 15 14 11 16 18 9 20 28 22 8 14 8 8 5 15 38 10 0 
0 10 18 17 18 35 11 9 13 2 11 13 9 23 51 9 6 33 32 17 20 36 38 44 53 50 10 41 83 53 22 33 24 13 8 10 11 8 7 40 33 31 20 38 16 10 10 14 4 18 27 26 4 21 13 21 24 2 23 42 46 42 37 31 26 24 12 8 38 37 43 40 47 38 31 23 13 12 28 30 33 5 21 28 18 4 8 17 8 8 18 29 24 19 0 9 7 21 4 11 10 23 26 38 2 12 14 9 5 20 5 10 4 18 36 36 20 5 10 5 14 13 33 38 34 78 72 32 43 34 5 27 10 40 11 27 18 25 22 29 58 50 31 64 34 32 39 21 20 36 13 60 66 43 11 18 20 57 93 106 63 16 30 21 28 74 47 44 39 46 11 58 79 67 57 48 22 14 32 42 7 25 31 44 28 44 16 41 39 86 83 66 91 19 59 38 34 75 40 93 48 54 38 20 50 68 21 64 55 21 89 100 37 45 69 26 81 48 39 47 26 21 48 118 70 65 124 90 44 59 21 36 34 63 99 83 40 48 28 65 40 82 170 173 107 49 48 58 31 121 183 213 213 164 117 126 83 76 20 27 27 68 91 48 41 68 24 14 18 25 36 49 25 58 21 50 19 10 22 27 38 58 69 12 93 102 44 44 68 34 43 7 34 83 99 22 39 42 34 63 98 199 35 32 52 43 44 37 32 29 18 11 19 5 9 12 4 15 31 14 29 34 22 27 13 19 18 8 36 32 18 37 56 50 15 6 26 16 49 50 7 19 50 45 16 38 4 1 29 20 21 7 14 29 22 14 21 26 10 20 21 10 7 11 17 17 15 22 39 49 22 26 66 72 73 70 52 43 43 24 15 15 13 28 61 84 65 75 57 34 64 36 40 50 19 32 42 27 24 18 4 17 28 26 17 16 22 16 21 12 7 10 9 18 18 24 28 11 27 28 20 22 27 8 14 29 33 21 21 37 16 28 2 10 12 2 13 23 23 13 22 4 25 19 1 8 12 21 36 48 61 110 161 181 148 83 23 12 3 11 8 5 8 3 4 5 5 2 5 7 7 4 7 12 11 6 18 5 20 10 1 13 23 16 7 16 13 10 4 7 4 4 7 9 10 13 16 13 2 8 15 16 12 19 17 14 14 19 24 37 15 0 
0 18 21 20 15 23 5 8 11 2 15 13 21 18 29 29 18 27 34 18 21 40 36 37 53 51 20 47 75 41 12 38 31 10 12 12 12 11 12 38 28 27 14 41 41 42 35 20 4 7 7 16 31 8 32 12 31 10 6 11 11 3 14 12 10 21 17 9 25 15 19 17 6 30 43 45 31 17 10 3 21 35 25 4 15 21 14 6 29 26 24 40 24 27 15 10 15 24 17 32 29 35 30 23 16 11 22 24 26 21 5 13 5 18 15 4 11 10 11 19 4 13 15 44 82 91 54 26 30 34 43 14 27 46 24 52 15 42 17 31 10 52 49 46 30 39 18 15 28 35 57 55 20 46 8 7 11 34 3 15 34 39 30 31 16 62 60 25 55 25 52 44 23 50 31 46 43 45 26 18 23 23 65 69 26 47 41 19 25 55 39 102 41 90 37 35 2 48 71 104 21 89 5 52 49 9 43 34 31 42 63 38 46 54 19 47 58 28 44 18 82 76 30 89 89 94 72 39 85 64 21 45 71 63 65 40 32 39 28 27 72 139 136 86 84 48 22 64 174 180 147 156 139 126 84 56 57 60 66 35 32 74 42 57 44 45 79 30 25 4 16 50 49 23 57 26 53 35 33 16 17 34 73 72 4 84 96 50 34 59 59 37 56 50 103 95 52 25 60 17 35 187 208 4 49 81 16 28 22 35 24 25 27 10 14 20 25 21 14 22 29 30 35 20 15 17 38 30 18 16 20 16 25 37 33 32 28 5 59 49 17 32 39 29 16 34 6 2 26 22 17 4 4 13 17 8 20 27 11 13 22 9 5 5 13 16 17 12 17 63 36 19 44 89 73 62 55 39 43 29 17 24 30 34 55 79 63 80 70 36 53 49 63 60 45 47 50 29 20 5 8 14 24 26 12 7 23 21 17 14 2 8 8 6 11 36 25 11 28 24 19 13 18 8 17 22 26 8 7 30 15 34 11 3 7 13 18 20 13 8 15 4 19 18 5 6 15 3 21 31 81 160 172 158 99 34 5 8 1 7 7 5 5 1 7 5 4 2 7 7 8 12 17 12 7 2 15 18 28 15 12 13 13 9 10 7 2 5 13 5 1 2 9 14 13 14 10 8 10 14 14 8 7 18 16 24 22 18 23 39 30 0 
0 18 18 10 7 17 22 16 7 5 19 22 1 8 11 23 18 23 37 18 20 46 36 34 61 54 26 53 69 31 15 28 28 27 17 12 17 22 29 37 8 26 3 19 8 8 8 10 19 24 34 24 21 29 11 32 25 7 6 12 19 3 19 15 3 18 14 13 20 12 9 29 43 27 10 27 31 19 14 15 12 16 17 24 22 12 18 21 17 11 23 17 34 4 6 14 7 17 6 32 23 17 10 18 13 12 24 20 34 34 29 15 8 8 25 26 12 9 16 13 18 17 14 29 56 50 22 5 21 25 24 25 35 45 41 51 24 44 21 38 23 54 14 48 12 21 20 34 33 42 25 87 90 95 70 44 20 25 56 63 72 63 49 27 12 5 42 42 26 49 37 31 32 18 55 28 10 21 36 55 50 63 52 35 14 52 29 17 27 59 67 39 55 38 46 28 48 55 45 31 48 45 77 71 30 62 39 50 77 27 29 52 24 12 21 29 33 4 22 66 74 17 73 94 102 44 39 79 50 26 62 73 42 49 60 56 18 64 111 128 106 119 104 21 78 104 118 160 216 159 98 74 82 21 78 41 98 49 64 8 32 42 52 23 41 34 76 11 9 3 22 30 44 36 31 76 12 50 22 12 30 30 9 73 72 44 39 89 60 42 84 61 34 49 55 81 75 70 60 75 32 10 196 210 15 60 71 17 1 43 21 15 33 31 28 27 22 14 7 11 17 27 16 5 19 8 35 2 20 7 14 22 19 23 35 41 21 6 55 53 27 28 21 22 13 30 12 3 22 19 10 7 2 2 15 8 22 23 13 7 28 4 3 4 8 11 13 19 32 36 60 41 60 71 40 59 67 43 50 43 26 18 18 25 48 63 43 72 79 46 48 38 55 47 21 30 45 23 21 14 7 12 15 23 10 2 23 25 8 23 4 9 13 8 21 29 14 11 21 37 8 23 36 23 13 15 18 2 3 21 17 22 14 12 4 18 23 11 2 5 16 4 14 22 15 13 15 17 26 57 129 182 162 109 43 3 3 4 6 3 2 4 2 6 7 3 0 4 8 8 8 5 5 14 11 4 8 2 14 10 10 18 26 26 19 12 17 19 12 2 3 7 14 17 14 10 2 14 17 14 5 4 12 17 8 12 9 5 8 22 8 0 
0 11 8 9 11 9 2 15 5 2 19 15 9 11 12 32 15 18 40 18 20 49 28 23 61 52 39 62 67 31 19 13 8 10 4 8 20 24 20 16 5 16 14 26 23 26 32 50 53 3 49 36 25 43 27 7 23 23 18 23 38 24 14 20 3 15 10 7 8 25 32 27 14 38 37 63 47 21 10 5 18 26 14 5 9 18 24 12 12 26 10 8 17 30 18 17 19 7 10 9 18 27 37 34 4 11 15 18 22 14 7 10 10 9 4 8 15 7 26 36 15 14 14 22 45 37 12 11 17 39 11 27 41 31 44 27 21 45 14 37 15 59 13 54 8 22 42 55 24 32 52 10 22 33 34 60 39 26 30 31 60 16 72 35 36 50 10 58 91 65 32 21 29 57 44 8 26 38 41 26 55 70 38 31 25 29 31 19 7 47 59 44 37 50 43 57 79 39 32 28 13 35 72 16 74 28 70 87 36 63 63 72 27 36 25 68 73 33 21 34 68 93 70 31 55 60 31 5 27 42 31 35 58 109 53 25 85 128 135 137 121 90 43 96 187 209 176 131 131 107 82 44 75 90 83 69 68 96 70 38 41 27 26 87 74 36 97 16 20 17 30 7 23 24 37 33 67 27 23 28 43 55 55 4 60 79 69 19 91 49 33 97 40 98 12 61 61 99 18 97 65 15 10 183 211 250 241 10 44 32 17 25 37 47 24 9 9 7 15 7 13 7 10 14 16 5 35 27 11 9 7 19 24 32 35 19 19 10 46 53 36 24 20 29 15 25 15 9 20 14 4 5 8 16 21 12 19 18 6 5 25 8 7 5 7 7 6 49 27 7 71 61 29 45 42 62 66 34 46 46 35 18 8 20 36 51 35 65 72 50 59 39 52 43 15 31 50 31 24 11 10 15 5 14 11 9 20 24 8 23 5 11 9 13 28 9 25 40 16 52 24 17 19 11 4 13 8 2 2 11 19 9 5 16 11 15 19 12 12 7 18 2 10 21 20 9 0 38 62 130 184 174 133 64 21 3 6 4 7 7 3 1 4 7 3 3 2 4 8 11 5 0 10 14 6 11 8 5 10 15 11 9 12 9 2 8 9 4 3 5 12 16 18 15 10 2 10 15 16 8 2 8 13 20 23 24 24 24 23 22 15 0 
0 34 16 30 33 38 25 31 21 12 26 29 2 13 10 39 12 17 47 19 17 47 16 18 68 45 40 68 65 28 25 16 16 17 13 10 19 31 34 31 8 16 36 40 26 11 13 37 9 49 21 27 45 23 7 13 21 2 32 28 32 17 27 17 31 35 19 10 4 9 14 30 15 21 32 41 6 24 15 8 15 23 17 17 21 17 11 17 19 20 35 32 36 32 12 32 26 17 16 17 13 25 8 27 18 27 41 49 47 27 12 5 17 12 2 2 9 25 36 44 50 40 38 43 33 25 10 13 16 31 20 27 50 12 54 8 13 29 31 37 28 66 18 61 5 34 43 23 22 32 44 20 2 12 31 48 2 37 36 23 46 66 38 55 83 38 53 33 44 7 37 5 30 37 9 27 22 22 32 78 66 20 33 22 10 31 56 51 26 74 38 68 32 14 31 85 29 40 69 41 39 33 29 30 42 88 110 49 49 93 50 94 54 29 84 41 101 41 44 72 71 31 45 101 121 69 23 40 31 34 7 57 108 72 66 136 130 117 97 78 65 18 77 178 233 199 123 63 49 110 28 95 33 90 81 59 34 74 98 61 30 15 53 40 128 67 103 92 2 30 30 34 28 17 27 34 29 75 33 43 53 15 28 47 42 41 93 50 29 95 96 83 40 99 44 93 48 61 59 51 87 62 29 31 233 4 189 116 51 40 38 25 24 33 34 25 12 4 14 14 22 20 23 29 36 31 11 10 7 14 14 8 27 38 53 60 46 24 51 46 31 25 13 30 20 18 15 15 19 12 2 4 7 18 21 22 14 17 7 8 17 9 7 7 7 10 7 54 20 21 57 67 37 45 60 88 67 27 41 46 35 17 5 15 20 41 38 64 56 49 79 49 53 58 39 46 59 48 46 37 24 21 12 2 12 15 17 20 2 17 8 5 2 12 20 7 21 36 31 37 20 12 10 6 12 19 13 8 9 12 14 8 2 7 6 6 11 13 7 4 14 10 20 12 24 9 21 80 121 179 187 133 85 29 16 7 8 8 7 9 8 2 8 4 3 4 3 4 7 10 5 9 22 27 13 13 3 10 14 9 8 23 22 20 17 17 27 27 13 14 20 21 18 10 1 4 6 12 14 6 4 10 10 14 14 19 20 8 4 10 9 0 
0 31 24 43 22 28 13 29 7 31 5 29 17 3 8 36 7 23 53 14 14 46 20 30 81 38 40 66 61 32 34 31 8 3 16 24 23 14 11 33 26 3 22 24 29 34 24 43 33 45 14 48 18 23 28 15 31 35 27 18 25 10 38 10 48 13 21 24 15 15 17 16 9 1 28 35 29 16 9 22 19 8 12 20 14 17 26 21 21 26 40 18 5 14 11 33 29 22 4 26 30 42 31 11 25 45 39 26 29 7 14 22 21 35 35 20 18 34 32 6 53 79 59 39 19 16 17 21 26 54 30 30 53 53 53 15 18 20 11 18 32 43 45 26 45 33 21 39 32 55 40 17 28 25 39 48 22 80 82 80 31 8 33 11 55 66 24 47 64 15 37 15 21 15 51 58 9 52 66 32 31 28 31 17 32 46 31 48 80 51 20 70 39 66 69 60 14 45 22 55 68 15 14 7 29 66 14 49 60 47 44 58 69 54 43 89 119 22 55 44 36 73 109 87 44 31 80 41 17 27 36 81 38 63 154 147 109 65 5 80 124 151 169 165 131 59 16 46 11 90 118 55 85 42 84 63 14 36 21 44 17 47 32 41 23 134 55 94 72 9 34 40 16 24 30 37 24 50 45 5 66 96 55 36 60 22 50 45 59 58 66 31 54 70 45 89 23 14 81 10 58 99 41 51 44 80 23 77 41 31 23 25 20 18 40 36 21 13 17 4 35 20 7 6 9 26 33 19 12 21 21 12 22 22 8 29 60 39 69 28 14 41 11 24 25 12 18 20 17 11 3 8 14 28 18 27 15 14 14 18 18 10 8 10 11 13 10 35 29 4 40 58 22 16 59 105 70 21 39 49 38 22 17 22 18 33 43 62 35 49 106 45 40 65 38 41 51 30 22 18 14 19 19 7 9 19 15 18 16 17 21 8 13 18 7 3 20 19 50 40 12 8 16 22 28 24 21 22 21 16 15 11 11 8 0 1 6 10 11 1 12 20 32 10 34 18 32 119 156 162 139 80 31 9 17 7 2 11 7 10 11 2 12 4 9 4 3 4 5 6 7 18 3 24 2 11 5 8 7 2 20 14 3 10 23 28 15 13 14 17 21 17 14 8 7 0 5 14 16 8 2 8 12 18 16 20 24 11 8 6 8 0 
0 41 10 33 37 30 18 35 24 22 11 8 29 29 20 33 3 14 56 27 12 45 11 25 88 45 38 51 58 32 23 41 21 17 10 8 10 13 14 23 30 24 27 28 21 7 21 26 12 19 28 36 3 14 15 36 30 18 15 9 23 16 27 20 39 8 23 11 18 25 23 18 27 24 16 20 21 14 24 10 26 30 8 8 32 27 5 20 11 14 10 18 24 20 24 31 18 28 10 19 14 31 33 19 2 28 29 32 20 15 19 36 36 12 8 28 43 31 8 46 73 73 41 16 27 31 11 20 27 43 53 40 30 17 22 18 17 27 13 31 34 26 48 55 64 52 22 21 32 9 46 37 35 43 70 31 47 66 28 41 50 76 20 66 75 61 53 61 81 12 29 36 47 44 58 42 46 39 38 32 15 54 64 39 32 24 69 100 40 36 41 21 60 28 18 12 25 32 67 66 38 27 16 29 13 42 58 46 20 60 58 20 25 21 34 69 46 25 59 39 86 115 75 43 77 62 55 17 39 37 32 101 92 124 145 106 44 59 141 206 218 195 154 86 44 87 62 15 45 31 115 100 59 63 26 32 37 73 125 106 50 34 20 63 98 13 103 41 56 63 58 28 41 29 16 20 48 62 34 35 27 35 66 16 64 83 54 57 74 10 41 35 53 21 76 63 37 23 60 32 20 88 82 25 22 119 196 36 29 12 54 12 14 30 21 24 26 12 17 25 34 22 19 7 15 19 26 21 24 27 7 29 39 43 49 41 45 61 66 14 14 49 12 29 38 17 14 27 26 18 12 18 8 28 26 14 12 7 5 13 20 9 10 15 5 15 11 17 31 17 28 57 33 10 48 99 69 40 52 42 43 26 4 17 8 25 53 61 18 19 105 52 31 59 26 43 55 29 25 17 11 17 19 11 14 17 10 18 23 13 19 15 12 21 8 8 20 18 12 20 21 10 18 18 13 9 9 12 24 24 24 15 15 16 11 14 19 17 12 7 8 35 38 7 53 46 71 154 172 130 97 45 8 21 21 6 6 10 3 12 14 6 15 2 14 12 4 6 5 4 5 17 11 19 3 10 11 2 19 22 20 21 9 24 22 17 28 22 8 14 22 13 4 17 17 12 9 10 10 17 17 30 28 12 10 27 21 7 3 17 18 0 
0 31 20 13 11 18 26 12 8 5 13 18 8 24 22 36 9 10 40 41 18 47 8 17 91 63 25 34 64 40 12 42 27 18 1 10 22 19 12 11 18 15 18 12 5 4 16 11 10 19 24 22 12 3 12 9 11 24 38 41 14 17 7 21 49 39 47 17 21 17 14 21 26 41 31 26 28 30 27 34 31 27 40 33 25 37 27 10 10 13 11 12 21 10 15 36 41 32 3 25 42 8 33 29 25 26 7 10 4 10 29 30 38 34 23 34 60 10 31 79 81 48 27 5 7 11 31 43 58 53 101 58 55 16 40 28 30 50 11 72 17 79 76 18 24 56 40 11 11 28 22 45 65 51 37 37 50 41 31 58 67 39 65 34 33 16 49 39 41 18 38 54 73 74 26 65 41 23 33 37 53 35 15 17 26 54 60 14 62 52 29 54 24 60 65 41 5 33 13 19 29 22 15 7 37 62 57 26 21 30 22 12 9 19 46 83 66 25 38 75 93 47 54 74 45 32 48 53 19 74 89 125 130 128 100 24 141 210 225 210 151 106 91 67 40 26 72 31 40 49 14 87 92 18 75 114 84 63 66 64 69 15 7 84 12 89 43 53 2 37 71 75 50 36 39 39 68 45 18 21 72 97 65 86 84 89 82 27 73 18 30 83 39 60 53 13 55 32 18 43 37 31 67 81 26 62 209 17 35 232 24 44 32 15 8 13 21 35 32 18 22 37 28 13 28 8 24 20 6 17 26 17 13 31 33 10 46 87 30 7 33 45 28 35 30 5 11 35 29 4 4 17 13 5 13 9 4 13 20 29 22 7 13 13 14 21 21 21 48 25 19 52 39 17 56 79 41 60 72 21 43 37 11 4 23 31 49 62 49 38 71 62 57 67 42 53 44 22 36 25 15 15 14 13 23 9 10 21 24 27 18 10 5 18 15 12 10 20 35 35 24 14 15 19 17 28 24 24 30 7 10 15 31 32 17 10 13 9 6 4 25 34 10 13 58 48 78 161 164 109 66 22 19 32 17 13 7 8 3 13 15 2 14 14 5 10 14 16 11 4 4 13 11 5 14 8 4 7 19 15 29 20 22 29 32 14 5 5 9 5 25 17 13 26 13 15 29 29 15 7 12 30 22 15 15 5 8 14 17 14 15 0 
0 19 22 13 5 42 19 26 8 8 13 20 21 24 18 31 18 7 28 46 23 41 20 27 91 62 11 38 67 30 19 42 17 10 8 5 25 26 3 5 17 11 10 12 7 13 25 23 14 4 12 18 14 8 4 9 12 15 9 23 21 12 21 10 27 12 32 31 13 8 9 19 18 29 10 4 22 28 34 20 16 51 37 42 23 52 34 13 2 2 25 27 12 8 22 24 18 10 20 8 35 29 33 21 15 20 20 8 10 10 24 13 23 27 23 40 54 24 61 85 35 12 20 38 42 27 34 38 41 7 79 15 70 24 34 19 14 24 41 45 51 66 28 55 61 51 10 46 37 4 27 7 30 26 46 33 26 35 40 24 54 96 56 12 50 31 29 9 26 12 39 17 19 39 94 58 15 39 65 41 21 62 61 33 30 41 10 85 28 58 91 47 54 44 39 48 29 12 24 5 12 32 47 42 58 37 34 18 42 65 57 22 15 5 22 63 51 38 34 14 38 66 49 22 14 46 34 49 68 116 103 103 128 98 14 171 7 237 182 103 31 24 35 53 71 27 28 83 37 31 49 46 27 55 84 111 82 29 95 60 64 18 13 53 51 25 44 59 48 37 43 68 59 13 28 38 69 23 68 64 86 93 89 99 54 45 64 45 50 52 20 89 51 107 75 50 61 83 62 59 81 69 14 65 53 50 29 19 76 246 136 38 48 50 30 36 32 40 30 15 12 24 34 24 22 8 22 24 16 14 23 46 35 22 47 17 41 72 12 12 43 37 39 7 28 40 21 31 17 23 20 13 8 9 4 18 15 9 17 26 26 20 23 12 22 10 20 42 49 7 12 49 44 29 58 63 26 66 75 14 40 40 5 20 13 32 30 44 56 57 43 50 64 70 73 63 50 37 38 27 38 36 22 19 26 17 11 16 8 10 4 4 2 12 17 14 11 25 5 13 13 31 5 21 18 10 11 18 32 10 21 29 11 15 7 16 18 10 5 13 27 17 21 14 52 80 111 167 150 92 46 24 21 23 12 13 7 5 6 7 12 12 0 16 26 26 21 12 7 8 7 6 14 12 5 14 23 15 7 16 13 4 24 32 28 15 11 21 23 18 26 15 18 26 6 5 16 8 20 1 12 26 23 23 9 7 6 15 24 9 10 0 
0 15 21 20 11 46 17 21 14 25 18 18 37 28 22 10 21 25 24 46 30 33 40 54 65 47 28 51 54 28 40 43 7 2 8 5 22 26 10 7 13 11 7 2 11 23 28 11 25 18 18 21 21 13 18 16 3 15 14 17 17 4 20 5 14 28 4 18 16 16 29 22 34 33 38 34 15 10 16 27 19 34 26 36 43 52 34 17 5 8 27 13 30 25 45 24 3 8 24 15 23 27 29 4 25 22 10 10 1 9 5 20 22 17 22 41 28 62 73 56 3 21 8 10 21 35 38 28 31 9 57 72 66 18 6 25 31 20 19 54 39 31 32 41 31 11 48 39 31 19 10 52 79 22 21 12 43 19 57 121 104 46 22 28 47 7 24 62 51 20 23 62 67 65 14 38 28 64 49 38 53 11 43 52 27 25 37 52 82 72 44 39 63 64 72 42 6 14 4 15 40 79 77 47 26 32 36 19 42 38 66 48 22 18 29 80 63 14 42 55 35 25 61 59 29 54 97 100 99 106 85 65 44 73 138 225 197 103 64 11 29 34 43 32 50 29 58 74 117 66 6 64 85 43 109 75 100 82 69 91 39 24 56 77 54 18 29 29 55 55 41 40 74 62 72 57 102 37 104 25 45 52 72 59 39 60 27 65 49 95 63 70 93 71 95 67 58 82 78 69 91 111 99 62 67 39 106 22 126 73 94 88 41 25 8 14 20 31 18 12 31 43 48 35 8 8 18 15 28 40 37 36 41 31 48 20 26 68 41 28 29 34 57 22 3 52 25 18 14 15 12 8 8 7 4 18 17 15 20 30 36 31 32 12 17 5 27 48 31 21 26 55 54 35 53 63 37 57 64 22 39 39 6 12 21 26 15 22 44 54 35 36 51 65 72 59 62 54 35 23 35 46 38 26 13 10 7 14 8 11 7 10 12 16 20 22 28 21 15 33 34 10 27 28 10 18 29 37 17 23 18 14 29 32 12 12 27 26 25 16 19 10 10 20 95 144 165 176 130 70 30 16 8 11 14 7 8 5 6 3 9 14 15 7 5 12 13 11 8 8 7 8 14 3 13 15 5 10 14 2 5 9 15 21 9 22 18 18 16 12 13 7 17 20 4 3 12 7 13 5 13 18 16 15 22 20 22 39 31 17 10 0 
0 7 9 28 17 40 31 17 4 21 7 8 29 12 12 4 12 39 26 41 35 29 53 57 34 25 46 56 33 26 52 32 12 14 11 2 15 25 24 18 21 24 25 20 9 15 33 25 17 21 14 22 21 12 16 19 24 19 11 13 23 17 29 9 15 20 14 45 27 5 12 28 16 35 28 13 4 11 15 7 28 49 55 27 31 48 35 3 12 14 32 36 7 27 17 27 19 0 25 18 10 15 16 25 13 24 8 14 25 37 38 21 23 3 15 24 28 82 55 23 10 21 39 45 33 14 35 35 56 50 22 32 15 36 13 24 20 24 42 7 24 9 38 42 17 16 45 5 56 48 70 36 29 38 39 43 16 38 36 37 16 42 9 45 50 18 24 6 63 56 46 12 10 38 43 14 60 41 13 37 8 18 11 23 48 49 14 30 39 31 49 25 29 40 45 22 16 15 24 14 92 104 65 82 22 33 25 48 10 38 51 21 23 23 64 72 25 32 46 46 45 93 77 35 89 89 93 87 98 95 39 52 173 244 200 152 139 35 3 29 35 33 61 13 29 31 92 49 26 73 54 42 46 45 80 136 72 69 49 40 99 63 60 48 69 83 33 60 103 63 27 42 64 50 111 41 90 119 76 48 36 85 80 60 106 115 95 87 71 101 99 75 67 10 36 12 13 34 54 21 38 55 92 89 52 12 75 88 158 210 7 64 134 48 35 21 3 33 44 18 15 15 17 30 15 4 11 18 13 15 33 49 62 8 43 36 8 49 63 50 23 7 41 20 28 40 12 18 8 6 18 3 9 5 3 17 19 18 23 31 46 33 35 6 9 7 32 48 13 10 15 50 53 41 49 64 52 48 53 33 35 35 19 5 8 7 24 30 34 50 53 43 43 72 78 31 36 69 42 16 22 35 40 42 38 19 4 18 18 13 10 2 4 12 16 4 8 4 22 12 15 22 18 16 21 27 12 41 14 25 21 27 17 18 17 18 20 10 4 5 16 12 33 59 132 156 155 139 81 38 10 9 1 5 12 2 7 7 5 10 3 17 25 7 19 13 13 10 5 4 5 17 14 16 10 20 15 5 14 8 11 10 4 4 15 21 13 9 5 2 7 16 20 15 9 14 18 14 13 13 12 9 27 21 16 21 24 31 6 15 7 0 
0 11 12 24 13 25 22 12 23 39 26 24 38 34 32 25 15 41 24 27 33 26 55 66 29 23 51 58 29 22 57 28 14 21 13 3 7 14 17 14 32 40 23 8 18 21 18 10 4 13 31 39 31 15 10 6 19 7 24 7 24 25 27 13 9 19 15 39 24 25 22 25 23 23 34 26 17 20 29 14 25 24 9 39 36 50 51 24 17 12 17 7 25 18 25 8 26 12 17 17 4 4 5 20 20 24 20 7 11 22 18 16 14 18 15 13 44 69 17 15 23 21 18 16 26 39 64 62 8 35 21 24 38 17 24 22 28 22 59 38 35 41 52 41 16 3 31 28 54 75 25 35 15 54 77 42 67 48 31 17 46 11 51 22 71 33 22 39 44 26 58 12 33 32 45 50 31 67 60 30 36 41 81 83 38 56 55 22 40 52 51 45 9 21 35 18 29 17 29 69 79 47 82 79 33 65 23 56 22 17 37 25 27 48 41 25 37 31 26 93 92 52 40 76 124 99 86 83 77 30 79 174 2 6 185 97 85 60 55 55 34 20 54 30 8 9 60 81 74 40 83 44 21 80 70 142 110 31 50 81 61 120 75 50 47 49 92 42 91 114 81 82 100 70 99 67 32 106 15 53 80 126 110 104 111 103 89 55 22 7 38 40 4 42 58 50 48 35 57 41 66 50 16 25 17 13 39 49 15 227 219 15 166 37 139 9 27 14 25 26 14 19 15 32 16 5 10 13 47 48 62 44 58 2 18 45 24 39 73 44 10 6 35 30 27 20 13 22 14 13 23 27 9 6 4 17 18 16 22 30 43 26 33 2 4 12 31 39 7 4 27 44 45 50 50 60 61 40 45 48 29 27 31 9 17 17 22 42 45 45 52 62 42 52 85 53 42 68 50 21 19 28 29 19 20 19 21 4 19 25 23 20 21 26 30 26 18 6 17 29 32 31 8 13 4 42 19 30 17 7 21 16 22 16 18 19 11 7 7 11 17 21 49 82 154 158 131 94 39 21 14 10 4 3 7 4 4 7 4 10 6 17 25 7 22 23 19 13 8 5 4 12 10 16 10 15 13 4 16 20 10 2 3 15 24 16 4 8 7 6 12 20 17 10 10 4 24 27 16 23 18 17 21 25 14 14 24 31 10 17 10 0 
0 1 3 8 21 26 15 11 19 27 19 17 18 11 19 32 12 35 27 14 36 35 51 51 40 32 37 67 38 12 57 45 7 14 3 10 2 11 23 11 10 31 27 12 8 13 15 15 9 8 13 26 39 35 11 8 13 30 14 26 12 17 10 9 2 21 12 32 14 14 37 12 33 28 38 26 9 12 15 38 39 34 26 36 15 42 22 30 40 38 37 24 21 28 24 17 26 18 4 12 11 6 7 12 9 15 12 9 19 34 34 22 13 33 28 31 34 40 13 16 15 27 31 20 19 19 24 73 34 71 28 33 34 30 25 53 7 44 34 12 19 34 55 60 21 7 14 33 44 49 79 34 32 17 69 82 28 44 21 53 15 47 18 63 31 50 46 3 29 25 25 59 24 49 33 26 26 13 44 64 20 71 50 39 63 80 8 52 16 10 8 44 12 30 53 6 48 47 76 51 26 79 104 51 54 29 50 66 13 32 46 61 41 19 28 47 24 24 85 100 24 68 120 130 127 95 53 44 53 200 36 225 140 142 43 89 31 34 51 55 53 27 26 45 20 13 7 30 58 31 56 101 42 90 82 29 91 132 100 73 64 52 117 81 29 70 39 105 27 51 91 52 50 100 62 100 84 107 58 59 68 86 97 69 28 18 12 61 58 81 63 37 41 28 32 22 27 15 37 32 14 35 31 38 24 14 30 27 38 25 197 168 45 90 21 77 149 67 26 14 18 13 17 27 17 31 37 48 52 17 38 13 46 19 23 40 20 36 73 52 35 30 35 21 32 25 8 24 14 23 9 17 15 11 9 18 14 10 17 26 33 12 23 6 4 21 19 24 24 17 44 32 28 58 57 59 68 34 41 63 24 16 39 7 13 11 10 13 35 35 17 55 69 48 59 52 45 59 55 43 41 45 37 10 16 2 21 31 4 18 15 10 12 17 23 24 15 11 6 11 15 22 29 8 21 34 6 16 22 24 41 46 17 1 11 21 7 18 17 21 13 45 75 113 182 165 111 65 21 8 7 4 2 1 3 4 1 4 5 3 10 15 15 6 14 19 14 11 9 8 5 2 9 1 12 13 1 14 18 15 3 7 3 24 24 17 7 5 3 1 15 17 5 4 10 18 28 22 8 27 18 11 9 32 42 47 34 17 2 12 8 0 
0 26 18 17 23 15 5 10 7 17 20 18 10 11 11 28 7 22 38 8 40 47 42 41 43 42 31 59 44 12 40 43 19 14 9 13 7 3 19 23 23 25 17 15 20 16 12 8 10 5 10 30 39 34 34 19 18 48 28 43 10 18 14 21 26 34 17 22 16 35 3 27 11 21 24 20 32 24 31 19 48 29 5 24 30 18 49 20 11 30 13 34 16 39 23 5 10 21 12 8 16 14 13 6 3 11 14 9 5 10 16 10 32 33 51 41 8 26 21 5 10 27 28 13 1 19 32 37 38 49 34 51 22 49 10 52 43 10 40 37 34 31 25 4 28 17 22 31 15 28 20 33 62 72 71 43 49 48 23 14 30 53 62 51 48 9 43 9 12 41 58 22 67 34 28 30 24 66 56 25 81 40 68 110 58 62 112 53 18 24 9 31 34 12 39 31 76 48 15 55 80 50 26 21 41 56 75 46 41 49 63 86 22 65 78 57 51 55 71 44 81 114 115 122 138 104 50 92 152 227 216 141 30 147 125 8 56 25 10 47 51 77 30 32 26 25 50 33 33 61 68 115 130 50 65 81 54 27 100 100 21 69 36 49 108 46 48 94 61 21 85 14 61 103 41 74 73 45 7 26 63 72 31 50 76 60 41 46 63 31 80 66 60 34 31 20 32 27 2 42 29 13 27 27 7 16 23 24 7 59 75 78 222 93 18 102 217 209 63 54 38 24 26 23 4 15 2 24 56 42 14 19 39 29 21 21 21 36 71 38 28 51 33 6 27 34 12 12 17 7 37 45 18 16 13 17 11 2 10 15 10 13 15 5 7 39 17 2 12 31 66 33 16 60 64 54 69 33 40 75 19 5 42 10 18 4 5 16 32 26 14 34 74 59 42 46 51 51 54 36 13 38 45 41 41 14 11 28 10 28 25 21 19 17 17 31 24 10 4 18 17 31 36 7 35 43 16 32 7 13 25 24 34 17 23 29 11 18 26 31 31 100 135 144 171 127 73 46 25 13 6 5 3 2 4 2 0 4 5 7 15 12 0 15 22 23 19 13 7 1 9 13 14 11 1 15 25 18 3 20 16 8 7 30 25 16 7 10 8 7 20 19 8 15 16 7 24 15 18 51 43 31 15 38 29 18 17 21 15 15 31 0 
0 16 19 15 22 6 12 9 15 24 35 24 12 25 12 31 14 21 40 15 30 50 36 42 51 46 43 51 38 24 43 41 25 18 16 19 2 12 29 13 31 46 29 7 8 11 13 21 20 18 21 31 23 37 37 15 14 41 26 35 24 32 31 14 9 12 17 8 26 11 30 29 10 20 25 24 9 10 8 23 29 26 7 28 28 32 45 3 8 36 12 34 27 13 39 22 22 29 25 20 13 8 14 17 12 19 4 6 10 14 10 41 43 8 81 69 49 21 11 8 6 25 22 15 8 9 25 9 33 27 28 57 14 42 12 17 25 56 60 32 50 48 21 20 31 27 11 18 17 22 21 5 17 21 45 17 31 11 27 40 20 30 28 31 28 90 69 18 13 47 66 71 31 51 38 47 43 25 14 90 61 83 87 32 52 90 54 72 25 22 24 21 45 47 25 66 58 11 65 71 12 76 64 43 3 6 30 31 45 35 75 41 84 83 19 101 75 34 25 76 95 94 104 105 79 55 195 227 178 122 137 12 125 6 144 106 52 18 36 79 86 73 82 33 29 35 7 29 22 78 70 13 97 112 46 32 74 72 72 47 92 109 156 73 142 64 74 44 100 38 71 58 39 56 33 38 36 14 29 58 87 106 101 75 71 85 34 24 39 63 8 38 36 46 2 36 8 47 61 17 38 14 4 4 17 6 25 22 7 7 89 95 52 32 157 133 69 9 12 32 33 24 17 21 16 14 20 28 13 32 15 18 40 45 28 14 7 47 77 39 25 43 13 7 31 30 7 5 8 15 39 1 21 12 14 11 11 10 14 12 8 7 3 2 8 42 5 8 27 38 59 16 14 61 61 47 66 38 41 72 16 7 34 12 9 18 10 23 15 25 31 41 57 62 76 82 74 62 66 59 13 23 36 15 34 21 14 17 17 16 8 2 4 10 20 12 22 20 18 32 12 27 38 11 37 49 31 34 14 11 25 34 30 6 20 35 31 4 12 17 54 133 138 124 135 96 51 23 7 10 4 3 0 2 4 4 7 0 4 7 19 13 4 3 9 11 7 8 14 13 2 5 2 7 6 8 16 7 17 9 7 4 11 26 28 9 14 8 6 12 26 17 11 12 8 17 25 24 25 45 18 48 15 16 27 23 16 9 26 10 8 0 
0 17 26 14 23 15 12 13 15 5 29 10 11 26 5 12 38 26 31 22 15 46 43 44 54 36 40 46 31 27 56 31 8 21 17 21 13 17 30 30 46 38 20 14 7 1 12 28 19 11 12 18 15 48 22 32 33 50 54 30 27 7 52 18 25 10 5 9 13 21 25 19 22 24 15 7 21 13 8 17 26 24 16 32 13 11 33 16 21 16 23 25 16 28 39 19 31 34 18 9 19 5 17 10 10 6 22 9 25 4 25 62 28 43 82 58 28 30 46 37 22 39 55 64 56 43 17 8 24 46 36 52 8 27 37 52 55 35 41 10 24 51 36 32 38 34 38 25 20 34 43 14 36 9 44 29 43 63 27 35 36 45 30 36 42 23 63 48 40 13 22 1 40 20 61 86 33 2 9 71 83 112 13 86 59 39 108 82 17 52 21 4 53 54 64 76 5 37 35 57 104 71 40 50 18 63 81 60 4 37 33 35 24 44 96 122 45 9 40 90 75 81 86 43 130 24 36 216 139 56 99 126 66 106 41 93 94 41 49 62 132 16 105 96 34 35 64 59 28 50 60 71 42 86 123 69 38 48 100 54 142 130 114 183 79 166 52 65 134 151 92 25 42 70 77 55 59 53 18 46 50 13 72 39 48 44 64 46 43 9 45 49 11 28 47 33 56 26 30 50 25 31 37 32 9 22 18 14 22 3 24 81 65 31 57 40 67 47 54 63 154 101 55 18 32 29 41 18 1 19 14 24 42 63 38 12 17 45 68 36 34 49 31 18 30 14 10 12 21 16 20 28 14 12 27 24 20 9 3 13 20 15 0 12 19 44 7 20 28 26 41 32 29 53 50 46 68 48 40 55 19 24 24 10 12 8 15 22 7 22 31 53 45 49 56 70 70 65 73 76 33 24 43 19 21 35 27 29 12 12 12 13 14 15 19 12 17 45 11 20 10 7 23 10 40 35 22 25 17 25 15 4 12 14 31 41 38 8 17 35 60 134 139 129 124 79 23 22 15 6 4 1 2 3 4 6 4 13 12 9 11 18 8 13 14 13 14 15 4 25 13 12 12 16 14 16 30 24 20 16 5 15 13 13 24 9 6 17 26 20 10 7 7 12 15 12 8 29 27 44 48 41 12 16 25 23 24 48 41 17 8 0 
0 21 13 22 19 20 1 5 15 12 22 7 9 26 6 7 48 25 21 29 17 44 55 55 66 34 30 47 39 32 54 31 10 14 13 19 5 7 24 26 7 5 10 20 19 6 14 16 20 23 21 7 29 35 7 48 7 21 7 16 18 32 24 22 10 10 3 9 10 13 33 28 10 21 6 14 1 19 21 30 18 10 20 29 40 43 46 27 12 8 14 9 5 16 19 21 13 53 32 30 21 19 29 21 12 12 29 37 47 29 74 66 26 66 63 45 24 13 24 24 32 34 28 27 5 36 10 17 20 32 19 26 23 3 32 25 28 25 50 52 50 37 18 25 25 7 15 14 37 44 30 42 65 44 29 25 26 63 77 24 31 43 59 17 45 87 60 41 62 28 43 29 39 93 74 11 30 17 6 33 20 34 67 52 12 63 69 11 47 35 29 20 21 72 92 24 49 25 56 84 33 32 66 26 52 45 28 64 19 38 74 43 58 73 40 67 23 50 75 94 89 75 32 179 33 25 172 83 40 99 28 139 93 37 64 34 68 90 68 4 97 100 3 104 107 53 32 39 53 41 43 35 79 59 51 57 24 37 96 112 92 162 62 198 39 164 59 72 11 62 92 82 93 89 62 41 24 40 40 23 46 56 17 42 15 33 52 42 13 19 7 47 37 32 34 36 30 33 28 28 55 31 24 25 47 10 10 21 21 28 51 41 69 57 70 80 47 53 47 34 42 137 101 11 4 21 32 5 21 21 4 11 38 55 45 35 21 39 60 29 21 41 21 29 34 14 18 18 17 5 2 5 7 19 7 18 24 9 10 25 15 13 8 30 36 62 42 14 22 24 26 28 36 48 46 51 77 58 36 41 30 43 17 4 13 8 14 16 10 15 30 31 22 28 46 45 44 63 75 69 34 18 41 25 38 49 22 14 16 11 8 7 4 13 23 0 21 28 25 15 4 9 14 12 9 6 20 22 31 32 17 12 6 10 34 47 40 12 25 68 99 162 166 133 90 38 12 7 17 4 4 0 0 4 4 5 14 21 13 21 19 26 15 8 10 7 7 20 3 24 15 3 7 16 19 18 31 32 8 17 25 24 10 3 18 22 17 33 24 14 19 22 12 5 3 17 34 34 10 10 16 13 4 15 10 6 14 45 11 38 28 0 
0 21 5 17 15 23 12 12 14 7 9 12 8 24 8 14 44 18 15 27 7 41 52 46 67 42 29 53 61 36 34 41 24 8 20 20 7 8 17 30 54 36 19 34 26 15 14 9 2 5 15 14 35 13 20 25 27 21 5 10 12 22 5 12 2 10 16 13 4 10 1 6 5 17 21 8 25 20 24 19 26 23 27 26 17 14 34 16 11 22 23 18 17 14 15 20 25 34 34 37 24 37 24 19 16 20 11 17 14 70 102 29 79 70 56 29 16 5 18 22 15 38 49 59 34 20 13 24 4 31 18 8 20 33 28 30 67 54 66 30 51 37 40 27 58 53 41 25 23 39 22 10 32 35 22 30 13 6 15 22 62 92 30 18 24 18 35 60 4 65 43 41 64 29 52 77 50 37 13 24 41 48 11 38 26 53 52 53 22 34 54 32 29 20 21 34 37 40 82 16 44 33 22 33 19 52 58 26 47 27 14 37 63 44 67 93 82 101 117 98 29 62 189 251 210 108 50 2 23 55 106 18 105 101 33 112 32 91 132 102 45 68 66 12 89 93 47 35 24 13 34 5 22 59 63 33 31 61 51 155 37 160 97 119 87 89 75 82 155 138 7 153 85 21 43 42 23 14 45 52 26 42 58 37 11 38 24 28 28 4 26 24 46 8 24 26 15 28 15 16 19 59 59 49 75 27 31 30 25 33 44 27 48 56 76 110 116 26 15 205 182 55 146 38 29 37 43 15 8 21 23 22 37 46 31 20 21 43 62 33 28 50 33 28 28 13 13 10 12 4 3 12 14 31 26 24 24 7 10 13 17 13 4 35 18 44 54 35 25 20 21 24 32 42 40 56 87 64 27 27 42 48 13 21 22 2 25 9 11 7 22 11 8 32 53 47 37 52 73 76 55 43 42 12 10 38 33 17 5 8 5 7 8 6 13 27 25 13 8 12 4 14 8 10 24 24 31 4 14 18 4 18 1 4 35 40 40 19 39 115 162 185 149 83 41 13 11 16 13 4 4 0 0 4 4 4 17 18 10 14 13 18 4 8 7 5 3 15 2 15 11 5 4 19 10 14 26 23 10 27 21 10 12 12 5 11 13 21 14 15 19 18 8 12 14 26 15 8 13 4 5 7 21 13 10 14 20 49 27 29 58 0 
0 14 10 21 11 27 27 2 17 6 7 9 4 24 23 17 29 20 18 36 24 55 57 29 48 40 14 46 75 42 14 32 40 20 13 18 4 5 26 28 39 50 38 19 12 5 8 19 8 19 19 22 31 17 41 30 5 14 21 15 19 17 17 15 12 9 11 11 19 11 17 11 12 14 19 23 21 21 32 21 25 12 31 12 21 37 35 9 13 19 7 12 19 11 2 10 40 1 37 6 16 23 15 25 39 29 17 14 45 82 56 36 76 73 38 13 4 32 54 46 12 22 30 49 46 34 28 12 13 25 21 18 21 42 20 34 22 11 45 60 24 34 10 50 34 28 51 11 39 36 32 58 47 20 59 34 9 15 25 46 69 41 38 6 34 43 17 72 55 28 88 76 48 22 33 52 69 36 25 38 19 50 65 50 39 17 34 26 14 14 34 36 19 33 17 21 58 72 44 32 41 25 50 42 42 44 38 25 10 45 43 19 85 119 89 80 98 131 111 44 156 252 242 178 51 7 59 44 27 10 54 124 50 117 120 83 148 48 108 153 138 71 29 84 13 73 76 62 46 14 23 12 25 27 23 24 29 104 89 125 74 67 76 24 87 60 110 106 79 147 125 59 171 110 27 45 53 16 40 57 79 21 16 19 26 13 22 33 36 31 27 84 57 56 36 35 51 46 40 35 59 104 69 52 83 9 29 0 17 33 38 29 35 35 52 68 126 123 53 209 195 49 49 28 20 12 41 41 9 5 12 16 38 47 39 24 15 38 59 31 32 55 41 37 34 21 15 8 11 10 9 6 13 7 13 4 17 25 15 15 11 5 13 20 29 31 36 34 33 24 28 31 39 50 47 48 78 70 28 23 51 49 5 17 26 12 28 5 19 21 25 24 13 15 50 60 47 46 60 76 76 74 57 20 10 24 24 35 16 9 4 6 7 8 14 31 17 9 19 21 18 21 9 15 6 20 42 28 13 22 8 18 4 7 36 29 40 34 64 154 167 146 112 55 22 12 4 2 4 2 2 4 4 2 2 5 17 13 6 8 8 11 10 11 3 0 4 7 4 4 10 11 3 19 3 9 19 13 10 25 21 10 1 13 14 4 12 2 12 11 17 20 12 12 14 17 8 7 12 7 12 11 18 9 9 21 21 22 16 29 119 0 
0 3 7 22 21 15 27 27 23 10 7 3 11 23 35 13 8 20 23 45 28 49 43 18 47 43 24 55 79 44 21 24 27 23 20 31 30 27 35 16 8 17 35 46 41 24 8 16 14 26 8 19 19 32 34 31 15 14 14 7 27 10 24 32 9 13 12 5 27 11 31 13 12 10 21 10 7 16 51 11 37 14 42 10 18 18 31 14 15 33 32 35 34 28 27 40 37 37 20 28 27 14 13 27 9 9 23 19 48 57 5 66 87 72 23 14 29 28 21 45 52 29 7 38 36 11 18 17 14 10 19 23 27 36 7 18 51 40 11 35 40 11 24 16 42 48 28 29 15 32 25 26 24 35 6 18 23 59 64 34 23 15 44 31 20 51 17 49 66 74 77 77 59 53 59 70 33 33 50 18 39 70 46 29 30 22 42 20 41 69 61 50 31 41 31 36 36 9 55 63 21 34 13 49 58 17 55 3 46 33 30 100 89 65 65 52 87 37 57 135 1 236 152 32 48 11 24 9 11 18 53 75 150 14 191 117 106 139 44 42 78 90 53 54 75 30 8 32 73 64 11 26 21 31 19 22 68 80 122 17 101 96 71 59 71 53 77 115 52 42 136 113 37 146 140 33 59 47 53 39 72 62 21 19 22 18 23 58 31 55 24 91 40 89 29 27 38 19 44 22 22 58 49 59 83 27 44 38 36 30 17 13 31 22 24 39 62 81 79 32 205 68 62 230 22 14 25 31 31 40 30 30 41 44 39 29 25 49 62 35 25 40 20 25 39 28 18 7 10 11 8 10 14 15 0 14 11 14 15 32 13 22 18 13 31 29 23 30 37 27 31 31 35 45 40 30 55 75 39 25 58 45 0 18 25 19 29 8 14 10 5 21 21 1 29 51 58 65 64 59 72 73 68 65 47 32 17 31 29 14 7 8 4 7 15 11 30 27 29 8 29 17 31 11 16 15 20 12 12 30 10 19 5 15 31 11 49 65 109 167 146 111 82 40 29 16 4 9 8 2 2 4 4 2 2 2 13 13 5 4 8 4 18 13 12 3 5 2 5 11 7 15 4 15 4 5 10 7 11 15 14 15 13 7 13 18 15 15 17 11 18 23 17 7 1 10 1 7 11 11 5 7 21 24 13 38 32 9 41 97 160 0 
0 13 11 10 24 17 5 18 12 15 8 4 14 18 41 3 4 17 25 49 28 41 35 31 58 43 29 56 62 35 27 17 14 28 7 9 8 20 37 17 19 16 11 8 9 24 24 19 7 25 16 23 30 12 38 18 21 28 28 18 20 24 48 34 45 17 25 10 28 18 27 4 20 10 22 27 43 44 27 24 25 19 38 14 17 11 14 17 17 19 8 13 23 27 22 33 23 43 7 26 16 24 20 7 31 21 25 40 52 37 26 85 76 55 39 38 24 25 30 20 29 30 10 39 56 37 15 33 46 57 50 21 21 11 9 25 29 58 74 51 25 45 31 16 10 21 23 28 9 17 11 23 4 56 64 28 66 45 17 37 21 18 38 33 44 49 50 81 43 30 18 10 30 29 18 17 64 54 22 11 50 58 57 43 3 27 35 35 66 21 41 41 10 32 11 12 23 55 42 17 45 28 46 68 18 36 31 56 40 33 64 88 16 33 38 35 27 146 208 183 162 180 23 75 21 68 29 43 21 12 60 7 116 124 79 202 95 78 108 65 31 60 107 90 26 26 41 42 11 66 50 19 10 37 66 61 41 61 57 71 63 104 56 53 38 97 62 149 105 21 58 131 129 26 119 154 34 74 27 78 34 62 18 21 34 45 31 24 65 48 18 71 38 97 16 7 15 38 40 22 42 56 58 26 54 56 7 30 41 53 63 51 48 47 52 61 52 15 74 120 49 39 108 7 151 11 14 7 13 10 28 44 39 31 27 37 44 53 63 28 15 35 17 12 34 34 23 2 1 5 8 13 7 12 5 12 25 31 26 30 12 22 36 34 32 13 8 20 36 39 43 41 43 49 48 44 47 66 59 40 49 28 20 10 13 17 21 14 15 7 16 30 29 5 13 33 53 70 80 55 65 69 39 53 65 41 18 26 26 24 15 14 6 8 19 8 7 35 31 18 21 12 33 24 23 19 25 14 11 31 10 13 11 18 19 24 70 106 157 173 132 95 56 13 9 3 11 8 5 4 4 0 0 4 4 1 10 11 1 4 10 4 24 7 23 7 8 9 5 23 7 15 7 8 6 3 5 10 11 12 8 5 17 12 20 27 12 9 16 16 21 23 11 2 5 11 1 10 5 4 8 15 15 10 29 36 24 22 96 137 150 0 
0 19 25 30 8 17 17 16 13 23 14 5 12 10 41 14 3 19 31 56 34 39 26 23 56 47 45 58 43 31 50 22 10 22 10 17 15 16 31 10 7 29 12 14 12 15 37 10 18 3 17 25 34 25 16 20 25 4 5 23 8 28 55 47 47 12 27 20 23 22 23 22 23 32 20 18 21 17 22 21 15 26 12 19 12 14 17 8 15 10 4 2 11 17 15 24 31 8 19 8 30 26 13 19 34 19 79 113 78 18 65 91 49 21 31 53 51 25 18 36 29 40 9 6 29 29 27 29 42 24 21 46 26 31 37 36 30 18 16 9 38 59 31 16 4 18 34 25 17 50 35 18 14 22 56 54 34 59 35 9 13 25 31 20 20 58 92 38 30 27 27 32 28 12 19 41 58 10 34 21 19 65 29 27 31 29 7 42 53 61 48 16 38 29 6 14 22 30 43 64 19 23 22 47 50 26 10 51 50 90 69 23 64 81 71 135 213 207 137 77 33 124 150 3 68 61 85 40 59 4 35 65 35 126 95 61 134 60 106 136 61 30 64 78 62 37 48 62 57 46 91 71 98 86 68 67 55 92 107 45 90 28 68 21 72 57 143 34 140 93 23 34 86 129 63 99 131 11 82 16 88 12 54 20 13 32 39 48 39 28 44 48 67 87 46 59 32 2 18 27 1 33 35 58 53 80 54 21 15 18 28 25 36 39 70 89 55 78 24 73 96 17 90 113 145 70 34 28 37 18 26 50 40 29 29 17 23 55 72 39 21 36 18 14 35 40 29 11 11 11 16 8 2 17 32 24 21 26 12 18 11 10 44 15 35 22 21 28 33 37 38 32 33 36 36 66 52 57 78 47 41 13 14 15 8 19 14 24 17 32 13 50 38 18 23 32 30 56 81 54 84 101 35 31 66 56 46 41 34 29 25 23 11 9 21 5 29 34 8 28 19 17 12 29 16 13 17 2 1 19 27 26 16 12 5 47 87 131 178 164 116 72 27 10 17 14 12 7 4 4 4 0 0 4 4 4 13 11 6 8 14 12 32 6 30 10 12 15 6 32 10 13 10 4 4 5 8 11 10 18 17 12 9 19 31 28 8 9 17 17 21 19 5 9 13 5 11 18 22 19 11 6 14 27 34 13 1 81 151 147 128 0 
0 21 11 26 16 6 10 12 32 27 19 16 18 17 30 16 9 22 41 53 30 38 20 12 48 50 56 62 31 24 55 32 5 10 10 17 17 20 26 5 26 45 31 34 23 19 38 50 33 8 12 15 20 22 8 15 4 4 7 17 19 33 29 55 19 15 24 15 22 20 5 38 34 34 7 18 28 30 7 11 26 16 24 23 10 18 7 18 10 25 25 29 39 42 17 18 20 30 7 27 19 23 13 12 33 55 230 212 160 98 58 53 41 42 37 20 25 3 44 34 39 30 23 17 21 15 40 18 30 39 28 32 41 36 33 24 48 61 49 30 9 15 24 34 26 48 30 25 31 32 35 27 21 33 19 40 61 38 34 7 24 8 47 84 81 55 21 35 21 30 43 19 37 56 44 28 31 33 27 24 22 31 43 19 3 17 45 36 15 39 28 15 46 22 39 25 49 62 38 11 29 63 88 85 54 15 20 62 93 63 21 12 87 116 198 3 230 141 38 9 13 10 122 141 83 58 111 69 63 50 45 64 74 17 96 95 38 146 72 87 124 73 22 60 63 57 6 58 106 80 124 91 60 48 52 44 93 101 59 59 56 44 36 32 45 50 91 93 49 135 93 28 11 74 143 80 107 140 48 86 74 63 49 49 8 52 67 45 10 38 54 29 21 31 56 15 36 27 25 37 51 35 37 38 15 79 91 51 38 35 15 18 26 24 16 91 44 115 48 59 26 107 46 226 56 242 24 26 17 23 16 30 50 62 52 36 25 46 67 42 25 33 10 15 39 36 25 20 10 13 5 4 5 18 8 33 24 10 19 8 7 3 29 36 35 17 41 21 11 34 31 20 36 41 38 58 46 60 86 53 32 8 25 20 28 15 12 27 17 33 16 51 28 37 18 11 24 46 66 49 57 97 73 47 34 42 59 59 38 28 40 34 11 20 22 21 20 12 18 27 20 24 6 22 11 23 40 42 14 11 17 15 38 19 27 72 119 163 180 120 46 14 7 7 4 8 8 12 15 10 1 7 12 13 10 3 12 12 4 12 21 15 24 15 23 11 13 13 12 28 9 8 7 3 8 7 11 8 2 19 6 17 2 4 16 12 15 19 19 14 3 10 13 16 17 14 10 3 18 21 23 15 16 24 38 37 52 144 172 133 91 0 
0 18 41 31 14 7 15 13 15 7 7 11 22 25 18 19 14 10 48 38 28 48 28 18 57 57 63 68 35 42 45 25 18 9 10 17 17 15 18 18 3 40 16 20 12 27 44 27 5 25 25 30 25 3 26 16 18 15 11 21 11 15 46 25 14 18 26 18 17 10 24 8 4 12 6 21 33 36 31 20 11 4 18 25 12 11 15 17 19 31 28 22 19 3 28 26 24 39 29 20 10 18 32 36 25 129 76 126 222 141 56 45 73 59 24 36 17 14 37 53 67 23 8 30 22 12 6 41 21 41 29 22 48 31 48 21 17 38 19 34 67 43 16 31 43 43 31 40 9 33 24 74 58 7 22 3 26 38 35 27 34 48 51 14 34 71 79 61 44 37 11 48 66 38 15 32 58 68 68 53 26 37 54 24 10 9 38 27 32 23 24 37 72 61 34 70 50 78 27 22 45 66 20 74 70 22 61 55 20 21 19 8 115 202 231 187 61 51 68 5 43 75 43 163 51 106 19 122 38 101 65 42 49 63 23 101 109 68 217 126 68 132 70 55 23 68 100 87 132 57 89 24 60 108 76 90 68 76 58 15 31 32 35 39 37 50 24 87 103 36 111 82 31 22 47 161 38 183 38 106 40 76 25 83 28 61 62 45 15 41 46 27 7 10 37 57 39 18 24 23 37 19 27 46 27 42 71 46 37 52 10 27 13 13 26 90 4 97 50 60 82 43 79 13 56 137 76 67 24 35 12 8 7 57 41 32 53 28 53 45 36 38 21 28 37 27 7 25 30 12 22 21 18 18 38 35 2 17 4 11 11 14 9 13 8 40 23 15 16 42 25 14 41 51 35 39 47 68 74 46 25 19 31 24 10 8 8 19 28 19 3 23 34 27 2 13 20 31 46 53 62 57 69 70 35 29 26 30 36 34 52 53 32 28 24 32 28 19 36 55 50 20 10 24 20 15 11 44 9 15 15 29 16 31 39 85 146 178 150 74 17 4 4 1 4 6 2 7 5 5 8 8 5 2 2 0 15 19 12 14 17 19 5 11 15 12 15 7 4 14 17 7 1 4 12 7 19 11 28 24 4 9 6 10 16 20 17 12 3 3 13 17 13 5 10 27 6 1 28 13 17 33 19 24 61 44 104 173 155 104 66 0 
0 43 26 20 7 11 21 20 5 12 7 16 15 9 24 37 22 32 52 28 14 41 26 38 71 47 53 60 23 37 30 17 23 5 0 7 14 20 23 6 28 46 26 28 24 39 32 36 25 26 28 11 4 17 22 24 24 14 32 22 25 18 29 32 18 13 19 3 3 11 17 1 4 6 10 30 3 12 15 10 13 30 43 32 22 46 32 10 20 6 15 20 30 29 5 45 40 19 17 25 44 41 26 26 18 222 48 69 242 149 57 62 62 25 51 34 6 11 42 42 6 28 6 34 17 11 17 21 43 41 46 50 29 48 30 12 53 64 28 40 20 33 33 33 12 22 26 4 4 26 60 9 39 10 29 22 10 37 48 5 57 96 36 48 64 24 56 102 79 27 33 6 37 40 18 89 90 71 49 57 58 8 48 25 22 32 38 45 23 16 23 19 8 30 50 48 43 39 32 44 23 47 117 86 14 89 54 20 39 55 86 161 185 205 184 43 91 63 43 25 96 84 86 73 181 36 134 52 165 62 91 56 50 80 42 34 107 161 27 176 106 59 103 11 59 84 89 61 84 53 76 98 98 71 14 20 28 38 88 93 41 52 41 14 47 20 49 43 115 100 40 128 79 21 15 142 105 132 121 68 85 33 44 63 83 20 45 21 5 6 25 19 21 39 32 11 7 31 46 55 49 43 48 44 13 37 48 21 27 53 21 15 34 47 11 80 51 46 40 55 68 81 51 111 221 32 229 117 98 79 29 12 7 52 51 31 50 24 44 43 46 50 26 18 26 29 13 10 25 22 13 10 14 12 18 9 18 11 18 8 21 21 18 22 13 33 12 13 33 41 17 18 33 59 43 32 54 64 64 44 20 11 18 26 15 3 1 0 1 5 7 3 1 4 8 12 18 22 21 47 67 73 91 94 82 70 58 55 39 20 44 62 54 30 4 24 18 38 58 26 32 24 23 36 11 4 16 42 15 26 47 10 15 21 59 119 170 168 103 39 16 16 15 12 6 4 15 22 20 14 7 4 8 10 8 11 23 14 15 20 18 21 7 10 14 7 8 8 5 4 4 10 6 7 5 7 21 29 12 15 14 5 4 4 2 3 5 4 2 4 3 5 9 14 22 18 10 7 24 19 24 31 17 8 86 100 140 168 120 79 50 0 
0 25 14 22 7 10 12 17 8 12 15 18 10 6 15 40 39 20 42 26 13 34 28 42 69 48 57 67 34 41 34 11 24 28 27 25 24 26 26 21 29 37 12 15 16 9 38 29 8 13 15 26 18 20 16 20 34 17 21 20 21 27 16 22 21 23 22 15 13 8 15 7 20 18 3 31 36 39 34 24 28 37 45 3 47 34 32 25 4 7 11 6 23 32 37 21 20 22 22 30 11 8 15 10 67 40 196 124 185 151 105 74 10 55 32 8 6 10 34 45 34 9 4 31 21 34 40 36 43 7 18 58 16 44 12 28 28 2 31 29 29 8 23 47 54 26 7 19 43 20 41 67 26 41 25 34 26 23 45 45 49 23 44 59 29 45 74 38 21 32 35 15 13 28 79 78 18 79 102 53 52 42 34 47 12 33 67 61 38 25 17 33 58 54 46 18 29 36 49 26 17 59 55 82 103 90 25 45 42 99 188 225 180 67 160 140 54 130 63 40 73 59 112 81 159 180 95 133 114 151 12 110 32 68 63 101 52 127 171 14 172 157 62 83 64 39 42 56 90 127 107 85 56 8 10 12 12 61 12 113 41 53 15 25 12 35 31 49 16 105 110 102 157 37 45 120 147 46 164 50 67 35 74 67 40 37 7 35 28 4 29 12 30 16 35 18 19 40 59 30 54 48 12 45 34 18 45 40 55 33 13 22 24 30 39 33 82 29 30 28 16 38 17 48 64 91 228 205 26 78 40 10 14 38 58 69 72 37 45 32 36 51 38 21 28 43 15 7 13 2 14 10 7 13 5 9 18 9 18 17 22 18 18 21 11 29 11 22 36 36 17 20 33 58 51 42 48 49 64 59 37 17 22 20 10 7 3 1 5 8 4 1 1 2 7 12 16 21 25 43 33 48 87 78 66 71 83 85 66 33 41 62 62 66 95 145 199 212 210 171 63 29 59 17 24 35 49 33 31 11 36 29 11 60 104 150 173 142 70 16 12 14 8 5 11 16 16 11 8 4 4 3 7 18 29 21 11 26 26 12 13 15 19 4 19 17 17 16 13 12 12 5 13 7 13 10 19 26 29 36 17 8 7 4 2 4 4 7 17 20 19 16 8 5 11 7 13 31 18 17 20 25 26 34 115 160 152 138 82 45 18 0 
0 15 36 31 24 10 17 14 9 1 8 15 10 9 24 22 21 21 40 33 21 33 43 39 45 37 49 66 37 50 44 21 25 24 21 18 15 14 12 8 22 32 30 19 16 8 12 26 27 21 12 31 23 26 14 25 38 39 5 11 10 33 5 22 10 2 5 3 8 8 14 23 27 13 2 24 27 32 30 27 13 17 55 39 28 42 19 13 22 37 31 25 1 17 12 28 31 41 15 24 34 14 41 21 186 87 124 159 158 139 134 46 52 19 11 7 4 5 14 17 7 20 15 15 13 24 19 13 42 54 36 37 25 26 14 29 53 39 31 23 12 24 40 37 13 17 46 62 39 27 24 42 37 34 36 39 15 39 39 14 53 85 59 6 52 43 61 53 44 13 36 53 91 85 50 46 90 72 30 68 60 7 25 33 28 56 34 15 19 8 10 43 19 18 37 35 4 67 50 27 15 60 112 115 75 27 9 89 140 167 144 83 56 93 4 161 89 101 127 74 13 97 27 152 21 195 117 104 75 71 121 30 112 52 2 34 100 63 77 139 78 201 132 59 82 56 64 94 106 116 86 12 65 87 49 18 18 55 52 55 106 47 22 32 8 10 18 24 53 24 179 15 187 118 38 71 159 77 105 101 51 47 36 73 63 24 59 19 54 27 37 30 49 65 77 59 60 27 101 103 71 48 61 45 58 12 42 70 29 18 19 34 34 21 37 29 65 96 34 5 12 17 13 40 101 134 17 145 188 93 52 25 16 37 15 32 80 48 58 40 32 43 34 21 21 28 12 17 16 3 17 17 15 8 7 13 14 5 16 10 16 18 17 15 10 28 15 29 23 37 25 11 38 50 51 74 63 42 44 49 46 33 20 8 4 12 5 4 10 7 3 2 3 3 4 7 10 15 19 48 54 34 44 69 79 39 33 61 64 96 168 206 241 35 79 83 64 58 82 101 42 154 24 52 46 115 156 158 121 54 10 31 36 104 133 147 142 100 39 13 5 9 12 7 1 7 9 2 6 3 2 11 21 33 43 40 25 4 7 3 18 10 33 15 19 8 8 8 8 9 11 9 14 14 21 14 2 15 32 66 34 5 4 3 4 4 0 10 21 16 13 13 12 8 17 8 11 24 12 28 7 12 28 65 165 166 130 103 41 6 36 0 
0 19 17 4 27 17 20 29 26 15 3 17 24 21 16 13 12 22 38 40 24 27 50 34 34 32 42 62 39 58 50 18 18 17 14 11 14 15 13 9 17 41 45 36 30 21 16 16 7 29 9 32 12 12 17 22 33 26 19 18 22 35 40 33 14 7 3 12 19 29 32 19 13 4 8 25 8 9 7 14 8 28 36 50 13 31 7 19 18 24 20 20 16 11 15 11 31 36 41 20 18 23 51 66 71 66 85 207 196 125 98 58 15 45 28 14 21 10 12 29 15 30 2 2 2 10 21 42 29 32 32 37 25 25 28 14 23 18 31 10 47 38 25 6 5 14 27 27 29 12 33 18 4 25 10 75 91 27 54 48 3 40 59 70 71 86 75 46 22 26 85 82 47 31 44 70 58 16 44 31 42 64 50 12 23 18 47 55 28 17 25 31 16 22 21 18 10 66 72 75 43 59 39 15 17 31 97 244 8 148 26 120 94 40 106 68 144 61 100 127 64 64 96 97 74 63 110 69 57 86 64 105 23 67 77 41 17 107 144 112 98 61 133 56 121 136 64 72 73 9 58 56 33 48 87 60 28 4 64 24 59 77 44 24 28 26 20 50 33 50 128 135 70 141 118 37 90 104 44 45 87 29 75 53 65 32 60 57 58 103 77 47 39 47 41 20 72 67 51 96 97 60 26 32 37 25 14 57 69 19 27 18 42 23 31 44 17 90 84 27 42 60 53 43 46 89 86 31 220 196 14 34 29 52 11 10 72 64 73 41 21 32 30 42 28 5 8 32 21 17 11 15 2 1 14 19 8 9 14 12 19 19 14 15 7 19 19 35 18 30 31 21 36 44 53 83 60 24 36 43 42 34 30 27 14 16 7 8 13 6 8 1 4 4 4 1 6 8 8 17 31 43 43 57 78 8 39 84 153 254 25 13 14 27 21 225 162 127 139 209 39 46 206 154 163 197 212 207 213 137 47 62 73 140 159 147 115 60 11 16 4 9 11 5 7 9 10 7 13 15 12 15 21 24 19 22 31 24 24 15 13 3 31 11 27 9 10 8 8 9 11 8 9 13 12 10 13 12 83 51 79 3 3 4 4 4 1 13 20 9 12 17 18 14 16 19 23 40 30 22 16 26 51 121 191 138 99 77 16 17 38 0 
0 5 12 10 23 26 13 11 7 20 10 7 13 9 3 5 16 27 31 39 27 28 59 50 36 25 34 57 39 63 55 30 22 1 2 10 15 16 14 8 8 18 25 27 33 13 18 22 8 25 11 39 8 13 17 20 34 22 21 12 49 32 26 17 29 10 13 8 7 18 4 11 31 25 3 24 18 16 17 11 7 15 23 31 28 19 10 1 42 64 49 13 21 21 40 45 45 22 30 29 47 52 25 172 133 198 91 228 240 127 66 24 38 15 38 40 5 35 55 43 30 32 17 20 12 5 8 36 34 44 8 31 18 21 14 56 51 13 26 65 81 36 25 48 49 23 12 36 11 25 8 25 5 21 21 42 18 75 16 50 42 42 38 20 21 18 2 18 18 82 80 11 67 76 36 28 69 71 30 34 63 21 59 52 18 36 33 13 37 38 19 19 37 20 30 24 18 32 4 39 94 35 34 60 104 159 12 13 122 94 103 54 121 86 93 83 108 147 18 94 131 50 104 65 40 56 18 79 106 44 89 42 127 63 72 61 48 87 108 81 32 130 116 90 71 98 113 17 105 77 35 47 75 74 20 77 87 73 7 63 38 54 61 36 36 23 48 39 46 18 34 114 87 64 66 87 34 32 63 63 33 61 13 72 25 67 59 89 115 100 80 34 24 31 40 59 69 67 28 4 35 57 42 20 17 7 23 10 49 43 22 28 45 27 32 23 21 28 83 58 38 19 45 27 41 52 75 124 95 189 104 31 34 53 25 11 55 55 73 48 29 32 18 46 31 17 11 44 22 24 18 27 18 10 15 22 1 15 10 19 25 19 10 14 15 11 19 37 25 25 37 39 25 41 58 55 56 49 53 50 41 31 23 16 1 20 9 11 15 4 12 2 6 5 5 5 2 2 3 13 14 24 48 86 45 20 91 36 147 129 63 243 176 101 43 43 65 88 134 105 80 193 246 253 1 225 174 160 251 20 220 88 96 168 154 104 58 28 8 7 11 17 18 14 8 1 10 11 8 13 10 7 16 24 29 30 18 3 11 11 10 12 34 25 13 15 15 14 13 13 14 8 1 5 10 17 7 1 84 78 73 3 1 4 4 4 4 12 16 14 16 19 16 9 5 18 18 14 2 14 32 52 83 155 190 101 66 47 1 12 27 0 
0 12 12 6 23 21 23 32 15 8 15 26 29 21 12 4 24 33 26 38 27 19 58 56 36 22 30 54 39 67 62 29 16 9 6 7 12 16 16 15 8 2 18 32 7 12 24 17 14 14 17 41 3 20 19 25 42 27 16 16 42 40 52 47 31 22 25 19 21 29 23 27 39 32 29 28 18 29 24 5 1 6 8 15 20 11 14 11 36 30 35 30 18 37 18 7 17 46 38 20 47 28 55 44 123 68 150 208 237 124 24 14 23 41 24 50 10 42 26 56 57 42 32 15 27 15 10 16 29 23 37 19 26 9 19 42 29 5 16 56 31 34 13 10 30 17 15 4 25 46 60 33 39 16 42 98 100 56 23 59 36 40 21 14 29 58 80 75 68 68 36 103 64 18 60 78 46 33 80 67 10 58 67 19 56 39 19 54 34 7 20 7 62 72 20 28 12 65 112 122 48 19 46 142 244 10 225 79 31 15 133 123 76 127 28 111 13 145 106 57 115 101 3 51 35 45 69 47 96 134 52 131 31 151 130 107 97 60 48 94 79 72 58 52 68 46 72 94 21 69 53 14 44 94 88 12 49 95 92 26 63 46 17 50 20 39 35 25 37 49 60 56 18 65 31 48 74 48 10 59 51 11 76 67 65 59 98 76 117 17 76 94 67 55 32 44 30 24 58 63 42 9 56 58 39 7 22 7 18 50 4 44 21 35 25 8 29 27 33 80 34 81 54 30 36 16 47 97 239 72 216 16 29 38 56 58 62 38 63 55 43 38 21 32 20 10 24 41 13 25 13 26 21 18 14 20 4 17 5 16 25 31 22 13 17 9 23 32 22 35 47 43 14 34 58 46 46 60 63 44 30 27 23 22 14 23 11 12 17 3 16 2 10 5 6 5 4 4 4 8 22 24 63 83 72 198 157 1 176 33 185 88 37 25 74 133 148 148 130 76 30 75 147 192 157 78 36 53 168 27 114 78 166 156 125 63 19 18 12 7 14 12 4 7 12 16 18 14 6 7 5 6 13 21 24 22 11 12 10 17 17 22 12 6 4 5 5 4 4 4 5 4 0 8 9 15 17 16 11 50 26 1 0 4 4 1 3 16 10 8 12 7 7 12 19 13 5 19 29 29 75 121 147 168 159 63 25 22 11 5 9 0 
0 13 18 5 26 17 31 21 23 13 11 21 11 7 10 3 27 29 24 39 28 21 54 61 43 35 39 48 47 63 57 14 5 10 25 38 30 5 16 11 15 20 25 35 33 24 22 4 3 14 7 29 5 23 27 10 23 10 18 21 33 21 24 8 15 4 14 1 8 15 10 4 23 18 10 19 10 35 36 11 26 29 17 21 25 26 20 11 24 40 9 31 36 11 14 18 31 42 30 45 32 30 183 149 22 80 197 215 218 112 14 28 18 35 21 37 26 18 29 18 18 10 12 27 2 29 25 5 42 13 54 9 52 33 19 31 29 16 14 43 52 45 39 43 28 21 31 26 7 9 33 59 39 3 50 38 75 86 89 68 28 33 37 31 25 31 31 36 25 49 89 43 29 46 36 76 88 79 31 8 30 31 26 70 50 15 42 36 25 18 11 53 66 34 43 29 46 92 69 8 40 53 124 219 220 121 46 45 13 51 14 85 75 59 122 12 99 25 121 98 35 89 87 53 42 16 38 100 40 120 113 79 101 124 144 55 58 40 115 113 72 24 66 29 22 71 25 72 78 27 31 63 66 32 103 93 82 18 124 85 25 23 37 27 74 27 15 34 60 38 15 19 45 48 25 32 18 69 64 10 38 72 92 117 84 57 57 59 131 138 85 71 37 22 2 26 18 11 15 45 75 72 17 39 50 54 37 54 41 54 24 41 15 25 13 17 22 23 23 59 91 9 36 26 28 34 16 32 70 105 92 45 27 10 26 72 60 34 62 61 49 45 27 35 28 21 21 27 1 17 18 31 8 27 17 15 7 15 7 10 20 20 12 8 9 6 21 34 15 34 44 36 33 39 51 43 46 68 71 47 28 33 38 21 17 21 12 14 10 11 15 6 14 3 7 8 1 14 16 21 13 22 43 96 65 15 231 86 180 58 16 69 94 138 178 181 139 65 3 67 67 21 26 42 22 52 42 56 19 62 219 190 154 182 79 33 25 7 18 15 11 18 17 11 8 7 4 4 5 10 13 10 5 4 5 7 24 14 18 21 4 11 14 13 13 4 14 18 11 3 5 14 21 21 19 7 31 12 35 31 27 13 12 13 15 14 8 15 11 8 8 10 10 4 14 10 6 26 8 36 126 165 174 148 100 41 9 12 24 28 45 0 
0 6 20 10 22 10 26 29 32 19 11 22 4 14 5 11 19 25 34 40 29 25 43 67 40 31 41 37 50 48 55 19 6 13 28 23 12 18 25 8 18 32 25 18 4 22 28 4 22 31 25 27 30 18 34 26 10 16 13 22 29 14 21 31 4 32 25 15 19 7 7 16 32 31 30 49 43 21 19 29 35 21 23 20 7 20 13 18 34 32 35 25 22 26 12 29 28 43 47 39 10 41 32 144 108 159 221 209 164 65 21 11 32 54 61 25 33 13 31 38 31 18 22 6 29 30 29 28 40 20 32 54 45 27 37 12 26 40 19 17 32 25 22 26 29 14 18 20 57 72 50 25 17 15 45 67 73 31 8 8 26 25 60 68 63 45 8 36 58 76 19 56 55 20 44 47 26 36 89 74 11 36 34 44 6 30 38 39 50 63 54 25 54 66 32 30 67 73 30 99 139 171 176 138 116 125 30 79 72 49 12 52 96 80 85 139 24 97 68 127 99 14 78 47 42 42 47 79 91 56 161 175 116 60 65 88 119 145 63 61 23 52 39 74 38 27 45 40 7 65 56 25 97 75 40 68 67 89 60 146 22 26 31 32 75 97 38 32 28 21 32 51 18 51 50 39 73 24 85 91 89 85 27 35 2 17 114 112 114 117 80 24 85 84 46 18 13 6 26 34 5 87 40 17 22 81 54 14 44 59 27 16 25 12 15 31 38 18 39 27 70 77 20 33 20 17 11 19 161 34 242 148 23 23 43 59 38 38 69 67 48 42 38 29 11 13 21 27 14 27 24 20 14 8 3 7 12 11 8 5 4 5 3 16 18 28 32 35 21 28 32 31 45 56 57 29 18 60 77 59 29 20 26 2 12 18 3 9 4 8 3 14 4 14 7 20 1 27 11 32 18 10 95 178 119 236 10 113 8 53 104 153 164 180 119 28 44 100 92 72 77 44 40 43 48 65 82 30 46 94 63 244 42 94 37 4 5 16 8 23 10 8 9 7 6 14 21 17 9 10 7 10 9 13 14 2 29 32 37 17 4 7 6 7 10 19 8 14 22 17 14 16 3 24 21 28 26 19 24 8 15 9 9 14 17 18 18 11 1 14 14 11 20 22 17 13 10 21 11 76 146 144 132 83 51 26 12 8 27 24 33 0 
0 8 13 16 35 32 36 19 18 31 20 29 18 18 12 18 15 20 37 37 24 28 39 56 37 45 70 51 48 32 55 20 8 18 13 38 25 9 30 21 35 25 17 18 14 27 34 12 30 1 22 19 27 10 19 20 24 6 26 28 7 24 39 42 16 37 24 10 12 10 5 13 15 21 21 36 29 27 16 7 32 38 12 26 31 4 17 16 20 5 21 20 25 37 18 35 25 13 24 25 13 108 122 51 23 189 218 148 139 78 29 24 60 62 18 35 28 15 34 24 29 13 10 21 11 53 38 13 34 20 7 12 25 31 32 42 31 31 31 45 37 41 41 2 32 49 28 31 67 17 56 52 22 51 35 34 45 63 59 42 13 36 67 71 28 34 78 79 61 13 60 21 35 40 43 13 45 51 16 57 37 35 17 31 25 54 84 119 139 116 66 30 31 15 40 65 45 15 102 170 226 238 161 49 31 150 80 82 96 59 69 61 52 134 24 118 140 94 77 44 123 113 25 38 70 44 30 27 113 117 71 86 45 63 67 125 134 96 87 59 77 24 29 15 51 49 22 18 48 27 93 59 33 116 56 58 53 59 62 80 69 11 21 51 13 81 99 42 29 38 14 11 37 23 79 76 50 83 54 89 50 24 77 96 92 75 69 89 11 54 80 76 45 48 104 54 17 30 27 37 58 29 63 41 20 53 98 83 48 51 21 2 17 36 34 25 55 48 24 16 10 67 94 50 55 34 28 14 63 123 48 48 11 39 47 62 53 63 67 56 48 38 30 42 36 21 26 34 22 7 12 2 10 10 10 17 9 10 8 11 11 1 17 25 30 10 32 24 5 32 43 49 45 48 54 31 43 59 76 64 27 13 19 5 5 10 11 10 9 8 11 0 11 24 11 17 19 16 7 22 22 178 241 167 226 185 60 15 97 138 186 194 130 60 28 88 121 121 102 117 129 110 123 128 126 145 145 131 86 74 75 20 240 19 102 31 23 0 15 16 4 10 24 28 31 25 9 5 18 25 18 12 10 7 12 15 11 11 14 8 11 11 4 3 13 13 12 28 23 14 26 4 26 15 17 32 10 37 21 34 11 5 4 12 12 8 16 12 10 18 2 7 14 9 10 9 11 42 71 143 170 135 110 75 23 7 19 21 26 25 17 0 
0 11 5 14 36 23 32 16 11 22 18 16 2 9 2 17 19 24 39 35 20 27 40 45 22 42 73 54 43 31 50 38 12 16 36 24 11 11 30 9 26 12 1 18 14 14 29 21 18 42 36 19 24 18 36 52 57 33 5 26 25 13 5 17 4 20 22 20 11 13 18 2 13 11 23 44 44 19 42 63 42 14 29 13 18 15 17 14 13 7 15 15 7 21 19 13 10 36 20 17 13 253 177 176 65 174 223 125 132 106 27 15 26 45 35 53 48 29 9 11 27 28 34 39 46 37 70 51 57 17 13 5 13 17 19 30 65 31 40 36 37 55 20 56 36 26 57 38 36 33 43 73 70 41 17 38 28 49 65 63 26 65 31 45 52 66 55 14 18 33 38 22 19 10 24 44 35 21 70 85 49 29 26 24 52 113 127 97 40 55 95 27 62 79 76 49 23 102 192 218 164 110 91 97 25 97 137 82 71 33 27 27 58 66 97 37 104 86 43 28 41 147 52 46 36 53 80 109 112 93 69 78 125 149 178 77 139 91 86 48 64 71 32 65 34 60 49 47 24 34 32 77 53 70 137 29 71 52 28 25 79 71 44 14 48 14 51 106 82 6 45 14 25 60 54 120 101 85 33 39 74 83 69 45 39 47 34 107 101 31 43 83 117 85 43 97 40 8 45 17 36 24 17 38 43 20 30 61 41 18 28 15 18 5 48 42 15 59 68 48 36 22 96 105 33 50 15 14 40 216 8 195 93 37 26 34 64 85 69 55 59 44 15 22 32 27 31 27 20 20 31 36 26 23 11 10 18 15 8 4 12 4 18 15 31 27 43 30 1 41 51 45 35 36 46 68 47 28 61 62 32 19 20 3 10 17 10 8 13 17 21 18 11 12 25 19 10 2 7 28 237 51 154 193 161 20 80 138 187 186 166 79 66 117 116 112 115 104 109 135 123 84 69 58 58 70 63 97 138 169 91 131 119 143 12 48 8 25 12 4 5 7 21 14 17 23 7 7 6 15 2 4 14 12 11 20 2 8 9 11 12 14 9 6 8 7 6 17 9 15 26 4 14 5 14 24 11 35 14 26 14 7 7 14 12 3 10 4 14 16 7 17 21 14 8 14 28 71 92 154 163 114 90 66 29 29 7 24 16 13 16 0 
0 19 8 24 33 8 23 7 4 12 15 7 2 7 8 12 19 29 41 31 15 25 41 41 38 50 49 41 49 42 30 38 29 25 15 9 10 10 18 28 37 29 21 22 14 14 32 36 25 20 28 29 35 36 24 29 2 32 38 35 25 12 4 6 14 9 15 22 12 14 27 10 10 19 14 12 34 53 64 10 37 16 13 25 22 7 31 22 2 14 6 13 8 13 7 16 32 34 12 18 58 153 146 73 125 162 202 165 138 73 22 17 47 16 29 13 17 32 33 19 30 34 38 12 63 42 40 36 25 24 8 31 43 23 46 53 21 53 45 79 38 28 2 33 44 37 24 58 61 15 19 61 30 34 46 18 47 38 47 36 36 48 69 37 30 76 90 60 24 26 27 41 81 100 88 47 25 60 62 31 12 39 54 61 93 96 44 58 102 94 44 58 79 38 11 78 137 149 181 137 45 33 15 76 84 26 132 153 1 116 68 70 74 39 65 110 21 27 37 11 52 103 75 50 50 114 122 125 72 28 108 126 107 120 76 139 30 137 67 49 42 42 82 30 103 53 49 52 60 78 77 42 72 63 105 159 10 56 50 49 49 43 31 29 31 55 31 37 87 56 27 54 73 60 23 31 59 20 41 63 76 43 12 18 34 26 93 13 100 64 21 30 79 107 73 42 39 18 31 35 5 33 39 3 44 55 37 15 26 29 14 23 55 63 24 49 56 6 35 32 13 21 23 96 50 41 46 36 45 121 164 27 239 24 43 30 33 75 75 62 60 50 23 31 39 26 20 11 12 13 25 12 31 34 22 17 31 12 9 8 7 3 17 22 28 11 15 21 27 41 27 30 44 44 25 67 63 25 61 66 36 13 11 3 9 15 8 7 12 14 14 20 8 19 17 12 20 24 110 118 122 126 124 99 35 95 159 234 226 105 23 120 179 151 150 168 141 100 85 76 33 29 30 28 16 34 26 20 60 154 128 113 212 149 215 23 24 29 9 14 9 4 16 19 22 18 2 12 17 20 13 10 11 10 8 13 16 12 14 12 18 18 12 10 14 10 2 14 14 9 14 17 22 24 13 27 16 18 34 29 24 15 11 12 9 8 16 8 8 13 8 12 16 10 19 38 55 91 112 162 148 76 54 27 20 18 24 35 22 19 19 0 
0 18 4 25 27 20 21 8 7 7 8 7 3 7 11 7 15 35 44 26 8 24 44 37 41 52 45 43 54 58 41 33 28 14 29 27 25 11 7 8 22 10 21 34 21 10 9 15 28 13 5 16 17 4 14 46 48 34 17 10 7 18 13 6 14 19 16 16 7 2 20 10 8 30 1 24 13 24 59 56 19 14 14 19 24 29 36 40 14 14 4 13 7 12 11 17 16 12 22 44 196 252 19 127 195 178 149 185 130 35 31 24 43 22 15 34 34 29 35 48 28 12 33 17 45 69 32 20 20 38 47 55 15 60 31 41 33 8 39 30 32 41 22 27 2 49 66 30 61 18 12 47 50 52 10 28 43 67 70 26 31 42 45 46 25 33 46 47 24 28 46 60 35 22 55 59 51 23 29 44 56 71 84 93 83 24 58 94 52 33 82 68 14 20 88 161 204 151 81 101 28 12 34 61 111 92 93 187 27 137 50 71 71 73 55 57 80 63 26 28 54 66 30 116 138 106 59 11 42 71 76 67 22 97 128 72 99 4 109 87 22 43 53 60 31 44 23 53 52 36 73 47 25 109 59 137 128 14 83 72 13 47 31 55 32 31 48 53 17 86 102 99 83 48 38 71 60 58 66 50 35 47 20 25 48 26 77 58 31 83 85 35 25 56 87 71 15 35 44 46 32 8 6 34 20 37 44 29 14 28 25 36 48 62 98 53 37 29 18 29 41 35 3 36 95 63 28 33 39 78 29 21 155 73 69 38 27 47 70 67 50 46 47 23 32 46 25 12 15 22 40 37 31 37 20 21 27 20 4 10 17 14 13 14 22 4 18 32 31 28 21 21 43 55 37 57 53 36 66 63 28 19 24 17 9 9 10 13 9 14 20 13 13 21 24 9 13 183 235 163 48 41 83 63 132 209 6 214 79 125 167 174 136 69 86 103 66 36 31 15 34 53 33 41 31 34 31 38 31 46 96 44 69 24 117 168 32 12 18 22 7 14 12 20 21 12 14 7 3 10 9 10 15 19 20 26 39 38 38 18 14 14 16 17 19 7 6 11 8 6 13 24 5 25 21 15 19 14 19 20 19 12 7 5 4 14 19 13 7 24 7 10 5 9 32 46 68 119 140 169 127 41 21 21 30 23 28 31 27 35 27 0 
0 13 14 16 13 24 17 4 9 17 8 12 2 7 7 7 10 41 47 23 2 23 47 41 43 41 48 63 46 54 45 15 24 12 17 20 14 15 27 31 27 8 9 30 11 6 12 15 11 14 9 14 29 11 17 21 12 16 30 30 15 7 18 12 21 15 16 8 2 19 12 6 8 30 25 18 20 29 15 15 37 33 16 20 5 12 22 24 31 22 23 26 18 17 4 17 24 7 40 16 97 247 108 180 232 174 86 149 114 45 43 16 24 14 14 7 4 31 41 22 12 11 22 31 11 41 32 40 10 69 38 16 53 36 34 22 65 67 45 14 13 68 34 23 30 12 45 78 58 27 39 43 9 45 67 40 13 16 48 41 25 40 63 55 17 43 26 28 53 76 65 29 30 77 89 66 9 29 42 32 32 66 60 43 20 44 43 40 95 99 54 52 56 94 162 186 135 84 41 70 74 76 57 33 18 120 26 191 51 109 78 38 49 65 60 17 14 62 95 61 39 114 107 109 112 67 53 105 76 55 75 21 63 43 80 88 54 125 46 43 89 60 28 24 54 25 40 50 29 40 18 33 33 67 147 31 126 110 17 89 76 21 43 36 35 19 11 19 63 86 118 87 15 65 87 73 83 59 58 38 14 55 24 25 33 41 41 67 31 33 89 76 37 5 32 53 49 34 40 81 39 27 27 12 42 15 32 44 22 26 35 40 42 16 63 106 72 49 35 36 29 44 39 18 20 108 64 30 31 38 142 173 28 254 27 84 31 33 67 67 43 42 56 17 17 48 20 5 25 20 11 10 15 27 24 12 22 19 18 8 20 8 25 20 34 30 34 46 27 8 21 28 33 50 56 54 43 49 68 50 20 22 21 15 19 22 17 14 7 10 15 16 18 15 20 46 17 68 150 178 162 25 77 181 244 255 168 11 149 193 133 102 83 60 61 34 58 50 40 25 43 43 7 22 25 30 23 34 50 52 60 60 30 100 165 88 20 8 24 18 3 20 4 2 6 0 20 2 7 12 9 7 17 17 5 0 18 14 28 2 5 10 8 4 15 11 8 8 2 15 18 4 24 14 13 21 9 24 5 1 10 10 5 4 4 12 16 16 14 23 8 22 22 21 29 55 103 155 155 151 89 22 1 14 25 18 10 24 53 15 28 0 
0 13 21 13 13 13 18 7 22 35 21 25 17 17 7 11 9 46 48 21 1 21 48 43 54 51 54 63 38 48 31 18 39 20 13 24 19 3 45 22 19 18 7 30 6 8 7 12 19 11 13 8 24 16 25 11 13 21 10 14 22 15 15 17 30 8 16 5 15 34 21 15 4 25 12 7 37 9 10 10 9 24 14 10 16 5 6 20 32 15 12 11 8 24 4 25 37 28 27 89 185 170 36 197 192 157 71 122 104 34 14 29 3 32 31 22 23 12 11 25 22 38 39 45 27 29 24 66 77 39 45 65 49 19 18 46 51 20 54 25 58 46 35 28 25 47 26 26 33 42 16 34 16 17 25 40 7 34 22 50 85 59 22 22 30 5 50 84 108 79 34 68 80 48 48 31 20 13 12 17 25 73 41 92 105 47 32 70 49 24 68 119 167 220 220 128 48 34 59 46 114 98 72 38 66 77 29 140 146 51 95 42 42 15 58 38 46 55 53 104 101 95 114 56 5 86 99 77 85 17 76 50 25 84 52 93 94 58 118 93 16 102 52 8 3 32 35 42 33 31 42 7 52 50 61 111 17 98 111 14 91 80 24 57 28 35 49 52 65 51 17 58 79 85 86 48 47 27 32 15 41 29 57 25 44 56 41 62 43 33 18 74 106 72 10 40 55 58 19 91 106 23 17 33 31 51 14 42 45 58 53 40 19 31 32 25 60 16 31 20 14 23 62 28 36 76 96 37 51 20 43 14 40 208 128 60 63 53 64 64 53 47 43 27 36 49 10 8 25 27 9 10 16 14 15 11 22 32 31 34 35 17 21 21 30 19 17 49 38 14 24 32 36 56 63 46 38 56 67 39 13 15 47 31 17 11 7 9 10 12 12 14 21 9 120 130 109 93 99 89 54 136 228 36 9 125 48 170 202 148 97 76 43 34 7 36 44 34 50 64 70 46 22 20 23 36 45 41 50 88 21 51 14 207 111 224 52 16 26 9 6 15 11 18 19 12 15 2 6 9 10 9 19 24 23 29 34 26 17 7 8 20 18 27 17 7 12 22 24 17 7 15 18 21 28 17 8 31 15 14 20 14 9 7 1 11 16 11 7 17 4 13 5 14 30 98 150 162 132 103 43 24 15 26 38 21 4 48 55 14 55 0 
0 14 21 20 9 14 19 4 15 22 6 21 1 22 8 9 8 42 48 28 12 24 40 41 54 65 56 47 41 49 13 12 55 10 28 28 11 14 26 24 24 19 14 28 5 5 4 29 28 33 21 21 46 14 43 52 30 8 25 21 1 13 18 29 23 13 27 14 12 34 7 21 14 28 13 17 28 20 16 15 29 17 20 4 22 5 22 26 25 14 19 17 18 17 17 34 13 26 4 234 239 28 137 186 92 135 134 133 84 42 16 33 21 29 12 34 21 25 31 29 40 33 43 10 19 3 26 39 41 34 18 13 24 24 24 31 55 29 29 40 18 54 39 35 41 24 28 30 40 55 55 11 26 18 27 17 34 18 37 63 43 42 31 39 32 70 103 96 55 71 97 39 18 27 44 44 31 15 37 55 50 33 49 23 53 65 35 17 17 46 102 169 195 168 110 67 5 25 69 89 85 108 46 100 49 64 55 60 152 139 41 48 26 48 49 34 28 48 98 107 126 57 49 64 98 60 90 98 45 79 36 92 39 48 69 28 90 52 5 77 89 8 86 68 49 17 58 72 89 53 50 63 30 71 34 53 116 50 82 103 22 96 76 43 69 79 111 91 13 60 113 122 75 52 58 25 28 39 21 18 39 34 21 38 55 35 55 66 11 20 31 49 61 116 71 34 27 58 68 37 116 65 25 31 24 41 34 20 45 27 19 13 17 29 48 42 37 62 53 59 27 29 70 110 30 26 96 17 57 8 14 94 148 70 91 53 56 78 77 65 57 52 35 25 33 52 40 13 28 38 23 26 17 7 15 14 10 14 15 10 20 15 0 17 23 22 15 30 30 22 38 41 50 62 52 22 31 63 68 39 16 33 47 6 21 20 17 4 7 9 20 18 7 214 6 141 2 240 48 75 165 247 36 237 57 127 216 233 182 123 83 52 16 33 44 31 17 29 53 56 57 55 44 25 8 18 23 29 46 88 39 11 19 127 253 64 152 20 20 5 5 11 12 10 12 14 11 3 2 7 15 11 11 11 8 6 18 9 9 12 10 29 30 14 8 7 8 7 3 4 10 10 10 3 15 4 15 27 28 18 17 14 9 11 3 7 19 14 11 27 11 19 15 31 77 155 178 134 84 50 32 21 16 33 37 25 11 61 23 42 63 0 
0 13 33 38 19 25 19 29 10 16 19 22 17 29 15 4 6 30 40 28 38 28 25 51 33 59 78 35 49 53 16 15 39 24 32 16 17 2 15 20 15 4 22 22 18 16 28 24 21 18 43 11 57 17 20 8 41 12 8 14 17 14 35 17 12 18 40 12 8 22 16 10 12 21 15 10 17 9 24 34 11 16 21 12 13 32 40 20 2 7 8 28 28 17 21 27 8 19 29 99 218 88 192 162 61 61 151 165 95 55 29 21 26 37 19 7 26 14 28 47 22 28 23 36 25 48 22 47 71 45 8 13 38 40 45 15 26 16 18 44 37 39 53 38 46 74 27 36 75 48 53 19 48 30 41 39 23 48 62 22 13 20 63 73 142 123 56 54 161 179 98 41 31 19 32 38 50 68 76 60 58 27 30 87 111 51 10 24 53 106 161 154 115 71 49 2 63 29 47 38 30 58 82 97 68 63 47 16 20 121 137 34 31 72 107 87 55 71 95 88 55 37 82 109 97 81 23 135 88 71 67 65 72 18 50 91 66 15 76 52 43 90 27 104 32 37 60 44 43 123 65 84 69 22 54 33 52 80 18 68 124 50 93 58 51 70 45 83 70 56 74 61 25 39 52 43 22 36 15 38 7 53 56 23 39 65 85 55 27 8 28 71 46 48 101 89 35 49 79 46 50 106 17 21 48 22 39 46 10 19 20 24 44 23 29 47 48 48 34 20 31 63 21 80 69 33 74 61 42 44 11 19 179 237 10 226 41 61 78 79 67 50 40 28 8 26 41 30 39 44 17 18 16 15 15 11 4 17 7 11 18 7 8 16 31 24 22 27 25 8 57 48 36 58 47 22 40 63 64 43 22 21 36 37 23 15 21 4 18 26 21 42 12 63 122 163 165 17 116 182 243 0 201 62 175 239 206 155 94 54 14 27 30 45 38 24 37 53 36 12 24 16 22 26 53 51 36 36 45 76 47 31 41 94 112 96 25 3 2 2 7 8 8 10 5 4 8 7 8 15 15 10 12 10 8 11 20 15 24 27 35 15 24 6 18 15 5 8 13 12 7 4 3 10 18 13 7 15 23 8 25 25 31 17 15 8 20 13 14 29 10 19 25 70 123 169 164 107 73 35 11 4 34 39 25 22 35 40 24 58 67 0 
0 13 30 25 28 36 16 34 10 5 20 16 17 24 10 8 10 24 33 22 52 28 19 67 34 37 72 42 61 63 32 18 20 13 24 4 12 12 12 16 12 9 18 21 30 4 19 7 14 34 29 35 53 16 32 31 22 36 44 22 8 9 21 39 31 29 34 13 15 14 8 21 30 20 25 6 27 27 21 13 24 7 14 14 13 34 5 17 4 11 7 15 29 23 4 46 45 38 61 126 167 38 169 149 59 32 121 140 115 76 33 17 22 7 41 41 19 21 6 29 27 30 35 20 70 39 82 82 64 37 25 26 38 50 12 42 5 38 55 33 34 65 18 62 59 11 41 46 51 39 44 15 32 36 60 57 62 88 55 32 26 31 71 148 161 61 91 141 124 53 21 48 39 50 6 67 60 33 12 75 75 9 69 62 27 38 25 44 163 227 199 97 35 50 36 90 54 57 54 53 55 66 87 82 50 55 10 36 28 11 75 96 85 96 44 58 101 90 40 85 105 83 46 59 49 61 95 37 135 72 55 58 33 62 51 48 54 66 55 110 83 74 99 14 105 60 27 80 80 89 189 58 91 77 18 55 21 43 91 77 100 171 89 69 23 39 58 135 87 31 32 36 15 10 45 74 59 14 52 41 51 7 10 30 39 54 57 40 44 33 24 42 52 35 19 67 81 18 72 62 34 68 92 21 7 48 17 55 22 22 14 29 30 12 32 55 53 20 24 16 5 62 77 45 43 37 38 93 33 60 24 45 34 42 27 165 120 49 40 73 100 57 41 45 10 19 54 32 25 37 5 18 12 16 16 12 13 17 12 19 20 16 16 17 33 49 12 13 15 22 57 29 36 65 49 53 67 53 55 39 13 14 18 22 5 14 10 4 25 9 103 101 120 102 82 83 42 133 199 228 213 145 29 157 26 205 110 83 45 31 39 6 13 40 35 29 31 21 27 21 19 22 28 86 114 90 62 33 40 62 60 48 44 77 19 74 108 42 11 9 15 19 16 13 12 9 8 8 9 17 14 7 12 7 2 10 25 20 19 7 19 14 30 17 28 8 7 9 7 4 2 5 6 13 13 6 3 7 7 31 25 20 15 19 20 11 21 15 6 10 28 30 46 108 154 153 133 87 58 41 17 10 38 24 12 13 18 6 42 60 65 0 
0 8 29 16 17 21 18 31 10 12 21 17 27 29 17 15 12 22 30 22 53 29 20 65 32 25 54 39 68 66 28 15 21 13 24 5 11 12 12 12 5 15 31 35 32 12 7 10 14 27 13 30 31 37 11 32 22 41 36 44 27 29 22 25 27 10 31 21 32 7 1 18 30 40 22 5 34 15 11 24 13 24 27 25 10 43 20 7 28 16 13 16 11 7 15 35 50 14 152 147 89 22 135 120 96 100 185 161 100 52 46 17 25 42 19 23 36 5 60 62 72 13 28 30 36 43 94 63 24 47 54 46 10 53 48 7 50 23 43 34 26 20 89 76 34 76 70 30 20 31 14 28 24 56 70 67 26 34 79 59 34 108 115 72 38 172 164 71 41 65 64 47 26 19 46 45 35 52 41 15 41 73 65 19 13 18 50 141 212 163 87 48 15 22 71 87 7 75 21 54 58 62 52 21 10 28 43 18 44 23 88 65 112 100 151 160 85 39 60 99 118 137 83 28 78 27 82 62 44 119 101 70 104 42 75 40 36 76 127 12 132 81 47 116 25 85 51 4 106 95 87 185 68 98 84 20 17 21 18 140 89 103 87 38 98 112 72 81 72 12 17 30 41 34 51 18 75 94 47 15 57 52 29 29 36 16 36 28 40 49 29 29 23 38 60 37 69 42 20 37 73 24 104 40 42 32 16 44 55 13 55 44 28 12 28 36 45 22 11 15 31 37 24 4 25 34 29 73 100 50 49 49 42 134 139 21 48 4 42 49 98 62 24 42 22 28 45 22 30 49 39 28 19 10 22 18 8 14 8 12 17 8 14 14 18 51 26 7 26 45 52 31 31 60 52 69 58 32 54 44 20 25 46 38 20 20 18 17 5 193 238 155 42 254 11 101 164 240 253 174 47 104 226 50 22 141 69 39 20 41 36 5 13 45 44 32 29 9 31 21 60 61 81 116 92 84 58 29 46 51 74 67 27 66 231 39 153 61 12 11 8 12 7 2 8 15 21 19 7 16 13 5 12 5 2 17 8 14 24 22 10 2 19 8 21 19 9 4 7 9 11 13 4 15 15 10 3 7 8 29 23 11 7 15 16 4 11 17 7 16 17 28 79 150 172 137 103 63 14 50 50 38 29 21 15 22 26 26 49 27 42 0 
0 8 20 15 19 19 35 24 11 15 21 13 0 5 6 13 8 18 27 22 54 31 20 51 38 34 48 50 68 56 17 12 32 14 24 7 9 12 12 11 5 4 21 29 24 12 21 18 19 8 17 18 12 36 9 27 30 43 37 49 24 38 11 23 25 1 44 16 29 18 12 24 32 21 14 13 29 8 15 30 4 40 21 40 34 30 38 52 27 30 21 5 15 7 21 6 33 28 49 218 227 61 116 104 112 161 181 109 61 40 38 5 5 31 5 47 39 30 57 39 76 25 48 2 29 30 41 89 34 91 89 19 52 44 7 20 31 54 55 15 60 54 29 64 120 90 63 39 16 33 10 22 43 88 77 32 60 52 8 89 136 109 20 97 168 184 73 23 10 27 57 66 80 84 52 13 4 19 74 126 129 78 29 15 33 50 154 206 148 51 14 36 43 52 63 65 9 73 38 24 49 42 28 21 7 7 34 35 37 57 111 62 55 168 124 54 45 61 87 73 94 11 116 59 22 49 22 88 55 36 164 121 114 121 37 53 72 29 113 94 20 153 109 94 40 39 61 82 20 141 107 82 199 82 71 51 72 132 150 113 79 107 145 91 85 90 113 14 76 62 25 36 46 54 25 48 55 78 80 31 26 48 53 16 20 29 53 18 38 27 24 2 18 25 42 47 8 43 42 21 55 76 63 66 12 34 23 17 47 53 65 21 21 12 19 34 68 57 45 38 43 72 79 56 25 32 42 47 91 87 51 36 81 38 164 203 20 172 69 74 88 69 16 37 41 42 45 28 20 14 24 16 5 8 23 18 7 13 7 8 10 20 35 30 22 34 18 19 27 33 53 33 28 44 53 62 42 33 67 58 21 14 35 15 38 22 19 49 30 98 190 215 153 55 138 172 240 14 195 55 163 227 245 241 147 33 15 33 53 49 41 44 60 58 31 15 24 33 28 54 67 43 50 71 14 79 50 28 38 19 61 83 9 61 204 15 194 87 14 4 17 20 15 10 5 5 10 11 11 16 12 4 12 4 0 18 12 17 10 21 16 13 3 11 3 11 8 2 3 4 4 16 8 15 15 11 4 4 7 18 18 1 3 9 15 21 31 19 15 15 18 54 128 179 159 101 64 36 8 38 30 15 16 22 21 6 26 40 55 21 28 0 
0 6 15 14 15 7 21 10 23 11 16 22 14 8 13 25 12 15 27 21 52 32 21 44 50 43 31 52 70 58 24 17 32 13 25 8 8 12 12 8 13 4 8 34 41 20 24 35 1 15 20 18 11 31 7 14 41 67 45 15 47 25 12 2 20 17 42 17 24 13 4 16 31 22 9 26 21 5 33 30 34 39 33 5 29 28 43 14 38 24 11 9 7 14 26 4 39 40 193 205 76 113 93 158 163 105 144 140 49 25 31 19 16 15 18 45 35 11 45 32 34 27 17 56 49 30 17 72 55 104 45 15 50 79 58 16 37 13 40 68 33 42 94 97 76 43 25 43 5 22 69 103 112 61 43 61 48 65 132 135 48 56 137 152 101 73 33 31 3 32 48 41 24 23 15 16 48 64 55 23 31 23 13 33 49 183 227 151 47 7 25 37 64 34 20 46 49 84 46 20 21 15 15 33 38 18 35 69 95 87 59 99 97 17 69 67 57 74 40 8 67 108 35 66 48 40 56 52 61 90 75 167 90 86 111 42 114 45 52 83 102 21 118 61 7 20 24 62 85 5 120 122 55 191 124 87 105 97 102 59 93 140 107 24 27 19 67 84 22 77 75 22 32 39 50 10 101 46 57 71 60 51 63 31 7 18 51 34 21 11 26 30 27 23 19 36 55 30 50 28 16 44 70 36 35 10 11 22 9 3 36 77 61 43 51 66 81 50 36 25 28 62 17 63 29 32 20 16 19 61 41 21 57 53 9 233 53 162 31 96 99 79 32 45 52 40 28 17 7 13 20 26 20 12 18 13 12 18 11 6 6 26 45 30 21 32 22 10 28 32 46 61 57 62 58 51 39 48 74 54 12 1 24 21 12 21 120 152 174 138 74 26 107 150 191 236 239 151 0 173 11 195 113 87 21 36 31 37 31 13 10 32 30 8 13 32 29 55 34 81 68 38 18 53 70 93 60 36 28 7 33 92 39 56 196 11 219 97 9 12 11 5 6 7 10 15 20 17 10 17 12 5 12 5 2 17 14 14 18 30 12 18 14 17 19 16 10 1 5 12 17 15 2 11 11 11 8 4 2 13 17 6 19 24 15 16 22 36 25 6 37 110 176 178 120 69 39 14 10 16 30 36 33 31 25 21 12 52 54 22 32 0 
0 4 7 4 12 22 31 21 8 17 8 19 19 11 5 30 11 14 27 18 50 33 23 40 64 49 15 44 66 67 40 12 25 11 27 7 8 13 12 5 11 9 1 15 25 40 27 20 25 14 27 14 24 34 37 27 36 5 33 36 8 18 16 19 17 20 27 13 19 7 16 25 29 31 4 40 20 13 45 29 26 20 19 31 10 21 43 46 35 6 3 1 8 6 12 30 60 100 4 127 108 148 78 159 157 61 96 132 81 32 21 22 34 24 41 42 8 21 38 47 26 22 24 53 13 29 20 44 60 29 84 48 25 45 69 28 35 68 60 15 88 110 57 25 61 84 41 25 12 46 66 54 20 60 78 66 34 80 43 72 154 163 144 82 12 54 48 45 66 81 40 34 79 68 33 45 53 30 9 53 54 33 22 71 185 229 162 66 33 12 23 61 39 58 7 22 62 79 56 43 18 50 23 19 17 53 76 71 45 31 87 83 27 97 102 47 48 9 70 42 10 31 79 52 49 32 15 16 47 109 94 57 217 123 104 132 63 118 41 32 91 95 43 75 28 39 18 23 78 100 30 104 140 74 193 120 71 65 62 138 132 71 15 19 26 44 31 41 95 10 96 83 35 69 20 35 53 95 48 18 63 74 89 52 7 14 37 29 22 14 31 49 22 7 19 33 57 78 64 27 20 40 26 34 16 37 45 50 57 82 106 99 97 61 39 29 27 19 26 41 41 65 63 46 27 42 19 28 14 6 32 24 27 31 26 56 151 27 233 52 105 73 42 48 47 41 31 32 21 4 11 22 2 8 10 11 13 14 6 4 12 6 31 15 8 40 35 16 25 57 47 68 95 73 56 40 42 60 60 38 17 15 16 15 18 188 19 209 23 182 62 118 152 215 248 210 83 76 220 28 233 117 37 26 46 37 19 31 37 38 26 32 33 15 44 94 87 98 89 85 44 29 9 32 57 54 32 10 13 11 14 83 58 34 193 20 221 95 16 10 7 11 5 2 4 9 15 14 5 19 12 7 12 7 2 13 18 11 20 28 19 31 21 13 12 7 2 7 10 9 7 3 11 7 4 10 11 7 2 15 20 12 29 24 18 8 11 18 7 13 89 174 193 143 77 45 17 12 32 39 40 38 26 36 24 42 43 56 38 5 20 0 
0 19 10 15 18 21 25 22 17 4 20 25 27 15 9 33 8 13 26 16 50 35 25 28 73 69 17 41 55 66 49 11 23 10 27 7 7 15 12 17 22 22 19 23 9 43 45 39 8 7 18 36 52 20 29 34 47 71 65 24 9 8 18 13 12 17 24 6 5 5 21 14 22 18 22 41 17 34 4 32 29 46 43 21 7 18 10 24 34 24 11 14 10 10 12 7 78 148 254 48 109 170 91 81 165 113 77 80 99 55 5 34 31 37 38 25 23 19 17 14 27 11 30 72 31 17 29 19 39 32 87 70 38 101 58 23 46 19 50 99 96 43 25 46 1 56 19 19 41 74 15 45 65 44 52 82 84 27 72 120 128 83 62 44 67 31 63 79 69 40 31 61 48 22 43 65 55 14 32 39 56 15 103 214 214 108 96 52 48 8 40 36 29 41 39 54 49 36 18 21 50 26 36 56 90 76 27 41 76 96 62 64 102 87 84 71 58 72 25 44 49 36 58 75 46 76 99 69 57 105 115 137 89 224 81 129 61 85 120 39 66 94 25 81 50 87 12 24 26 59 92 77 132 122 54 117 46 111 111 70 104 45 38 11 20 20 26 29 71 94 41 85 81 39 48 5 22 45 94 92 63 20 96 91 42 7 27 5 28 49 11 36 47 29 26 42 33 57 52 40 56 28 66 46 53 65 75 89 84 60 24 8 48 40 39 42 43 43 23 25 54 12 42 23 13 25 27 23 5 12 14 39 41 54 12 6 207 232 171 143 88 87 42 41 45 32 18 43 33 17 11 32 13 12 8 11 8 8 15 16 6 22 28 27 21 31 30 15 43 68 37 54 82 60 44 25 52 72 40 19 31 26 18 111 112 134 174 138 74 81 139 161 196 219 138 19 155 228 15 215 119 56 22 19 16 17 39 43 19 22 47 50 49 51 90 102 53 54 59 31 13 28 12 37 29 16 29 2 21 30 37 45 52 38 190 30 205 90 9 14 6 3 1 1 5 10 13 12 4 20 13 8 12 8 0 15 19 18 18 17 7 16 15 26 23 20 18 12 2 11 23 26 18 10 4 7 12 13 7 11 26 26 38 8 12 14 27 31 16 42 147 205 166 89 42 26 7 19 30 17 29 40 28 12 32 52 51 46 19 5 16 0 
0 5 12 6 18 11 17 24 21 13 23 19 29 14 7 34 16 15 23 12 43 46 38 24 64 75 32 44 39 61 50 13 23 18 24 7 7 10 14 21 19 39 12 11 13 26 19 21 13 8 14 12 50 40 14 25 17 26 3 9 2 14 9 38 34 25 26 15 17 15 15 20 39 40 33 17 16 21 20 32 36 23 17 2 11 6 21 41 22 36 26 13 10 16 22 43 56 246 250 196 103 148 85 52 87 169 143 100 116 57 36 10 9 17 17 35 27 6 32 43 32 40 58 64 18 54 24 16 53 131 100 31 88 46 39 43 8 34 43 51 56 56 18 38 25 29 49 46 54 61 49 51 24 77 130 104 24 74 102 58 51 27 34 53 67 31 47 25 43 96 91 35 30 48 65 54 31 12 24 31 26 138 201 170 94 44 42 96 7 62 57 13 30 51 59 44 14 5 5 18 44 68 71 111 69 19 73 99 84 18 62 107 78 49 36 31 35 27 65 43 89 81 58 28 87 91 61 111 5 132 18 155 104 110 209 50 114 73 109 148 12 103 49 89 67 58 93 44 35 47 98 167 138 55 103 123 117 54 60 33 83 119 41 21 29 25 9 53 17 71 99 17 108 101 25 28 32 19 27 74 115 93 34 72 85 31 31 8 29 44 50 10 36 39 39 58 104 23 31 16 67 73 117 134 97 63 50 79 47 65 81 74 54 73 43 38 32 20 52 38 68 25 26 23 2 29 46 14 14 14 40 23 80 62 13 2 63 48 4 183 163 62 56 54 63 29 12 47 25 19 11 33 11 10 8 10 7 7 11 19 5 27 29 38 14 11 29 32 60 56 28 41 53 41 40 50 69 66 29 19 23 82 23 43 205 89 0 53 127 143 177 201 184 85 100 208 228 219 196 101 39 22 20 35 18 28 49 25 7 40 30 39 48 55 66 21 43 37 16 16 17 13 19 34 18 19 31 5 22 36 15 12 14 22 183 31 202 91 14 13 11 8 3 1 5 5 7 8 7 16 7 16 22 14 7 22 12 22 14 13 10 8 15 7 2 5 6 4 5 10 12 10 8 8 12 16 19 21 18 12 20 19 20 11 8 15 10 26 34 114 198 197 119 50 26 13 12 8 29 27 23 17 2 12 43 41 24 13 2 11 11 0 
0 8 14 13 8 10 19 18 9 18 17 12 20 4 10 20 24 21 21 11 24 38 46 45 53 43 54 55 34 70 55 15 10 9 11 4 10 17 18 23 21 30 20 13 11 18 12 16 5 20 5 36 38 18 27 12 17 29 35 9 31 32 34 36 38 34 20 15 19 7 16 8 36 20 24 19 21 23 34 27 7 32 31 15 15 29 7 25 24 24 11 29 18 7 7 22 25 119 239 94 142 97 103 93 27 104 243 158 88 42 47 11 2 12 11 17 20 23 13 20 22 25 12 25 41 18 33 85 130 34 96 108 56 10 31 67 71 36 13 32 32 42 17 42 48 49 56 53 7 44 19 43 85 51 64 130 135 83 13 38 58 39 68 96 74 38 38 35 83 80 46 41 36 30 46 35 26 24 6 59 166 239 169 66 18 28 22 69 66 15 21 61 64 65 54 16 38 20 31 31 20 77 119 35 52 109 93 19 81 97 104 68 32 9 42 53 42 27 24 74 29 84 64 62 36 116 64 98 79 110 124 48 126 74 105 144 38 117 75 109 173 25 113 34 119 110 34 99 45 99 111 97 96 91 125 136 46 46 32 50 47 43 87 36 16 13 31 45 40 16 65 94 16 75 89 47 23 8 31 32 27 74 86 26 78 69 17 6 23 10 50 49 7 28 32 32 113 107 43 96 133 135 94 82 33 39 14 81 44 118 36 55 20 57 21 15 2 26 67 20 80 46 50 36 31 16 17 14 18 24 38 11 87 69 15 11 20 53 20 241 196 225 37 63 80 35 18 38 16 12 13 22 7 10 9 2 3 3 3 15 3 25 15 41 20 4 18 35 50 58 45 43 52 54 46 55 65 58 28 46 205 206 148 153 161 96 128 183 167 187 187 133 33 99 190 191 147 116 86 23 16 24 39 42 31 25 21 13 25 47 27 38 54 42 17 46 37 23 30 22 13 21 34 16 1 39 31 12 2 48 35 17 8 28 181 32 211 90 18 20 15 9 3 7 8 12 19 25 31 17 4 3 5 8 14 12 17 13 8 13 15 7 11 15 11 7 7 7 12 20 22 13 11 4 20 32 32 20 5 21 20 17 0 13 10 16 15 22 93 172 192 145 77 24 0 12 5 8 33 32 12 21 29 31 53 42 33 24 19 19 18 0 
0 8 7 16 6 11 11 17 27 26 12 10 16 10 3 7 19 27 31 26 33 36 27 62 60 37 55 40 43 81 48 10 8 2 6 10 11 15 24 27 15 22 30 32 24 5 23 41 20 19 20 28 3 7 20 12 29 25 25 10 31 7 34 45 34 28 11 9 25 16 17 10 28 42 9 5 17 6 8 21 16 13 10 15 16 40 8 14 10 4 5 14 19 17 13 27 59 179 176 21 137 119 115 90 41 91 188 181 135 52 55 31 22 26 23 19 35 31 28 20 54 19 31 41 28 14 49 81 4 117 127 41 9 18 7 32 10 32 17 41 49 58 11 78 44 17 10 41 23 48 86 104 57 52 105 85 11 38 30 9 42 29 51 39 19 10 37 71 54 42 58 75 43 46 60 52 47 17 59 114 167 158 47 43 18 18 31 44 46 89 62 75 67 35 20 41 22 27 36 54 58 60 87 104 131 112 21 105 113 122 53 14 9 20 10 30 25 27 38 23 84 17 108 63 73 27 123 31 114 17 99 101 36 107 92 39 143 72 104 113 82 165 22 121 63 90 113 83 102 57 15 65 84 130 111 17 60 56 72 41 58 63 45 69 66 33 48 12 60 66 18 70 76 53 14 70 71 27 34 34 40 21 38 76 15 73 97 36 26 53 12 60 21 28 46 40 81 171 146 211 200 115 21 106 70 40 31 93 30 108 72 27 30 29 49 44 26 39 46 26 63 58 52 26 31 21 31 18 28 29 24 4 64 78 17 30 50 63 15 202 158 200 55 92 59 67 54 15 18 29 5 24 11 7 8 11 9 4 12 21 5 15 36 33 9 14 32 24 34 53 37 49 73 67 55 56 50 37 112 127 121 150 203 178 67 159 223 206 158 136 96 5 118 194 186 121 72 38 48 37 44 57 70 60 33 11 8 24 44 31 22 33 31 10 39 34 21 8 15 22 17 36 32 10 18 44 16 4 14 46 38 36 28 43 192 46 190 76 3 28 24 7 10 8 4 6 11 26 16 16 16 23 24 18 10 10 20 22 13 17 15 2 7 6 12 5 7 11 4 11 19 6 12 25 31 28 22 15 10 16 31 28 39 16 21 18 26 55 150 207 165 102 63 23 24 12 11 17 40 33 10 12 11 25 46 46 38 29 5 16 8 0 
0 7 10 9 18 9 8 18 22 15 8 15 15 8 7 9 13 11 33 42 39 28 20 67 71 52 46 11 57 78 33 31 22 11 7 5 18 28 31 16 10 19 22 24 14 8 19 17 22 12 23 8 11 7 19 13 30 23 27 18 20 39 32 29 19 22 23 27 30 21 16 15 24 29 17 21 23 18 10 13 13 8 8 17 29 23 3 17 14 11 14 4 4 16 17 31 78 201 105 49 78 155 116 83 97 144 169 120 111 75 41 12 13 45 32 21 36 11 42 26 47 45 9 37 44 85 58 37 122 89 35 8 16 7 34 58 25 49 53 32 4 31 47 63 41 64 34 25 49 69 54 42 108 98 22 73 83 42 46 66 56 26 38 61 75 72 60 42 8 32 58 57 42 59 81 71 32 71 155 150 94 112 74 19 62 68 33 25 75 94 95 52 20 10 18 33 56 39 99 124 105 36 79 114 91 16 64 60 140 45 65 22 61 67 38 18 15 26 31 16 32 66 72 94 30 54 83 88 38 95 53 32 40 18 15 78 29 130 112 91 146 35 137 58 108 105 93 115 94 19 125 160 153 72 90 58 62 75 31 91 49 18 36 28 34 71 14 52 49 63 50 21 30 60 61 36 36 39 24 18 18 45 26 38 72 59 77 92 15 35 28 42 31 74 44 57 101 161 208 163 50 110 122 100 43 14 40 69 68 41 102 27 29 20 35 52 36 32 13 27 17 59 47 6 22 18 21 43 40 39 18 14 24 86 41 22 23 9 72 29 146 91 216 113 126 37 83 23 15 51 13 20 21 12 10 3 5 12 13 24 10 8 31 14 5 32 22 19 40 43 50 69 68 54 52 38 57 246 252 165 55 0 19 138 189 174 167 111 45 31 40 121 174 171 123 66 42 12 31 32 38 45 45 43 49 43 24 38 28 16 21 44 22 20 32 15 32 9 27 10 9 53 36 26 28 30 10 7 13 36 21 46 24 50 201 53 153 63 23 38 24 20 11 8 9 8 20 14 17 20 14 10 13 7 5 20 8 7 9 21 14 5 5 5 16 10 13 19 20 21 25 13 4 15 26 33 33 26 15 6 38 23 20 20 26 14 15 87 191 210 136 69 43 9 37 5 21 40 50 38 21 26 12 34 58 42 14 31 8 21 5 0 
0 17 21 17 31 9 29 27 20 6 12 12 11 15 19 24 22 10 21 32 46 45 34 63 57 58 34 10 64 72 17 26 34 14 4 6 7 9 13 24 26 22 15 11 34 28 26 42 20 19 6 7 4 15 16 16 30 17 9 27 16 7 14 25 13 14 13 3 12 22 25 12 30 3 14 13 17 16 30 32 17 4 5 19 14 7 19 16 18 20 29 14 6 28 10 28 145 231 12 73 61 103 130 109 143 120 84 59 60 38 9 8 35 36 27 41 26 28 20 10 37 27 17 48 75 19 63 114 103 31 10 39 22 25 32 73 78 53 36 29 44 42 24 15 26 16 56 36 34 13 70 118 88 30 71 55 31 80 62 14 7 22 7 29 40 31 4 18 21 17 27 43 50 53 38 58 169 225 203 111 42 39 100 98 39 76 57 55 82 68 93 82 25 31 29 20 74 116 89 43 73 97 79 46 41 92 93 70 57 135 27 69 81 7 55 49 39 35 58 84 64 60 49 40 82 46 11 72 75 32 107 61 32 77 69 32 128 62 128 127 42 139 61 160 143 149 79 59 13 43 131 106 78 100 48 36 29 62 41 33 97 88 54 40 23 62 93 26 71 34 37 21 13 22 25 20 6 14 14 19 17 34 41 27 34 107 21 122 34 24 34 23 56 106 117 83 128 148 152 65 112 155 126 28 54 11 38 20 61 24 63 59 12 48 43 33 43 12 10 19 18 23 29 32 16 37 32 46 49 28 35 15 22 59 66 21 33 43 59 89 53 33 249 152 69 104 59 33 31 47 12 13 20 7 8 14 13 7 9 22 10 9 20 27 25 29 9 26 42 49 72 57 52 47 41 177 151 98 100 119 76 133 170 172 145 85 61 63 67 86 143 163 160 107 41 37 26 31 12 18 28 35 37 26 28 34 29 42 31 32 29 57 21 40 46 22 43 17 35 22 20 57 9 2 21 14 5 10 7 26 9 54 25 52 222 57 127 62 14 22 25 9 6 8 8 7 11 20 20 9 6 19 22 20 17 13 22 22 9 15 14 5 5 12 18 13 8 7 5 10 18 5 8 9 21 27 24 13 3 8 39 29 18 9 23 21 57 140 201 165 85 22 17 26 31 4 15 29 31 13 16 36 39 49 53 19 16 9 31 22 5 0 
0 13 18 14 35 13 32 20 23 13 13 3 10 18 19 29 39 23 29 27 28 48 52 49 47 72 49 10 66 72 8 34 40 8 17 26 29 23 13 15 37 29 10 10 15 44 59 32 30 12 10 1 2 13 22 23 28 30 22 29 10 12 10 24 15 26 5 23 33 34 13 10 38 34 23 25 23 4 16 12 7 14 18 10 6 8 21 12 23 13 20 16 12 27 15 22 2 6 165 122 47 29 185 165 102 116 76 45 52 51 15 16 26 34 36 23 21 25 11 17 46 35 25 43 49 99 120 90 35 42 35 35 34 34 11 38 74 90 81 64 18 14 7 16 65 100 69 25 39 49 57 12 66 75 36 48 99 76 15 28 38 42 36 50 66 59 43 37 38 36 55 97 112 60 36 157 216 176 89 34 34 14 44 140 134 36 64 100 69 22 7 58 87 27 47 119 124 70 70 165 143 70 59 122 98 66 38 23 27 71 125 44 99 117 26 48 17 83 38 23 77 35 58 62 51 30 4 8 75 115 37 76 90 28 65 98 41 104 43 93 124 10 182 88 182 125 53 68 64 46 81 123 83 8 59 36 9 21 34 42 19 78 125 68 54 66 104 112 34 10 34 9 7 24 34 36 20 28 31 30 37 23 26 64 51 70 107 73 88 15 19 35 10 100 188 138 127 77 102 187 120 60 74 32 43 30 14 4 34 70 59 41 45 45 58 10 39 13 10 16 25 19 17 22 38 62 42 30 29 29 49 40 24 10 52 71 22 62 10 61 71 76 49 224 100 11 53 40 48 31 7 12 10 8 7 11 9 6 13 13 15 23 27 31 40 19 21 39 53 64 53 38 44 143 79 3 81 212 178 82 192 208 161 124 61 49 21 23 87 146 168 136 117 50 8 41 30 26 8 17 32 45 43 18 12 25 19 45 34 36 31 37 37 52 31 25 36 29 66 40 14 51 28 14 26 7 4 11 5 21 10 58 30 44 29 72 91 48 33 16 17 17 22 14 11 18 12 8 22 22 6 9 12 12 16 5 18 23 16 8 12 10 12 11 11 8 5 5 5 8 16 10 8 3 11 18 18 13 7 11 42 11 17 10 7 51 127 192 195 123 64 19 9 7 8 14 33 27 19 15 31 44 48 26 27 30 10 2 26 33 29 0 
0 10 18 19 28 11 25 14 19 12 8 7 12 9 5 18 38 42 30 19 21 37 49 41 38 63 57 23 59 72 17 22 29 26 24 18 13 11 12 12 26 17 11 17 39 38 29 32 17 16 4 19 18 27 18 19 10 30 19 21 14 23 7 36 25 34 21 19 18 27 15 18 18 11 13 40 25 14 18 14 9 25 25 18 1 10 14 11 23 29 25 18 3 26 31 13 103 242 49 147 18 34 241 167 66 114 81 41 40 70 5 27 33 47 39 17 13 4 24 13 28 77 72 33 63 77 56 48 18 22 35 4 4 29 29 24 54 59 40 18 40 17 14 48 68 18 44 72 51 14 32 47 17 72 108 78 46 40 13 29 20 38 40 67 73 59 13 11 33 65 113 127 65 68 154 157 137 94 22 55 34 62 60 50 161 129 71 84 56 31 10 14 55 53 109 125 31 131 190 158 85 50 109 112 77 23 15 27 27 20 67 132 96 95 116 50 9 89 40 42 25 117 60 31 28 25 17 14 18 78 154 37 122 95 21 80 45 29 65 54 55 146 128 151 35 87 74 111 84 55 29 47 127 129 40 27 28 24 11 35 65 14 81 116 25 69 31 63 57 49 27 27 21 21 57 37 47 60 46 62 57 35 41 27 97 29 110 38 84 54 21 79 142 183 203 123 24 96 177 151 71 46 64 62 12 2 15 13 17 24 28 24 30 34 34 30 15 32 10 19 13 18 17 24 55 48 16 3 13 27 48 61 16 8 11 63 75 34 10 17 44 53 36 65 229 90 191 29 54 25 10 19 2 9 11 4 9 14 14 7 20 30 31 26 33 21 37 41 31 39 77 136 3 190 25 203 1 33 168 198 127 75 38 58 16 47 9 61 125 142 123 81 49 24 27 15 28 24 21 28 38 47 29 13 30 17 11 28 32 9 24 7 38 25 21 29 15 48 40 33 34 34 31 18 14 15 5 8 10 22 10 51 72 22 131 67 18 18 15 13 23 19 9 19 19 0 14 21 28 26 16 12 20 19 14 5 14 14 12 11 17 15 11 5 15 21 20 19 17 15 15 7 4 10 16 15 10 4 13 28 34 10 16 16 48 117 179 190 147 77 38 8 4 11 11 29 54 33 13 16 25 32 40 12 12 25 6 27 32 27 11 0 
0 27 12 31 21 17 14 8 16 12 5 10 9 0 8 31 41 29 33 31 23 33 37 39 46 49 65 50 37 63 31 14 21 17 21 18 10 4 20 28 32 35 39 24 12 29 27 10 11 3 24 12 35 36 5 2 15 24 28 8 7 18 14 27 42 29 5 29 41 21 10 9 24 17 2 38 17 22 9 15 10 22 8 26 17 25 17 21 12 25 14 16 12 21 40 23 166 186 37 73 67 136 234 124 45 99 80 52 37 45 43 18 29 31 31 35 27 29 10 17 27 61 56 109 64 14 15 43 18 48 46 22 43 51 38 70 45 60 29 34 43 22 56 59 14 102 118 74 18 27 19 8 40 50 17 42 40 52 23 41 52 49 49 52 31 79 32 37 63 87 87 12 124 201 173 86 56 102 27 53 39 51 97 77 70 146 105 34 46 45 17 18 38 40 130 118 185 164 71 49 120 135 91 21 16 25 21 11 28 32 5 45 148 106 84 124 78 17 81 87 36 95 110 50 34 8 35 50 25 75 58 158 45 120 115 50 26 23 7 13 73 142 178 56 113 137 103 64 53 48 33 43 42 127 106 26 23 38 32 17 41 43 17 70 78 36 71 35 17 63 63 29 36 26 60 57 40 92 54 12 41 25 68 72 63 87 34 101 45 82 46 142 182 179 123 33 138 194 144 29 67 58 45 48 34 36 16 34 9 25 24 13 20 42 17 31 22 36 24 22 12 14 29 54 35 10 29 19 36 19 34 41 49 21 10 24 74 86 54 28 31 72 95 50 70 34 48 89 53 34 11 24 10 7 5 15 18 15 10 8 14 34 13 6 27 39 31 24 73 145 223 73 195 191 7 27 129 199 213 134 34 30 46 33 43 60 65 142 134 70 41 6 34 47 14 19 22 26 28 28 28 27 17 25 20 23 42 36 31 26 13 38 16 18 20 24 35 19 22 14 49 65 44 8 11 26 8 4 13 22 6 41 82 68 221 18 198 9 2 5 9 9 18 11 17 28 19 24 32 37 19 4 9 7 8 14 27 27 8 21 18 12 3 13 2 8 4 7 7 5 9 9 22 22 4 13 22 21 17 12 18 22 14 13 85 149 172 141 105 64 25 4 8 16 36 37 37 10 16 35 32 32 42 17 12 18 7 29 22 32 12 0 
0 37 13 32 15 18 6 13 12 15 5 17 21 17 13 36 25 15 31 40 53 39 17 48 54 37 64 56 26 49 30 23 35 18 27 26 20 15 17 29 48 36 13 6 10 11 27 18 2 10 14 28 38 24 12 6 13 40 27 5 3 16 47 44 10 30 31 15 26 10 6 11 27 25 13 32 34 20 13 14 14 22 26 25 37 8 18 24 13 13 8 6 8 18 45 102 227 90 33 15 89 203 179 109 67 78 79 56 5 33 67 29 17 3 21 50 55 37 32 34 5 47 92 75 34 21 32 55 55 47 10 3 46 94 146 115 60 96 14 32 61 97 97 52 64 96 37 17 27 28 29 34 8 38 70 58 19 39 68 103 87 53 15 27 67 74 48 113 100 52 32 110 193 196 108 36 20 63 75 34 26 47 60 104 37 79 128 108 52 17 60 77 73 39 57 163 155 35 65 115 109 69 45 32 47 40 33 32 30 61 42 31 24 120 113 42 106 77 44 135 129 47 65 96 17 24 35 39 75 43 102 40 157 71 127 99 30 57 61 58 114 122 56 165 119 107 72 21 28 13 27 53 38 50 89 66 30 5 23 31 37 23 47 41 60 68 12 38 45 17 60 73 56 39 37 66 30 102 90 33 46 22 41 96 31 72 43 48 60 36 124 231 167 113 31 124 158 147 64 63 12 27 47 27 12 3 24 32 12 16 25 29 39 41 62 17 57 5 41 18 24 24 24 28 46 29 11 15 39 14 24 19 28 54 54 14 33 62 73 50 27 27 36 82 69 144 100 203 24 50 5 15 27 3 10 11 13 9 14 27 31 14 10 13 40 26 68 150 216 37 96 102 37 108 69 175 200 146 73 18 46 70 69 7 73 81 116 148 80 21 27 35 41 17 14 30 28 31 34 25 14 14 7 14 7 33 36 32 30 16 43 32 15 20 16 45 32 7 15 23 31 32 16 23 10 27 19 18 10 14 25 26 83 146 22 195 139 20 20 13 3 7 2 2 7 4 13 12 5 14 8 7 5 6 14 21 21 8 16 28 21 18 14 9 12 19 30 27 15 7 7 25 18 7 11 13 12 14 16 8 11 20 16 43 119 152 156 123 84 50 14 22 17 22 51 21 14 23 28 34 21 22 34 6 11 17 13 17 1 12 24 0 
0 32 9 24 18 12 13 23 15 21 14 28 25 36 14 23 29 26 25 28 83 32 7 54 56 38 56 61 45 40 21 26 47 17 24 28 29 17 5 51 42 34 46 32 9 23 10 20 13 31 55 45 7 21 22 29 22 18 38 3 25 44 43 31 22 14 16 24 4 10 15 19 7 7 29 30 15 15 7 23 32 39 32 17 29 7 15 16 17 10 29 33 29 22 36 218 35 250 99 10 143 164 151 156 98 87 32 53 70 60 71 35 17 3 18 21 29 19 8 21 48 35 36 45 31 46 28 58 46 17 37 27 50 102 102 37 123 80 13 58 48 22 44 92 86 51 42 44 22 31 67 49 39 25 36 37 41 12 65 72 48 20 64 67 42 27 99 116 45 56 114 139 168 128 58 66 37 15 52 23 33 41 49 84 49 38 16 80 72 56 98 85 43 87 127 132 89 70 84 86 37 17 44 17 54 11 21 10 62 26 74 69 65 15 140 158 75 64 86 12 100 127 89 24 79 55 29 8 71 108 58 158 35 178 67 114 104 44 80 105 80 67 81 165 135 19 35 38 49 18 26 34 25 44 39 40 79 81 39 20 51 52 39 32 10 78 87 19 50 24 29 48 71 29 11 69 36 86 86 26 21 23 26 40 64 50 30 37 46 114 209 194 95 53 129 133 106 38 54 35 65 76 31 26 30 30 13 21 19 20 18 40 40 62 74 63 42 40 38 27 33 24 19 36 41 30 18 16 15 24 3 24 22 47 62 42 56 24 63 59 55 4 34 34 114 16 38 30 57 53 7 1 35 4 18 4 8 12 21 26 16 35 35 14 28 85 186 245 45 63 233 91 66 177 221 185 109 41 26 50 50 48 29 87 107 97 108 80 15 17 5 30 17 9 26 27 42 36 32 21 17 20 19 20 12 24 21 25 40 62 31 8 22 19 35 45 24 32 23 36 32 5 17 19 18 23 8 4 7 3 35 21 91 229 68 121 92 18 5 17 13 7 4 7 15 10 17 13 16 22 14 10 13 14 23 11 11 20 13 21 43 22 33 7 15 18 2 5 15 23 23 21 14 11 6 14 21 25 25 28 30 23 33 100 157 152 147 116 43 19 24 38 41 40 27 24 2 6 24 28 19 16 22 13 10 23 15 22 8 7 1 0 
0 27 11 16 10 1 25 25 7 14 22 13 29 25 21 26 18 33 38 14 79 42 7 64 55 35 46 54 54 42 25 29 43 3 29 25 30 36 32 34 34 44 24 45 24 15 7 5 19 38 20 37 17 11 16 46 19 28 56 29 43 14 13 18 4 25 14 16 4 13 14 14 4 5 25 1 4 14 12 18 8 33 27 16 13 5 6 7 10 22 37 29 35 36 24 21 56 148 142 53 161 149 138 172 109 43 14 14 40 57 43 41 1 6 19 43 39 36 45 63 45 2 16 44 17 49 54 18 60 33 17 58 65 33 83 151 110 30 20 34 80 103 115 89 37 14 16 33 27 40 38 14 27 20 18 23 13 49 46 40 75 109 75 15 60 80 77 57 76 146 148 141 116 79 21 68 71 32 37 20 41 19 20 49 32 48 46 27 43 118 113 66 138 98 89 12 111 113 77 69 35 13 2 28 21 28 36 50 39 25 33 66 63 70 33 116 162 100 36 68 22 44 100 110 57 135 107 61 17 97 134 30 114 53 181 30 143 123 75 56 23 99 153 99 71 90 83 7 70 20 26 10 37 23 10 24 36 73 94 82 32 32 46 34 52 43 111 110 36 17 57 46 39 24 32 36 64 58 60 53 17 20 4 10 41 50 43 97 151 176 124 57 124 165 182 103 50 57 86 41 78 24 38 19 25 27 14 8 15 13 14 46 18 93 42 95 45 44 8 35 36 21 36 37 37 36 13 24 16 26 15 12 55 29 32 59 28 50 22 38 63 54 27 19 69 53 178 41 133 39 12 4 31 19 23 13 8 5 16 36 21 32 28 72 146 222 246 226 214 118 37 121 171 215 180 88 12 39 29 71 45 93 132 142 127 86 55 9 34 42 35 41 34 35 36 39 50 21 13 17 19 8 8 23 17 13 32 30 39 33 8 13 11 11 25 37 18 11 17 36 25 9 34 20 21 21 23 15 2 15 33 31 80 31 89 69 49 7 23 24 9 10 14 16 15 14 18 31 13 10 16 24 22 15 14 14 25 12 6 15 23 24 16 36 22 18 19 16 14 15 7 14 7 5 15 21 16 0 19 29 22 18 59 148 173 137 102 93 15 11 30 36 39 24 13 42 15 29 34 31 28 26 16 8 17 13 18 18 16 26 18 0 
0 29 24 14 4 11 31 25 8 15 24 22 23 9 21 24 22 56 37 13 53 41 27 68 45 31 49 56 54 51 40 26 27 2 27 36 45 28 11 21 19 26 14 27 29 24 2 20 29 14 24 23 21 37 24 29 32 25 45 40 32 14 23 13 12 20 3 9 15 20 16 23 16 10 18 27 28 27 3 22 29 20 11 8 1 6 8 14 13 12 13 37 17 34 43 24 68 167 171 78 152 184 173 134 54 73 61 22 60 77 47 41 13 27 40 40 42 45 37 15 12 20 25 52 97 87 42 34 62 20 61 50 22 87 107 62 45 64 19 24 31 30 16 17 10 19 24 15 20 31 28 51 43 37 31 42 68 60 9 42 74 45 29 72 68 50 10 61 107 121 107 82 45 28 64 26 61 62 31 67 74 44 18 32 12 15 61 110 84 76 161 146 112 55 106 158 145 74 55 69 24 25 29 20 40 38 36 31 8 22 59 76 78 67 42 66 23 118 109 43 23 40 23 113 152 23 133 130 86 41 103 123 65 106 108 183 170 124 42 91 95 109 65 67 29 49 113 111 27 53 47 30 5 18 30 26 18 13 53 110 137 96 22 64 49 30 29 94 134 77 11 51 45 26 22 25 45 28 25 72 49 17 28 24 18 62 135 176 173 92 31 112 149 168 140 58 15 10 42 8 91 40 7 25 15 27 5 18 35 26 34 61 58 65 18 65 64 7 26 35 44 24 38 61 42 22 5 10 18 10 7 38 41 36 53 45 37 33 14 32 59 53 29 5 28 49 80 21 205 19 33 12 18 14 6 25 19 34 40 46 12 43 106 183 220 2 226 120 58 147 184 167 127 95 15 73 31 29 43 27 67 162 152 92 48 20 11 37 46 57 62 49 36 32 32 35 34 13 10 4 11 5 13 10 26 17 13 10 21 13 33 27 15 9 19 29 19 21 29 41 41 35 29 8 33 27 7 20 17 12 16 48 48 77 78 27 30 13 7 11 16 12 16 11 14 22 8 17 15 16 12 13 14 18 21 17 25 21 17 17 26 20 74 75 53 12 4 5 13 23 17 21 26 34 25 15 9 15 19 6 8 34 102 167 149 82 51 71 13 34 34 31 37 26 27 48 16 58 32 7 22 25 22 16 12 2 11 5 16 16 21 0 
0 14 21 22 15 17 28 21 21 26 1 46 21 34 8 32 31 49 26 11 44 38 30 61 42 32 54 61 56 63 63 32 27 21 9 10 31 12 10 22 12 3 16 14 23 23 7 37 30 27 13 14 38 29 31 20 20 11 14 31 30 38 29 22 18 19 4 4 11 8 9 41 13 16 6 14 9 39 41 41 26 11 1 9 10 12 17 4 17 22 19 35 37 19 22 61 20 139 141 101 150 186 163 44 7 20 44 72 77 81 107 87 40 50 24 10 21 20 4 17 5 4 10 58 65 39 30 28 37 76 50 38 97 94 34 31 16 19 33 18 29 61 74 62 51 54 64 57 61 56 38 24 35 45 42 55 48 12 25 31 34 67 59 56 32 31 70 96 98 58 79 87 2 45 89 111 12 91 57 65 56 41 47 44 8 62 113 100 123 60 147 190 107 57 112 107 82 50 31 111 99 24 20 17 26 25 66 36 45 35 33 101 87 37 13 34 99 35 55 82 59 35 81 72 94 145 24 96 126 133 43 98 75 113 75 150 141 28 125 108 75 33 49 22 53 34 40 113 117 27 68 57 39 47 35 25 18 24 65 32 66 127 123 70 22 65 103 62 75 144 128 56 24 35 35 42 33 50 22 69 106 55 35 53 87 140 171 158 53 101 126 102 72 70 34 16 24 36 39 47 52 87 63 83 65 56 33 73 47 43 32 16 35 11 48 32 84 73 25 47 35 32 26 43 59 24 13 43 31 7 31 17 44 39 56 62 54 46 44 34 55 83 87 54 43 67 10 235 6 49 50 24 13 16 28 19 47 27 14 46 116 196 241 243 203 164 82 68 154 186 161 93 28 111 91 37 30 30 32 82 144 158 86 17 24 31 21 17 40 46 41 37 24 23 21 13 13 8 13 14 14 3 13 9 17 20 9 5 12 10 27 7 15 13 15 18 2 7 16 29 32 14 21 32 18 34 11 25 14 19 32 48 30 143 48 230 17 11 6 7 7 7 18 19 14 13 13 17 6 1 6 13 15 11 7 4 17 9 23 24 15 23 92 31 76 8 8 9 5 11 17 29 13 14 17 24 33 38 38 32 22 97 146 154 112 65 50 53 6 38 19 16 31 15 32 27 22 67 24 12 27 35 10 15 8 8 14 10 14 17 4 0 
0 19 3 11 25 30 4 10 31 37 19 54 25 34 15 33 38 54 52 34 56 41 18 62 54 42 61 60 39 45 64 33 11 11 28 36 38 29 20 8 1 28 31 29 26 21 7 38 43 54 43 33 46 11 16 10 20 28 33 44 44 29 15 10 9 10 11 12 16 14 25 32 10 22 5 7 10 41 43 41 26 20 11 16 15 10 24 15 24 14 28 29 35 15 74 179 221 62 90 149 194 129 114 97 41 17 35 60 42 33 52 47 52 33 10 17 22 23 23 13 17 8 28 53 26 82 33 66 100 53 43 70 64 42 65 18 36 28 13 55 78 65 32 69 74 54 51 20 24 15 27 55 39 57 45 23 31 54 18 30 49 34 15 30 39 55 70 130 137 106 34 82 43 50 28 92 76 63 97 44 19 13 25 17 56 91 38 60 143 141 85 48 113 103 67 44 37 39 75 32 140 115 8 27 22 37 22 67 43 65 60 23 57 62 60 57 25 61 51 13 68 109 85 113 90 104 182 64 51 107 100 43 111 120 68 20 68 152 81 45 25 38 47 40 4 50 91 32 85 130 89 37 111 76 21 29 36 27 25 69 64 13 90 112 83 13 63 106 69 27 114 133 59 8 23 19 11 53 73 81 139 142 142 147 140 138 114 70 75 163 128 66 42 36 11 70 74 65 72 72 67 120 97 86 76 63 47 68 31 51 15 39 17 9 37 48 24 95 88 33 21 20 28 41 54 68 48 36 46 6 41 6 10 69 25 64 35 13 32 17 34 56 84 50 41 81 35 166 18 138 30 41 27 15 19 23 45 39 115 154 203 238 232 182 77 66 130 127 136 60 10 59 68 25 49 24 19 64 132 154 131 73 3 45 46 39 29 20 57 50 39 40 21 4 8 14 6 11 14 15 9 14 4 20 18 4 16 9 4 14 23 12 20 6 5 15 25 19 5 8 16 26 25 20 24 43 19 29 12 16 15 32 107 216 255 173 30 16 8 19 22 21 5 12 16 14 17 5 7 3 7 12 16 10 7 13 22 32 24 31 14 6 63 68 42 13 5 8 10 12 20 13 27 26 9 9 20 23 18 28 55 132 149 118 84 68 47 23 15 34 10 4 23 17 13 5 34 57 24 34 40 30 17 28 17 23 12 25 16 28 18 0 
0 21 18 12 25 30 9 8 17 24 7 35 13 9 22 9 21 31 33 38 68 46 8 70 69 22 54 50 23 30 63 51 21 27 11 20 22 6 12 14 17 41 7 37 40 38 25 29 22 5 17 5 38 36 22 15 18 22 17 2 15 10 7 4 1 4 10 3 12 1 22 8 27 17 19 23 24 26 5 21 26 21 14 22 20 13 12 12 29 11 16 19 28 17 112 13 139 81 68 168 242 89 15 73 89 62 31 24 37 40 90 18 33 50 7 14 11 23 14 24 19 34 39 23 54 32 56 87 3 85 49 28 81 84 38 13 37 80 123 123 68 47 61 48 38 73 69 60 56 53 39 70 78 47 26 38 66 27 43 36 10 14 28 13 53 96 123 134 67 61 52 42 89 25 73 22 83 78 53 71 27 18 20 55 89 36 72 138 140 68 80 174 179 95 26 54 50 27 65 67 36 115 89 58 71 29 41 93 118 42 65 27 11 30 28 37 50 16 61 97 41 87 167 99 103 121 85 154 96 55 130 99 99 91 37 64 107 94 64 36 53 66 44 62 63 50 33 51 41 54 159 132 22 123 86 13 37 53 37 53 89 86 65 81 155 92 10 77 101 76 55 81 87 35 32 68 87 85 119 102 124 149 142 118 87 64 26 73 107 119 82 35 49 65 99 135 114 102 55 37 26 51 3 34 77 35 17 19 7 54 43 24 24 9 11 51 78 28 96 55 8 12 31 27 7 52 44 14 44 14 37 25 25 39 72 39 87 11 46 35 42 26 75 47 22 69 68 69 227 222 71 43 61 37 32 18 46 141 196 183 158 144 87 20 79 137 173 129 24 110 106 59 31 54 29 83 98 134 147 108 42 17 48 51 41 28 46 50 64 57 29 32 23 11 4 23 7 1 10 17 9 1 25 23 18 13 20 14 30 23 20 15 24 36 42 49 53 46 26 10 7 26 38 23 15 28 14 33 14 17 16 49 173 39 187 104 15 15 29 15 11 21 7 3 11 10 21 19 19 15 11 14 14 18 21 10 7 25 6 42 14 4 12 12 7 13 11 7 2 4 14 8 3 9 11 12 12 12 13 22 79 127 137 95 70 61 16 18 14 19 17 13 4 25 29 25 40 41 17 24 37 19 33 20 22 26 13 35 14 21 27 0 
0 11 10 21 34 29 21 6 11 11 12 12 13 22 24 18 32 40 38 42 60 45 11 60 73 48 68 52 12 21 61 59 18 38 7 28 28 24 23 26 33 42 14 49 18 23 7 23 17 22 20 16 17 5 11 17 17 27 43 36 26 31 15 10 15 17 19 20 27 27 36 21 19 5 31 5 2 18 9 8 2 2 9 14 25 38 42 28 12 25 31 44 31 16 163 43 62 119 72 157 232 100 21 44 71 71 9 33 39 69 70 30 23 39 33 30 22 8 20 14 40 26 12 33 19 84 77 29 107 95 14 49 41 49 28 14 74 116 75 48 141 129 60 14 12 18 26 26 17 69 101 81 56 18 39 72 50 16 41 43 30 29 26 75 116 136 122 48 35 18 69 62 48 86 43 56 58 95 74 41 17 32 29 47 83 69 131 126 61 71 145 125 80 13 22 22 35 26 34 86 78 63 66 143 34 61 55 70 41 44 43 33 20 20 12 11 31 55 39 78 131 56 96 217 110 155 110 77 134 92 139 115 59 24 97 119 90 42 22 45 38 48 19 33 7 55 66 43 42 101 24 136 158 52 82 86 34 32 80 77 39 103 105 44 75 137 81 27 89 72 50 49 80 20 75 137 137 112 128 100 82 94 38 21 18 16 48 96 80 59 32 124 127 98 90 54 11 48 19 31 52 55 43 51 62 24 27 18 16 32 62 29 12 27 8 41 55 63 13 76 76 25 21 41 46 29 19 34 36 20 48 35 11 27 85 2 97 41 33 48 48 24 56 34 25 68 114 45 127 247 204 55 49 25 40 98 159 223 210 156 105 46 76 152 136 83 24 71 44 24 9 2 56 70 69 66 93 106 67 20 31 52 44 21 20 20 24 30 43 35 41 55 15 12 7 21 3 15 16 21 9 34 36 14 12 10 10 33 17 12 15 9 5 34 31 28 13 45 38 11 5 12 23 21 25 18 15 24 11 27 24 53 246 105 113 44 29 19 40 10 21 21 4 9 19 15 8 4 4 10 17 25 23 15 12 11 13 10 18 30 24 23 8 13 13 16 11 18 27 28 20 11 8 8 9 11 15 19 25 71 111 129 144 98 75 62 30 23 20 18 46 40 44 31 23 31 38 12 25 28 18 14 37 27 24 11 25 32 4 13 15 0 
0 10 20 19 24 10 28 8 1 22 32 29 9 32 24 14 44 32 17 26 46 39 24 57 54 31 74 63 22 34 66 49 3 24 17 32 17 19 24 16 32 54 22 60 44 37 41 37 10 20 31 22 26 13 7 13 28 28 23 36 11 15 27 3 27 8 16 16 8 5 15 17 12 12 16 24 20 22 21 10 11 12 7 2 10 8 8 18 17 26 25 14 12 11 4 47 216 114 81 155 147 133 78 26 74 62 25 38 94 83 35 12 24 14 17 7 15 34 12 14 21 66 58 40 45 40 51 92 42 11 34 29 74 84 20 37 48 58 97 149 99 6 25 10 34 41 36 13 47 49 25 20 49 89 91 54 10 18 16 18 23 35 48 150 149 69 20 24 13 58 54 96 56 29 51 30 63 22 69 47 48 85 103 45 114 182 145 32 86 152 86 6 48 53 35 34 32 7 23 63 96 58 29 121 189 83 48 70 32 38 69 3 38 21 24 3 14 60 76 27 73 147 118 129 24 110 131 80 60 107 117 45 69 91 145 96 41 52 91 47 36 18 70 60 58 53 40 33 49 32 86 34 64 127 75 54 109 45 72 140 63 60 89 100 32 103 136 72 43 71 18 18 79 5 95 100 75 97 69 36 63 106 76 60 41 46 65 59 12 31 56 123 74 86 3 71 81 57 55 52 67 43 15 57 45 43 39 38 25 21 17 54 48 24 43 42 10 16 60 4 40 39 28 14 24 21 17 22 62 63 55 16 17 39 67 28 63 73 16 30 60 28 39 22 43 54 94 102 7 156 11 147 66 79 116 183 218 216 152 82 55 70 169 198 108 21 49 35 57 61 30 34 65 92 56 86 42 23 37 47 49 41 26 18 15 33 18 15 13 32 37 12 15 14 9 24 8 13 38 39 33 26 7 3 17 24 18 18 11 25 18 13 19 31 21 21 32 65 41 10 8 21 28 22 25 24 22 24 14 20 22 24 70 110 34 11 29 8 38 28 17 7 10 8 10 15 10 6 3 14 6 6 11 11 7 12 9 18 18 5 28 11 18 16 8 11 17 18 9 8 9 9 8 7 9 17 20 17 27 90 131 137 118 55 37 29 31 31 10 5 45 23 56 46 13 9 19 7 15 33 29 2 25 27 17 31 18 14 16 17 11 0 
0 21 4 17 28 7 27 1 10 22 3 17 21 16 24 7 52 33 10 24 43 29 26 73 60 24 53 66 51 44 49 42 32 38 31 22 29 38 13 15 38 41 32 23 24 36 38 10 20 9 13 4 32 20 12 7 17 22 19 25 16 8 11 24 13 18 7 14 21 31 21 13 18 24 8 8 19 4 10 20 17 8 5 12 19 13 4 3 24 37 63 58 50 20 167 27 90 115 102 161 63 79 130 48 59 60 32 25 55 70 31 23 20 55 34 16 16 11 25 18 65 48 26 60 33 62 67 39 54 58 26 42 72 48 63 42 11 69 97 50 55 67 31 12 1 7 42 75 51 21 59 84 78 71 52 29 15 24 31 31 22 34 121 163 88 7 18 24 7 52 39 46 51 30 42 42 12 68 39 32 81 77 51 153 138 103 37 113 146 100 27 27 19 34 41 80 56 11 32 62 26 72 55 66 127 185 74 34 53 48 30 56 10 65 96 46 8 34 93 58 14 70 194 101 148 216 69 121 72 85 48 60 114 127 78 43 65 76 41 37 70 20 57 17 39 39 61 48 41 95 38 50 74 30 119 94 44 100 61 55 110 50 46 113 123 35 106 106 36 34 43 19 93 30 97 89 53 17 11 68 124 123 90 72 36 28 51 25 26 32 36 88 52 65 94 52 41 53 55 56 58 69 63 45 69 28 21 45 13 15 27 34 66 42 36 32 32 68 55 17 24 14 52 45 23 3 17 33 44 54 19 33 12 39 37 53 13 76 53 8 44 31 35 54 22 25 56 97 60 23 218 210 143 163 179 199 158 89 18 97 145 151 161 55 134 41 48 65 74 55 49 67 63 56 80 53 26 34 33 40 40 24 16 17 27 27 27 15 16 8 27 44 29 22 17 22 8 27 31 30 18 5 15 26 15 36 21 22 17 11 29 41 34 24 22 10 67 69 15 12 10 18 5 17 32 27 15 21 6 11 29 15 130 74 242 13 16 10 19 17 6 14 10 4 3 8 9 8 6 13 21 21 14 9 8 14 21 18 12 17 33 30 7 1 17 21 12 13 21 19 8 4 18 19 12 16 14 19 57 114 148 131 68 22 25 24 34 17 8 11 25 22 43 30 17 12 24 17 20 13 28 25 24 36 20 8 10 16 21 11 11 0 
0 7 30 33 43 13 27 19 18 11 39 24 16 34 12 12 27 44 14 26 40 32 22 64 73 30 33 48 63 57 29 32 43 29 46 8 14 24 28 24 45 30 42 32 16 31 29 8 15 22 22 22 18 7 3 13 23 37 35 17 9 27 30 24 20 12 13 20 17 7 8 29 3 25 14 14 19 16 15 28 32 26 13 22 19 19 23 35 24 24 49 44 55 84 20 170 35 94 98 169 89 61 112 81 40 16 56 31 51 83 69 40 39 53 41 19 23 51 24 25 33 59 65 25 57 69 34 23 10 31 52 26 57 69 60 33 49 45 17 24 14 22 32 17 26 51 92 57 37 50 72 65 18 24 31 47 25 45 60 43 39 107 135 92 14 25 8 14 25 37 14 29 49 59 32 48 60 22 90 117 19 118 146 167 98 116 141 109 75 38 10 41 42 32 26 25 68 54 55 24 52 74 64 61 14 100 151 91 26 55 58 35 22 56 51 103 65 22 66 101 52 20 84 188 75 133 161 169 76 10 43 115 110 96 68 20 18 76 127 93 29 75 28 34 37 24 20 52 67 40 80 54 40 93 10 112 96 27 115 96 38 117 68 47 150 149 88 67 31 31 72 31 68 87 113 50 34 79 65 84 51 23 21 29 25 41 62 43 52 39 32 73 100 70 111 27 4 23 10 38 34 38 78 50 47 92 14 67 29 41 49 54 51 50 33 53 58 52 37 50 30 10 19 28 21 3 7 47 40 38 39 24 19 27 10 57 41 58 94 35 38 53 41 34 43 34 8 73 69 63 95 168 188 197 180 125 32 80 146 166 122 59 80 134 113 7 13 61 66 97 73 79 62 21 12 32 46 36 16 29 20 10 9 25 15 9 29 4 24 31 39 27 31 29 22 10 18 19 28 22 11 9 14 24 22 35 7 10 15 29 50 42 30 26 3 55 79 39 7 14 15 24 30 29 43 22 26 12 10 6 33 65 188 23 205 12 8 21 14 19 10 6 9 11 11 8 5 11 10 0 0 4 4 0 0 4 12 17 16 12 11 15 15 7 8 11 7 10 6 10 21 26 31 28 21 10 17 49 114 140 143 118 54 43 36 27 23 11 15 26 23 14 27 22 6 21 40 21 7 7 18 22 25 14 23 30 12 8 16 20 14 0 
0 19 16 5 55 16 27 8 7 25 7 23 19 5 29 6 15 52 38 20 35 44 18 39 65 43 40 50 65 56 23 13 32 71 58 8 1 17 10 12 28 15 14 34 21 27 7 12 19 21 26 24 19 8 13 20 32 28 7 23 40 42 23 8 12 14 24 17 7 19 13 21 18 10 5 30 19 20 8 6 12 24 12 9 29 38 45 32 38 60 58 43 32 149 18 77 46 85 61 143 193 36 41 140 77 7 47 11 12 74 50 74 39 32 47 23 15 19 49 12 28 35 14 28 37 6 43 36 68 64 36 28 42 52 14 33 52 10 24 7 48 55 23 21 33 41 35 65 77 61 17 26 29 17 10 31 26 51 39 57 113 124 80 10 34 10 1 2 32 29 24 41 44 37 11 12 33 87 90 61 127 104 156 124 20 123 87 27 41 78 72 25 31 42 41 61 34 84 63 60 62 29 71 65 50 45 36 93 95 37 48 52 57 29 34 27 91 60 44 122 141 42 23 97 140 8 76 57 44 108 103 74 79 51 15 64 64 52 36 99 118 42 43 41 10 13 30 42 56 65 38 58 54 27 76 25 100 136 35 103 80 61 140 146 47 106 111 56 27 36 60 49 80 99 65 6 34 42 56 35 37 45 54 67 27 85 45 17 29 29 34 65 104 78 58 24 22 29 10 18 34 37 8 69 50 100 91 51 22 12 65 77 75 100 53 38 35 25 28 19 27 14 11 27 19 61 43 37 68 35 57 26 29 48 33 24 83 41 120 105 45 36 66 7 75 14 43 61 71 67 15 56 92 116 77 20 72 107 125 76 17 70 85 88 58 47 66 82 105 105 70 48 5 45 37 45 12 45 25 14 22 8 16 41 25 18 22 7 8 27 25 6 24 40 23 15 23 16 12 20 4 5 16 11 42 32 12 8 35 75 64 45 36 31 43 59 36 26 17 22 32 41 20 38 34 16 19 16 18 14 43 159 251 202 154 2 5 14 11 7 13 12 9 8 9 13 14 12 5 4 4 2 2 4 4 7 5 11 11 11 14 18 17 15 23 23 16 11 0 14 20 17 22 11 16 30 55 89 137 127 111 97 39 22 10 16 19 11 18 14 17 37 36 29 38 42 25 4 14 15 14 14 12 7 17 28 21 15 21 11 1 0 
0 8 19 22 45 12 23 2 12 10 18 17 14 20 14 10 5 45 48 21 38 60 19 35 62 47 57 54 47 42 31 17 29 48 21 40 21 3 14 21 22 20 22 22 30 29 26 14 2 1 2 7 21 17 15 22 25 37 8 25 30 27 43 41 30 17 12 5 14 13 10 16 6 8 15 38 14 30 16 22 41 39 19 18 16 21 57 53 51 31 39 21 24 231 5 29 41 112 76 126 199 31 36 129 106 7 39 23 36 64 29 53 73 36 20 4 14 7 39 15 21 15 28 11 57 86 44 45 48 18 29 39 26 58 54 34 15 63 55 55 71 36 54 42 43 14 80 113 94 57 32 26 24 18 14 43 44 34 51 138 148 77 15 49 33 31 8 4 37 22 42 53 32 22 11 34 55 33 128 123 155 114 43 31 109 107 55 52 40 60 97 101 44 15 46 60 45 52 64 96 42 53 10 59 43 53 60 30 51 106 50 49 61 69 54 11 24 104 112 14 122 114 46 66 102 66 43 110 144 126 82 46 30 80 85 7 79 73 42 7 55 112 76 34 75 38 24 53 29 31 43 31 37 55 20 71 27 123 115 39 111 70 13 100 174 37 51 63 42 85 113 115 63 13 65 79 66 28 23 2 21 21 8 22 40 88 48 38 24 21 38 24 58 59 40 10 15 37 31 21 15 26 44 25 86 16 64 48 11 51 65 47 36 73 79 19 28 22 33 30 26 9 31 30 73 74 110 20 80 22 63 50 26 38 37 28 88 58 60 107 90 31 58 34 77 51 72 45 67 79 67 44 32 62 83 147 110 42 67 40 66 37 4 32 21 37 58 49 58 53 25 19 21 43 17 18 4 28 21 5 24 7 32 47 17 31 14 12 4 21 16 18 33 46 13 13 4 21 14 27 10 4 12 31 32 22 31 14 69 94 49 34 17 14 64 49 29 36 24 26 30 25 34 45 14 12 11 21 40 36 51 18 37 102 96 9 0 8 13 8 12 13 12 13 14 14 14 8 4 4 4 2 2 4 4 10 19 22 17 11 12 13 12 5 13 11 2 14 14 13 13 13 30 40 28 47 91 125 146 116 82 71 28 8 19 26 31 19 11 13 22 34 15 14 36 13 11 18 19 13 11 13 12 5 10 7 5 15 31 31 19 0 
0 29 14 23 31 22 8 23 20 7 8 6 5 3 2 1 10 35 38 21 43 70 26 24 61 60 55 46 47 45 30 22 27 45 13 47 21 15 28 18 16 11 14 10 9 17 11 30 19 15 19 24 11 8 12 15 19 21 18 3 33 48 31 12 17 10 10 13 10 14 17 15 15 5 14 36 10 29 14 29 21 13 36 18 22 28 15 33 17 4 21 55 7 99 19 222 75 130 107 104 93 92 34 92 101 31 39 21 34 63 25 75 74 31 25 17 19 55 49 35 12 30 16 40 57 21 73 55 12 18 30 26 72 72 34 10 28 53 47 60 68 43 81 62 17 48 92 37 23 12 39 42 9 48 78 112 67 29 97 148 104 27 43 31 38 39 7 22 40 51 74 54 14 19 14 58 58 78 102 154 162 76 63 142 114 62 47 26 69 38 22 78 99 76 83 83 60 46 86 53 9 16 60 24 18 31 23 54 76 11 104 85 29 5 26 47 22 39 137 69 18 105 124 117 83 18 72 143 137 77 26 37 46 9 74 103 38 38 58 44 35 19 114 142 62 35 58 39 24 53 32 51 62 32 60 22 67 38 121 89 53 37 95 69 136 107 61 65 76 46 75 59 56 56 21 27 35 48 45 48 65 61 48 36 8 64 73 48 24 13 35 38 19 26 48 47 18 43 76 42 24 28 17 34 37 92 20 66 74 64 43 51 65 15 77 83 44 32 24 11 18 14 25 26 77 82 82 93 37 72 25 77 19 35 27 65 76 71 32 74 109 86 42 61 51 29 68 97 131 113 57 31 48 118 190 187 111 74 105 75 35 20 21 3 51 77 73 67 55 43 35 12 15 48 53 53 43 38 29 11 25 35 27 41 10 33 12 13 4 13 17 20 23 36 10 18 22 22 20 24 11 5 10 25 33 57 43 56 105 84 36 41 18 27 61 30 8 25 17 13 22 21 37 42 20 11 7 34 39 54 46 126 29 1 44 6 7 5 17 5 10 8 5 3 4 5 10 9 8 3 1 4 4 1 3 3 2 5 11 16 21 22 21 15 13 18 10 9 12 7 6 5 2 12 34 92 117 116 121 93 57 49 24 17 25 18 24 12 16 10 26 32 14 15 38 7 17 7 11 8 13 15 3 15 4 20 22 26 29 20 9 0 
0 31 2 36 21 28 21 16 32 9 4 3 10 10 3 1 14 32 23 17 46 63 32 19 60 81 41 30 64 63 16 25 24 16 31 26 12 24 47 26 7 29 24 17 5 11 20 26 14 12 13 11 25 30 30 38 31 9 16 24 19 4 28 35 24 8 15 9 14 18 12 21 5 12 7 28 15 20 6 44 12 30 15 22 14 20 42 19 9 22 22 48 59 201 4 87 99 97 153 98 17 113 93 14 79 62 57 51 62 62 53 46 29 22 27 13 62 60 31 48 16 35 29 60 20 62 70 23 20 3 21 29 44 2 32 15 43 83 88 47 24 33 48 32 56 54 53 59 34 36 25 26 47 48 97 78 72 134 121 93 44 27 58 24 42 43 18 40 26 42 56 19 42 33 46 45 35 138 70 71 44 61 113 75 45 11 67 59 13 66 72 36 56 152 85 43 115 109 74 52 22 12 13 56 49 32 28 42 55 108 50 83 133 99 78 23 21 19 79 92 39 19 70 69 18 41 44 114 109 54 66 32 17 34 42 66 78 23 23 57 57 62 19 81 121 69 36 87 70 48 25 31 47 62 22 18 25 27 37 76 73 65 42 92 21 112 138 109 79 21 24 80 65 41 34 57 66 20 26 22 34 19 53 79 58 34 20 51 45 13 9 29 45 46 36 59 59 37 77 86 46 16 19 37 58 51 69 49 100 102 69 24 32 72 41 80 72 35 35 48 26 13 18 21 28 85 25 104 62 63 58 59 82 11 90 80 76 56 34 47 98 127 56 30 89 146 159 140 76 42 87 113 128 145 122 53 135 142 50 74 12 9 24 58 92 74 49 30 17 7 25 16 31 74 76 56 40 21 36 19 32 29 14 25 20 23 22 21 14 6 6 5 8 27 7 3 17 16 23 24 18 11 9 8 37 28 26 118 133 75 57 72 72 53 41 30 34 29 11 15 15 18 19 48 36 14 10 43 20 72 109 220 219 172 13 2 10 5 17 10 16 9 3 3 3 2 8 11 7 4 3 4 4 3 4 4 3 2 5 8 14 18 18 10 20 30 18 7 15 20 26 25 17 26 44 120 134 102 93 70 35 28 20 24 27 8 19 12 8 25 37 28 19 26 31 5 12 17 18 15 8 10 16 10 10 12 8 4 19 23 18 0 
0 25 0 32 38 31 8 18 19 9 12 8 5 7 3 8 22 40 15 26 50 40 29 30 72 85 37 26 62 66 17 34 24 7 2 1 19 35 32 19 13 33 22 22 15 10 14 21 11 7 6 3 29 8 11 15 27 36 45 35 11 11 21 9 12 14 5 9 12 10 23 32 17 27 15 14 19 16 15 37 15 23 8 2 9 20 12 22 25 5 4 38 53 249 249 33 119 63 130 137 24 65 149 4 43 36 78 111 73 17 68 118 99 82 94 77 42 35 43 71 51 57 52 51 13 50 30 38 42 27 15 23 51 47 17 43 34 14 17 19 14 8 43 83 70 30 12 45 21 32 7 24 67 56 55 28 164 153 72 13 51 24 44 58 5 60 63 35 10 18 32 25 75 49 52 25 84 124 48 52 119 149 55 43 39 48 24 24 45 28 56 94 59 84 158 101 98 106 33 47 44 31 18 48 48 60 33 28 46 27 83 79 31 96 122 133 47 46 55 75 54 52 10 89 106 66 5 85 166 59 77 17 12 43 36 52 48 28 31 19 18 63 74 27 48 97 93 26 70 45 19 41 48 4 42 28 4 8 19 36 25 61 90 26 51 21 58 85 64 34 59 61 67 55 50 20 42 47 43 33 41 24 77 99 58 80 13 19 60 51 22 29 46 76 16 74 57 39 28 43 67 40 30 45 60 62 64 56 29 43 84 105 79 27 94 21 71 52 4 24 31 18 14 16 2 40 101 44 118 21 87 35 113 80 106 86 30 19 26 29 41 103 73 117 179 153 61 51 56 109 141 121 83 26 91 147 121 115 52 86 16 58 48 74 76 39 13 31 34 51 63 46 58 91 53 27 51 42 11 19 2 12 8 10 23 12 40 26 21 15 16 11 5 27 29 26 23 10 12 10 17 14 11 27 23 48 118 169 131 74 84 94 121 99 40 62 85 63 31 30 39 39 29 44 39 18 17 34 11 85 229 25 116 106 27 8 9 16 17 11 6 11 16 18 16 12 10 4 1 3 4 5 5 4 3 4 7 6 1 5 11 17 24 20 13 8 7 22 22 11 3 21 39 22 64 137 140 103 95 66 14 11 25 31 34 16 13 13 18 38 33 20 21 28 17 9 10 12 8 12 10 10 15 14 24 17 8 8 11 3 15 0 
0 22 10 18 25 7 9 4 7 4 7 8 11 1 9 4 27 44 12 27 48 20 22 47 67 85 55 29 47 59 45 45 23 24 27 10 28 27 68 39 28 34 32 1 21 7 6 25 15 14 27 28 38 12 28 39 25 23 28 28 24 12 10 14 8 26 36 31 28 28 38 32 7 26 14 15 31 10 5 18 16 25 19 14 25 7 23 5 37 6 7 50 70 36 226 69 121 57 89 148 39 68 182 81 66 41 48 125 119 51 79 85 70 74 114 126 73 11 23 55 10 40 10 37 32 24 25 10 32 27 20 12 22 10 25 25 55 82 67 33 1 28 38 3 25 20 13 53 7 42 34 36 62 30 56 120 160 98 11 25 19 58 17 60 50 24 45 50 48 31 16 46 114 42 98 113 96 48 45 117 119 74 59 22 70 31 20 14 42 47 37 45 114 62 119 172 79 78 111 37 35 59 91 99 107 87 54 45 19 39 22 80 118 48 50 122 152 97 66 69 67 6 94 141 116 100 70 9 125 127 65 10 27 41 22 28 24 8 28 52 34 48 98 71 24 26 94 128 42 49 57 26 5 28 11 31 33 28 36 32 31 22 94 122 33 48 61 34 19 39 85 23 37 38 64 81 64 37 21 21 43 25 41 101 55 57 49 12 54 54 16 29 48 65 24 53 60 62 48 27 29 57 36 62 43 60 56 30 51 89 74 18 82 83 29 100 53 42 71 36 38 25 10 14 10 8 93 84 104 98 68 109 95 116 69 95 62 81 34 63 141 178 193 172 105 8 124 189 180 129 61 13 79 126 148 121 83 46 21 26 86 82 69 62 32 7 22 24 21 36 31 40 60 62 24 65 70 27 21 18 23 10 19 10 27 30 41 9 22 17 11 12 13 31 23 14 20 23 5 5 11 17 27 49 8 113 167 141 61 44 82 48 112 103 60 51 75 103 6 12 29 39 8 32 45 5 20 26 18 50 91 40 28 49 37 11 16 21 13 4 13 20 22 10 7 10 11 11 15 15 11 9 8 5 2 7 13 15 15 7 14 25 27 12 18 15 25 26 7 7 10 11 21 61 94 147 149 112 97 54 26 8 9 26 29 7 1 13 35 43 23 15 14 21 10 11 8 24 22 22 17 16 21 15 21 11 9 12 7 3 5 0 
0 21 11 7 5 10 2 13 14 2 13 11 12 14 11 12 22 37 17 25 49 17 30 54 44 83 74 31 41 51 61 33 15 20 22 26 27 17 40 20 31 36 30 15 7 4 13 17 10 8 14 16 35 3 23 14 20 37 29 14 13 17 20 10 9 15 16 7 14 20 23 26 19 26 21 11 28 24 26 37 46 53 11 31 2 35 5 10 38 0 5 57 126 72 149 98 85 86 114 105 67 21 190 80 74 45 42 100 86 53 27 81 30 75 52 68 65 34 19 36 53 46 55 37 30 16 34 29 18 21 19 15 48 36 17 83 103 69 55 41 29 35 63 74 35 8 29 27 62 82 56 28 50 13 89 117 101 39 28 33 55 22 58 39 37 56 38 48 39 47 75 78 99 52 188 115 35 56 100 91 61 25 50 85 46 29 2 28 55 44 20 51 96 116 31 65 158 103 27 75 67 42 113 77 43 64 59 62 43 33 61 59 54 121 63 40 116 146 87 17 59 123 139 75 11 40 84 79 10 78 88 85 44 30 42 11 38 16 18 24 66 51 38 96 95 72 21 78 118 3 93 36 31 21 21 7 41 43 26 48 7 47 34 53 96 78 7 55 44 16 72 66 29 34 13 40 21 6 25 24 16 29 11 67 119 79 21 74 45 20 30 7 32 46 19 19 20 32 34 27 7 59 104 73 53 21 22 7 29 67 122 113 37 64 94 19 72 73 45 121 85 8 19 5 19 16 38 153 11 136 46 156 56 146 63 102 52 41 128 199 234 215 136 29 77 146 192 184 110 71 80 119 111 82 42 20 24 68 87 102 84 17 8 11 18 26 36 28 25 38 41 51 52 19 23 56 30 28 14 14 12 12 25 22 13 29 11 21 33 27 23 13 22 29 8 15 13 16 10 17 14 23 69 35 80 157 173 103 63 41 55 35 86 73 84 27 55 103 40 41 41 36 28 23 51 12 53 22 63 58 176 0 212 7 32 5 28 12 25 10 5 3 26 22 7 13 13 17 9 12 14 12 8 3 5 4 13 8 9 5 19 22 11 12 11 7 27 9 13 7 2 11 42 102 117 149 146 97 66 8 24 4 8 18 19 14 20 31 31 29 15 12 12 12 10 10 5 22 5 15 9 10 13 7 19 15 14 13 13 15 18 0 
0 11 5 5 5 5 10 4 12 17 11 8 12 5 5 17 21 32 18 23 48 15 36 72 52 67 69 39 58 49 39 30 21 35 16 19 16 19 39 31 19 10 24 46 50 35 7 17 17 25 41 37 10 15 15 2 18 7 32 26 11 8 20 14 6 24 17 5 13 21 18 25 23 33 32 42 39 21 8 55 40 21 72 80 35 12 12 4 27 6 13 46 143 75 100 114 67 117 118 34 48 93 217 57 25 53 59 54 35 67 43 83 36 79 28 93 41 33 22 43 68 49 18 22 23 28 27 22 32 28 7 30 39 22 105 106 50 49 63 51 19 37 48 28 39 35 31 31 78 54 48 54 10 104 114 50 41 5 32 49 37 40 18 50 24 41 89 21 67 106 84 52 60 158 172 24 69 87 65 35 25 29 22 21 41 41 19 20 43 26 15 59 117 63 58 82 43 123 100 5 71 63 32 148 141 59 23 26 89 49 39 76 67 70 108 65 48 67 86 63 91 100 54 5 23 24 29 80 83 25 52 93 113 69 31 60 29 17 11 4 47 77 42 21 76 94 72 4 103 84 42 33 24 10 20 23 21 28 25 55 94 44 34 51 12 49 80 21 45 34 47 40 55 69 72 55 86 83 63 9 14 31 24 14 44 110 90 31 95 72 23 31 16 20 26 44 36 18 25 24 48 62 47 59 45 3 33 8 36 67 30 80 101 60 32 105 76 63 127 56 166 82 6 33 22 29 29 107 65 90 65 137 60 126 106 29 118 218 22 227 122 36 67 142 155 140 113 47 90 123 137 79 33 18 19 24 47 52 55 60 30 43 39 27 15 27 44 36 33 53 52 38 21 14 32 32 21 27 22 30 14 7 17 27 28 12 18 21 15 1 11 8 28 17 8 5 12 24 26 40 48 21 83 56 166 165 139 77 58 41 25 20 60 64 76 79 88 66 44 95 84 65 70 39 41 40 60 16 84 191 246 160 136 14 22 14 23 14 20 14 7 16 8 31 8 35 22 6 24 21 16 8 4 10 13 14 8 9 3 14 14 18 25 16 17 10 31 13 17 6 7 8 65 122 129 143 130 75 38 23 20 8 26 9 4 11 24 19 2 22 17 5 4 12 17 14 14 22 8 17 0 6 7 6 12 14 1 16 18 7 5 0 
0 11 4 4 4 4 11 1 2 2 9 6 2 11 6 14 31 37 26 29 51 25 40 77 42 50 58 42 66 36 20 31 12 10 23 21 25 31 12 24 29 33 32 33 29 33 23 26 14 21 19 17 16 21 13 11 21 13 18 27 21 17 21 17 10 20 11 15 17 24 29 13 32 25 6 7 5 10 19 17 53 53 106 49 86 23 29 11 10 32 23 28 158 77 78 129 82 108 65 45 65 110 130 47 53 48 80 18 30 15 39 63 23 49 81 43 8 52 34 64 48 59 28 9 41 33 25 42 15 37 14 18 55 49 105 29 70 71 67 41 41 60 11 54 39 30 24 69 53 25 18 26 100 148 95 36 47 20 14 48 40 20 49 39 50 17 86 99 86 86 64 78 154 153 74 56 91 65 37 15 13 15 7 1 8 17 40 30 34 15 47 81 91 59 50 22 55 13 99 95 42 51 110 20 132 150 86 7 87 83 8 22 53 61 101 87 35 63 126 110 63 39 15 28 7 17 14 31 42 78 73 23 86 112 37 51 84 65 11 7 24 53 43 28 11 51 81 45 39 45 58 59 44 32 17 42 31 25 63 74 58 87 56 16 35 43 44 78 44 13 56 14 61 68 101 67 62 10 53 61 33 22 34 17 17 23 106 108 20 94 76 33 21 4 33 31 31 23 11 34 59 49 11 14 39 53 38 42 32 53 59 17 50 96 104 43 104 99 107 131 68 145 65 57 30 33 32 35 89 53 91 84 87 29 138 170 244 13 192 43 70 126 168 151 95 19 84 149 137 84 94 31 9 30 45 55 51 34 27 44 45 50 15 38 51 48 42 30 27 30 12 35 46 34 46 25 20 25 15 15 31 30 38 35 12 15 19 16 7 3 7 13 25 0 7 5 19 4 54 11 55 14 50 124 197 127 74 64 10 47 53 38 46 60 78 116 83 60 131 135 105 90 109 75 39 55 52 36 57 86 14 35 70 4 14 15 5 10 8 13 8 7 6 20 26 43 16 19 13 14 8 2 3 7 9 10 10 3 11 7 4 11 11 6 20 18 24 4 8 15 9 21 94 151 139 137 107 46 24 22 8 18 38 6 4 22 32 28 14 24 16 6 3 10 15 7 18 25 19 24 15 17 21 28 12 16 8 6 13 8 3 0 
0 10 4 4 4 4 12 11 18 20 25 17 10 19 5 13 38 35 23 22 48 19 32 60 40 62 55 40 71 44 22 40 18 5 25 29 35 34 9 17 36 7 18 34 33 25 10 12 8 15 24 13 1 7 9 7 11 27 40 31 10 10 16 8 18 31 27 23 28 31 28 21 22 28 35 29 25 17 7 10 17 46 86 110 72 22 28 9 16 38 15 15 233 92 14 147 83 95 26 47 123 32 59 118 50 45 46 70 5 23 35 49 74 46 28 98 90 103 5 87 32 83 28 45 37 17 48 25 76 47 25 25 36 29 54 78 58 46 64 31 52 65 10 59 44 92 116 79 26 25 47 106 116 123 20 67 45 25 20 21 51 69 34 72 35 79 23 112 125 43 140 169 203 94 75 122 87 37 16 20 21 17 8 8 22 35 31 27 22 41 52 90 40 7 50 51 27 36 32 56 85 84 77 168 62 134 171 81 20 90 76 1 57 84 82 71 30 99 129 65 16 40 15 40 22 26 34 25 4 32 97 115 25 103 108 66 9 77 90 44 20 36 38 46 38 15 55 68 38 5 24 77 102 111 84 27 40 33 82 113 56 42 56 55 35 19 26 36 20 30 72 38 79 78 95 110 18 47 48 5 44 45 55 35 25 6 12 102 118 24 91 87 41 15 25 8 17 24 40 50 51 36 24 19 18 40 24 4 25 21 35 37 19 36 78 131 50 115 44 155 85 138 104 41 32 45 54 44 83 75 44 8 98 213 55 24 203 92 35 138 153 119 90 46 49 97 120 102 69 51 48 26 23 44 25 13 13 17 31 43 46 42 34 45 51 47 38 31 31 21 14 12 21 10 31 21 17 31 42 17 21 31 47 37 20 14 14 7 4 4 3 9 20 13 12 14 18 23 37 31 21 22 38 163 164 67 28 43 49 25 33 7 5 78 127 109 39 167 164 112 63 48 100 76 36 54 38 68 113 202 191 166 21 17 5 12 10 7 7 8 17 21 18 17 24 48 48 44 4 3 2 0 3 7 9 8 10 15 18 17 10 9 18 13 2 18 13 5 7 16 15 50 118 168 146 116 69 24 10 26 22 30 32 9 1 16 35 40 21 19 11 5 3 2 11 22 25 23 29 30 26 30 29 21 18 11 10 13 14 4 6 0 
0 11 4 5 5 5 12 20 18 20 19 15 15 17 7 7 36 41 27 24 50 20 32 60 36 60 51 37 84 63 37 35 26 21 11 15 17 12 21 19 38 42 39 28 24 21 12 8 8 13 21 25 10 7 5 5 5 19 12 17 20 16 11 10 15 19 15 8 12 21 23 16 6 15 23 21 23 19 12 10 5 32 28 20 19 13 7 7 26 14 11 9 52 91 182 154 59 122 79 44 96 73 59 113 48 39 40 75 10 42 67 81 82 58 105 68 76 127 89 15 60 39 37 11 50 40 30 55 59 41 44 7 22 38 61 68 38 27 81 59 76 105 87 12 93 106 65 32 22 59 139 146 81 50 57 19 29 14 43 52 59 77 61 38 58 27 94 78 47 172 142 153 87 57 140 127 60 43 27 4 25 41 32 26 32 30 52 41 29 15 51 70 20 39 40 49 20 57 83 43 51 140 138 51 155 21 151 174 102 31 74 76 77 51 11 78 117 96 79 13 25 57 81 53 24 21 35 26 13 5 12 61 79 6 99 132 110 60 20 64 44 7 34 54 59 36 17 22 58 66 75 62 57 84 98 94 85 48 33 89 62 29 15 23 48 42 24 45 42 65 113 112 67 64 26 77 74 37 33 55 7 26 67 74 21 57 38 16 109 67 14 101 82 19 21 17 11 38 48 51 33 16 42 7 6 23 18 33 37 55 14 48 18 43 31 56 140 23 150 64 173 56 148 33 42 34 67 87 76 77 42 142 214 8 226 90 63 161 183 150 70 22 59 97 91 83 49 25 7 62 87 81 68 42 1 23 30 27 24 23 36 68 72 43 19 29 39 26 14 9 23 38 41 23 27 25 35 20 44 21 14 18 16 26 30 14 5 12 17 12 13 2 11 14 6 20 14 27 16 39 38 10 110 172 113 47 54 58 53 14 36 11 14 102 117 69 171 216 142 107 53 51 93 61 59 27 102 76 46 5 49 77 1 20 11 8 18 6 14 2 18 10 38 9 19 55 29 52 2 4 3 0 2 7 12 18 7 19 10 17 5 6 29 17 15 21 18 30 36 43 60 89 141 178 135 87 44 6 10 29 26 31 25 8 8 23 32 26 11 4 7 6 7 11 12 16 15 5 8 12 11 8 20 3 13 6 4 14 13 10 11 0 
0 12 5 7 5 7 12 19 17 6 5 4 10 8 4 5 21 41 25 24 50 13 28 73 46 52 48 44 95 53 10 23 41 34 34 31 24 29 34 15 24 23 15 15 29 36 33 23 6 8 15 32 20 10 12 8 8 21 59 58 23 10 8 12 20 17 15 14 27 11 7 11 24 14 44 20 6 5 17 16 26 22 27 7 24 8 5 15 19 11 19 33 94 104 147 163 32 131 133 30 26 143 87 46 157 137 101 55 41 50 44 121 132 55 70 98 78 35 73 68 29 13 31 33 16 21 36 69 67 86 39 26 35 40 28 26 50 25 87 56 19 40 53 93 67 30 59 32 61 135 169 104 79 38 42 50 10 27 61 22 100 20 62 60 100 95 55 120 106 189 135 35 63 117 111 95 39 23 28 27 18 31 50 10 17 14 7 31 31 28 45 48 20 34 60 78 77 91 71 87 44 84 173 132 67 150 24 114 150 113 104 120 34 34 87 121 106 55 46 21 43 46 77 95 76 30 20 7 30 7 21 4 62 83 26 46 119 131 97 29 34 40 34 29 64 82 81 66 64 84 21 42 62 73 49 15 97 115 75 47 42 32 37 31 5 33 82 45 118 81 79 74 48 40 92 61 52 65 69 38 19 24 35 111 89 36 41 42 24 90 64 28 87 64 45 32 32 50 27 19 5 16 55 28 37 50 52 45 24 64 6 58 32 58 60 43 123 98 147 78 161 87 143 113 34 63 69 27 18 79 191 22 215 96 45 130 189 196 149 65 45 83 62 57 39 34 29 8 56 80 63 39 5 27 36 25 17 8 16 27 55 84 63 55 14 36 29 29 8 16 11 23 18 24 34 7 30 38 31 12 25 34 20 32 17 16 5 25 22 18 28 9 12 7 21 27 19 7 52 8 59 48 163 165 93 63 66 55 21 5 26 38 108 140 43 128 237 171 96 118 84 69 73 57 49 82 139 53 209 224 181 41 8 12 16 4 18 9 16 4 13 33 14 30 29 62 79 48 14 4 3 0 2 2 1 13 5 14 17 12 10 14 17 10 5 24 21 36 41 51 78 118 158 163 109 67 24 15 12 16 26 11 10 14 21 17 10 24 18 7 9 14 11 11 13 10 8 10 4 8 17 6 22 7 6 3 8 13 6 8 16 0 
0 12 7 7 5 7 11 5 22 17 17 17 7 7 4 13 20 44 31 32 52 19 27 65 49 62 44 34 94 66 24 26 51 41 28 23 13 26 47 33 15 12 18 26 29 34 35 41 16 19 29 25 19 26 25 14 14 24 26 16 23 8 9 10 22 37 34 15 32 3 9 2 32 25 45 24 22 17 14 24 14 25 15 8 18 10 5 14 25 8 37 40 76 130 185 166 95 141 78 23 48 125 86 127 61 128 155 149 74 51 114 34 154 83 9 35 32 34 118 60 42 33 27 13 5 29 11 33 63 46 18 32 43 40 54 43 18 52 43 56 69 89 100 75 23 83 47 38 98 145 79 20 50 68 28 66 58 41 48 104 53 65 55 111 52 138 64 116 160 141 71 88 128 128 87 56 24 21 12 19 37 17 33 36 55 49 38 43 28 12 55 40 34 59 69 54 40 38 43 84 68 49 102 177 83 96 135 49 93 156 121 52 27 81 99 80 24 57 35 7 48 35 14 24 49 53 12 24 21 11 30 24 23 45 60 79 29 59 91 88 59 2 55 62 23 60 82 93 55 45 58 61 72 18 32 72 16 90 121 56 25 42 57 57 39 43 90 111 91 15 60 70 58 46 41 34 7 39 75 47 30 31 39 64 113 62 48 16 27 48 79 60 18 85 67 34 35 31 4 20 26 40 50 31 47 32 92 91 68 43 27 53 56 44 48 63 63 132 49 176 48 182 46 137 82 101 22 99 154 215 15 192 21 123 161 137 90 66 40 86 75 54 17 14 19 39 52 77 79 33 18 35 46 49 49 36 36 16 38 60 72 63 14 58 29 40 16 34 20 10 28 26 24 48 24 29 7 27 10 28 18 48 12 21 3 17 10 30 22 23 43 14 31 15 46 27 7 17 47 33 25 122 184 149 93 62 35 18 23 29 69 119 137 39 127 255 211 75 57 100 107 73 37 21 40 131 117 236 9 123 122 26 15 3 17 8 13 11 15 4 19 13 21 25 3 7 13 12 8 10 6 3 0 4 7 4 12 16 25 22 19 11 12 24 21 20 16 31 24 30 71 127 154 132 81 40 10 19 20 15 11 25 24 35 43 18 11 25 26 13 10 16 12 5 15 16 20 23 19 14 27 23 33 23 12 5 7 18 16 1 14 0 
0 2 14 22 23 20 18 14 12 13 15 17 15 12 4 14 16 38 28 25 39 22 27 45 52 79 48 45 84 55 19 12 25 30 5 12 10 8 28 13 5 15 25 6 28 32 21 15 24 14 18 9 13 20 39 8 17 13 26 29 28 22 19 12 15 8 26 12 17 28 25 30 21 43 24 14 19 22 6 20 8 31 22 11 20 12 15 13 31 4 41 45 45 120 211 170 143 92 5 75 99 28 63 31 115 98 67 153 166 72 105 88 71 110 80 78 69 55 119 28 84 48 59 31 26 41 37 63 78 66 63 58 15 43 48 42 70 70 46 5 1 44 73 51 50 29 31 111 138 73 64 79 60 41 64 10 79 37 59 57 57 28 63 84 64 113 178 140 138 57 57 91 113 121 53 22 33 24 11 13 34 39 22 38 70 50 96 69 76 27 58 44 75 81 55 11 54 94 97 67 60 67 41 124 137 65 63 121 78 86 104 91 118 83 49 63 25 32 26 15 38 35 28 20 20 26 31 34 21 25 41 17 18 27 38 52 98 31 65 78 86 84 23 56 89 58 40 50 68 22 12 30 67 37 60 19 92 70 42 92 45 10 11 58 77 73 61 82 11 35 62 43 25 37 15 23 23 55 39 33 36 28 37 14 68 87 27 26 18 20 23 46 49 20 59 53 28 1 3 22 17 29 43 11 37 57 17 78 105 60 48 42 70 65 24 27 24 95 113 153 115 155 60 112 86 16 138 197 154 141 91 74 198 200 111 56 14 83 128 97 34 37 21 7 35 60 60 49 5 15 29 45 30 18 18 17 55 71 71 63 36 24 38 30 16 24 17 24 28 29 17 27 35 43 4 25 16 22 7 24 9 51 21 19 7 14 13 21 21 31 59 28 43 29 38 14 17 31 6 53 67 199 167 98 67 41 13 46 46 54 94 98 26 165 4 217 34 104 73 93 112 61 28 8 59 157 35 130 229 5 69 11 13 8 12 11 7 11 10 4 20 21 18 20 8 14 12 17 12 4 7 7 4 4 7 2 13 27 13 15 7 5 21 16 29 33 21 33 31 51 108 155 141 86 41 20 3 25 24 15 23 29 10 48 38 21 10 38 22 19 20 7 13 7 21 16 19 12 22 28 41 25 20 15 4 5 9 8 13 11 8 0 
0 14 11 10 10 9 11 22 17 37 25 19 14 14 9 9 22 29 33 34 29 38 34 37 67 74 49 57 73 36 12 16 32 29 12 10 25 6 22 37 19 21 22 10 17 33 38 27 12 12 14 8 16 25 23 15 22 12 13 20 31 20 17 22 24 42 2 33 17 21 25 38 3 27 30 26 23 10 22 17 13 36 32 1 16 39 25 7 32 5 40 41 51 101 206 171 133 91 28 68 83 13 45 78 99 58 104 115 159 50 63 76 85 94 19 29 34 60 115 70 90 35 59 38 7 59 104 79 37 108 69 8 49 29 23 67 70 32 60 34 23 11 63 24 23 15 89 128 65 22 25 36 19 8 58 52 42 76 13 23 25 30 77 34 72 159 206 87 55 106 93 63 66 81 20 47 13 40 45 40 30 28 21 49 77 38 130 22 126 50 29 63 48 19 43 67 52 50 72 61 13 104 104 70 57 89 62 64 127 85 121 157 62 53 18 28 45 28 0 23 32 22 30 33 8 11 33 54 69 34 36 40 26 36 21 12 39 94 46 16 66 123 120 47 45 115 77 17 58 53 13 18 44 51 32 44 12 83 67 41 123 100 113 137 95 73 21 70 48 22 28 39 21 35 19 37 26 34 37 6 45 54 13 40 49 94 69 45 21 32 18 27 54 38 7 48 62 39 16 6 25 15 23 15 26 18 47 17 42 89 100 48 47 55 27 45 68 39 164 45 184 99 109 34 120 171 250 190 81 57 135 180 145 42 61 46 26 46 38 7 22 34 44 48 64 55 17 16 35 23 17 26 1 14 34 43 59 64 36 19 20 23 23 13 6 4 17 17 22 23 8 8 34 31 15 21 18 11 5 12 8 26 28 15 21 19 26 10 21 33 59 16 33 20 7 16 8 26 48 5 188 235 141 53 44 36 43 66 71 100 102 15 131 223 192 70 74 97 61 82 83 41 37 55 102 151 122 212 155 161 16 16 5 8 13 8 4 8 4 6 11 6 5 11 12 6 5 5 17 6 14 17 15 17 21 17 7 26 14 5 10 9 8 26 37 51 32 44 73 116 158 162 107 42 17 16 21 27 17 15 11 13 29 36 11 18 47 24 4 16 20 6 18 12 16 19 23 20 37 10 34 17 18 12 1 10 16 13 2 15 18 0 
0 10 8 16 24 20 5 20 21 34 17 11 15 12 14 7 18 13 27 36 32 44 26 38 78 65 42 60 73 45 25 25 29 15 7 17 31 16 10 53 19 24 24 22 21 12 25 24 19 22 13 4 14 32 32 22 8 11 13 18 13 25 25 32 17 49 17 27 13 26 34 15 28 23 15 16 27 18 18 14 23 26 21 18 28 13 4 11 28 7 33 52 56 106 183 154 113 136 32 69 144 106 84 75 24 72 25 149 84 45 46 22 54 52 40 17 35 16 83 95 58 35 62 53 57 77 66 36 116 65 62 112 59 24 79 76 11 77 77 42 21 50 74 26 77 145 140 54 63 34 32 6 17 17 9 62 63 45 56 57 66 33 80 37 158 178 84 74 100 103 81 54 27 40 66 7 32 29 26 11 21 49 49 58 52 65 83 70 57 67 65 7 12 49 111 90 49 12 59 54 91 80 80 22 17 74 118 75 53 141 110 102 103 50 22 42 6 42 52 34 25 6 25 44 36 14 37 7 59 61 18 34 8 57 23 21 8 47 39 28 45 35 89 120 75 72 148 114 23 55 56 43 29 4 35 34 15 9 62 78 50 96 56 30 44 76 67 60 57 37 27 14 39 56 31 31 5 25 8 45 52 59 38 54 46 93 90 71 33 21 27 30 46 27 27 34 49 71 41 22 21 13 25 47 39 31 7 56 57 43 115 58 55 71 30 66 34 53 98 98 103 84 92 207 1 218 164 23 161 150 142 80 18 75 81 42 13 52 59 34 49 84 87 74 58 13 15 8 26 30 20 22 13 36 66 70 34 31 35 28 24 4 18 17 1 23 35 40 31 10 4 13 31 22 17 27 19 8 2 7 12 14 13 6 34 20 40 7 4 24 46 11 12 12 1 17 20 17 48 106 251 203 90 59 1 45 50 68 76 82 16 126 217 192 104 29 111 90 69 67 52 32 50 107 125 105 249 15 80 87 11 3 9 6 4 4 3 5 5 7 5 1 4 6 5 4 5 14 16 2 18 17 15 33 39 27 12 21 18 17 14 4 5 20 41 27 14 55 96 115 121 107 60 27 16 4 11 21 21 21 14 39 24 14 19 36 44 18 5 17 24 13 12 18 6 23 21 10 21 23 28 8 18 8 11 14 5 10 10 12 21 0 
0 17 22 26 20 9 12 11 13 27 32 22 39 5 27 16 24 18 27 34 47 28 18 43 80 74 45 56 64 38 25 26 34 21 7 22 39 20 16 52 20 17 21 24 16 12 13 9 24 7 12 8 28 19 24 18 14 4 27 43 46 32 32 12 46 48 28 35 26 5 13 8 12 12 25 17 24 18 18 8 4 15 17 6 21 32 32 19 23 17 33 57 68 118 130 180 143 135 29 74 75 141 110 25 38 16 26 135 145 84 22 2 57 98 35 45 24 59 69 60 33 48 53 60 54 34 69 97 63 38 91 61 76 50 46 22 26 52 28 45 23 31 21 81 172 151 71 34 20 54 36 10 15 21 33 25 75 30 69 44 40 48 64 156 164 91 48 54 53 79 47 33 17 14 41 52 14 14 32 66 56 33 63 55 50 102 33 98 89 56 24 75 52 83 107 15 67 75 85 103 80 12 60 25 50 69 51 99 94 120 106 25 58 99 94 30 31 31 69 89 51 14 22 13 48 65 68 56 11 56 29 23 30 25 38 33 39 60 48 24 42 52 41 103 170 86 14 97 110 19 32 21 8 33 35 37 27 50 62 87 31 83 43 88 99 107 112 73 59 40 29 43 14 47 60 29 43 1 39 48 86 29 82 38 90 26 77 72 56 29 11 56 53 8 22 61 23 26 50 54 19 28 6 55 41 12 53 51 108 36 116 86 39 65 8 49 61 34 14 135 100 214 252 17 180 51 97 185 220 103 56 45 51 48 39 53 91 93 83 86 79 54 18 5 17 41 30 17 40 32 46 50 68 60 50 36 19 52 44 19 30 21 17 1 23 32 30 26 18 19 15 28 19 18 17 10 17 5 8 11 11 8 4 8 42 21 47 22 18 27 37 31 13 33 10 14 29 23 41 213 229 124 31 50 35 39 68 82 71 41 143 232 191 76 39 93 156 121 81 49 22 22 56 152 158 27 115 47 246 17 7 7 12 5 3 4 3 4 5 10 8 4 5 6 8 9 9 10 8 24 17 9 19 16 2 29 18 13 15 17 12 7 12 17 24 5 15 77 111 103 97 97 58 18 11 10 17 21 20 10 42 32 41 9 46 25 10 19 22 8 10 27 12 20 11 23 17 5 9 29 15 26 6 19 9 5 3 9 11 10 10 0 
0 30 16 8 14 8 15 15 22 18 39 4 44 13 36 22 35 19 31 20 43 24 17 57 83 62 40 65 73 37 19 15 25 22 17 15 31 13 18 50 41 28 11 21 21 12 8 6 22 14 7 13 27 29 36 28 10 14 31 15 10 5 26 22 12 19 21 4 14 17 20 15 16 23 14 6 25 22 25 19 12 24 23 4 9 17 5 10 22 29 37 38 109 112 54 207 102 53 41 49 137 93 67 113 46 71 93 106 156 99 73 52 38 58 33 41 72 69 47 89 74 53 41 63 49 32 58 30 39 88 55 58 104 51 16 64 58 5 29 24 74 29 94 156 157 62 41 49 26 24 46 38 4 31 18 25 31 51 15 67 68 66 174 146 41 91 63 81 88 75 25 20 30 24 34 46 41 35 54 48 78 65 31 80 41 99 124 41 35 77 93 58 148 78 80 83 106 73 10 13 7 35 38 49 79 28 76 127 97 29 75 83 48 31 103 106 68 41 30 15 65 71 41 29 31 42 70 61 27 30 74 7 38 11 21 51 45 23 22 20 31 34 91 36 104 130 127 51 79 100 55 16 8 43 64 78 117 68 16 77 63 71 94 21 47 50 12 35 16 38 17 38 52 37 11 78 5 53 43 31 92 34 90 57 68 62 32 62 84 87 39 59 41 14 10 29 51 37 24 48 51 52 12 57 24 47 58 119 58 106 74 130 82 63 44 49 68 33 88 81 216 19 172 34 102 169 217 182 91 21 114 50 25 42 60 72 83 87 91 79 46 1 34 40 40 39 24 29 45 36 39 51 42 13 18 35 36 37 21 21 17 28 22 24 36 29 12 11 7 12 38 34 13 22 40 12 26 13 11 7 3 4 8 13 30 15 41 15 24 33 25 36 28 33 15 6 14 13 143 254 166 42 36 55 58 74 102 90 20 125 217 185 56 55 106 119 134 82 27 10 13 29 79 181 175 106 236 241 152 28 12 17 11 3 1 3 4 2 2 8 11 7 6 1 10 13 11 2 21 22 11 7 24 25 27 31 10 3 10 10 8 14 15 7 21 18 32 94 124 113 107 102 53 11 22 27 25 15 11 20 41 21 26 20 45 13 22 14 18 19 25 18 7 21 18 26 14 4 14 37 24 41 22 28 10 3 1 6 14 19 19 0 
0 20 23 25 21 10 3 11 33 16 39 24 42 11 32 16 34 24 23 5 30 19 24 82 81 37 24 65 84 40 15 19 31 18 4 15 29 23 11 25 15 33 22 10 7 10 15 1 31 52 42 28 8 17 24 22 33 11 21 20 24 24 18 7 28 37 36 31 15 5 7 19 34 29 17 8 28 25 21 7 27 20 28 5 16 17 27 25 22 26 21 11 154 83 5 179 77 74 33 68 65 34 52 33 129 43 145 106 121 128 63 25 22 90 38 42 50 2 103 85 48 49 56 59 23 22 27 55 53 45 58 100 64 27 36 48 50 55 84 98 41 115 159 103 34 34 46 26 33 38 3 62 73 15 33 21 34 57 76 24 136 165 220 48 122 34 78 113 117 54 48 39 27 56 7 12 59 46 34 96 48 83 48 53 120 44 80 102 96 43 143 116 136 65 58 78 26 46 26 16 29 50 53 59 47 37 68 107 106 65 25 48 89 84 16 65 105 75 7 41 32 31 64 58 65 35 51 68 44 16 63 61 41 35 53 25 7 11 15 33 8 0 57 113 72 14 79 118 47 68 96 55 63 94 119 115 90 63 91 112 164 91 66 28 21 60 21 29 34 54 52 17 42 51 67 53 89 49 39 47 29 67 3 100 43 63 44 17 59 101 73 60 45 30 35 28 14 73 26 9 40 85 28 53 35 54 30 118 73 101 32 100 129 129 82 30 31 108 178 179 185 101 73 192 198 122 69 17 46 73 116 50 50 73 82 52 32 39 49 36 8 27 38 17 6 18 12 39 43 28 19 20 10 31 21 22 19 17 2 8 3 18 25 34 34 18 5 6 12 31 39 24 40 15 45 16 26 8 5 0 7 9 10 17 22 16 26 27 35 31 27 32 15 12 22 11 34 83 225 208 84 20 29 48 65 67 47 37 136 185 143 24 89 122 118 94 71 35 48 51 43 64 118 200 130 28 51 113 89 40 15 22 10 4 4 5 6 5 4 7 11 7 7 3 8 12 13 5 19 15 15 11 17 17 18 7 6 8 3 8 14 17 15 25 53 52 55 115 144 123 100 66 22 19 22 17 14 7 5 21 17 15 16 27 20 17 25 12 34 22 14 11 23 21 25 10 34 32 14 27 20 27 21 27 25 16 10 8 8 6 2 0 
0 24 3 5 7 21 25 17 22 11 19 20 23 15 17 9 19 34 30 12 23 29 36 58 80 57 32 67 82 40 17 20 28 16 10 22 33 12 25 35 29 45 18 18 19 21 8 7 37 34 16 5 21 10 25 38 23 43 7 7 13 16 10 10 17 27 14 12 11 6 12 12 7 21 30 13 18 17 7 17 34 46 44 17 20 22 24 42 11 12 25 21 196 35 27 128 49 68 114 19 65 115 32 90 83 70 76 92 168 89 27 76 74 92 54 65 38 31 74 106 72 52 18 31 16 13 43 25 17 68 105 55 17 44 12 37 25 43 83 16 120 190 132 13 47 52 38 33 13 22 47 48 85 70 18 24 48 51 60 119 132 142 88 53 88 58 24 83 63 8 24 58 14 52 39 25 40 76 54 79 85 33 80 58 68 133 79 44 144 145 139 121 117 131 53 35 49 29 71 27 47 40 39 15 95 132 79 41 86 94 73 35 22 84 84 51 23 77 90 42 44 53 18 67 111 47 32 59 55 41 46 69 34 30 19 28 25 19 24 22 5 24 46 56 81 86 42 56 109 60 82 126 107 86 71 36 72 65 89 58 50 101 80 47 22 45 27 23 45 23 58 75 73 34 72 32 104 36 86 29 34 36 73 20 94 26 39 60 38 79 107 93 59 32 7 29 15 60 36 26 30 67 94 7 64 55 64 19 118 12 102 15 71 87 92 39 102 215 213 118 42 91 157 131 47 45 97 91 91 80 85 48 50 75 63 28 25 30 20 8 31 45 43 29 28 29 36 43 25 11 21 10 15 15 6 6 15 26 32 25 5 2 17 23 20 12 17 20 18 44 24 19 40 27 36 2 18 3 6 9 10 5 4 15 15 24 19 32 10 6 23 22 8 7 11 15 27 177 247 143 48 33 53 65 67 22 56 142 185 129 22 124 147 114 86 56 25 33 77 80 101 113 143 192 12 211 23 232 50 37 6 21 12 5 7 8 7 7 5 5 8 5 8 5 4 7 11 10 5 18 14 2 11 7 5 16 16 17 8 12 19 18 13 35 44 30 62 139 161 113 72 33 2 11 19 18 15 10 7 33 7 7 51 28 19 13 18 15 31 7 7 25 25 10 17 18 18 3 10 9 2 14 23 16 13 9 4 4 4 7 12 0 
0 22 9 12 24 15 8 22 30 28 20 16 17 43 31 19 20 17 27 33 24 33 27 33 74 86 51 52 65 55 40 18 16 25 15 17 35 5 18 22 11 41 17 17 7 20 16 22 11 23 5 9 18 8 11 43 30 44 5 9 14 14 13 16 15 19 13 5 13 8 13 17 34 31 27 10 23 18 10 23 11 23 27 26 28 27 32 35 10 18 34 51 246 233 54 114 104 111 102 32 55 110 83 35 25 19 14 43 84 18 66 31 66 104 61 28 64 54 23 84 96 67 26 47 43 10 41 46 53 36 31 26 18 36 30 20 24 62 46 160 171 115 49 20 46 15 17 21 17 27 43 55 2 65 72 82 50 90 144 174 73 80 110 118 74 59 89 50 24 28 3 38 66 48 4 15 25 29 64 33 94 63 57 46 83 26 85 111 69 140 17 118 93 102 102 32 58 42 39 66 78 56 10 57 90 78 124 87 8 55 84 82 59 11 68 69 60 25 59 107 71 13 60 29 131 137 68 48 24 78 50 48 52 25 34 18 25 17 8 20 18 42 40 27 5 53 88 10 76 124 153 148 90 26 68 127 133 135 65 52 78 13 39 59 41 21 27 7 42 43 12 54 75 71 5 80 8 116 26 69 25 60 16 68 39 120 66 43 70 17 40 47 44 57 52 45 29 34 23 39 79 37 117 74 43 47 43 87 75 109 56 73 70 64 125 147 193 168 29 101 144 134 85 51 63 56 38 46 89 61 31 53 47 60 16 17 19 28 52 63 63 62 59 63 84 82 50 24 21 8 30 15 21 12 1 4 22 20 4 22 14 13 15 8 8 12 26 37 27 31 15 21 14 45 42 23 17 9 11 10 4 4 11 2 20 16 19 60 32 22 27 20 1 15 15 13 120 245 207 87 24 15 72 101 52 50 125 143 96 24 106 147 100 48 13 20 31 80 85 92 167 177 184 155 217 55 146 126 29 23 16 15 10 4 5 6 7 8 7 4 5 1 5 7 6 0 7 13 14 3 12 17 10 2 10 15 13 19 8 14 21 17 7 25 60 56 100 165 151 76 32 12 3 12 20 18 14 11 10 36 17 21 55 22 24 18 18 2 24 11 13 35 5 37 31 7 23 30 10 1 11 4 8 20 29 29 24 18 11 3 11 0 
0 24 8 17 24 11 21 7 11 11 9 15 18 27 12 30 24 16 25 50 27 28 24 21 70 95 51 44 53 36 55 33 22 15 14 29 16 14 24 20 14 38 11 14 19 6 9 8 33 46 23 27 14 7 18 10 24 26 13 5 8 5 20 20 7 10 20 7 24 6 15 12 12 10 18 10 31 11 24 31 31 43 48 32 12 3 18 14 24 24 44 110 52 178 107 160 136 54 25 48 50 117 26 90 48 65 104 39 93 83 40 94 62 17 55 65 58 83 60 90 91 48 17 19 58 43 22 32 24 2 17 10 42 39 36 60 25 103 153 181 98 9 45 32 27 26 17 15 56 43 21 25 47 30 124 87 113 143 130 81 64 126 37 25 76 113 92 34 13 22 18 21 36 50 47 26 23 15 71 39 48 28 60 59 89 156 86 98 80 101 99 87 92 48 43 100 38 64 53 75 80 41 84 48 37 69 12 86 102 54 22 44 78 66 52 21 58 91 60 30 82 90 15 94 19 150 135 77 39 70 64 25 77 10 42 47 28 25 40 24 17 50 26 35 21 12 117 72 69 103 94 47 55 99 117 78 87 31 112 86 29 113 110 41 29 48 23 4 15 44 46 16 41 38 72 8 91 60 87 52 72 51 76 35 90 25 102 77 12 74 54 21 32 38 63 77 48 24 6 17 85 47 61 107 25 60 38 85 37 117 81 23 105 186 221 199 131 21 144 166 121 81 26 29 53 49 36 57 100 61 49 57 34 25 30 43 54 54 58 75 87 91 84 84 84 68 37 7 12 24 24 17 30 25 18 11 22 8 17 20 7 20 18 13 13 14 17 8 5 15 14 15 26 22 14 24 16 9 15 10 6 11 10 14 19 15 24 50 13 26 17 25 14 21 24 57 235 252 142 47 17 69 118 94 23 167 180 84 18 107 134 82 8 64 94 121 125 112 26 124 215 216 175 18 147 41 13 69 19 8 21 14 10 5 5 3 5 7 7 5 3 9 11 10 10 5 2 2 14 13 17 14 5 7 14 15 5 15 8 14 21 6 10 8 53 125 150 153 116 45 19 14 16 24 21 25 13 8 7 38 25 19 30 22 10 3 18 21 24 36 24 33 13 34 42 15 27 31 2 13 24 22 19 23 9 12 3 9 10 2 13 0 
0 20 10 5 27 10 12 13 19 16 12 7 10 22 19 17 18 14 39 50 22 23 36 35 49 71 59 70 77 31 46 50 9 5 20 2 22 19 44 30 17 20 44 27 10 9 11 10 13 7 30 36 15 1 4 8 7 5 11 4 5 9 11 13 19 19 27 12 20 13 4 7 15 25 11 34 39 29 37 8 8 22 11 31 29 17 19 27 31 31 60 152 86 111 168 187 63 57 38 15 100 40 83 76 93 122 56 120 22 106 76 62 2 62 90 29 84 81 11 65 48 44 38 9 16 56 12 14 7 11 26 30 49 21 75 29 112 95 103 110 47 61 4 35 36 4 14 15 61 17 12 14 49 65 62 120 143 179 64 86 123 32 35 52 94 70 26 14 26 25 40 17 11 17 81 57 39 20 35 57 32 36 87 74 127 86 123 24 96 98 77 22 41 49 39 60 57 106 89 58 13 52 90 23 12 38 55 44 43 69 47 27 48 61 57 42 38 73 108 87 32 79 126 34 83 9 58 80 65 65 63 28 80 35 43 36 14 43 51 48 11 48 38 15 15 66 122 89 72 17 74 71 110 131 67 10 84 120 32 91 70 24 64 77 66 28 14 16 16 31 30 8 21 31 78 92 52 41 88 63 61 55 50 64 52 112 39 86 104 31 51 50 39 22 11 51 77 50 34 63 55 25 14 74 55 73 57 46 71 37 100 108 182 193 137 30 87 155 133 65 55 41 59 22 67 94 107 118 98 62 65 30 31 68 68 64 54 41 55 73 75 72 52 40 25 59 51 17 21 16 18 36 39 26 21 4 26 11 15 8 21 14 14 17 21 16 10 17 14 12 21 12 37 34 26 17 14 18 8 20 9 11 18 17 6 8 26 27 3 19 18 8 8 7 4 146 22 185 41 36 69 89 65 39 144 205 67 74 102 104 42 26 79 155 157 130 93 27 101 191 220 205 122 164 237 202 190 36 12 5 4 15 14 9 8 4 3 6 7 11 10 18 10 18 5 24 33 35 21 5 12 10 8 14 8 11 21 13 14 17 24 9 11 25 89 155 141 109 87 24 11 14 39 17 7 33 9 5 22 50 26 10 17 31 30 17 21 11 24 2 14 7 13 19 31 15 22 15 21 31 14 29 27 3 13 14 22 15 4 12 10 0 
0 14 13 18 25 4 11 18 12 11 4 2 7 7 2 8 20 31 39 34 25 25 37 45 36 51 67 83 76 19 37 61 15 14 10 13 9 27 39 26 18 18 25 35 15 2 18 20 20 10 17 25 28 24 18 8 4 1 9 5 6 11 7 15 11 25 33 17 23 14 3 22 36 21 16 43 39 41 40 9 17 29 28 13 13 23 25 22 17 24 82 171 95 45 187 111 75 71 70 70 20 145 117 90 62 87 158 56 77 50 89 146 129 71 42 68 109 78 55 60 68 58 70 45 18 45 58 45 18 38 33 39 62 88 44 48 122 83 37 84 50 44 52 21 13 31 13 45 18 24 33 59 49 49 46 125 168 90 61 110 58 34 34 111 85 12 40 28 27 33 44 12 22 13 87 86 59 39 54 52 8 74 84 130 87 28 104 95 41 38 18 37 24 69 65 15 39 82 21 67 102 99 40 31 33 14 27 56 56 17 25 72 8 27 38 81 68 48 74 120 116 44 55 87 37 115 73 24 29 26 65 56 107 82 33 13 48 32 21 11 45 8 51 71 108 86 45 89 40 101 84 96 65 35 32 44 19 82 89 88 42 64 57 13 64 94 65 26 29 33 14 39 28 26 36 82 46 62 35 90 45 70 56 34 64 38 127 69 47 89 42 66 87 53 33 25 57 63 7 47 14 31 24 48 78 91 58 18 49 100 190 237 167 47 79 152 153 94 15 71 87 59 73 65 83 94 83 71 31 3 14 41 49 48 58 69 53 48 66 58 29 8 21 36 39 52 37 21 13 11 27 18 22 8 30 15 36 23 31 17 16 14 10 23 16 5 20 27 35 24 27 7 21 25 10 5 13 14 17 15 8 12 16 5 8 27 34 29 18 10 9 14 15 42 85 252 237 83 43 107 115 49 57 137 156 81 99 156 89 17 105 127 159 200 140 84 62 94 161 193 192 170 57 51 10 81 125 30 5 19 19 12 7 6 7 8 7 5 5 10 4 21 16 7 18 17 6 7 12 11 8 8 8 9 18 23 11 15 10 18 23 5 10 65 127 157 128 98 74 14 4 17 46 8 4 39 17 21 28 57 14 13 4 19 15 5 7 22 24 28 15 15 14 24 18 21 10 8 23 22 8 24 30 2 16 4 15 18 22 24 8 0 
0 12 0 13 27 17 20 26 18 8 5 4 7 4 0 7 24 32 22 21 31 35 24 40 43 58 67 60 78 27 17 53 27 22 34 20 31 45 27 5 17 9 41 39 15 7 22 17 27 17 11 2 4 4 5 17 14 21 14 21 20 10 26 29 32 22 26 26 32 21 22 12 42 60 38 19 28 25 10 31 17 15 26 26 18 17 26 28 25 43 94 234 106 197 138 55 76 89 111 26 77 50 58 166 67 64 73 87 37 55 116 34 96 94 88 64 66 75 27 32 59 63 37 17 52 54 42 32 46 29 18 12 19 21 67 138 152 60 58 109 135 62 33 62 13 39 48 32 14 22 41 38 17 82 113 90 17 60 72 20 34 30 62 82 41 27 24 31 48 63 24 35 59 71 57 77 53 51 34 44 103 96 105 42 45 94 105 78 44 12 36 54 75 53 103 76 84 8 83 113 92 56 51 36 27 35 13 23 7 33 0 74 26 33 31 50 105 83 27 76 137 127 98 90 83 56 78 25 19 45 97 74 129 160 168 164 148 93 98 101 59 65 75 91 73 36 20 68 115 62 56 17 24 27 25 49 14 43 29 41 26 17 16 52 40 17 55 77 37 33 34 43 58 54 27 43 68 18 99 21 102 50 57 56 40 78 22 97 74 0 70 92 5 60 55 46 19 89 67 48 38 37 31 52 47 20 15 77 139 196 213 163 10 135 157 131 70 61 84 89 124 106 55 71 68 74 41 16 42 48 56 75 67 26 7 32 25 37 19 37 23 41 48 35 34 44 29 21 27 26 12 20 19 11 20 24 39 3 21 8 14 21 28 15 11 15 5 30 11 37 14 20 25 10 11 4 17 12 16 18 4 4 13 12 9 13 37 24 17 22 14 7 44 12 212 45 154 18 61 93 33 80 113 90 28 85 106 71 75 164 184 203 182 129 47 100 112 126 166 178 170 134 38 170 12 246 73 33 10 21 13 5 13 11 3 7 13 14 14 16 18 2 12 17 5 33 66 67 35 12 5 7 12 11 12 34 22 13 12 27 24 14 31 96 151 140 105 86 44 5 14 19 26 4 15 42 31 26 34 44 5 12 21 32 20 16 12 29 26 31 22 23 10 10 15 16 4 7 10 14 1 10 19 19 26 12 7 25 20 15 14 0 
0 11 11 7 25 15 21 23 15 7 8 7 5 3 1 2 24 40 15 14 42 47 19 25 47 76 58 34 90 60 20 30 51 29 23 37 39 31 36 26 14 27 25 11 4 8 29 25 10 32 27 17 15 20 21 18 6 29 3 14 13 6 33 14 33 18 18 14 26 10 38 15 23 17 34 10 10 3 31 15 19 23 13 12 4 13 25 12 21 42 77 88 118 131 134 27 69 82 89 136 52 91 114 89 105 58 49 91 42 57 60 89 77 18 91 60 16 11 45 23 107 104 58 61 20 52 76 54 13 26 22 41 26 46 131 150 89 72 99 24 77 131 70 68 24 56 77 59 21 38 61 29 75 126 87 18 79 50 25 25 58 90 40 41 75 54 15 21 30 36 22 57 43 71 51 24 32 39 59 115 137 131 15 66 97 101 89 59 35 13 70 44 124 23 137 107 36 95 89 72 38 7 1 28 25 19 30 9 28 22 24 42 51 78 89 32 64 108 87 36 50 63 59 36 65 140 131 96 93 120 140 101 124 199 230 249 50 62 25 249 246 224 155 74 77 100 56 34 16 39 30 40 40 25 27 34 19 31 10 29 21 42 25 22 23 35 23 38 80 43 42 50 40 54 41 25 77 74 33 104 27 110 70 38 24 21 74 53 45 59 9 97 109 18 66 49 112 100 170 11 69 38 26 42 49 53 117 198 213 157 55 68 128 169 120 51 50 97 75 55 58 106 41 69 73 61 5 33 42 51 46 72 55 41 7 37 23 21 34 50 39 60 44 37 32 40 34 32 39 38 28 11 21 12 9 17 26 20 2 21 24 13 5 4 8 14 15 13 18 27 11 31 26 18 10 14 26 32 14 21 29 35 27 38 43 34 26 49 29 26 7 37 42 125 49 237 45 66 58 44 91 137 78 14 48 29 76 180 227 231 194 166 108 17 43 94 133 186 194 164 153 79 203 240 205 183 29 23 11 22 13 9 5 2 7 7 4 4 4 5 18 9 23 27 26 43 27 20 26 13 19 21 16 7 12 30 16 17 12 22 13 8 48 121 168 127 86 73 18 18 28 27 12 8 24 38 47 34 4 24 8 9 16 20 22 18 6 13 7 15 9 20 22 18 18 22 23 18 12 12 17 14 17 25 4 28 25 15 12 29 22 0 
0 14 16 3 20 18 28 28 20 8 7 7 7 3 4 4 26 38 13 9 41 50 25 26 47 76 61 39 93 60 3 23 46 35 30 41 11 38 29 8 7 28 30 32 23 5 7 7 26 23 24 25 24 21 19 23 20 13 12 14 11 8 17 24 26 18 22 7 32 17 28 16 16 14 32 10 9 8 29 15 31 14 11 8 2 14 24 5 23 39 46 137 101 81 155 52 67 36 82 55 117 82 29 61 105 61 57 79 72 70 58 73 35 49 20 80 14 84 86 75 111 125 102 34 32 69 40 16 26 17 73 57 85 142 149 103 22 29 80 97 45 85 110 16 49 58 12 72 17 26 48 73 115 80 25 88 58 27 16 74 137 103 65 39 53 92 94 52 26 34 38 51 58 17 67 43 60 65 94 118 74 68 92 54 42 102 42 19 6 19 71 44 107 142 124 62 94 90 35 55 29 38 29 9 36 8 16 20 8 25 18 23 44 33 59 68 26 109 170 165 157 147 109 73 101 116 104 66 42 73 65 14 20 23 30 30 30 140 198 225 11 38 248 226 108 91 76 26 52 44 21 21 10 11 26 41 25 20 32 10 67 54 14 22 27 28 22 48 22 41 9 41 31 44 35 35 52 114 86 75 49 36 54 64 27 65 38 45 44 14 69 21 107 75 27 55 149 54 155 99 46 60 51 24 56 143 198 201 118 80 131 154 142 112 12 74 142 114 50 68 55 83 86 49 80 55 22 30 38 52 21 47 25 43 16 18 27 39 23 23 13 46 15 39 67 64 41 14 19 8 25 9 10 7 21 19 4 21 23 21 12 8 4 6 16 18 12 14 25 32 19 23 8 13 8 15 6 28 34 25 22 10 25 34 18 38 23 27 7 15 16 47 57 10 34 105 51 70 22 40 86 54 5 2 71 160 229 234 209 162 98 41 81 74 52 82 161 244 206 134 125 12 103 250 94 113 26 29 4 16 3 9 18 19 11 2 10 16 20 17 13 15 25 32 18 36 48 39 2 19 8 2 7 8 7 19 7 11 7 19 14 19 74 141 161 103 65 57 15 24 21 18 18 30 11 23 52 35 23 11 17 14 5 14 16 2 11 8 11 18 17 8 10 5 6 4 2 13 13 9 11 12 8 8 28 17 12 9 5 20 14 0 
0 12 10 5 14 25 33 33 28 11 5 4 8 4 4 14 29 27 13 11 29 40 30 42 44 58 73 65 77 34 32 34 23 22 39 34 26 22 55 41 34 46 36 14 18 29 17 12 11 23 13 13 15 16 16 18 25 14 18 12 10 14 17 18 10 15 17 23 20 35 22 22 18 17 41 39 33 17 21 26 18 16 10 11 17 19 14 7 8 35 31 125 91 109 171 57 76 104 49 129 74 104 162 68 117 40 64 127 79 35 41 87 123 12 64 89 31 104 44 75 85 130 147 82 36 42 32 21 50 72 65 38 196 162 82 44 12 22 25 47 98 2 85 66 19 79 30 61 40 3 43 116 124 22 58 42 31 24 65 120 83 13 40 47 58 28 56 55 25 38 62 43 40 29 84 29 110 98 55 18 95 75 93 28 35 69 96 38 41 28 27 102 59 123 116 56 50 27 25 53 68 29 35 50 26 31 33 13 26 35 43 88 130 168 123 97 106 108 136 154 142 121 121 83 53 126 108 94 76 96 67 55 114 179 189 192 233 249 156 63 69 122 254 107 155 37 45 64 25 41 48 14 21 21 22 21 0 38 42 60 39 18 30 25 43 10 24 53 39 48 5 3 14 25 55 80 34 63 77 41 11 52 69 11 96 53 75 112 22 41 20 77 31 130 80 63 107 93 63 171 91 89 24 128 232 221 160 75 84 202 186 118 70 22 79 115 123 46 13 68 73 45 96 40 56 56 54 50 54 49 21 24 29 41 20 22 40 36 21 13 21 29 11 21 29 12 25 17 21 22 28 36 26 21 34 27 28 21 32 9 10 7 24 19 2 11 14 28 29 38 16 10 12 3 11 5 21 15 10 12 25 26 13 18 24 5 22 14 9 16 19 30 174 35 175 6 69 9 31 58 46 13 24 90 184 211 185 113 66 31 19 44 117 92 74 138 215 2 170 89 88 132 201 214 241 32 27 35 20 17 8 7 10 9 6 9 13 11 9 11 7 12 5 27 34 18 2 19 22 3 7 14 13 7 7 12 4 4 3 17 17 46 117 164 151 97 55 33 2 21 13 20 19 8 13 12 34 17 10 15 10 28 17 33 29 16 13 6 15 5 10 14 30 36 39 28 5 9 7 11 8 7 22 18 22 29 38 26 13 24 22 0 
0 7 10 9 10 23 27 24 24 11 5 0 8 7 2 20 27 22 26 22 20 30 39 48 40 49 66 82 71 15 41 57 18 10 18 28 8 14 29 33 24 37 4 27 9 22 25 23 5 29 14 15 26 28 33 33 18 32 2 27 27 6 31 8 27 16 15 47 36 53 15 11 24 2 17 4 6 24 13 2 8 14 17 14 13 8 1 12 29 34 28 101 77 108 121 78 81 44 152 91 79 139 70 124 137 49 79 34 73 94 83 74 98 89 45 28 54 65 73 38 8 4 102 82 59 73 44 45 94 45 21 121 180 47 74 80 25 41 16 12 94 52 47 83 66 24 58 76 30 38 107 130 32 73 66 22 34 61 110 79 25 36 60 36 17 61 42 40 26 45 37 34 31 52 43 74 141 65 32 86 86 91 41 46 21 51 123 25 76 40 89 65 110 68 56 90 38 16 50 31 19 79 65 32 25 13 54 71 104 164 216 232 220 239 13 240 152 88 75 81 71 45 57 124 84 46 106 89 69 85 72 68 149 115 66 30 52 165 185 173 174 153 118 151 213 43 28 38 80 56 10 56 46 23 57 38 31 27 28 109 191 191 137 89 20 42 29 18 29 25 15 4 14 18 10 52 69 54 28 16 36 31 36 114 143 208 136 94 132 15 69 36 128 96 172 36 88 83 61 104 127 16 128 19 224 99 50 139 159 170 82 67 78 93 110 87 44 24 15 80 58 9 61 37 27 29 53 38 31 27 17 16 12 27 25 31 31 18 46 31 42 28 18 7 32 33 18 23 28 32 13 17 23 10 39 21 41 39 32 11 1 20 7 12 13 15 23 10 15 14 20 12 22 28 18 20 7 15 24 18 16 19 5 10 26 16 8 10 19 2 46 125 218 200 69 41 31 52 62 58 49 86 146 183 195 119 58 4 52 53 41 28 136 113 136 208 243 226 121 76 50 19 2 137 157 21 31 8 19 12 14 1 16 22 21 15 4 10 19 14 11 14 29 29 19 13 1 11 17 18 11 8 13 17 12 5 15 17 15 28 38 80 158 162 109 75 27 12 22 35 34 20 13 10 15 33 28 10 9 13 12 32 18 21 22 12 14 21 12 8 10 10 25 13 18 45 11 17 20 11 16 17 24 21 17 12 15 18 27 12 7 0 
0 14 24 20 18 14 21 27 10 7 12 20 22 12 7 27 24 8 24 31 21 29 41 43 48 53 50 87 78 14 39 58 11 13 7 17 21 8 24 34 39 36 35 28 8 24 13 10 5 27 14 9 17 26 27 24 17 17 21 24 21 22 27 17 23 8 7 37 35 44 5 5 21 21 36 30 14 24 13 7 11 10 5 19 19 14 21 42 59 34 13 119 90 123 110 44 81 133 108 51 126 20 143 132 63 80 30 89 41 97 73 54 90 81 65 104 84 24 74 54 62 50 110 26 61 89 75 72 97 8 107 156 123 33 46 84 77 48 18 18 52 77 24 41 71 58 69 28 68 85 127 44 99 85 11 42 33 110 84 37 17 46 42 20 47 20 38 11 32 31 41 34 19 71 110 162 114 43 88 50 48 68 80 7 18 34 108 99 27 115 107 147 37 108 147 97 24 23 69 42 17 23 78 86 79 100 142 176 199 223 214 169 125 113 146 199 200 175 189 193 180 154 111 134 203 183 83 43 106 115 87 106 174 22 87 31 48 44 110 151 171 197 43 88 43 56 40 59 10 46 72 42 39 29 7 32 43 62 86 86 79 146 208 232 225 153 77 49 70 57 46 21 23 49 41 14 33 41 37 63 114 181 221 253 249 51 120 172 105 58 45 52 118 84 148 138 53 90 90 36 160 160 196 191 22 137 110 109 108 65 59 149 133 126 143 101 64 76 95 86 17 29 51 42 27 9 17 5 13 21 30 17 17 33 26 23 27 6 32 20 22 7 7 31 22 41 12 10 35 27 16 12 31 32 36 8 25 23 12 18 7 25 6 6 8 10 15 14 17 8 20 7 21 12 24 27 14 13 8 8 28 18 15 7 27 23 17 40 55 36 131 200 170 89 40 7 49 65 71 88 127 203 224 180 85 19 27 18 52 20 38 44 163 196 212 217 198 138 53 66 73 171 255 22 74 15 10 23 1 23 8 23 19 10 8 1 12 18 6 23 8 29 7 14 14 10 14 14 15 7 17 25 18 10 13 7 16 9 17 25 47 111 170 126 61 64 24 15 15 18 17 3 14 1 27 45 25 15 14 20 30 17 21 13 18 16 11 15 15 3 9 14 30 34 35 41 15 18 21 20 4 15 17 26 20 18 23 18 11 9 20 0 
0 20 9 17 5 5 15 7 4 2 7 14 13 14 20 17 17 12 15 24 31 36 37 38 60 54 47 98 80 5 43 52 11 5 12 4 18 13 17 31 43 16 17 11 26 15 16 20 42 34 2 10 11 23 11 23 19 9 5 21 12 25 21 12 17 15 10 20 34 11 17 16 25 28 16 24 10 41 26 24 16 12 8 18 24 24 18 24 17 15 37 152 97 125 122 83 132 20 98 107 13 113 133 36 85 86 84 89 90 65 123 39 7 101 126 62 63 66 102 74 56 74 111 42 31 96 115 71 72 36 131 111 70 38 42 12 62 69 51 53 36 36 77 53 88 89 27 112 136 120 87 31 111 26 40 9 68 82 57 14 32 43 46 18 44 52 22 26 45 52 39 31 56 103 106 53 71 123 44 22 69 54 54 84 52 17 34 110 98 103 130 5 116 98 69 42 27 31 18 68 31 30 10 71 145 204 249 4 225 119 33 101 143 164 163 114 74 37 34 61 101 135 147 148 177 234 206 91 131 155 80 133 173 67 54 72 95 82 92 141 193 213 148 152 75 234 212 243 242 192 90 25 29 54 76 28 34 60 127 160 134 110 61 34 84 148 210 198 165 165 167 7 58 68 95 68 31 39 101 159 225 251 11 17 246 249 172 158 0 78 21 34 26 147 39 163 92 78 73 187 2 192 116 15 160 161 64 48 61 45 109 126 49 80 143 132 104 71 21 31 26 33 25 38 15 36 24 36 11 8 31 48 24 25 2 14 47 10 38 27 8 2 19 26 42 35 19 2 45 21 28 20 1 19 27 15 19 32 11 25 21 34 18 7 5 4 16 19 9 19 32 20 28 23 24 20 8 9 13 10 17 24 14 36 34 26 17 25 6 105 224 199 84 14 46 60 73 97 149 185 201 199 122 39 54 59 56 31 57 52 74 123 207 9 229 168 125 70 27 48 13 231 157 177 22 19 4 22 29 25 13 12 8 11 13 9 17 7 20 11 15 7 19 20 16 19 24 14 4 13 12 14 11 15 26 34 25 35 15 21 73 144 159 109 66 55 26 22 12 19 30 25 2 18 18 38 23 4 11 26 17 17 8 15 25 26 32 27 11 5 10 4 8 12 7 21 11 15 5 9 25 11 21 19 12 8 8 13 15 12 8 0 
0 11 11 20 10 2 18 12 8 6 7 17 19 16 19 21 35 39 25 25 28 39 45 42 53 47 46 100 77 24 50 53 11 12 15 10 15 25 27 19 12 27 18 6 23 7 16 47 28 27 13 2 13 20 12 23 33 42 16 8 6 8 18 10 12 14 17 21 51 44 15 16 26 18 2 11 23 39 12 13 15 12 9 13 16 21 26 42 34 15 24 149 100 132 168 123 52 110 96 72 116 63 51 99 25 116 113 39 91 91 154 85 87 69 42 55 26 101 69 67 117 27 111 119 51 145 88 4 60 86 108 51 49 34 15 19 17 18 31 29 42 31 44 56 82 55 18 151 124 51 36 67 41 57 9 65 82 42 38 36 21 35 50 39 18 52 47 22 29 4 72 47 114 79 15 112 123 73 41 47 41 93 39 55 52 25 17 59 146 127 40 98 104 115 20 27 29 58 66 21 41 42 49 119 140 182 188 85 102 193 194 161 170 161 157 155 168 172 183 183 149 69 39 96 119 186 248 204 181 183 68 146 122 70 81 117 71 26 26 73 142 208 3 165 101 233 8 7 37 43 27 249 209 174 174 189 125 40 56 125 130 153 204 230 238 192 108 146 177 231 90 195 56 134 124 194 80 62 163 236 97 49 144 175 178 76 149 36 95 42 86 9 38 67 137 31 117 63 212 31 203 37 76 135 178 115 77 31 38 72 139 64 50 106 145 22 43 50 55 47 36 43 17 37 5 56 3 44 14 20 17 27 45 52 40 24 44 31 37 54 18 17 26 26 49 15 12 19 39 15 19 7 25 12 31 27 44 36 5 29 30 34 27 9 23 22 21 23 36 35 27 7 15 3 9 11 10 29 23 15 7 26 40 24 22 3 30 59 121 209 230 143 57 60 77 109 117 157 202 176 120 66 23 73 65 13 25 65 102 96 85 122 202 230 177 93 79 79 48 147 167 178 33 107 15 20 10 12 11 7 19 15 14 9 11 6 13 3 24 4 16 11 4 3 3 12 19 8 9 4 15 22 15 16 22 8 31 39 19 44 116 166 145 95 49 22 10 30 20 22 27 32 7 20 8 31 29 2 11 29 1 19 6 5 17 16 10 15 5 10 18 23 22 16 10 16 12 21 6 19 20 43 23 16 10 10 3 7 3 10 16 0 
0 6 13 14 14 8 13 7 10 10 5 8 11 9 8 14 5 41 38 24 23 34 38 41 52 41 44 91 68 13 46 52 20 13 7 12 8 18 50 6 12 23 12 8 25 17 32 32 24 28 12 14 29 22 12 14 3 23 15 7 15 17 17 15 12 9 17 18 33 17 27 29 14 11 6 10 20 39 15 11 17 21 28 40 37 21 15 23 23 43 58 128 120 144 167 54 77 66 83 144 38 141 143 112 122 132 26 73 55 46 101 58 97 60 150 110 95 69 76 46 44 97 28 113 135 130 20 108 138 103 49 41 47 19 18 26 50 49 7 15 21 54 5 13 48 94 95 171 104 63 152 91 53 59 83 96 62 10 43 61 55 27 22 58 24 28 24 46 72 87 47 140 126 11 82 87 49 30 43 25 51 58 72 18 56 55 36 83 72 93 65 65 90 26 53 18 11 14 14 32 52 64 113 188 166 92 70 178 42 250 170 70 28 3 69 60 21 31 52 102 137 162 158 140 85 34 152 194 204 144 119 202 151 110 72 31 20 20 34 63 98 132 172 220 190 120 74 21 39 74 128 242 59 24 224 246 30 236 128 27 64 57 82 99 115 182 70 252 169 137 190 131 222 160 117 225 16 126 172 33 40 159 145 241 55 20 123 37 183 86 240 34 22 51 81 70 136 224 214 131 57 179 191 160 113 31 64 50 97 138 90 31 52 98 173 123 103 58 17 12 38 44 29 35 15 54 13 28 14 22 10 5 5 8 20 22 27 29 13 63 9 18 6 30 31 6 11 17 15 20 8 18 7 18 24 23 15 13 28 27 33 32 39 27 43 16 14 15 54 15 20 24 8 8 18 16 18 23 3 21 10 24 44 33 15 48 84 160 231 224 148 103 92 147 187 189 182 171 125 21 32 53 39 49 39 12 4 38 73 51 70 148 200 178 138 79 59 70 67 92 233 84 169 45 19 25 26 25 25 27 28 16 11 2 7 4 8 0 17 8 8 4 4 7 7 16 22 8 19 17 5 8 13 19 19 17 30 19 27 78 149 169 123 60 32 15 24 23 24 40 34 3 29 33 24 37 34 13 11 23 5 10 9 15 26 38 45 31 7 7 3 3 4 7 8 11 12 12 15 20 3 47 12 32 11 8 5 7 4 6 11 0 
0 6 17 13 15 13 11 17 7 5 5 8 5 3 7 18 33 25 24 34 33 29 24 57 68 33 46 82 61 21 45 53 19 13 18 8 10 15 39 12 21 39 33 16 27 14 21 12 2 6 13 25 25 22 43 48 47 46 20 4 0 5 14 4 5 10 18 2 35 32 19 21 29 20 11 29 28 49 29 18 10 14 28 27 15 18 22 22 17 46 49 116 123 143 142 105 54 92 167 51 145 139 89 197 124 38 51 23 72 75 22 69 63 54 124 37 148 61 104 23 56 63 50 138 135 83 39 87 48 77 41 40 68 16 34 48 35 39 19 24 1 58 45 42 59 105 182 174 22 109 91 31 73 94 121 73 40 49 7 15 29 36 26 32 53 10 18 77 43 113 158 116 66 75 85 38 45 53 48 46 22 7 64 66 28 85 74 59 43 114 99 76 25 49 30 46 20 9 11 35 67 60 117 177 75 78 187 213 169 68 55 58 17 32 15 47 44 33 51 85 88 48 57 131 176 117 16 66 98 48 196 228 144 86 36 21 42 38 9 41 68 101 90 48 104 131 134 112 80 59 43 77 54 34 28 104 230 64 73 16 207 146 94 67 98 89 80 218 196 24 221 103 22 232 182 178 83 138 38 8 133 236 253 91 122 213 175 95 26 11 130 105 94 34 49 182 12 227 92 92 199 186 99 77 5 61 96 124 137 128 87 43 51 54 73 59 35 14 18 31 46 18 2 21 35 45 13 24 24 25 15 20 29 29 11 20 14 18 17 50 12 25 24 33 10 22 29 13 8 21 15 8 17 12 17 37 37 22 23 14 25 24 31 23 57 27 26 23 46 23 43 31 21 13 17 6 20 12 24 14 14 37 36 22 70 143 174 216 218 159 119 130 143 168 193 183 164 115 25 50 52 44 18 36 53 29 30 62 90 79 147 205 194 142 98 66 58 68 17 223 186 210 41 20 17 5 4 1 2 7 8 8 13 9 4 2 4 1 10 15 10 7 8 11 10 21 25 12 3 10 17 26 32 26 13 15 20 15 47 114 169 153 83 32 32 11 32 21 25 25 11 29 30 24 18 36 34 20 18 15 4 2 4 4 6 6 10 22 21 11 8 2 5 12 12 5 14 13 20 8 3 42 18 36 8 5 3 5 4 7 5 0 
0 7 27 15 13 22 5 25 4 8 10 13 11 9 7 13 10 9 14 25 36 38 31 61 61 35 54 77 57 31 44 45 19 20 12 24 14 21 18 17 35 23 24 19 20 8 22 5 22 20 20 17 25 27 10 15 15 5 34 16 10 13 22 14 15 22 28 30 21 10 5 12 6 28 22 34 36 33 51 16 8 19 42 39 27 30 28 36 12 23 47 75 121 200 121 63 132 131 35 126 126 75 210 131 74 133 86 47 73 10 66 17 89 75 66 87 63 93 88 56 44 31 59 102 59 119 128 20 94 68 28 49 29 69 46 53 88 49 9 20 16 46 70 2 107 122 69 25 113 60 43 59 68 108 75 29 38 43 17 17 19 11 47 49 16 43 21 87 142 186 154 36 95 84 67 5 20 38 23 39 22 10 28 53 62 89 87 20 107 97 53 47 26 41 21 19 41 34 13 45 85 103 108 88 149 233 170 79 39 74 75 92 99 117 109 98 59 41 29 34 72 92 109 102 92 74 60 62 40 75 227 208 144 102 8 42 47 47 58 30 52 183 152 106 67 50 48 89 114 110 100 112 127 126 108 104 34 135 14 89 93 83 64 39 29 74 101 26 214 143 135 107 54 155 133 94 132 22 38 198 132 143 26 38 192 184 146 98 54 123 135 33 45 107 247 1 172 35 121 212 174 69 32 40 57 89 143 127 112 79 98 91 68 59 44 22 26 19 45 77 40 5 16 13 32 41 22 22 15 12 27 35 14 24 21 31 27 17 2 37 10 19 25 39 15 24 35 17 16 5 14 10 13 5 24 5 24 18 27 15 18 19 22 24 58 30 30 21 29 14 46 23 23 22 31 27 8 8 5 28 41 18 32 100 200 241 201 180 163 145 177 196 172 144 106 80 60 11 46 45 19 32 22 43 61 5 35 82 110 138 204 181 118 92 70 62 44 137 175 204 44 96 30 20 5 15 13 15 14 13 13 11 2 10 8 3 3 5 9 12 12 5 5 7 4 19 24 13 4 8 22 28 24 13 5 10 21 33 81 143 173 129 45 12 28 32 36 14 16 37 18 47 39 12 10 37 34 16 16 8 8 2 2 10 14 14 19 20 4 14 14 9 10 14 15 10 5 17 7 5 12 32 21 30 5 7 4 1 7 7 4 0 
0 18 19 16 17 16 15 25 1 13 8 4 14 10 5 16 27 22 13 11 22 45 51 51 40 43 70 78 56 40 43 29 11 10 33 19 19 29 8 13 46 51 13 2 10 3 8 28 12 18 22 15 18 15 43 52 51 42 46 19 21 22 28 28 15 34 21 21 15 21 16 16 23 12 33 11 33 32 35 18 4 17 39 39 23 25 27 34 4 21 38 248 144 50 107 149 115 61 117 98 59 161 71 124 139 65 103 57 109 137 39 94 138 74 49 45 38 50 13 95 20 67 71 50 25 27 55 99 44 95 101 52 91 36 47 29 17 52 29 10 40 34 45 129 178 91 85 154 85 20 46 97 69 31 4 31 39 24 21 17 10 31 38 41 32 44 69 80 137 122 18 131 101 30 68 25 15 12 43 29 35 36 24 49 85 69 42 87 101 12 47 77 26 22 15 15 24 69 73 48 108 103 70 134 222 158 35 27 22 9 58 108 121 112 118 125 135 117 88 84 89 79 108 151 153 78 20 87 74 51 245 179 120 205 187 72 59 86 52 49 144 227 140 71 50 10 67 112 119 103 64 61 60 57 27 84 101 55 60 97 113 154 204 238 253 31 96 55 4 4 235 141 62 17 18 55 57 60 105 77 51 48 120 247 213 163 124 58 46 17 226 105 199 254 36 116 98 176 218 170 75 48 75 84 89 123 111 81 79 67 49 64 24 28 29 17 21 11 59 46 24 30 21 15 31 23 22 29 22 14 35 36 5 24 30 5 18 17 12 31 11 21 8 30 11 15 27 23 15 15 2 12 12 3 15 19 28 25 36 17 14 27 23 30 48 25 43 4 18 14 34 13 9 9 18 25 18 4 14 22 48 131 210 19 54 4 194 174 180 174 184 169 135 84 33 19 41 58 47 24 17 10 31 63 61 23 65 121 155 204 202 111 63 89 79 82 24 63 229 80 150 26 31 17 12 9 10 7 10 12 8 2 7 2 10 2 11 14 23 5 13 5 8 12 11 17 22 7 20 18 3 14 18 15 13 13 31 75 125 162 160 101 24 3 15 14 6 7 28 29 14 45 34 3 5 44 43 5 5 11 14 10 5 6 10 21 27 21 13 11 8 2 5 10 11 7 2 12 21 14 28 16 11 23 7 11 4 4 10 7 5 0 
0 14 5 13 12 3 17 1 14 12 2 14 18 4 11 12 16 26 21 19 32 42 44 48 33 41 85 85 60 53 49 23 17 36 22 19 40 21 4 17 26 48 5 11 17 6 10 22 28 42 19 7 19 26 19 21 8 16 23 33 21 19 14 23 41 18 23 37 29 14 10 14 20 14 34 15 12 10 27 20 9 4 18 30 23 8 15 20 24 15 34 186 134 66 181 119 65 129 54 80 137 41 109 99 90 103 78 38 104 94 132 52 85 97 32 115 91 42 89 39 64 16 111 162 106 56 103 71 73 47 127 100 90 50 37 10 14 45 52 48 50 40 85 137 116 55 112 35 30 6 96 95 22 42 32 29 22 25 19 21 46 27 33 45 44 53 116 60 22 101 134 80 23 50 34 48 22 17 40 34 19 64 39 73 39 39 47 100 58 36 45 36 67 38 36 28 58 29 80 178 199 71 93 143 103 7 83 24 62 74 133 124 90 75 113 95 68 79 114 149 130 91 84 91 92 128 102 73 94 24 247 172 19 64 137 142 59 12 46 134 185 166 38 67 10 59 120 140 173 180 161 120 84 110 162 139 74 64 69 103 115 69 8 51 65 50 55 129 128 65 52 105 110 52 13 60 74 16 41 41 49 44 44 67 117 99 82 34 15 46 97 108 151 0 38 191 234 196 123 29 82 162 158 162 136 114 88 58 58 31 41 55 5 28 15 21 19 39 37 37 12 20 16 25 29 9 14 22 16 18 44 25 9 12 44 57 35 2 25 12 28 4 9 16 12 14 17 27 16 28 12 21 14 5 2 21 30 40 50 39 36 51 47 16 32 9 45 26 4 41 16 10 17 15 14 12 33 18 39 115 207 26 52 48 3 194 193 215 185 134 95 59 25 10 10 28 35 28 20 13 24 29 30 52 70 84 150 177 195 198 125 50 63 100 83 37 200 219 183 216 57 8 18 18 7 14 11 10 13 15 12 13 9 10 8 2 18 16 31 18 17 14 16 19 19 20 21 11 9 16 13 23 28 17 4 10 50 117 153 158 132 73 18 16 11 11 18 21 34 4 38 50 50 42 32 46 42 9 15 18 8 13 6 9 14 14 21 18 11 10 14 16 15 14 12 15 7 25 32 22 34 17 6 23 11 13 4 8 11 5 8 0 
0 21 12 25 13 16 8 16 14 3 10 15 6 12 22 16 23 25 35 30 18 23 37 48 38 49 85 84 64 44 39 22 31 32 8 25 22 7 13 10 27 38 8 5 18 12 7 10 15 15 15 25 30 39 32 16 3 15 8 2 6 8 5 15 12 8 7 7 17 3 5 28 33 34 29 11 8 13 32 35 6 14 14 24 30 18 6 18 29 15 26 202 141 9 195 40 125 72 123 117 8 95 77 40 143 62 64 63 46 66 161 43 37 23 73 147 94 148 35 61 71 114 127 129 137 146 93 79 33 64 10 122 70 57 41 12 6 47 61 26 46 105 143 85 49 96 64 67 24 48 100 36 48 11 37 45 12 9 12 19 18 27 38 9 76 137 110 14 78 82 48 3 22 21 54 32 56 32 58 31 44 58 75 60 24 37 108 84 26 36 59 31 33 43 42 29 32 67 123 199 144 151 141 66 19 37 59 49 60 110 132 93 103 78 39 18 7 9 49 60 3 17 7 36 40 18 89 77 49 31 217 176 40 41 131 69 105 186 208 180 111 52 34 28 64 93 151 187 178 200 176 116 134 151 128 114 76 11 81 130 89 91 83 62 23 38 43 24 37 61 58 65 60 73 63 62 47 33 21 21 29 26 33 5 46 34 40 25 36 14 214 241 121 72 195 5 219 106 50 132 204 218 136 128 134 100 69 39 24 72 72 37 17 32 27 40 31 36 19 15 38 46 34 7 35 19 7 20 17 30 30 14 19 20 7 11 27 15 17 7 20 18 17 17 11 9 11 32 28 27 11 23 9 17 17 20 9 32 63 49 32 70 60 28 27 28 40 32 13 49 8 20 14 9 6 39 100 153 207 1 38 51 27 223 158 135 143 124 69 27 22 24 41 31 11 11 16 14 13 26 43 22 24 56 123 163 184 160 130 110 58 43 90 102 41 114 129 219 54 110 9 9 4 7 11 25 23 4 19 18 20 29 14 13 11 4 19 16 25 16 14 15 9 3 10 18 21 17 21 8 2 17 15 7 7 24 90 147 149 140 91 33 12 3 18 26 15 14 33 22 42 41 32 13 24 39 18 32 35 23 11 12 7 8 4 12 18 4 4 10 13 7 5 8 5 12 12 23 20 28 20 25 17 29 20 2 14 12 12 10 14 0 
0 13 13 36 19 18 8 8 9 10 13 10 6 14 14 11 17 16 43 34 8 17 48 50 34 57 68 76 80 39 41 51 29 17 23 13 25 27 35 30 16 25 20 20 22 14 9 10 1 18 13 23 10 24 20 14 1 6 18 24 19 10 7 10 21 12 20 28 23 21 11 29 17 4 8 2 1 21 32 25 31 14 21 11 27 14 26 31 40 4 20 196 156 22 177 126 2 162 123 49 129 59 86 91 48 111 107 98 74 72 72 93 59 132 113 64 32 127 124 72 48 121 108 178 223 178 74 24 31 16 44 22 110 33 78 46 59 58 19 54 107 170 134 33 78 59 32 41 63 82 31 60 59 5 26 28 42 16 24 17 38 33 58 99 122 105 20 65 59 24 36 53 31 26 41 58 29 30 25 32 51 35 54 41 38 83 80 42 26 25 43 45 27 24 71 98 104 117 170 120 86 163 139 60 24 58 68 83 100 117 113 84 40 43 96 71 44 23 38 39 76 109 129 140 148 139 84 56 60 89 194 133 67 125 173 100 132 168 171 109 27 20 14 64 108 116 104 91 76 75 84 93 103 55 18 43 52 72 112 54 85 150 90 38 79 36 76 50 24 36 54 19 9 33 54 55 24 10 17 18 7 7 15 9 25 20 28 18 116 49 239 189 76 224 248 213 114 61 176 182 199 157 85 70 73 66 34 11 62 58 33 5 14 34 39 41 21 17 15 7 12 24 13 30 27 39 37 21 28 24 10 21 15 20 17 48 34 1 10 9 18 18 27 1 2 8 17 21 28 27 13 22 3 22 18 13 21 35 60 40 33 104 48 41 7 7 30 18 18 37 2 23 7 25 106 208 20 60 83 74 37 232 154 94 87 82 45 13 36 8 20 27 23 28 13 17 37 8 17 45 36 34 66 123 175 206 152 106 92 80 70 65 92 68 106 52 187 107 178 33 15 11 10 4 5 9 7 13 15 12 26 30 23 21 11 17 15 24 24 15 11 15 15 12 10 12 11 5 24 13 13 19 8 11 9 40 118 132 122 135 61 7 17 17 16 30 10 8 35 39 63 32 14 23 23 26 9 29 12 1 11 15 7 13 11 6 20 36 32 25 14 22 16 15 6 11 8 16 34 24 5 17 6 21 28 24 3 11 20 23 17 0 
0 13 11 22 23 25 10 4 10 13 16 11 3 8 13 13 17 29 36 24 14 32 51 38 31 59 57 66 87 35 36 52 22 6 5 6 28 40 8 21 27 23 18 24 19 10 13 5 10 15 30 13 11 15 17 7 10 12 17 9 10 16 9 14 27 18 15 34 38 20 16 35 43 33 24 15 14 30 43 36 21 21 31 40 22 21 18 30 50 23 16 122 121 202 31 65 146 125 17 120 54 90 130 62 113 99 48 133 93 39 43 98 131 115 63 42 45 44 125 133 101 39 82 203 182 91 19 23 9 41 33 48 56 62 21 30 20 37 37 74 104 118 24 101 68 31 51 85 85 69 35 51 19 44 28 44 39 46 40 40 36 10 117 104 21 67 103 87 34 10 11 36 46 52 47 12 28 22 46 45 48 62 19 76 91 54 14 32 47 32 23 27 43 39 46 69 135 157 89 96 199 137 60 63 75 92 113 130 143 134 79 30 112 134 103 80 86 72 28 94 165 181 150 126 121 126 106 46 38 63 149 73 121 115 232 214 158 79 30 66 22 75 129 123 120 110 97 67 67 39 39 64 16 37 69 114 131 114 55 76 151 118 34 32 81 43 68 39 24 38 12 7 7 4 10 8 20 31 4 28 23 8 3 20 27 26 20 202 176 23 184 141 190 221 175 94 44 168 201 134 102 73 53 41 18 31 11 7 54 38 30 1 24 8 9 15 5 13 20 8 32 41 20 35 11 6 27 33 15 35 11 44 25 17 34 29 13 16 11 29 34 27 10 10 8 5 7 10 7 10 9 28 12 43 28 46 2 66 38 12 41 115 32 47 11 7 34 12 34 16 16 54 107 202 49 94 76 47 18 232 184 125 61 31 37 20 10 14 29 8 17 24 12 32 22 28 42 8 27 64 63 105 149 172 179 208 124 91 94 85 61 13 72 168 56 175 145 238 85 5 4 6 16 2 15 25 31 24 5 20 13 22 20 19 11 23 4 7 7 8 16 17 16 14 9 8 14 12 25 13 18 24 10 8 23 63 138 137 127 131 44 18 10 25 22 23 20 21 15 52 59 10 12 14 36 22 14 28 27 24 13 15 12 12 9 5 12 8 24 27 16 25 16 18 9 7 7 18 10 7 13 11 8 15 29 35 17 19 9 10 4 0 
0 17 12 7 13 21 13 5 13 13 9 8 10 8 5 4 19 29 17 18 29 44 39 32 36 56 55 67 93 44 41 42 16 15 18 22 35 53 20 13 17 20 21 25 19 11 19 15 5 24 11 18 20 28 34 35 34 24 15 21 22 18 16 12 13 29 23 18 23 25 19 45 38 22 6 7 10 14 18 25 10 28 5 5 13 19 16 21 42 31 22 33 238 98 82 184 98 59 105 39 103 94 74 169 87 105 111 46 129 94 28 101 99 130 100 53 77 76 24 139 117 83 143 124 81 46 28 15 8 32 50 32 23 51 57 23 17 60 74 115 83 34 118 117 52 33 48 65 43 19 28 41 39 23 26 36 7 75 40 21 20 108 145 37 59 82 64 40 17 12 37 74 15 67 63 56 8 23 31 25 51 43 31 98 78 15 14 14 11 5 22 17 24 42 83 95 140 111 86 155 127 83 52 17 24 72 127 127 89 17 126 182 169 125 50 19 65 86 90 229 237 170 99 45 54 93 75 27 45 84 134 130 138 77 100 140 123 63 77 4 104 153 139 102 64 32 68 51 5 55 50 19 49 56 112 133 56 61 154 176 133 56 15 17 46 72 51 49 43 36 18 14 10 10 9 10 8 21 52 57 61 48 19 44 115 224 94 246 220 212 60 205 232 124 7 87 164 202 172 84 61 70 25 36 38 32 29 26 21 18 13 14 11 9 10 13 18 23 26 24 28 27 24 18 17 21 37 33 18 9 13 39 39 36 24 26 17 6 25 27 2 12 6 3 5 14 16 17 26 22 14 28 17 37 22 50 19 65 66 60 64 90 25 44 11 24 12 59 33 79 158 251 68 109 110 66 0 191 124 65 37 25 34 24 20 8 22 35 44 46 44 12 17 19 36 56 48 41 60 112 117 147 167 174 177 176 69 46 79 53 41 163 26 131 175 141 8 101 21 3 10 4 10 14 13 18 22 19 28 31 4 9 11 11 12 20 5 10 2 5 12 12 14 12 7 2 7 12 22 22 13 14 16 7 25 78 154 157 133 101 23 30 8 15 14 8 26 15 28 43 30 17 21 29 28 14 8 13 6 8 21 7 17 19 10 13 5 20 15 14 7 15 1 8 9 10 7 17 11 8 8 4 9 13 17 15 7 14 4 7 10 0 
0 17 6 9 14 8 11 15 10 13 5 3 7 8 8 8 20 24 21 18 32 46 40 37 39 53 54 68 98 50 43 31 10 19 6 8 13 45 20 9 10 12 17 27 22 12 15 25 17 31 39 40 36 36 46 57 25 23 24 28 37 34 15 16 20 5 22 31 24 31 34 12 19 12 13 11 8 12 14 18 17 15 12 25 26 10 31 29 8 32 35 35 109 151 153 193 72 102 45 84 85 55 152 96 64 103 68 64 78 131 77 72 31 50 33 66 88 44 153 105 39 89 97 61 32 47 59 3 44 43 36 23 21 18 93 48 89 24 106 100 20 93 93 43 28 28 45 69 21 17 74 55 27 38 29 20 24 19 58 59 89 169 87 76 88 47 36 8 23 24 28 48 61 23 30 53 43 34 27 32 36 37 83 83 42 25 2 10 8 7 24 34 86 98 103 153 103 27 134 151 68 37 19 32 44 96 155 120 21 144 194 111 18 53 99 83 45 56 170 226 98 101 97 82 104 99 48 25 12 52 92 104 97 59 42 48 96 97 65 143 164 113 72 47 41 17 50 61 31 24 46 58 82 110 86 31 140 175 141 70 4 32 18 0 24 61 43 43 40 39 23 7 4 21 22 10 7 29 62 11 41 24 30 74 240 112 202 118 97 139 206 182 84 77 118 177 173 163 107 17 45 64 27 48 41 32 35 26 16 4 39 23 17 17 21 11 7 7 11 16 30 18 16 9 27 15 36 2 33 27 13 27 21 2 10 24 12 7 21 17 29 27 18 14 19 12 17 25 24 26 2 14 37 45 59 33 19 25 39 49 54 42 22 31 17 10 14 42 132 4 68 121 123 62 225 138 75 38 10 18 35 46 57 39 30 19 45 43 31 13 33 11 21 19 21 37 36 67 132 171 151 135 125 138 133 89 12 31 61 52 224 94 152 159 92 225 88 3 4 8 6 5 7 11 7 5 14 45 20 45 5 17 13 4 10 16 6 8 8 6 8 12 12 11 7 8 7 5 24 21 1 6 19 12 29 100 165 148 107 53 17 27 11 1 13 5 35 27 39 28 5 22 31 7 9 14 6 8 14 12 10 23 27 5 20 18 21 5 25 37 36 24 13 11 11 8 8 15 10 5 5 2 7 2 11 25 27 18 10 8 7 0 
0 8 2 16 16 7 14 11 11 9 7 1 4 7 9 12 11 14 22 26 27 38 43 46 41 52 56 68 98 50 43 28 7 19 3 11 3 40 29 15 14 13 23 28 17 8 17 28 16 17 27 21 23 21 15 21 43 36 40 28 30 37 10 29 34 39 15 29 28 27 32 22 25 18 8 19 29 26 13 2 4 7 7 12 4 28 29 10 21 22 43 25 240 131 69 128 88 17 115 81 48 134 62 106 144 36 111 94 113 142 50 74 75 125 144 146 75 105 98 140 154 93 37 83 57 45 38 53 16 32 7 10 8 13 63 103 30 120 100 16 98 91 41 33 61 40 36 40 53 34 68 14 55 36 28 29 13 33 29 82 146 103 61 104 37 21 41 19 32 10 17 20 39 62 57 6 59 66 47 35 7 57 97 65 26 14 27 43 42 22 15 43 52 89 142 126 39 160 143 65 59 64 74 73 79 125 140 43 132 189 102 37 103 150 94 30 6 21 138 143 136 196 146 88 92 95 73 39 41 46 19 31 46 55 35 67 115 41 107 126 53 35 55 4 25 56 84 58 51 110 112 84 93 35 111 188 154 56 47 95 81 67 43 9 32 64 43 45 17 16 28 12 7 25 8 18 11 24 58 61 76 73 67 152 165 140 190 43 181 209 203 141 89 139 206 171 72 100 60 61 83 93 58 37 33 16 21 4 30 6 52 19 14 21 21 21 11 13 14 17 16 12 15 13 25 19 45 27 11 36 28 17 31 13 3 18 7 9 31 32 22 9 24 26 15 27 5 17 6 38 27 17 36 32 17 14 28 43 19 24 3 21 38 32 7 30 68 192 76 120 95 36 195 95 32 28 21 16 29 31 26 22 21 27 54 50 47 7 35 18 18 28 30 34 36 55 84 125 185 171 145 144 145 144 80 38 50 64 36 5 139 130 36 185 95 38 13 10 10 2 13 13 13 14 11 41 69 26 44 38 14 10 19 2 4 14 14 4 14 5 4 16 16 13 8 11 10 5 25 9 11 12 16 21 48 146 194 144 89 15 16 12 12 2 14 12 38 36 46 31 34 31 18 9 8 11 12 5 6 13 3 17 35 28 9 17 10 13 34 33 24 23 21 13 7 5 6 13 7 4 5 5 9 3 8 4 3 10 17 20 22 0 
0 5 5 17 13 20 14 5 11 12 7 5 7 7 8 7 4 8 21 30 28 34 35 48 45 53 59 67 93 44 41 35 18 22 26 32 29 30 27 12 13 13 26 30 18 10 18 28 5 8 14 24 32 30 26 24 14 17 38 39 29 23 4 26 19 13 17 22 22 39 9 10 8 4 21 34 38 30 16 7 12 11 8 8 15 27 12 27 17 15 45 44 97 31 251 18 97 87 70 71 105 35 101 147 45 118 13 158 116 81 86 116 162 92 26 49 28 70 129 114 37 97 51 129 78 10 45 65 77 43 12 51 33 52 32 76 120 116 60 66 93 20 13 48 75 63 62 28 37 59 5 49 22 42 15 15 23 18 80 109 68 26 96 44 29 14 25 36 8 17 21 25 30 25 22 48 42 63 57 20 20 70 65 12 26 14 33 41 41 41 20 21 93 115 103 34 122 124 55 24 18 13 53 66 83 113 67 102 185 127 11 82 110 49 105 108 59 17 101 117 186 231 185 133 109 115 66 92 62 38 25 37 61 47 73 103 47 79 95 6 81 96 99 73 82 77 86 129 176 127 89 71 19 112 140 56 38 86 79 21 48 73 75 60 40 74 71 85 14 18 28 22 10 22 29 13 7 20 42 28 29 19 143 127 0 252 117 236 224 183 112 58 234 219 181 122 60 73 46 55 49 79 67 42 31 11 8 8 29 11 49 15 11 15 10 28 14 11 8 24 18 24 16 23 25 32 45 22 48 28 10 15 34 12 20 22 8 25 17 21 5 4 13 32 12 21 11 11 22 36 24 21 20 38 10 27 28 23 36 31 11 10 9 22 41 89 189 46 102 40 213 113 16 54 38 34 35 31 22 19 5 22 40 28 48 51 9 20 44 39 71 88 86 92 115 156 166 171 171 125 130 145 141 93 32 52 93 46 222 151 123 236 106 26 12 6 11 17 20 17 18 18 18 5 25 80 49 79 11 3 22 2 17 1 7 13 21 8 16 8 8 21 20 12 4 13 16 12 18 10 18 20 16 47 92 189 191 111 65 27 18 32 40 25 4 23 15 46 44 45 35 34 30 27 19 7 10 15 21 25 17 20 23 35 12 20 13 10 8 14 5 11 9 12 7 8 5 11 5 4 5 7 10 5 13 19 20 22 13 14 14 0 
0 19 7 13 7 26 9 15 5 8 8 8 4 7 12 13 15 28 25 21 41 46 22 40 53 55 60 66 87 35 36 39 18 8 21 15 22 14 26 6 34 38 25 25 20 9 5 28 9 34 34 13 31 33 31 16 28 36 17 16 24 11 2 15 31 22 16 14 17 11 15 15 25 14 11 24 29 34 37 38 40 30 9 5 8 20 27 36 34 14 28 22 29 190 75 38 156 20 76 108 37 102 114 20 76 73 73 163 25 74 67 84 154 129 34 71 80 38 27 148 179 74 34 90 206 121 56 68 28 70 64 86 40 44 43 52 98 86 30 64 45 3 24 24 63 67 29 72 86 13 51 25 60 22 50 46 32 89 130 47 83 89 75 37 28 45 47 18 27 9 37 46 41 59 51 17 73 36 46 40 38 48 51 43 23 13 38 38 12 24 50 91 137 129 38 105 130 54 43 11 17 19 67 49 77 93 40 167 152 55 70 80 38 75 77 29 98 89 142 194 232 202 139 117 86 59 15 41 79 77 57 53 26 32 91 75 48 43 34 75 46 42 58 89 118 114 84 133 155 97 83 31 81 48 138 187 143 57 32 68 67 54 41 21 19 185 123 189 22 46 22 37 14 31 47 44 22 10 8 10 31 249 245 247 3 121 35 11 201 82 131 19 51 181 75 78 99 40 25 32 11 47 79 92 49 22 15 8 22 32 46 13 4 17 10 34 14 13 11 37 17 30 25 43 32 13 25 34 31 39 36 37 40 22 21 12 14 23 17 22 5 6 11 15 31 29 21 11 18 12 25 36 44 60 50 60 39 7 33 34 14 5 38 78 134 226 40 66 253 117 60 24 41 60 15 25 23 24 10 20 15 30 20 41 39 27 2 26 70 60 66 102 144 154 163 183 157 143 132 102 111 74 33 36 16 88 38 176 139 165 236 67 23 8 7 0 10 7 15 30 26 17 16 72 89 23 68 49 24 39 60 50 26 3 14 11 23 13 16 13 13 24 20 8 8 21 24 10 5 18 14 26 22 79 133 185 139 71 37 28 16 16 27 26 31 13 38 73 41 38 28 17 15 12 17 15 10 11 17 21 29 38 20 38 7 17 19 30 23 29 22 24 10 15 9 5 1 9 3 4 5 5 10 9 14 23 6 21 4 7 8 0 
0 24 17 27 29 18 8 8 17 12 1 7 9 4 7 15 23 29 14 13 42 49 5 30 63 61 64 65 67 36 46 45 21 15 31 36 25 11 21 30 18 17 18 17 8 33 39 5 39 38 17 21 31 29 26 16 22 12 13 8 10 19 16 18 23 21 15 11 14 25 22 30 5 16 10 8 31 45 20 26 34 26 5 3 4 17 23 32 50 33 29 15 25 151 86 49 144 90 63 32 120 83 44 95 27 31 47 152 42 70 169 101 82 134 40 6 96 55 135 216 115 120 44 141 86 248 111 37 50 72 50 100 46 31 61 65 60 37 70 49 32 12 49 43 18 75 77 12 71 65 47 18 36 55 32 36 64 111 72 74 74 70 38 22 15 17 47 19 23 21 23 22 34 50 34 51 64 74 73 70 55 40 2 31 39 24 12 39 25 30 53 114 150 61 97 140 80 20 8 16 17 12 79 66 71 39 114 135 50 84 131 81 52 77 138 177 179 149 154 156 118 48 22 25 23 4 17 19 20 12 4 6 36 66 75 41 30 70 112 74 47 78 23 83 19 85 27 94 67 58 137 104 23 150 164 102 71 80 86 35 27 48 41 47 72 234 54 252 45 35 38 32 17 43 9 34 40 32 22 62 67 39 187 123 119 238 249 184 48 179 14 248 196 77 16 28 60 36 42 52 29 17 44 73 67 29 25 11 5 22 29 4 5 34 26 46 18 11 25 50 32 35 29 24 31 38 33 19 40 48 20 12 31 27 38 17 18 14 17 13 8 8 24 14 6 5 21 28 32 17 27 36 33 62 82 67 38 24 23 26 64 128 177 198 247 67 26 181 115 32 24 27 37 53 10 11 3 25 14 24 16 35 27 14 30 21 49 84 102 94 85 116 125 139 142 110 76 77 84 52 36 37 54 35 66 88 133 118 169 45 98 15 7 14 1 11 7 13 21 33 15 13 20 61 19 77 58 34 11 25 50 37 31 2 15 13 14 16 15 10 10 22 19 2 17 17 18 12 3 15 20 17 38 114 160 164 111 63 18 27 18 20 37 31 23 23 58 45 5 19 18 11 28 9 12 14 6 2 12 37 17 53 8 33 13 9 13 22 22 38 34 22 5 9 17 21 20 13 7 8 11 7 7 13 5 24 22 22 7 10 6 0 
0 21 20 7 10 8 20 14 17 16 11 5 7 16 20 20 10 23 26 7 22 53 19 28 72 73 61 56 51 38 66 32 14 29 10 18 22 22 10 34 27 13 7 24 24 32 24 25 17 21 18 9 28 26 19 9 17 20 17 2 13 8 42 24 22 18 12 8 16 23 21 25 35 28 27 19 41 22 42 37 31 13 6 2 3 18 11 15 22 31 40 46 34 76 86 170 127 33 90 122 39 79 116 45 102 73 124 196 162 111 127 10 37 133 92 62 71 34 169 176 18 146 107 106 148 140 8 77 67 71 26 62 49 53 46 36 19 97 63 19 32 49 89 75 68 10 80 83 39 31 39 39 24 7 59 75 31 54 116 96 27 20 17 32 28 43 49 47 48 13 31 44 7 23 18 58 47 19 95 54 29 17 30 27 15 42 10 62 72 87 96 122 67 86 128 60 27 51 49 17 16 14 76 86 61 24 101 66 139 167 155 104 89 99 110 97 75 25 18 38 49 50 32 18 13 12 5 12 13 4 9 11 76 96 47 12 37 57 52 65 113 35 50 80 127 114 61 97 78 146 142 31 165 119 15 134 146 82 27 66 66 50 26 18 55 200 25 235 60 8 12 5 11 41 46 24 18 41 77 110 64 138 35 219 224 216 142 17 187 56 209 131 98 27 53 42 59 74 61 49 49 24 33 32 59 34 43 2 17 16 22 13 11 33 16 42 14 13 40 47 22 33 5 20 42 8 28 45 24 39 11 18 17 25 45 22 18 24 18 12 10 18 19 20 8 7 30 14 39 16 17 19 38 33 41 38 37 32 2 73 177 38 92 65 12 219 99 17 116 107 41 28 42 30 5 3 5 18 24 39 38 32 25 23 44 83 122 144 153 151 145 128 100 80 60 27 27 33 59 44 51 40 38 77 44 128 92 195 80 160 38 8 17 26 24 8 15 12 13 24 12 22 15 64 78 56 11 22 6 28 52 16 35 21 26 30 16 1 3 8 8 15 25 14 18 2 14 10 12 9 15 12 66 148 164 134 97 41 11 16 13 10 29 29 8 52 52 32 21 34 30 25 29 4 8 10 8 17 24 27 14 41 21 13 13 14 17 6 23 22 5 2 2 13 27 16 11 10 2 3 8 10 6 17 10 13 17 7 5 9 7 0 
0 12 18 29 22 4 18 19 25 12 18 23 20 9 10 17 11 18 36 7 12 47 25 33 77 65 51 65 70 55 45 22 15 38 8 7 41 8 27 34 30 5 13 29 5 29 34 16 14 19 6 6 18 26 18 12 5 16 18 14 26 42 53 20 40 7 10 17 30 38 30 12 16 1 39 21 36 39 28 42 30 15 4 2 5 11 17 18 17 12 8 11 25 212 113 152 94 153 164 59 100 91 29 143 83 170 109 192 221 80 90 72 21 77 84 77 104 172 137 97 79 53 163 70 217 142 203 136 53 34 50 92 83 42 46 49 39 86 37 51 66 66 46 38 14 54 28 63 54 41 52 38 17 62 126 130 49 58 71 55 37 46 3 48 50 73 27 40 24 12 31 55 29 35 35 33 13 60 68 29 2 30 15 23 46 23 34 70 87 117 117 49 58 123 60 58 64 32 33 35 22 24 92 117 60 53 78 91 143 142 135 108 92 58 42 17 35 33 38 34 19 26 19 21 4 2 11 14 23 28 13 64 140 96 41 27 65 46 49 114 91 7 23 75 94 61 86 90 62 124 27 127 103 66 107 124 112 56 101 113 63 72 34 24 71 199 29 222 51 15 8 1 5 20 5 27 43 137 144 19 65 51 240 245 190 130 10 176 43 250 108 60 66 52 31 33 61 60 31 10 28 31 4 44 50 39 34 14 28 24 20 25 17 7 35 35 19 25 38 38 33 47 29 22 16 50 46 21 8 37 13 38 16 32 25 36 23 33 13 27 13 24 27 19 6 8 29 20 30 7 20 6 5 15 41 26 17 52 124 222 40 90 62 11 130 44 73 58 56 127 85 22 24 7 18 17 5 25 30 13 58 41 75 99 113 165 194 180 148 122 111 91 70 41 14 28 48 42 25 16 24 72 117 70 152 86 165 104 191 47 13 32 21 15 7 10 23 30 11 17 16 14 18 5 8 8 23 20 14 34 77 48 68 18 7 15 15 7 5 27 31 20 14 20 13 8 17 10 10 26 28 38 102 178 149 102 89 12 26 11 6 21 29 36 20 72 50 41 40 29 18 5 15 14 9 8 13 15 12 8 10 24 8 5 8 5 31 16 18 17 16 17 18 22 24 32 27 24 7 26 31 13 15 13 25 8 5 11 8 4 20 0 
0 31 21 14 26 27 34 21 16 12 9 7 7 12 15 17 15 24 35 13 15 39 24 44 69 42 49 84 93 46 22 20 30 32 6 10 34 5 24 23 32 14 9 33 48 46 41 8 42 41 23 17 21 22 17 7 5 11 19 15 26 4 20 30 26 27 13 8 32 10 44 32 33 32 35 9 20 17 29 14 16 23 14 15 22 21 12 6 23 22 10 8 17 32 37 88 81 254 27 102 97 46 126 91 75 152 83 192 129 96 69 77 119 100 32 70 118 123 89 41 127 126 100 227 70 221 34 166 110 37 41 105 106 84 24 55 7 93 55 12 35 40 30 58 66 18 74 30 55 25 17 33 37 68 83 30 48 72 60 36 53 45 14 36 48 30 29 12 22 33 37 10 14 24 22 54 78 95 59 38 40 39 52 34 23 18 47 48 88 149 51 120 129 86 36 23 60 95 27 42 16 62 129 121 42 51 89 130 119 79 70 51 63 20 21 34 38 29 31 29 23 40 17 24 9 8 10 3 17 5 48 126 118 14 70 9 67 33 67 96 34 12 41 31 33 17 94 101 59 85 45 119 71 134 104 58 64 121 82 12 48 83 51 26 82 220 61 235 27 5 11 0 18 15 12 32 209 159 190 207 80 206 236 196 88 79 229 30 225 108 46 47 40 20 29 58 66 28 15 27 22 29 56 48 32 35 8 16 24 22 11 17 12 13 18 46 71 49 9 31 36 26 7 12 26 21 31 29 11 28 37 23 19 35 17 7 18 30 13 43 18 7 25 10 26 20 22 14 5 11 15 7 12 2 18 72 148 236 56 79 55 1 146 121 147 56 51 1 7 81 115 37 22 4 32 25 17 12 35 80 132 129 152 181 214 231 187 120 70 43 31 27 47 34 29 39 29 15 11 43 107 122 59 161 131 167 79 187 49 38 41 21 17 32 19 3 33 57 31 10 13 3 19 21 14 25 25 21 11 7 61 21 83 11 20 25 22 15 12 26 13 19 5 11 11 16 10 13 11 8 20 56 139 188 125 78 69 7 30 21 13 26 29 37 30 76 54 34 23 7 7 15 6 8 4 4 11 16 14 7 11 17 14 13 8 16 20 11 23 32 27 20 11 8 21 26 9 44 28 31 14 24 8 17 24 13 15 11 7 13 15 0 
0 11 14 7 19 10 14 3 7 16 19 20 17 7 5 5 12 30 31 20 19 29 24 53 54 24 51 100 89 40 30 43 34 17 8 7 29 24 16 39 24 7 6 8 14 14 33 26 18 24 19 16 28 20 28 8 11 1 20 10 30 16 31 42 41 26 19 22 41 61 45 8 15 20 2 27 30 18 20 14 17 20 16 17 15 6 11 20 23 27 11 7 22 49 174 141 56 224 148 98 49 136 71 68 98 19 108 38 110 144 119 75 107 123 78 60 41 52 102 51 27 143 96 232 166 127 144 42 110 57 80 95 64 65 55 11 55 50 74 72 81 46 26 7 47 66 23 64 14 42 40 17 70 80 45 53 86 75 28 14 22 11 9 21 36 27 27 48 42 27 18 4 15 14 38 77 77 34 25 44 52 8 27 59 65 18 49 57 108 158 110 195 87 73 56 83 79 50 74 61 102 127 134 87 38 58 104 120 79 32 8 42 62 42 23 18 28 3 7 26 25 39 15 26 12 11 14 9 18 39 111 130 47 51 46 36 54 28 92 75 62 92 90 45 27 44 81 126 21 62 39 53 117 62 3 29 52 13 71 117 115 64 46 7 106 188 100 207 13 5 5 16 4 52 39 234 230 156 104 128 202 195 156 94 93 34 77 234 93 46 52 44 33 50 71 83 60 15 18 29 41 50 43 10 26 38 29 32 29 28 25 3 4 12 40 49 51 31 33 5 3 27 43 33 18 13 57 37 45 17 13 8 19 23 21 8 16 23 19 46 14 22 11 22 29 24 19 10 14 19 15 14 14 55 103 198 24 92 90 5 148 79 58 116 162 60 36 32 24 39 116 108 44 41 57 74 95 127 173 220 239 230 230 218 187 138 71 24 15 17 4 19 43 40 15 20 32 35 34 125 157 49 184 133 182 70 146 23 2 21 35 46 30 14 22 15 7 37 24 19 22 21 35 37 28 22 21 28 24 16 49 34 61 8 11 13 11 15 18 26 26 11 14 24 19 14 4 4 7 17 39 90 154 171 97 42 38 27 30 37 2 34 39 15 50 69 45 24 21 13 7 19 7 7 5 5 11 18 20 17 22 24 8 15 2 15 18 16 3 8 1 11 8 4 8 8 17 38 21 47 21 12 12 19 22 23 15 3 9 14 16 0 
0 17 22 21 11 37 35 19 9 7 3 1 8 20 27 25 8 32 23 26 24 20 26 48 51 27 50 92 84 45 42 61 29 3 11 5 13 36 43 19 12 6 4 7 26 40 27 1 26 33 28 31 25 29 34 12 24 19 24 28 36 33 46 33 18 32 29 10 25 18 23 34 25 29 22 16 10 15 17 22 2 22 14 17 22 19 17 22 28 31 13 22 38 50 37 152 9 149 108 80 110 21 87 62 87 144 46 66 62 157 181 28 52 133 66 72 77 85 86 92 88 50 174 29 12 147 109 122 74 120 74 49 66 70 70 50 29 26 71 98 48 54 33 31 40 37 75 27 49 44 66 67 104 83 25 61 47 4 27 22 22 14 25 35 20 15 53 34 57 27 26 42 45 34 80 72 35 17 35 13 31 26 24 22 26 48 20 70 136 141 140 186 45 5 17 26 66 42 87 167 166 135 94 55 62 84 72 23 33 76 103 107 75 26 28 60 73 68 68 72 65 55 31 28 5 8 23 27 17 112 178 128 55 62 10 76 44 99 99 67 71 79 65 63 18 48 47 141 64 59 34 86 60 65 67 82 19 80 124 103 43 31 27 13 115 127 99 128 35 30 9 21 29 29 12 14 164 71 154 207 209 149 42 98 253 82 215 96 56 31 58 38 49 74 65 47 16 26 18 21 36 46 31 22 12 30 16 7 7 17 19 11 26 22 22 19 40 25 23 37 44 47 34 24 5 19 41 31 19 25 24 2 17 18 8 13 17 16 12 34 2 29 6 14 24 18 3 17 21 16 10 47 124 190 9 93 104 60 199 96 35 75 74 76 122 70 21 61 52 22 63 143 150 122 121 164 216 236 238 212 181 150 119 93 58 19 11 2 30 43 38 31 54 60 39 0 12 58 104 157 27 245 154 172 62 145 12 21 13 17 24 21 1 8 17 17 17 39 31 22 30 21 13 20 19 6 11 23 4 8 24 18 37 13 10 5 10 14 11 16 12 10 19 17 27 9 15 25 17 11 76 130 150 143 84 34 26 27 24 39 40 52 42 22 58 54 35 16 19 15 19 20 3 7 4 3 7 14 20 19 24 21 24 12 8 5 19 9 3 8 2 13 10 7 10 4 12 32 34 32 21 8 17 12 11 18 5 5 5 8 14 0 
0 18 20 28 12 41 12 30 8 13 16 19 21 22 16 23 7 31 12 27 28 15 30 47 58 58 52 70 86 64 54 58 24 6 11 8 12 33 51 30 38 22 16 13 14 33 11 10 29 36 19 20 42 44 14 31 8 29 20 10 21 29 12 26 10 12 15 7 13 13 25 6 15 8 7 19 32 24 17 9 21 15 17 9 7 10 7 14 29 21 21 48 20 22 123 70 40 6 194 117 25 114 78 83 154 34 129 12 163 84 144 138 46 47 145 93 138 61 41 131 46 132 83 182 64 245 137 84 103 114 63 18 58 106 88 41 25 48 79 65 47 25 37 38 53 58 62 34 73 63 49 77 90 45 64 95 47 38 27 25 11 19 35 39 31 15 43 41 31 40 52 43 31 47 98 60 12 15 41 28 28 23 25 53 10 43 14 69 157 145 137 181 35 35 23 50 78 90 133 139 116 91 64 60 80 56 17 94 133 132 104 57 28 50 82 81 61 40 30 32 22 18 21 39 11 18 21 14 90 155 139 20 71 56 38 51 65 137 83 53 48 31 13 62 24 23 136 184 70 108 73 57 14 120 95 38 72 106 71 36 20 16 12 23 146 103 108 96 66 62 3 24 64 54 16 142 32 202 229 181 82 59 192 1 25 231 73 74 51 20 31 42 67 51 21 55 47 8 21 42 63 50 7 34 20 43 38 28 27 29 38 49 35 15 4 21 28 16 5 23 25 9 29 20 5 17 27 53 55 29 28 18 28 32 17 14 12 19 6 24 8 17 12 8 14 30 37 27 21 61 117 193 18 52 72 50 221 118 27 112 65 21 42 35 104 89 54 29 43 59 106 170 223 217 216 212 162 127 121 76 59 29 7 6 7 17 18 18 43 22 69 30 43 70 55 24 65 134 146 55 226 188 168 41 123 16 4 22 16 11 21 26 29 26 12 17 18 21 23 16 25 37 36 25 18 4 24 35 23 15 3 14 18 23 19 16 13 15 24 35 21 5 17 10 15 8 27 16 10 22 115 150 141 125 73 32 7 28 29 10 0 38 16 31 54 58 43 25 22 13 18 4 5 5 7 8 6 0 8 13 13 9 29 13 7 16 16 8 11 17 4 14 22 24 24 12 12 23 21 15 9 16 25 3 14 4 8 7 4 4 2 0 
0 4 29 26 19 43 23 24 4 0 8 13 9 7 19 25 11 27 1 26 31 12 33 59 60 45 43 72 89 58 40 41 22 7 10 19 25 18 29 40 20 33 29 23 8 39 21 26 24 37 22 17 4 19 22 31 26 20 15 8 24 41 31 6 14 20 15 25 19 30 20 21 11 4 14 21 21 28 14 14 15 2 8 15 23 32 30 11 52 38 35 27 49 23 6 138 174 171 218 84 124 48 88 154 27 126 58 102 101 65 93 147 64 13 129 165 44 113 43 115 78 140 62 192 202 47 237 123 125 123 103 63 87 55 16 13 57 131 113 46 36 52 22 13 19 48 29 48 57 89 73 66 17 84 73 69 18 33 46 37 22 22 49 88 37 16 18 10 17 33 59 47 76 106 63 33 57 54 53 31 10 28 9 33 50 68 29 58 181 163 149 205 38 17 46 99 122 173 164 71 35 39 51 75 57 18 87 118 75 13 51 124 146 121 86 47 18 18 24 29 28 24 24 40 5 28 15 69 157 143 37 80 62 14 26 68 110 102 76 28 10 30 28 30 21 74 181 97 121 164 39 29 75 144 37 95 121 106 30 14 18 14 18 42 159 66 42 100 123 75 7 128 121 245 60 24 205 229 177 62 87 213 17 236 173 97 5 69 44 10 11 29 27 28 17 18 34 12 13 30 37 40 34 33 45 36 39 28 31 34 51 46 34 3 30 54 62 37 14 38 25 36 45 17 8 23 15 23 13 21 19 14 24 43 32 21 11 27 17 25 18 11 9 11 31 42 21 34 100 209 16 88 138 96 241 100 61 52 56 86 61 8 57 6 91 82 43 61 29 55 127 119 122 125 121 86 56 34 52 30 20 11 17 15 15 21 20 27 51 17 85 2 76 77 72 83 142 163 59 155 137 174 8 91 22 22 11 19 14 5 19 3 7 14 8 26 15 9 18 11 10 10 18 14 8 22 33 35 22 26 19 12 7 11 7 5 4 10 22 18 9 10 11 12 21 10 24 24 25 58 130 145 137 117 52 7 37 39 21 14 12 38 16 63 76 63 37 8 12 11 17 5 2 10 13 14 12 9 7 8 6 17 14 17 2 9 24 8 11 17 16 19 19 16 14 13 10 25 17 7 15 29 16 9 9 15 7 4 4 5 8 0 
0 20 11 25 14 12 17 4 7 6 13 4 8 5 6 14 18 18 2 27 32 8 38 57 44 48 53 84 80 55 50 40 21 15 5 25 4 7 10 11 39 24 24 16 13 23 3 15 35 37 9 16 15 11 8 29 12 26 40 34 36 35 17 21 11 30 21 17 19 19 12 8 13 21 7 27 22 18 17 22 7 9 18 24 14 4 19 22 47 21 19 28 29 29 33 199 131 82 117 100 27 112 118 53 98 73 85 72 58 98 84 147 72 31 110 241 181 32 155 120 77 121 179 63 200 157 145 233 61 42 62 47 134 31 24 49 88 100 40 74 46 52 42 46 20 39 42 20 38 83 74 11 98 71 56 38 46 29 43 21 12 30 34 31 80 65 23 29 39 13 39 111 173 114 51 38 25 55 49 52 43 19 17 36 62 32 32 51 159 177 131 203 23 36 114 129 101 121 87 44 34 42 50 35 21 95 114 70 30 112 140 125 78 38 15 9 7 25 26 18 17 15 14 32 46 34 14 101 180 81 60 58 55 39 106 114 90 73 66 14 39 43 10 38 115 185 134 65 176 95 39 64 87 46 85 93 73 70 20 18 10 1 17 86 135 44 95 53 166 65 183 182 242 222 85 186 183 159 47 93 185 232 210 122 48 28 52 62 36 22 30 11 21 38 36 51 30 13 34 43 34 25 14 37 45 10 27 18 17 21 35 25 51 12 41 38 40 36 52 24 24 22 23 31 8 43 11 25 14 3 9 6 5 21 21 32 19 37 10 24 15 28 16 18 29 38 110 189 250 59 86 114 48 170 96 64 84 71 12 59 93 25 66 30 96 108 37 18 67 80 87 55 10 26 29 14 45 35 29 12 5 17 19 8 9 25 14 29 34 14 60 45 101 69 80 112 129 49 164 101 165 54 101 4 3 12 14 7 11 2 16 32 29 13 11 18 25 7 4 10 5 8 24 7 12 21 31 36 19 12 5 8 8 11 11 6 4 17 22 4 16 5 13 30 19 16 5 10 28 83 129 135 139 96 13 7 25 14 5 8 11 22 35 79 52 24 12 8 10 16 11 2 18 26 17 2 8 15 7 7 16 30 37 18 5 6 18 11 7 11 1 14 20 22 22 13 13 15 18 6 19 13 12 3 14 13 10 4 12 16 12 0 
0 17 25 14 24 26 9 22 11 8 15 15 18 19 8 8 2 15 15 27 36 16 46 46 19 52 68 72 68 62 67 47 26 15 6 10 16 22 19 22 25 23 34 35 7 6 28 23 3 5 26 23 28 14 7 13 26 18 8 21 13 12 16 28 39 24 12 13 16 22 25 23 32 18 33 12 25 27 18 26 14 7 11 12 29 39 33 21 20 20 15 18 7 11 19 67 242 33 47 118 117 84 49 93 40 87 73 56 89 30 156 111 60 46 27 122 13 203 67 176 162 31 207 124 101 171 104 151 135 87 112 124 112 17 24 88 58 24 37 33 52 11 77 38 44 50 69 54 68 83 27 57 80 69 60 32 82 45 38 18 21 31 69 83 31 79 82 57 61 57 70 88 135 77 44 36 83 69 47 29 16 40 22 53 34 25 39 76 122 158 62 203 48 73 132 119 94 82 31 17 41 34 14 63 96 106 52 53 125 143 100 39 26 8 22 2 20 15 15 24 21 7 5 12 18 16 9 130 193 20 123 57 115 26 160 96 57 36 19 35 13 45 17 133 232 187 66 162 105 22 46 80 31 86 95 55 60 43 9 11 10 20 10 170 137 125 92 153 76 189 191 184 169 140 240 180 113 64 108 224 244 192 119 35 3 24 52 55 48 43 33 29 35 44 18 14 16 26 12 25 21 18 16 29 25 16 19 22 37 43 15 24 32 45 42 3 36 42 36 45 43 31 22 4 19 49 22 19 32 29 11 3 1 10 32 40 2 32 4 18 10 26 13 15 48 156 21 105 120 70 11 179 40 59 135 141 94 102 97 53 81 59 55 67 66 163 86 54 40 102 93 38 24 26 6 26 21 24 0 4 12 18 11 24 24 27 5 29 22 15 65 104 89 52 80 107 15 195 137 176 67 169 32 27 27 13 4 7 1 5 13 11 18 20 6 12 8 9 10 13 19 14 10 17 2 2 18 10 12 12 17 4 8 7 3 5 9 12 18 11 9 12 26 24 15 20 8 8 44 105 138 133 137 64 11 4 16 31 22 25 17 10 53 61 20 11 9 4 3 4 3 13 28 27 33 12 2 21 2 2 19 28 19 14 14 7 10 12 0 4 12 18 11 9 24 17 11 14 24 7 15 24 22 13 21 23 10 10 10 15 21 0 
0 17 16 28 35 34 32 14 10 7 2 14 5 20 18 23 10 22 19 20 44 13 37 42 22 57 65 63 64 67 63 46 32 17 11 6 8 34 24 12 12 13 8 39 19 2 34 8 12 24 14 22 28 27 39 37 7 27 21 14 10 15 7 10 42 47 35 23 11 14 12 21 55 21 32 17 17 8 22 17 12 15 7 14 21 9 21 28 19 14 43 42 31 24 26 22 57 154 201 208 59 61 77 31 94 72 97 111 48 105 66 151 190 128 96 120 86 69 232 51 152 151 131 246 14 94 121 146 103 11 62 74 29 19 46 82 25 17 13 16 23 54 4 43 47 67 55 82 78 41 40 93 61 34 10 74 72 63 48 3 2 13 31 54 75 17 58 84 68 74 116 222 43 241 187 170 117 20 51 57 46 18 52 81 23 25 37 93 108 148 20 199 83 125 169 132 87 77 50 33 39 16 65 90 69 16 97 135 101 53 14 39 35 15 30 36 43 28 8 18 8 12 7 15 7 21 49 188 161 49 139 81 168 126 159 87 45 22 27 20 21 12 110 205 162 16 158 146 24 46 71 41 53 104 80 79 60 10 43 43 23 28 18 238 105 229 74 61 183 150 104 95 127 217 195 92 43 108 221 237 151 85 58 26 14 36 60 60 54 41 39 54 66 50 15 20 23 17 8 10 14 26 29 6 28 42 18 8 34 13 37 17 26 45 26 23 29 18 9 43 21 30 24 34 31 34 17 26 17 30 23 7 6 5 37 31 25 12 14 10 14 16 40 76 200 62 119 101 17 164 69 99 46 46 126 174 104 122 75 77 33 77 48 128 52 148 165 21 14 93 128 32 13 33 13 27 7 13 10 11 8 24 11 26 15 29 21 22 41 58 70 56 38 75 128 42 205 132 180 76 179 75 16 5 16 27 16 8 5 5 14 19 26 14 15 4 15 4 5 8 17 32 27 11 8 8 4 16 35 38 19 5 9 0 2 7 14 18 23 24 15 16 27 11 23 17 11 27 78 132 152 126 112 33 21 13 25 17 5 18 27 21 68 40 7 12 4 7 11 6 6 19 29 20 25 12 7 15 4 4 15 29 36 19 10 4 21 17 10 9 12 13 4 15 24 8 8 14 21 7 9 10 29 13 20 20 9 14 24 25 23 0 
0 12 1 11 21 16 35 32 22 16 22 7 28 29 20 8 15 34 11 8 51 19 23 49 36 51 63 66 63 52 41 48 41 12 5 10 4 27 8 24 27 30 13 31 31 9 13 15 4 14 12 10 26 35 24 41 30 26 22 18 26 14 15 19 49 26 35 7 14 24 22 41 75 42 37 31 21 30 11 4 18 34 13 12 20 21 31 31 36 34 32 35 22 8 10 57 163 174 79 198 120 61 66 121 38 106 151 27 142 37 100 122 117 195 146 58 178 85 83 168 123 206 38 3 132 14 82 107 92 74 96 17 34 12 64 84 25 4 37 7 23 54 70 34 63 94 69 77 35 62 78 61 11 20 42 35 36 53 60 35 25 15 23 36 32 49 53 25 10 58 121 95 42 134 178 220 28 59 26 180 54 34 35 55 69 44 53 77 97 143 56 165 174 187 196 130 64 11 10 29 2 49 86 27 59 101 112 74 16 20 21 36 42 39 37 30 20 38 25 18 7 19 7 17 23 26 131 198 53 108 145 82 107 97 122 58 31 9 43 20 30 136 196 120 72 139 111 80 99 122 94 52 87 90 64 35 43 83 55 43 8 22 15 9 67 8 85 68 155 58 41 157 192 190 103 48 168 237 236 122 23 82 62 42 15 60 72 45 10 11 8 18 24 7 32 27 27 20 11 4 12 13 15 30 24 48 8 10 27 13 40 9 41 9 18 20 54 61 19 36 43 41 14 28 2 24 40 43 48 44 31 18 10 10 34 28 5 12 11 12 7 55 119 241 124 151 66 186 46 73 80 111 50 17 123 12 132 199 126 72 25 85 79 80 116 43 172 105 7 78 136 26 60 41 28 25 22 22 19 10 7 27 14 33 9 27 38 84 89 46 36 29 64 108 48 177 132 148 44 145 38 8 34 29 25 13 22 11 10 4 3 10 17 4 21 4 14 14 14 20 20 9 24 10 15 16 23 18 5 11 11 7 5 1 2 7 13 15 17 8 7 12 16 9 16 16 6 46 101 143 142 93 67 31 36 27 20 13 17 28 11 48 75 27 19 33 26 20 24 28 28 21 9 24 10 7 6 2 13 12 18 22 18 14 12 14 36 29 9 8 11 14 18 21 21 12 16 18 5 17 17 11 21 11 31 23 8 8 6 8 18 0 
0 22 14 24 27 33 18 30 16 35 29 6 42 20 24 21 19 47 13 10 61 31 27 53 38 40 61 72 69 54 42 50 47 13 7 9 0 29 9 38 14 33 3 20 36 4 3 23 2 8 26 22 13 18 19 12 38 45 33 13 17 14 22 12 52 35 31 9 2 0 22 22 69 42 40 27 22 15 20 9 26 28 25 12 26 24 10 14 15 7 21 28 17 10 22 61 86 135 233 112 144 114 106 48 114 127 44 166 49 127 113 38 161 146 113 94 127 192 153 39 35 204 116 156 233 88 92 42 46 78 91 44 57 88 91 52 25 40 38 30 56 27 36 76 93 85 60 35 66 81 21 11 41 48 38 58 62 45 57 39 19 13 8 13 5 12 63 30 82 113 149 191 212 203 189 161 87 53 191 24 42 248 144 71 62 52 56 66 107 143 78 75 134 123 114 27 19 28 5 43 74 72 44 55 106 72 29 16 22 26 29 49 20 4 8 18 31 53 31 9 14 22 2 33 56 79 174 122 71 148 133 55 61 23 69 4 33 28 21 24 75 177 109 57 123 81 13 75 115 89 55 106 106 63 19 67 130 117 84 88 51 25 30 26 68 218 111 212 254 7 157 172 144 98 31 159 249 0 180 112 74 86 67 29 28 66 62 29 20 19 17 18 20 24 23 29 2 13 10 30 26 10 10 24 10 31 24 10 8 24 34 29 31 27 33 49 31 41 28 3 41 38 25 19 34 48 40 28 38 40 25 32 16 15 24 36 10 29 36 48 84 163 6 105 128 19 114 25 67 119 86 124 113 38 77 33 228 104 213 133 57 67 96 14 99 49 128 132 38 72 83 77 78 51 57 33 17 12 4 7 11 9 37 70 55 54 38 71 21 26 76 90 35 92 237 116 169 65 161 40 24 26 13 16 21 5 18 5 11 5 4 10 12 2 16 6 12 18 18 3 14 15 23 4 8 18 9 8 24 27 19 5 4 3 5 12 15 16 18 15 13 6 5 10 10 17 18 59 111 137 117 61 41 36 22 7 3 14 33 22 31 64 57 16 13 23 12 13 18 17 17 5 12 21 13 2 2 12 18 21 11 4 10 34 15 34 18 36 10 5 8 13 18 19 14 18 26 25 11 3 17 18 21 9 10 7 14 22 22 22 19 0 
0 20 25 17 8 11 4 34 13 38 27 4 40 24 34 28 9 44 4 9 66 32 22 46 31 39 62 77 73 58 35 36 39 9 9 7 3 30 12 45 14 40 7 8 33 35 34 42 14 6 30 16 12 12 10 33 40 31 4 18 35 24 34 13 29 22 10 10 21 24 15 16 43 57 20 18 21 19 18 22 46 39 13 21 12 7 17 10 11 21 27 10 16 28 39 58 44 0 99 110 210 184 10 105 96 46 166 44 142 101 63 169 182 93 37 151 137 137 92 221 207 69 201 34 0 183 55 22 67 71 59 32 28 30 56 33 37 17 29 44 22 60 35 91 100 72 40 82 95 53 32 38 33 20 18 44 57 79 5 49 17 35 25 18 38 65 55 45 101 85 26 33 17 60 146 221 30 60 248 107 81 234 31 228 159 100 34 41 108 138 85 43 66 85 66 1 12 16 40 62 51 11 35 83 56 15 40 29 15 33 18 41 17 28 38 29 27 45 15 9 18 20 5 60 31 65 128 50 114 133 72 10 47 31 43 20 8 28 24 83 121 115 121 170 75 73 85 59 39 46 136 128 77 34 34 153 210 115 160 103 18 13 99 57 178 46 163 169 144 197 147 86 47 54 160 222 224 170 59 60 89 58 35 52 44 51 54 20 11 24 23 5 19 29 15 17 25 13 33 51 39 22 18 18 21 33 43 23 16 39 26 40 11 48 42 17 43 23 19 27 50 20 18 5 35 17 55 45 49 5 5 31 25 3 37 15 42 52 69 126 194 21 77 52 206 63 41 49 67 116 77 101 172 117 18 210 75 148 140 195 107 20 98 52 89 95 73 151 112 82 41 82 66 55 82 48 15 24 14 14 11 22 42 58 27 66 19 81 49 88 98 17 182 58 132 152 81 181 40 13 12 10 25 28 7 4 7 13 6 16 2 12 10 4 5 13 10 21 23 22 16 15 8 2 7 14 30 26 7 10 14 3 7 7 8 7 7 12 17 22 17 6 5 8 5 21 36 68 112 125 97 47 20 21 18 17 11 31 31 23 60 60 31 15 22 17 7 8 13 13 14 3 17 13 14 4 4 13 17 21 13 7 12 31 7 34 23 31 8 18 16 12 10 7 12 12 6 7 7 11 10 15 18 7 8 9 13 29 38 34 17 0 
0 16 18 6 23 33 34 7 12 23 17 8 24 30 31 6 41 39 12 7 53 39 48 65 43 47 59 64 68 66 49 43 41 8 10 7 4 30 12 40 15 39 8 2 5 10 11 22 27 32 37 25 11 17 24 33 43 39 24 24 19 4 23 26 7 10 21 14 12 23 20 19 16 8 40 8 24 22 1 31 24 36 13 15 21 4 20 10 11 27 27 6 24 4 34 45 28 50 115 141 168 160 150 85 50 126 46 164 107 86 156 165 124 54 113 80 187 94 145 38 226 149 169 176 192 195 72 19 74 104 53 25 44 78 91 29 41 38 17 49 14 55 91 113 105 23 82 93 63 39 31 20 34 64 68 49 67 36 19 24 38 38 45 29 63 58 24 90 104 38 34 41 25 50 30 59 39 66 190 15 40 238 75 126 217 226 165 72 84 135 105 75 8 59 81 30 5 36 71 42 17 50 57 49 14 32 15 17 14 18 41 65 53 42 22 58 38 14 8 13 15 19 5 71 34 36 81 50 102 115 36 15 21 12 22 29 19 26 92 175 121 39 120 78 73 139 80 26 69 114 146 82 28 23 89 239 147 161 196 57 10 6 194 63 213 217 91 187 11 178 100 48 56 148 232 224 173 100 15 23 10 38 16 28 39 42 34 24 22 15 18 2 22 14 22 14 14 17 40 37 25 25 14 14 7 43 29 22 26 42 47 38 42 12 61 54 20 31 29 32 46 27 16 1 28 50 49 30 53 31 15 11 22 35 39 69 110 102 153 230 35 64 19 164 52 18 17 25 63 119 111 19 120 204 131 62 252 9 67 150 173 58 100 117 50 136 45 121 174 109 6 37 28 41 72 62 10 10 20 11 6 30 31 54 35 38 62 113 123 48 93 237 84 102 76 15 154 43 21 13 8 4 20 6 22 19 13 18 1 21 4 17 10 3 4 15 14 32 21 40 12 18 6 5 16 18 16 13 24 25 13 8 9 8 8 4 1 8 15 16 7 9 10 7 4 28 55 79 114 113 82 41 7 28 25 14 34 44 11 54 67 45 21 25 22 4 6 16 15 2 2 4 17 8 5 6 7 2 10 14 11 13 12 17 12 13 26 15 18 19 18 17 14 10 16 20 23 16 17 25 21 15 17 32 35 25 16 18 21 10 11 0 
0 63 46 14 13 25 22 9 9 5 4 14 8 7 16 29 29 14 15 8 38 11 43 71 43 52 55 55 60 69 63 41 29 22 16 12 2 27 15 34 14 28 24 27 26 36 48 43 29 27 27 31 23 18 10 15 4 8 17 23 10 18 21 15 10 13 10 19 19 23 14 11 10 31 38 5 18 28 5 24 34 29 9 23 24 17 27 24 5 17 41 29 12 9 34 24 7 119 219 84 138 137 98 73 88 57 165 99 93 143 99 106 64 40 67 146 12 200 59 181 42 28 58 185 180 142 51 67 99 113 54 68 36 15 91 110 33 28 37 66 50 68 89 81 45 58 91 29 23 23 23 45 23 55 46 32 30 22 39 34 13 13 22 46 43 31 71 83 63 35 24 42 31 36 7 66 100 165 134 48 79 169 235 168 32 128 212 217 179 155 96 36 72 78 71 82 68 67 47 14 35 27 10 38 33 5 24 17 20 8 33 68 56 41 57 82 18 14 15 4 11 24 13 67 31 36 85 28 94 93 7 26 7 8 5 20 23 21 134 135 47 123 76 39 131 103 11 103 112 128 114 48 11 98 216 230 46 15 143 18 10 55 75 44 112 170 170 242 184 70 45 110 152 214 225 155 102 52 37 30 15 26 11 9 21 21 3 30 33 25 33 15 25 32 6 20 13 2 27 30 34 25 20 12 11 41 22 19 15 40 43 35 4 32 29 36 26 14 33 46 51 25 15 10 8 26 28 45 29 28 26 23 24 47 72 112 77 59 159 226 229 176 87 44 82 67 32 22 56 99 129 84 26 103 213 110 100 7 244 11 182 185 39 147 48 120 142 30 172 156 70 47 8 39 56 85 29 32 41 14 15 24 24 50 53 74 133 128 27 161 42 100 112 32 166 83 13 15 7 16 18 22 31 19 17 13 14 18 10 15 14 26 19 14 5 18 4 24 24 20 31 42 34 18 12 20 31 36 22 1 20 15 6 7 10 12 17 21 22 19 10 10 12 7 7 35 71 93 119 102 68 31 14 37 55 60 49 36 33 72 55 31 31 31 5 25 31 20 20 30 29 17 8 8 10 4 5 13 4 7 21 45 50 35 20 13 10 9 23 4 8 16 14 7 12 6 11 21 34 10 20 10 4 9 8 8 18 26 20 19 25 0 
0 4 56 6 8 22 18 7 8 12 13 4 11 9 4 10 28 29 18 23 30 16 56 42 37 60 59 56 69 83 67 26 16 15 8 10 7 23 7 26 20 11 23 8 12 29 20 11 8 4 15 25 4 24 8 14 7 15 25 16 10 30 5 9 5 6 4 13 18 25 13 26 29 27 24 23 10 14 3 3 23 24 15 14 10 9 10 26 31 16 17 29 13 12 19 25 16 24 189 103 240 38 145 112 43 135 65 102 125 56 93 90 42 28 45 65 94 86 229 37 145 213 236 98 146 98 21 106 89 61 50 45 55 55 35 86 103 37 63 62 61 83 68 53 31 89 49 5 29 23 56 39 42 73 32 58 33 31 36 27 34 24 16 2 14 55 84 48 14 42 21 24 38 21 14 50 116 87 162 10 20 240 102 111 180 100 8 100 130 95 32 20 20 83 109 39 56 61 45 17 48 21 16 4 31 34 26 5 11 24 71 84 32 69 106 43 33 12 5 12 15 32 37 61 4 53 86 44 107 61 12 17 29 24 10 25 26 17 127 96 132 101 35 48 109 132 96 114 100 77 55 37 69 230 53 146 229 215 54 11 8 185 165 196 105 210 219 153 99 66 173 230 249 210 121 60 48 31 41 29 24 14 8 5 31 33 17 22 33 16 32 46 26 36 11 7 8 12 20 21 18 10 12 43 43 24 28 11 21 34 18 39 15 14 30 28 29 17 15 40 58 39 20 26 20 28 48 37 21 18 28 33 51 29 19 44 43 60 160 220 182 107 70 55 48 89 146 114 38 47 122 108 82 63 74 152 116 73 22 203 56 193 130 86 125 37 148 67 99 188 165 12 25 19 36 89 39 7 26 32 35 31 49 44 107 102 67 33 185 63 106 86 14 138 48 32 9 12 7 9 21 29 13 8 4 17 11 12 8 4 19 21 3 18 7 11 12 15 19 32 33 21 22 25 10 33 38 12 14 14 15 14 6 1 8 10 13 6 12 26 18 19 14 7 15 40 85 120 128 102 56 6 42 34 32 51 48 13 60 81 60 47 39 12 19 11 27 18 22 21 15 8 19 18 21 10 10 15 5 1 17 46 10 24 12 15 18 15 10 23 15 9 11 13 14 5 10 12 48 43 15 15 10 14 15 7 8 21 16 19 15 0 
0 66 33 8 14 24 26 17 16 12 11 9 5 4 6 13 13 22 17 32 17 24 52 29 33 44 56 67 79 76 53 34 25 20 14 12 12 16 4 18 27 26 22 16 16 12 15 16 17 14 32 24 7 17 18 3 14 16 17 40 39 35 16 11 14 26 34 31 14 52 29 47 5 14 8 24 27 31 34 18 10 29 25 12 5 9 11 7 24 14 13 19 9 22 29 41 27 36 49 135 193 234 187 121 119 39 105 127 21 92 150 125 58 47 73 26 46 86 148 189 115 47 55 204 43 53 75 153 84 36 27 26 12 57 99 12 117 87 56 85 80 56 29 7 83 81 7 5 33 20 56 14 71 35 63 25 61 15 50 60 25 9 33 43 52 82 52 21 20 24 34 53 35 27 51 52 50 159 135 98 128 189 254 203 126 71 37 28 11 22 22 27 36 35 2 54 71 24 23 53 60 36 40 45 46 32 15 14 10 67 137 60 70 110 83 18 34 4 13 22 29 43 63 65 50 40 75 39 108 47 21 22 23 32 9 12 10 31 82 52 77 41 16 36 64 93 59 89 86 28 31 39 163 98 204 189 49 125 18 22 89 34 92 40 225 145 159 87 60 156 232 246 200 110 34 40 32 17 31 25 26 8 3 17 18 42 17 8 40 29 22 29 13 17 31 22 10 3 12 13 4 12 41 45 21 24 26 22 33 18 36 34 34 20 25 24 2 21 20 46 45 45 20 55 23 29 48 24 24 27 36 56 32 42 58 85 98 96 157 219 3 211 95 55 39 82 76 158 147 69 73 144 101 97 110 45 108 106 130 51 141 112 180 45 147 91 67 117 16 155 191 68 31 24 21 61 50 42 43 38 42 30 78 123 111 64 68 223 75 103 64 222 87 21 13 22 5 12 6 2 15 17 15 7 3 10 16 20 23 22 8 17 20 5 16 21 5 8 4 15 9 32 31 17 22 25 18 27 7 8 13 20 4 5 9 7 9 21 14 43 7 27 17 13 17 34 91 138 115 77 17 52 34 28 24 45 37 46 66 73 58 32 14 7 8 17 25 5 16 15 10 16 11 13 14 7 13 9 6 3 10 42 33 35 13 8 12 8 14 7 4 4 13 21 24 18 28 38 4 21 21 9 22 23 17 12 10 6 21 34 19 0 
0 22 15 7 9 5 7 5 11 12 8 4 2 5 11 10 4 32 21 29 17 25 42 46 52 28 57 73 65 61 56 52 38 19 11 5 16 21 13 11 2 18 19 1 27 4 4 14 17 13 43 38 35 25 9 5 15 13 34 10 8 15 12 23 15 13 9 21 65 69 45 49 16 13 16 10 7 12 10 25 22 20 14 2 7 13 21 24 34 17 6 12 14 20 20 25 36 18 86 127 115 8 39 143 51 93 111 36 110 81 151 172 92 34 98 81 54 99 70 191 102 15 219 248 126 45 102 180 87 64 35 49 44 16 104 60 67 43 61 63 74 17 47 83 96 59 7 8 24 5 48 47 17 44 16 74 44 40 54 36 40 15 21 8 45 60 8 44 29 28 44 50 78 139 166 191 225 193 119 68 53 38 92 144 136 92 27 26 29 24 24 38 12 41 80 72 32 60 101 84 37 15 10 21 21 9 7 19 27 127 151 71 141 102 25 26 7 3 15 26 32 57 80 53 89 43 74 36 89 14 8 18 42 29 20 48 56 26 44 37 65 60 54 51 54 99 30 94 84 41 31 27 235 106 47 66 9 85 7 66 156 239 203 188 191 89 43 142 141 214 235 179 93 54 47 25 31 15 20 10 8 22 19 22 37 39 19 20 42 30 28 20 23 37 37 21 15 11 6 22 10 17 42 24 7 31 45 29 11 62 46 47 51 47 45 23 21 32 28 40 29 36 40 42 24 34 38 57 42 38 17 27 22 83 64 61 59 77 97 122 202 247 154 117 56 77 122 53 89 192 125 43 113 59 47 100 83 58 49 207 26 49 180 126 59 80 60 87 51 116 171 110 44 28 35 65 62 44 35 61 80 86 105 73 12 87 230 94 107 34 178 65 12 16 8 13 15 21 13 4 8 11 16 18 15 8 0 18 23 21 14 4 7 11 10 16 7 2 12 17 31 14 19 9 11 29 20 8 14 3 8 16 14 5 22 22 24 12 12 23 27 29 14 15 12 27 97 134 100 69 28 57 16 32 47 39 40 65 64 60 62 42 11 11 4 15 8 12 16 12 8 16 31 32 17 13 9 5 8 14 19 4 26 19 4 10 15 20 32 27 10 3 11 13 13 40 25 41 24 24 24 2 21 14 10 19 17 7 13 14 18 0 
0 33 23 16 17 14 18 24 15 10 13 10 7 8 7 4 2 35 26 23 29 20 34 52 47 25 54 66 58 54 52 66 44 5 10 5 5 15 17 27 30 30 24 13 13 15 20 26 17 21 26 22 16 21 11 7 13 5 31 18 13 6 22 21 14 9 16 19 73 39 74 40 18 16 8 12 16 31 44 32 22 15 11 10 15 17 19 20 21 5 9 5 5 14 18 15 28 24 49 19 97 110 165 7 171 83 34 106 76 89 102 148 164 74 35 99 27 18 144 43 110 71 236 239 92 61 107 157 68 80 56 16 59 36 64 58 42 11 46 48 63 8 50 40 42 20 4 14 37 28 37 52 72 48 56 37 57 59 33 80 12 45 15 44 57 49 11 54 65 127 171 202 227 206 149 88 40 6 43 74 67 85 99 65 36 52 58 39 34 54 38 38 45 75 58 26 61 88 69 31 21 13 19 25 18 9 5 15 59 157 126 118 179 79 18 21 15 16 2 25 31 64 77 53 102 54 84 47 87 4 18 31 35 12 9 29 4 35 53 73 69 46 18 41 115 132 75 130 83 41 37 22 8 43 154 79 167 31 159 233 208 68 147 136 49 60 42 236 12 235 143 75 61 15 43 12 35 22 24 4 12 26 57 47 31 25 30 40 22 32 0 16 24 7 9 6 18 18 11 19 16 15 34 27 30 46 29 32 8 64 45 10 19 44 48 41 48 43 28 31 23 16 24 11 21 34 75 70 10 49 45 54 54 79 38 21 25 67 74 63 128 217 169 111 95 74 48 167 167 38 198 180 18 82 23 43 7 38 79 39 230 204 98 174 60 35 14 55 45 105 128 79 51 6 26 90 80 51 54 101 128 100 16 103 175 248 100 116 17 143 48 14 13 4 11 4 17 14 16 7 9 8 4 4 6 5 4 17 18 18 12 7 1 11 22 19 7 21 20 14 32 12 12 1 10 23 24 12 14 19 10 8 6 8 26 5 15 4 16 8 16 7 14 26 27 53 117 119 84 67 18 51 23 25 28 22 50 86 84 72 56 37 12 9 20 21 12 13 12 5 10 10 10 2 5 16 11 10 14 14 7 27 19 15 7 11 13 12 15 24 17 7 8 18 18 31 36 38 15 17 20 4 16 8 15 7 19 16 19 30 22 0 
0 18 8 14 19 19 20 29 23 13 17 18 10 3 16 23 16 33 26 19 41 13 27 42 48 43 47 55 71 71 49 61 41 8 10 14 6 13 25 34 15 2 14 12 12 11 14 29 18 27 31 32 28 27 17 1 11 5 12 11 19 23 27 6 8 1 18 8 57 46 67 16 11 1 23 5 3 23 7 8 11 14 9 4 7 6 11 10 13 21 21 18 15 15 9 8 10 7 25 53 79 156 138 4 197 59 122 80 59 161 68 29 183 201 96 60 35 35 88 32 92 171 1 154 59 119 101 91 53 79 32 27 37 18 30 28 7 46 63 50 32 21 55 33 20 7 5 29 19 19 28 24 30 76 40 54 38 49 49 63 89 6 86 96 47 36 16 66 103 79 48 34 24 58 101 135 156 135 109 139 160 142 117 80 64 53 19 39 47 45 44 78 72 53 22 70 67 36 14 18 32 33 31 23 22 31 29 54 99 151 87 139 180 67 13 17 17 11 20 3 26 62 53 60 87 62 84 57 83 6 23 37 22 33 50 77 62 42 16 12 13 18 23 44 143 122 111 157 58 23 14 84 12 198 172 46 50 21 74 23 151 134 111 104 32 69 63 75 35 113 22 34 62 43 53 18 24 15 11 11 1 68 63 26 16 22 30 20 22 16 22 13 8 21 15 15 11 18 8 17 21 24 30 19 44 43 12 31 33 50 39 12 18 27 57 46 28 29 3 32 27 3 26 11 37 77 41 31 68 72 57 71 71 44 21 15 15 48 80 72 107 182 180 117 73 110 152 60 155 233 87 185 0 64 94 65 101 20 81 113 68 4 33 153 89 32 50 76 64 81 95 59 61 19 11 117 116 70 76 76 51 61 167 243 16 48 69 246 112 26 16 20 13 7 14 7 20 6 22 16 8 8 15 21 19 12 3 8 12 17 21 21 16 8 5 6 26 26 23 4 23 13 12 19 25 23 8 32 23 6 13 15 14 5 20 11 14 7 10 8 3 14 23 45 47 83 133 116 92 55 7 47 28 1 6 12 59 115 103 70 48 33 18 10 4 4 10 18 16 11 12 4 19 19 5 12 11 4 8 15 23 18 8 27 5 33 22 3 12 18 19 10 3 14 23 17 9 12 5 11 18 21 24 20 25 11 5 26 6 7 22 0 
0 27 17 7 10 13 19 14 11 16 7 4 13 16 14 15 12 24 19 21 46 14 25 40 47 47 48 51 68 74 53 60 37 10 2 11 11 17 24 19 42 50 44 31 17 33 55 43 28 18 32 20 5 7 15 21 8 14 12 17 4 12 7 11 18 14 29 12 24 50 37 6 13 5 20 10 14 29 31 33 30 29 25 19 14 11 11 6 5 10 8 11 17 20 26 21 12 15 18 36 8 141 64 14 59 129 56 61 91 160 46 77 42 193 205 77 35 49 67 17 97 190 225 136 174 199 121 25 83 51 21 49 35 23 8 12 46 53 32 25 24 33 44 44 18 11 27 26 8 23 5 10 23 5 55 45 57 50 73 60 97 142 111 89 112 41 53 60 64 118 139 170 185 155 104 60 21 47 21 14 41 39 58 60 39 18 47 78 51 3 63 81 48 5 58 73 38 14 19 21 4 10 17 7 33 39 10 63 99 105 38 163 160 44 9 24 21 23 13 14 27 65 34 50 68 57 70 60 74 8 21 34 26 14 30 21 38 1 19 19 16 11 3 36 150 112 110 157 43 14 19 164 249 61 155 179 4 157 220 81 128 245 79 147 80 64 137 103 212 33 36 29 37 51 45 29 23 10 6 11 29 72 28 30 8 32 11 12 23 39 31 5 2 16 17 9 25 29 27 24 21 43 42 29 24 39 37 50 53 55 47 22 28 26 44 5 17 26 19 49 8 46 49 26 30 33 79 102 77 30 31 45 61 46 8 22 20 31 50 65 97 148 169 150 67 29 84 187 131 113 15 149 194 41 103 57 69 67 104 32 39 199 159 85 151 30 48 38 70 16 97 92 56 21 50 123 109 52 25 40 138 229 50 75 64 30 217 104 8 14 14 9 17 8 13 8 23 13 23 14 8 17 23 20 16 13 10 2 4 11 11 2 9 19 26 18 23 27 23 24 20 14 17 25 7 18 45 50 30 28 7 19 3 5 22 16 20 8 12 9 4 13 25 55 74 104 111 89 68 5 38 42 22 14 11 19 72 119 87 29 10 15 16 16 8 8 9 15 12 3 12 13 1 16 10 10 13 12 21 29 21 7 13 18 17 42 20 24 22 21 11 7 4 6 19 23 16 16 21 17 5 5 8 6 27 17 17 13 10 13 12 0 
0 22 12 3 11 13 17 12 4 6 3 10 10 7 7 26 12 13 8 26 43 22 28 36 48 52 67 62 56 66 72 66 29 8 12 6 4 11 14 5 5 4 36 50 10 24 39 23 41 7 36 20 7 1 8 5 26 4 14 26 13 24 8 15 9 12 28 6 12 10 15 5 19 13 17 11 3 11 5 13 21 21 17 13 16 19 20 15 10 21 16 16 14 5 14 6 20 43 47 45 24 23 21 78 157 76 149 86 25 167 63 41 124 27 185 111 42 64 17 93 205 244 227 115 183 141 143 128 39 38 47 55 7 40 16 12 64 55 32 57 50 41 32 49 14 13 31 12 29 22 55 60 36 8 15 65 93 72 56 140 102 51 147 173 94 30 77 71 70 76 43 27 29 38 32 35 40 51 50 68 48 15 47 35 51 59 52 43 12 48 79 38 25 19 45 42 14 2 10 14 33 29 22 14 22 37 30 87 99 70 12 168 126 18 20 30 12 35 35 29 7 69 36 33 55 36 49 46 58 26 21 33 45 46 58 20 29 24 10 22 26 22 18 54 158 82 82 132 76 34 51 254 188 87 102 128 79 231 52 85 165 253 17 204 202 199 206 26 114 45 27 32 12 50 32 51 35 15 16 35 49 43 17 21 17 40 17 22 50 29 9 18 11 21 31 18 23 19 41 34 16 46 25 13 17 40 48 43 36 47 36 30 22 27 46 21 10 15 48 33 47 59 14 54 80 111 100 59 34 37 23 70 29 58 45 32 26 37 41 47 77 113 121 129 99 54 38 39 191 144 82 28 201 156 207 51 31 65 34 72 83 138 2 69 135 66 37 13 55 49 67 121 60 43 83 82 75 91 107 166 235 43 79 49 229 154 84 17 14 2 17 6 11 5 12 6 16 14 14 10 14 18 19 12 11 11 11 2 7 6 26 39 37 22 7 23 18 32 29 18 16 22 24 3 26 20 36 34 23 43 3 21 10 14 31 13 20 7 22 13 19 23 28 51 100 126 76 54 53 28 38 26 25 32 24 50 75 98 70 26 15 21 16 15 19 15 17 23 23 23 25 11 11 17 4 17 20 11 5 10 17 21 12 22 12 38 21 38 12 11 5 2 6 8 7 13 17 14 5 12 14 14 20 25 28 11 7 9 3 11 13 0 
0 16 5 7 14 8 4 18 17 13 16 20 21 12 5 34 24 14 8 32 34 31 34 20 40 49 70 65 58 71 77 55 22 13 19 18 12 7 8 13 15 18 29 48 28 39 55 38 22 7 31 21 13 8 4 3 22 15 17 30 21 31 26 22 8 16 18 11 22 31 16 29 7 13 10 19 29 27 26 34 33 29 26 22 20 20 19 28 21 26 16 4 9 7 17 29 42 13 34 46 27 46 26 145 151 236 208 59 19 148 90 37 47 115 70 125 60 65 46 154 230 253 188 81 197 130 96 168 33 34 29 81 78 22 32 24 77 52 46 12 28 61 50 29 29 15 20 77 72 83 50 39 66 60 22 62 60 35 45 24 98 133 71 65 186 180 63 94 83 64 61 26 22 72 131 158 145 94 99 57 64 69 100 71 63 37 15 49 78 77 67 16 39 13 40 43 19 7 17 14 8 24 11 7 13 19 29 122 116 44 42 174 101 8 5 26 29 18 74 78 55 51 37 36 29 10 31 28 54 54 50 68 92 88 103 101 78 61 88 93 90 46 32 111 166 24 87 72 64 52 103 4 67 169 49 235 194 102 159 81 172 225 59 52 66 219 141 164 71 15 22 28 26 51 35 59 60 28 49 64 53 27 21 28 28 36 27 47 43 38 27 18 12 44 9 26 41 44 50 31 16 43 22 27 41 37 60 12 44 53 32 41 21 23 41 4 32 22 26 30 66 9 98 116 80 56 29 21 12 54 42 61 36 28 53 74 84 83 78 69 76 106 127 133 104 100 27 74 30 124 147 77 76 208 81 200 41 43 61 51 86 82 242 199 50 92 5 39 17 68 31 112 65 70 70 66 61 103 169 234 25 24 236 152 65 22 4 11 7 4 7 10 6 15 14 17 5 11 4 11 14 7 13 27 29 20 7 3 7 8 8 4 4 12 19 12 12 12 10 18 39 13 9 13 10 25 28 53 44 27 13 18 17 14 27 15 24 7 20 12 30 8 17 40 124 151 49 20 39 26 34 10 25 28 39 62 69 87 62 29 28 29 10 17 14 5 2 10 11 7 10 12 17 1 14 25 15 8 27 38 40 21 44 32 27 24 12 33 8 2 4 5 3 8 12 27 18 21 14 2 14 14 15 14 21 20 8 7 19 12 30 0 
0 20 17 13 7 17 29 20 8 16 22 12 9 12 8 26 32 14 10 30 26 36 43 24 44 52 61 49 68 91 71 47 34 17 5 15 25 11 7 20 20 13 18 38 28 14 30 22 13 26 28 29 7 3 7 7 17 25 5 15 15 20 23 42 25 18 5 15 7 15 4 32 38 19 10 24 26 6 8 13 15 17 9 7 8 3 14 15 4 26 41 48 34 26 35 44 23 34 31 31 13 22 50 155 115 234 76 146 61 84 74 31 53 15 73 58 45 73 114 205 228 205 45 216 168 1 77 115 65 52 12 9 56 55 31 33 49 25 49 22 12 45 28 13 55 7 22 62 22 76 105 94 97 90 56 114 112 120 108 119 108 96 99 106 110 203 45 237 136 72 43 60 53 76 145 117 149 174 127 76 56 79 68 41 15 32 50 52 66 46 24 4 37 37 52 36 10 21 27 2 14 26 12 19 24 27 38 137 88 21 61 166 80 21 10 10 29 50 80 68 108 9 53 56 44 29 25 10 20 17 38 53 65 46 90 126 125 102 94 72 119 107 73 133 130 50 90 29 47 64 107 231 41 156 35 226 252 189 74 58 175 112 13 158 252 65 38 107 51 37 15 26 57 77 49 49 67 40 38 18 6 2 22 19 32 49 41 40 8 55 10 18 25 34 13 15 30 46 45 13 24 31 17 12 39 24 63 29 36 54 42 28 23 21 28 1 32 44 29 8 71 125 122 37 18 7 32 7 30 23 45 19 37 16 22 21 49 45 55 70 90 127 162 159 122 135 115 22 54 24 126 118 130 62 236 98 229 45 71 54 7 12 142 13 112 90 67 30 21 56 24 86 70 83 77 65 88 166 194 213 206 171 123 60 17 9 5 11 7 10 10 12 1 15 13 10 9 14 5 1 9 8 10 11 6 8 15 8 6 11 7 5 8 18 14 10 15 11 11 12 40 23 14 10 18 12 5 18 26 13 8 19 10 5 24 29 12 4 10 10 38 26 33 59 131 153 38 29 10 30 29 15 10 25 35 64 69 83 70 35 18 12 11 30 29 27 12 10 14 13 15 6 21 19 17 12 14 34 19 10 11 20 47 11 33 12 26 20 7 10 14 12 6 8 4 26 5 23 11 19 10 9 15 9 8 24 15 14 15 23 24 0 
0 4 30 26 8 22 11 17 15 14 12 17 18 1 19 7 26 23 3 20 22 33 46 36 30 50 64 38 68 115 65 33 42 28 7 3 23 8 8 20 1 7 8 31 39 46 3 14 12 38 24 30 21 12 34 29 4 5 29 16 7 4 16 12 12 12 5 10 7 13 18 16 12 24 20 20 33 21 10 5 9 16 15 18 10 8 2 6 4 32 32 33 31 24 22 47 27 14 19 20 12 23 50 5 140 136 244 181 148 22 42 29 29 31 71 26 76 55 127 1 253 117 187 218 68 69 76 72 50 46 16 15 18 72 101 89 57 32 50 68 63 35 27 45 34 31 14 66 66 5 64 100 111 96 78 86 93 57 38 97 71 46 55 45 134 122 55 198 247 239 196 159 121 102 104 112 58 6 27 68 38 47 39 20 45 34 10 21 43 13 13 10 49 70 41 7 12 15 20 8 13 24 21 25 26 8 29 117 86 90 55 134 89 18 10 32 44 45 78 34 120 44 26 15 28 52 55 46 52 49 40 53 86 93 74 52 42 34 62 81 48 48 36 113 78 78 74 18 46 81 72 217 28 132 54 90 147 117 78 102 118 163 155 30 24 124 48 104 1 51 63 53 74 69 29 25 45 48 8 22 3 12 34 35 53 62 40 27 27 61 30 34 31 23 21 15 9 24 22 23 27 24 31 7 40 24 35 39 34 24 20 8 21 36 41 25 35 48 79 96 93 65 38 37 18 35 27 25 30 23 17 34 25 39 35 32 35 42 37 21 64 111 156 147 116 125 138 84 20 43 53 124 90 104 66 255 156 0 47 8 39 43 51 238 255 37 52 29 27 33 42 49 73 61 60 55 147 173 142 110 93 130 95 25 14 11 4 12 7 8 18 12 4 12 18 10 10 8 7 2 19 18 23 31 33 25 13 12 7 12 4 10 2 23 14 15 11 3 3 19 22 14 7 8 0 6 8 12 14 13 9 7 12 5 6 5 4 8 3 27 44 23 48 110 134 122 50 29 24 19 11 9 23 10 60 82 60 73 80 25 13 15 6 29 11 22 14 13 21 21 18 12 16 7 14 14 21 34 32 24 12 8 20 33 14 9 18 6 3 2 13 17 5 14 9 25 14 9 22 22 20 21 14 22 3 26 17 15 18 31 30 0 
0 7 30 36 15 30 18 12 16 24 15 18 21 19 19 28 15 21 16 24 32 35 43 30 20 50 63 33 77 123 45 24 53 36 3 8 20 8 23 15 15 16 21 42 39 42 25 34 43 11 9 19 20 18 49 21 19 12 33 4 18 11 14 18 13 8 14 5 18 15 32 41 48 27 7 7 15 21 15 10 5 11 20 18 19 9 9 6 7 21 55 62 39 36 25 30 8 6 19 14 7 16 35 61 128 51 11 4 221 177 89 53 19 31 68 45 110 36 146 3 20 52 14 141 96 79 57 45 34 10 62 60 25 58 61 57 53 51 77 94 20 31 41 65 9 37 44 77 74 27 19 46 39 25 2 53 83 100 106 94 112 168 221 203 182 232 237 148 57 37 55 115 152 160 127 67 35 76 71 22 37 37 22 76 49 26 35 47 45 8 14 34 71 51 14 5 27 34 7 25 21 11 22 13 21 29 34 75 30 43 45 78 113 11 43 34 26 25 38 60 100 18 24 12 13 8 44 40 26 31 54 78 93 106 118 122 117 108 100 114 134 110 67 107 86 112 87 56 33 86 55 204 63 141 50 51 120 198 48 169 58 2 28 72 188 117 109 116 17 17 31 63 55 26 44 14 11 42 34 35 41 53 72 69 54 34 24 19 26 54 20 12 4 36 34 21 8 13 9 48 25 23 28 30 8 34 23 12 30 19 10 21 25 55 54 54 93 143 136 71 17 20 29 37 35 23 35 8 27 17 17 56 11 34 22 26 24 38 17 21 18 82 135 131 129 110 110 99 28 26 36 39 121 110 78 94 202 233 235 37 16 57 80 91 9 153 36 23 25 15 54 43 83 81 12 61 120 83 37 37 56 135 155 52 26 12 8 6 10 12 13 5 3 8 4 13 13 4 8 14 31 14 6 14 21 41 28 20 6 12 34 42 37 17 14 16 8 19 17 15 3 2 15 8 5 5 10 12 8 4 7 6 8 7 16 17 6 8 24 23 33 22 74 134 106 73 34 34 31 15 13 29 32 47 75 56 39 72 62 22 4 8 9 14 15 12 10 5 6 11 3 5 16 20 17 29 2 19 6 12 13 12 10 3 14 12 28 8 15 17 25 24 13 7 21 18 18 19 20 11 28 24 26 18 4 17 9 12 13 4 4 0 
0 7 24 27 21 33 25 19 10 2 20 23 6 23 21 7 12 12 9 34 45 32 33 25 25 48 68 59 93 108 40 39 49 25 10 6 21 15 20 5 13 30 42 46 50 27 21 14 34 7 5 14 19 7 43 54 25 9 24 2 15 7 1 7 15 22 6 32 31 17 15 5 22 24 17 20 26 23 14 15 8 9 22 15 17 21 9 12 15 15 23 28 5 40 26 35 25 20 26 13 9 4 19 43 2 107 85 241 70 180 172 93 63 17 8 42 82 56 170 238 221 140 200 70 184 67 46 13 43 54 17 42 9 66 33 14 20 24 64 72 56 52 36 61 41 45 72 100 81 53 22 37 24 12 54 127 141 102 21 59 90 69 82 61 35 39 120 189 193 99 54 87 48 39 41 40 36 18 13 29 28 22 70 36 53 54 9 72 24 42 45 28 70 39 6 12 36 16 47 25 39 13 9 19 8 50 31 52 25 23 45 30 115 30 73 25 19 22 13 48 41 12 7 11 8 23 10 9 17 22 30 9 24 28 43 48 42 31 25 27 28 54 87 129 102 81 50 55 42 61 37 170 70 156 75 122 118 126 96 129 19 206 236 215 175 85 129 120 12 27 18 55 31 60 49 15 25 36 43 38 36 40 55 21 7 17 13 11 20 48 20 6 38 41 27 10 21 15 11 50 16 43 21 7 28 18 21 25 18 51 59 61 47 15 66 147 118 100 72 37 57 4 44 7 36 5 20 23 20 11 28 44 42 19 12 21 12 19 30 7 17 63 114 116 140 123 93 89 54 63 46 45 7 103 106 149 82 182 188 97 24 48 71 23 164 201 63 35 21 55 41 65 71 80 45 45 75 77 25 32 25 84 141 59 3 15 13 9 5 6 14 13 5 4 4 11 11 4 4 16 21 24 32 35 17 27 8 12 17 12 20 9 18 3 18 15 21 14 11 12 8 5 13 7 4 6 6 4 3 3 5 21 13 7 15 11 8 30 16 15 36 57 110 135 70 29 21 21 23 39 25 25 16 51 79 54 51 71 30 26 27 16 20 18 10 7 8 2 16 20 10 6 9 29 6 27 55 53 28 4 8 8 7 2 17 7 20 18 14 2 11 11 9 10 28 10 15 44 30 29 23 9 11 14 20 18 10 11 13 18 20 0 
0 29 21 17 10 20 4 31 11 18 16 13 16 8 24 12 14 10 4 38 49 26 29 40 38 26 71 79 78 82 51 40 31 21 4 14 17 12 15 8 7 19 34 25 9 10 15 17 14 31 26 21 10 12 22 27 33 23 17 4 8 5 3 12 19 36 20 40 27 32 21 19 21 22 5 11 13 8 3 16 18 25 14 19 16 13 11 17 12 20 28 28 10 38 6 25 10 2 27 40 44 33 32 45 22 244 32 69 96 11 157 172 75 55 54 48 32 70 163 200 141 175 10 106 129 54 38 49 38 87 66 29 39 49 44 24 23 17 58 30 28 31 32 32 47 44 54 48 23 32 27 19 57 99 121 107 48 34 65 30 73 146 206 199 178 95 18 43 120 96 92 110 71 30 4 19 27 30 53 66 44 42 75 53 78 29 24 69 24 51 33 19 53 52 10 6 35 11 54 42 52 19 26 10 30 56 4 39 48 20 39 6 103 55 77 31 48 4 35 66 31 24 9 11 7 22 2 17 15 1 25 30 28 10 20 21 15 13 10 7 24 30 16 79 67 21 36 20 64 100 81 115 40 150 37 159 131 159 169 80 20 82 146 97 12 113 125 92 34 17 27 61 13 69 48 18 27 17 17 39 42 38 10 53 51 48 18 18 42 49 8 11 41 30 47 45 39 18 15 25 46 46 37 20 22 29 17 17 53 81 59 39 59 101 130 122 36 17 37 17 64 23 44 15 35 25 29 35 15 11 27 14 23 29 13 13 22 38 53 45 24 60 86 92 134 148 103 73 67 68 69 65 14 32 114 34 155 50 152 92 8 25 48 60 73 245 161 16 37 29 77 11 36 65 42 32 62 96 27 58 77 111 124 55 12 19 12 10 13 8 14 15 10 2 5 8 8 4 0 11 11 25 22 34 18 26 11 11 7 10 25 36 32 18 7 17 11 11 9 11 5 8 18 10 7 4 12 16 14 10 19 15 5 7 4 9 8 26 12 24 62 95 95 111 70 41 43 24 32 55 43 11 28 70 97 61 60 63 5 15 27 10 14 11 20 18 18 18 15 10 16 2 5 13 22 25 15 13 13 10 8 7 11 4 16 10 22 15 8 16 11 5 5 20 29 15 16 46 17 42 19 6 7 10 5 8 13 11 5 3 3 0 
0 13 5 14 14 21 18 23 10 13 9 11 14 13 29 13 9 13 11 34 44 21 30 55 49 17 55 80 78 70 55 52 31 31 2 22 7 11 21 18 13 13 19 23 8 11 12 11 14 11 23 20 14 15 27 30 27 10 13 14 7 17 26 32 6 50 15 21 18 17 6 10 27 24 9 11 23 21 9 25 25 28 17 19 24 8 7 15 11 22 12 30 14 35 29 24 4 9 5 5 7 15 38 53 13 215 0 37 77 132 60 144 116 28 27 27 29 22 138 121 99 188 145 55 71 23 29 40 32 47 27 57 68 47 25 38 42 36 61 11 30 12 36 33 48 33 38 72 71 28 41 52 93 126 107 29 51 56 28 65 55 96 145 146 192 152 69 61 77 75 64 102 87 53 7 27 17 15 41 37 17 31 59 72 47 10 21 64 20 48 4 24 28 60 14 16 38 43 9 36 12 15 5 29 66 60 43 23 64 58 67 45 97 89 67 26 56 37 23 37 14 15 10 12 11 4 7 10 22 30 20 8 11 19 5 13 25 22 17 10 17 36 10 62 71 6 38 62 172 142 149 60 44 139 40 143 88 46 41 76 118 152 147 140 157 167 111 42 29 23 27 31 59 75 48 29 41 43 31 41 37 21 26 36 40 78 18 24 52 52 22 17 12 42 55 41 20 15 9 15 67 27 50 15 18 28 17 41 63 32 42 107 160 138 76 31 30 22 31 18 45 45 46 38 38 31 3 29 35 26 11 27 27 9 27 20 17 20 2 44 66 71 41 68 135 149 120 88 63 48 69 92 71 49 56 79 56 121 200 67 35 24 34 68 26 166 241 67 24 3 39 83 25 42 7 36 65 107 43 89 113 104 80 21 11 17 8 11 12 8 8 17 10 5 7 5 4 4 4 13 16 30 30 42 28 32 24 26 25 25 17 18 10 23 10 12 10 10 11 13 2 6 19 8 13 5 8 10 18 23 23 15 15 13 9 10 8 19 33 29 61 78 84 113 87 46 48 13 42 69 38 8 37 63 78 43 56 45 8 15 27 7 11 15 12 26 31 30 20 8 24 24 13 14 22 32 25 14 3 12 13 12 17 8 16 6 18 11 13 15 19 14 10 21 22 28 16 44 33 34 10 8 7 4 7 11 11 7 6 3 5 0 
0 30 22 8 10 10 8 15 12 5 16 19 2 21 17 4 13 14 10 26 36 18 36 59 69 38 46 60 72 65 51 65 32 28 4 25 10 7 10 13 27 17 19 43 43 18 11 10 13 44 44 35 29 15 22 41 21 6 22 21 29 15 12 27 20 33 48 41 28 22 11 22 31 24 7 11 1 18 25 17 24 5 26 26 15 13 26 19 5 35 14 34 33 40 39 44 46 27 23 42 56 55 51 24 10 181 31 43 65 51 105 11 161 68 34 48 57 23 132 68 20 162 198 65 17 12 24 17 43 9 65 63 42 27 26 58 18 32 43 17 28 16 62 50 53 12 70 64 84 55 85 123 112 37 27 42 30 23 24 24 63 143 178 14 155 134 56 37 83 58 39 96 85 50 57 42 1 14 35 41 40 21 14 27 27 17 20 76 53 56 49 25 11 64 32 21 30 62 64 39 36 37 26 41 67 37 63 61 41 66 109 58 54 89 75 41 65 59 7 14 19 8 4 6 12 23 23 10 2 8 16 9 13 9 4 9 11 3 7 10 10 12 23 38 68 59 108 157 156 32 146 19 46 107 57 216 19 21 206 143 250 237 218 159 113 96 48 28 18 11 24 41 41 34 15 19 16 16 59 56 18 12 40 76 85 57 37 45 41 46 31 14 20 20 10 20 20 15 17 62 80 61 70 6 36 42 43 38 5 81 152 165 132 81 53 35 13 31 15 10 19 33 29 33 23 41 16 49 23 31 11 40 24 34 35 9 16 41 54 28 83 84 20 34 129 135 125 114 57 39 35 68 103 46 58 32 68 29 104 143 31 71 50 67 75 40 223 131 24 8 28 103 67 21 15 23 52 100 28 91 141 119 50 11 4 16 8 10 7 5 16 17 5 10 5 2 2 5 9 9 17 17 7 25 18 35 24 14 8 7 14 18 15 13 17 22 16 9 11 14 1 4 18 8 15 7 10 10 18 23 24 26 13 20 18 5 7 11 31 40 64 96 124 132 65 10 38 33 8 36 35 43 42 65 79 72 42 12 10 20 12 3 10 13 9 1 3 6 20 23 11 10 22 30 19 36 23 11 10 10 7 11 14 8 20 11 14 8 5 10 10 21 14 17 10 19 17 12 11 14 11 18 31 25 16 10 13 21 23 20 16 0 
0 14 11 15 11 11 15 14 10 10 8 24 14 13 12 5 14 28 3 20 29 20 50 48 66 45 39 59 58 50 60 87 35 25 12 27 6 3 7 8 38 27 28 10 40 13 6 10 13 35 33 16 10 10 30 10 31 0 41 26 39 29 27 6 26 17 9 24 25 16 8 29 18 31 21 17 24 10 22 33 29 23 4 7 27 29 21 10 24 21 18 25 4 15 8 7 9 30 50 51 37 24 31 7 13 150 69 92 101 110 24 108 111 137 59 60 49 68 102 98 116 200 193 55 33 4 15 7 23 23 46 97 92 57 60 76 46 44 29 27 31 33 51 34 41 60 100 47 36 92 112 93 12 55 18 14 41 35 60 49 54 109 183 48 125 85 92 111 129 86 77 106 50 27 62 54 36 20 18 20 22 31 19 2 8 18 28 84 60 56 58 11 36 34 27 25 35 45 68 32 27 34 19 10 61 62 53 89 22 76 111 53 42 63 96 66 65 79 12 20 13 3 19 16 17 6 23 6 6 15 15 7 16 4 4 10 7 3 11 11 7 10 12 21 85 140 167 146 24 114 92 32 52 86 67 46 51 144 167 123 28 126 94 67 23 72 2 31 24 19 25 40 33 33 20 29 15 18 60 47 15 29 51 57 19 32 34 30 39 56 34 2 34 7 11 28 25 19 46 93 79 90 93 53 71 48 8 50 108 151 143 90 45 35 20 53 17 44 48 49 41 36 10 42 27 25 17 33 20 13 19 44 54 62 49 22 8 25 24 33 53 85 47 45 93 113 127 129 64 62 42 55 44 60 62 26 42 49 20 133 123 29 63 38 21 60 152 214 22 24 44 65 139 50 26 34 34 108 63 100 122 119 46 8 14 19 6 9 7 10 16 11 5 13 5 4 4 7 14 7 16 13 5 16 19 36 26 31 20 15 21 12 17 3 14 25 30 15 9 11 5 10 19 11 13 9 19 24 18 7 23 29 16 15 13 19 3 8 22 52 124 152 122 77 12 7 33 27 5 24 12 32 62 87 86 68 2 27 39 27 18 27 29 14 5 13 27 27 15 10 13 26 23 17 15 13 29 33 7 21 4 11 14 5 20 20 23 22 22 28 7 34 28 15 4 4 20 17 22 8 18 23 13 11 15 5 7 15 10 5 13 0 
0 12 17 22 17 8 16 26 5 17 13 16 9 5 14 8 2 24 20 21 30 38 57 31 38 38 60 73 58 55 71 86 41 24 11 31 9 10 11 11 37 26 25 45 58 37 31 27 24 9 21 31 20 14 19 8 24 11 48 53 37 9 9 25 4 26 21 26 2 2 5 30 21 22 34 19 15 22 14 10 22 24 22 22 16 10 25 20 15 14 25 26 31 33 18 18 17 11 32 59 54 38 36 22 26 130 58 138 12 91 75 87 14 135 78 110 90 30 75 174 187 178 130 36 49 15 5 17 27 46 33 46 53 93 105 78 48 30 13 41 54 83 60 16 35 23 69 62 45 61 50 10 60 39 35 31 66 40 61 76 69 101 142 1 98 20 53 75 87 87 102 73 7 26 22 65 53 31 43 57 49 36 27 28 20 15 34 89 80 51 28 22 38 37 26 23 40 34 86 44 5 26 9 30 52 84 32 94 34 75 100 25 77 80 90 101 73 90 22 11 17 22 5 11 12 20 29 14 11 14 8 4 12 8 5 4 10 13 4 15 14 27 24 53 102 187 137 64 147 104 34 54 74 101 108 64 27 167 175 191 244 23 25 68 34 58 12 19 14 13 17 28 31 32 26 35 14 13 43 43 20 42 37 14 47 27 26 49 67 67 48 38 38 26 7 24 15 11 68 67 25 56 83 54 27 44 83 112 125 96 44 8 11 33 15 43 37 51 45 8 41 34 19 2 21 9 5 32 47 34 26 41 61 18 45 27 30 42 30 2 14 64 89 61 60 83 122 126 85 68 47 55 28 27 40 14 28 17 26 69 163 92 63 32 22 65 66 17 114 79 78 15 114 65 29 53 27 130 122 108 107 96 40 4 12 9 8 13 4 11 15 5 14 19 13 13 14 11 21 20 26 18 12 14 18 40 44 29 2 11 7 12 11 25 32 29 34 12 13 11 11 16 17 7 11 6 9 5 6 2 7 13 10 14 25 13 20 14 36 90 150 123 70 40 12 4 37 33 28 31 20 55 67 58 51 47 25 52 60 45 37 21 21 25 31 31 19 25 22 22 32 27 9 21 27 23 29 17 33 10 27 16 29 11 22 8 24 9 7 12 27 24 32 18 32 33 39 17 18 6 7 25 37 10 21 17 10 9 26 15 8 0 
0 22 3 8 15 17 4 22 18 9 16 22 11 31 28 17 5 10 25 22 34 59 36 29 40 35 52 50 70 92 57 58 61 20 18 20 17 16 7 17 27 38 21 25 18 27 17 14 18 8 13 23 17 10 20 17 11 19 3 20 18 16 7 20 25 17 22 5 15 20 21 40 31 11 36 41 22 13 5 8 22 18 4 3 16 18 25 16 6 12 26 45 24 29 8 12 26 26 32 34 50 36 21 28 35 122 37 137 34 26 91 31 80 95 43 48 146 35 112 2 188 127 79 41 56 9 46 38 61 14 54 75 34 47 23 21 11 42 32 30 67 61 53 33 43 62 117 126 70 6 57 43 24 14 40 6 47 76 52 28 62 75 96 9 99 25 46 53 62 31 22 5 34 30 18 55 49 28 39 31 11 17 10 20 27 3 18 61 57 17 7 41 4 11 7 10 48 68 67 98 37 25 24 11 62 83 17 87 60 52 118 69 80 90 41 140 139 103 32 14 11 22 21 20 12 10 10 10 12 1 7 2 8 10 14 11 9 13 8 9 15 10 91 185 134 152 89 183 153 54 58 131 203 198 180 22 255 208 121 222 165 38 43 19 37 25 13 15 11 38 28 16 30 28 57 23 18 33 53 32 32 54 10 7 45 54 36 31 21 22 42 71 38 33 12 19 25 48 83 34 18 26 36 25 78 119 95 73 60 28 33 25 28 26 14 36 13 34 31 16 44 16 36 50 24 26 24 44 23 64 19 21 21 20 7 26 24 21 38 29 17 45 87 92 77 77 124 119 89 61 35 71 62 23 21 21 31 24 22 10 86 87 12 36 25 42 19 215 0 41 124 45 115 59 34 66 36 137 182 124 111 66 19 11 11 18 6 16 4 18 10 8 12 13 2 7 3 12 20 7 14 5 8 16 14 1 10 7 14 13 14 9 17 25 31 17 21 8 4 4 3 5 4 5 9 10 13 7 12 18 15 17 16 15 42 18 23 20 69 115 135 98 51 31 11 21 31 37 38 17 49 65 56 39 43 40 39 51 39 31 23 31 13 2 13 30 4 4 20 31 34 20 15 29 11 19 34 35 17 16 21 4 40 8 32 8 29 21 29 24 19 8 17 38 34 40 26 24 38 30 20 21 40 36 15 22 22 23 7 16 13 0 
0 9 17 5 31 23 42 30 19 14 16 27 14 18 19 12 5 7 36 29 32 54 21 34 54 42 58 48 69 103 50 30 56 34 1 16 23 34 10 18 12 32 29 10 25 37 40 28 17 18 18 15 15 15 5 28 29 5 35 42 19 12 33 28 14 24 45 34 17 26 12 27 44 31 25 28 10 10 11 17 41 36 34 23 16 11 20 20 10 9 6 25 35 34 22 13 28 24 20 29 19 32 35 5 51 127 44 114 39 31 71 58 100 16 55 62 161 87 184 6 125 86 48 32 63 49 36 19 50 33 21 19 48 37 17 12 20 61 45 49 68 15 59 69 55 78 95 60 20 52 51 68 33 46 83 87 52 42 61 47 72 72 70 48 90 105 112 105 91 96 78 49 46 2 51 40 36 37 3 5 8 14 21 17 29 8 14 42 47 40 35 65 35 9 10 19 30 74 31 108 77 24 8 30 67 58 17 85 62 5 75 128 111 73 48 77 190 205 107 19 14 17 15 6 15 13 16 9 8 23 27 27 21 8 3 23 7 26 1 19 26 78 5 255 149 36 117 147 65 22 176 62 45 210 234 197 242 179 81 221 115 25 17 26 14 18 17 12 20 55 27 24 19 31 40 17 27 57 58 43 37 52 4 4 14 44 2 42 54 31 49 78 36 30 33 36 48 65 69 17 37 39 63 89 104 76 36 13 36 27 20 47 41 7 45 49 36 39 22 16 37 27 41 43 36 27 26 58 49 49 8 14 13 2 24 14 24 13 25 30 29 44 69 88 96 89 132 119 87 57 15 47 64 52 26 13 25 36 27 17 39 73 49 13 23 33 32 126 50 116 117 58 120 68 82 69 28 154 213 126 80 22 17 21 14 20 7 18 8 21 20 10 10 21 12 22 18 31 12 7 2 16 13 15 15 2 17 22 10 22 21 13 22 15 13 3 9 3 4 5 8 11 12 17 12 15 21 24 5 23 13 8 31 18 31 30 6 22 87 127 132 102 59 32 15 31 22 46 53 41 81 66 66 39 38 13 42 25 13 12 30 47 43 21 16 33 8 7 17 18 14 41 39 16 16 15 4 18 19 10 10 7 28 24 21 8 7 12 17 22 25 8 10 20 26 55 26 15 22 43 15 34 36 34 27 16 2 21 24 8 20 0 
0 14 29 26 22 9 50 22 20 16 17 22 7 16 19 6 14 14 26 25 29 46 22 23 48 61 64 40 60 99 69 30 31 33 11 12 8 29 12 8 19 44 35 26 27 28 26 29 33 34 29 18 8 10 23 21 29 39 27 17 18 11 0 18 9 27 27 21 30 33 37 21 15 24 16 19 2 7 8 28 37 16 15 28 27 24 17 21 6 10 18 9 11 26 48 47 56 51 25 18 13 5 25 24 56 117 37 118 43 42 20 113 57 109 18 90 217 170 222 211 96 59 10 27 45 69 24 42 36 33 25 35 16 13 24 26 30 53 43 48 17 37 53 71 80 90 50 44 59 28 91 7 50 51 48 78 94 60 11 73 115 73 72 76 77 98 98 71 63 55 53 81 50 38 70 47 32 30 7 4 4 8 15 11 13 7 2 21 44 71 38 50 65 31 35 41 16 40 48 77 92 17 19 31 49 46 16 89 42 15 8 115 148 83 72 51 90 228 206 65 28 9 23 6 8 15 11 4 10 8 7 7 29 29 15 17 2 22 16 10 56 244 91 152 190 77 47 37 87 173 100 83 134 149 12 119 6 100 68 208 57 41 9 24 27 19 35 42 53 45 13 33 6 12 34 20 66 80 43 4 17 43 12 28 32 15 26 32 28 32 54 63 31 11 44 59 46 41 44 61 92 93 93 79 70 28 18 9 21 29 34 54 20 19 31 27 42 36 9 31 12 17 34 18 26 5 2 25 39 22 7 16 7 26 21 18 24 21 22 22 21 42 62 76 87 89 137 134 109 77 36 46 47 60 43 26 12 19 24 11 17 63 73 36 23 51 38 74 11 216 60 116 103 114 29 50 22 174 224 131 57 21 17 17 22 16 7 19 3 8 6 13 19 30 16 15 33 68 49 36 12 17 6 6 5 9 16 13 29 12 13 22 12 11 9 11 16 15 13 10 6 4 4 13 4 8 28 13 13 25 19 7 32 22 27 26 2 35 95 137 133 86 33 7 17 33 18 41 49 69 89 43 50 13 31 39 43 19 20 22 37 45 51 46 47 56 53 49 55 66 73 43 38 12 10 15 25 36 22 18 12 5 16 9 10 15 12 15 23 14 26 12 21 25 21 28 30 22 24 35 11 30 26 15 8 23 12 13 16 20 6 0 
0 31 12 18 7 12 17 17 18 18 16 17 6 17 17 3 21 7 22 27 28 33 28 31 43 46 59 57 74 98 79 23 24 26 2 13 13 22 4 4 19 40 40 10 19 31 20 23 15 4 19 14 5 7 27 35 39 25 12 11 4 13 18 18 9 25 41 39 14 17 18 11 5 15 7 13 4 5 20 15 27 43 31 20 21 17 11 27 11 24 10 2 18 28 12 7 18 50 15 6 17 16 7 37 65 96 249 158 40 14 41 89 63 83 90 57 24 239 180 129 76 54 34 40 32 49 25 48 33 19 13 24 12 12 46 18 63 44 40 38 36 72 84 75 72 72 52 59 58 61 38 67 25 35 49 28 44 76 54 39 125 126 95 69 59 64 49 21 43 13 49 73 40 65 62 31 24 24 13 12 11 10 11 1 7 16 14 14 38 88 60 17 71 77 11 43 24 24 26 39 91 51 14 26 64 72 19 92 49 4 14 72 145 144 101 106 46 134 221 170 117 100 77 50 37 20 13 15 9 25 29 21 19 16 17 20 12 17 27 63 18 121 180 125 194 103 45 60 146 51 72 107 48 151 14 40 232 122 111 173 41 45 14 32 51 13 31 59 53 29 8 24 20 31 64 53 68 54 8 3 20 38 8 50 15 20 25 54 10 32 75 51 5 27 55 80 52 11 38 80 89 64 38 20 43 26 17 15 23 32 39 34 12 3 22 14 23 26 19 31 10 21 27 15 29 11 12 15 16 20 14 17 31 31 14 14 22 23 23 24 31 53 62 61 76 84 131 141 132 113 64 43 39 63 47 18 21 22 28 13 4 12 69 54 18 51 30 34 218 5 23 138 57 116 35 36 56 185 230 133 38 24 30 26 14 12 2 15 14 11 13 1 29 21 26 21 27 64 25 43 7 9 16 24 19 2 19 17 20 27 17 27 5 5 12 17 7 8 9 11 12 13 15 7 11 13 30 28 29 7 20 34 26 13 21 24 19 67 121 151 131 62 4 35 41 41 24 38 29 82 82 27 31 4 13 21 9 26 27 17 12 26 22 20 39 49 46 30 8 14 43 59 44 30 28 33 28 19 4 11 7 16 20 25 18 17 14 14 15 17 25 4 35 12 26 35 31 13 10 21 25 42 39 19 18 24 10 11 21 11 8 0 
0 22 22 11 15 17 3 8 13 12 9 13 7 21 14 18 22 22 21 27 21 15 22 53 62 42 54 82 93 77 63 41 30 21 5 8 7 24 16 17 3 26 45 29 31 9 24 32 17 25 29 27 7 9 9 7 8 7 8 10 14 12 6 38 65 57 26 7 24 16 2 14 14 12 12 13 7 8 26 24 24 14 18 28 36 26 10 28 12 14 15 19 8 22 20 39 51 34 6 18 19 11 26 29 52 55 206 235 52 106 28 52 124 25 116 87 44 23 169 110 57 34 29 42 25 36 52 42 36 34 32 26 19 16 56 44 65 34 30 53 97 89 44 28 14 84 97 48 29 74 67 36 54 61 52 10 80 52 53 74 106 171 118 45 21 6 21 27 25 27 59 39 28 50 21 15 21 12 11 11 11 9 10 8 15 11 16 14 25 80 77 37 27 73 50 11 39 41 36 13 74 63 41 36 66 118 28 96 65 15 11 21 55 132 160 157 89 66 144 127 108 126 155 161 146 117 60 3 22 13 21 17 32 33 11 18 18 44 49 43 165 227 97 199 132 114 40 194 33 15 80 74 77 95 220 95 98 145 223 183 51 73 28 17 58 50 11 45 20 7 15 20 14 72 74 26 38 37 4 2 13 38 20 39 34 30 50 60 24 56 74 31 42 65 97 89 36 27 59 67 48 21 7 17 42 41 8 14 37 32 36 21 16 10 21 29 35 47 40 24 24 20 8 9 22 8 17 16 12 12 13 28 36 25 17 20 21 19 20 33 50 71 74 70 78 78 120 136 134 118 67 42 34 65 65 36 7 11 22 12 15 14 67 63 11 45 19 7 173 29 105 95 56 95 67 24 85 181 223 129 33 13 7 11 3 10 7 5 12 7 15 26 14 22 27 7 7 53 48 30 8 19 14 13 15 7 8 18 15 29 14 22 2 8 13 12 6 8 8 8 8 8 8 13 21 21 46 16 39 39 34 17 9 2 25 30 41 94 137 139 102 35 22 28 18 28 18 24 22 93 79 36 27 18 12 17 24 21 35 6 29 31 8 26 28 40 46 52 20 27 36 63 68 52 44 54 64 34 29 33 33 7 27 11 31 30 18 11 9 7 19 19 24 16 29 21 27 35 18 21 29 25 51 18 39 28 27 25 10 4 6 0 
0 54 20 28 8 16 16 16 6 10 18 22 20 31 10 24 26 22 16 38 36 22 28 63 59 31 51 85 72 51 66 66 51 29 5 6 10 33 12 13 15 17 30 37 31 12 32 23 13 21 26 45 25 21 20 26 26 12 13 31 27 21 23 49 41 59 49 18 22 14 18 20 19 8 20 16 8 5 26 29 30 31 23 22 10 31 28 8 27 40 39 7 19 13 2 36 6 30 28 32 13 28 3 33 82 62 151 57 165 138 7 65 95 94 45 117 54 42 194 114 51 5 2 29 37 38 44 24 35 18 33 34 18 41 54 67 51 37 11 47 93 68 44 18 28 45 56 80 79 59 56 57 53 38 25 46 29 36 52 18 90 168 107 11 32 25 19 22 7 54 54 16 33 27 6 20 18 4 13 8 12 8 1 14 19 12 10 10 13 46 76 74 19 38 75 52 12 26 58 19 50 42 51 68 49 148 40 107 84 20 40 32 28 64 154 220 145 83 158 107 65 51 29 24 51 91 77 26 10 11 9 13 7 3 31 21 40 69 42 154 208 88 204 126 69 122 237 147 52 67 68 56 25 21 159 180 18 98 247 235 13 78 54 42 44 80 40 35 22 33 28 25 23 87 65 6 32 36 7 4 7 11 28 2 20 17 89 65 47 60 20 66 91 85 75 25 33 66 81 47 12 17 15 17 25 48 12 26 51 46 41 21 17 10 27 31 14 52 52 15 15 18 15 4 9 18 16 5 10 8 11 28 16 17 34 34 31 16 16 30 45 69 66 68 73 63 112 136 146 139 91 53 19 39 63 54 29 21 29 14 12 15 70 65 15 46 21 25 113 21 196 29 84 92 71 41 77 166 214 121 43 8 13 13 7 5 13 5 14 13 22 21 22 21 22 13 9 21 2 6 17 9 19 34 27 12 27 23 17 18 2 17 13 7 13 9 9 12 13 15 16 17 19 35 49 38 29 40 31 12 13 12 18 29 38 38 51 101 134 114 72 21 22 24 31 49 41 15 53 83 65 34 34 42 38 29 7 17 42 17 17 13 17 24 14 18 8 38 44 50 48 53 32 30 10 14 45 26 17 15 26 24 23 12 9 18 17 21 15 5 17 26 4 21 11 16 17 29 21 22 30 31 58 10 46 34 47 19 15 5 19 0 
0 32 5 19 18 15 17 13 6 8 9 15 20 37 14 26 34 19 8 24 28 18 43 54 48 40 54 82 60 33 55 66 46 23 18 26 25 29 7 21 14 13 30 39 10 8 23 18 13 12 39 38 9 28 27 15 8 13 18 17 34 44 36 28 63 64 53 22 22 28 17 7 3 10 25 15 7 0 24 30 38 34 17 22 23 30 15 4 24 21 46 42 15 2 12 27 17 14 11 26 13 8 48 34 53 33 15 65 73 79 70 50 14 110 85 161 59 23 128 15 35 19 16 13 19 48 55 45 13 38 47 38 10 30 33 36 61 26 38 80 45 27 5 30 40 34 62 85 101 131 57 21 37 14 24 8 72 85 51 29 90 141 110 42 14 32 7 23 34 66 36 32 43 29 25 31 7 14 21 16 17 17 8 19 18 10 5 8 20 4 42 86 47 12 40 51 10 18 67 55 52 29 24 80 41 145 57 107 105 17 45 20 67 8 102 222 181 82 194 129 123 143 163 154 139 96 50 34 18 5 7 13 19 14 24 28 46 46 177 233 59 189 148 25 74 218 112 81 101 114 54 10 30 48 120 193 68 56 198 246 167 47 55 90 31 106 75 25 40 50 74 63 21 98 69 27 23 35 18 25 29 28 11 26 30 52 83 65 51 19 87 136 110 55 13 55 69 65 61 4 20 36 36 47 45 41 14 41 55 22 7 13 30 23 30 35 40 47 28 24 20 5 34 14 10 24 5 1 4 11 32 15 7 27 48 40 46 16 17 18 29 59 46 54 69 56 107 130 148 151 111 76 23 23 57 61 32 15 21 15 12 17 57 78 65 34 14 49 36 239 2 43 51 100 107 106 112 163 219 123 61 5 18 12 2 4 13 9 24 24 32 16 17 33 30 13 4 18 2 7 11 5 17 18 2 27 41 41 39 19 16 21 29 20 13 4 4 4 3 0 3 4 4 62 9 58 13 27 37 29 27 18 4 22 30 34 56 109 138 116 68 11 48 50 38 46 53 38 78 73 53 19 38 12 24 7 27 22 13 17 11 14 10 19 6 21 20 18 39 31 9 30 8 27 5 15 23 22 21 4 2 27 27 4 23 20 38 32 33 11 25 9 25 15 5 13 13 17 28 7 22 22 16 42 15 38 33 21 8 17 15 0 
0 17 8 14 11 10 5 9 10 10 19 18 30 27 2 17 16 24 13 31 19 19 46 36 51 67 60 67 59 41 69 68 46 21 50 42 12 5 25 15 26 13 27 27 31 22 8 10 18 25 42 17 29 24 29 28 7 17 27 43 42 36 25 14 6 10 27 1 12 14 7 17 14 14 26 15 12 9 24 23 36 35 37 12 14 20 31 28 10 38 41 25 11 6 15 17 4 15 12 26 32 27 52 22 41 70 102 232 213 66 110 34 66 18 118 6 82 222 29 59 56 30 14 15 43 32 48 57 34 7 13 22 39 25 27 53 53 102 117 69 22 43 54 48 34 37 54 176 106 141 116 45 77 65 29 23 30 48 111 108 77 113 77 60 25 22 32 40 78 89 47 47 61 43 17 5 14 11 14 7 15 20 18 10 13 18 16 4 14 27 21 80 85 76 19 52 29 23 38 62 42 21 15 51 36 120 57 101 108 15 66 30 80 35 75 211 224 63 9 167 52 46 75 79 63 52 32 11 21 7 17 3 18 8 22 31 44 180 221 78 199 147 32 75 180 33 238 54 93 116 29 16 27 25 106 180 89 2 133 173 146 162 85 89 27 112 101 13 69 62 67 71 41 115 53 30 15 29 50 67 35 44 16 11 24 40 63 81 19 106 152 107 52 26 49 68 32 28 47 11 12 43 51 21 27 24 18 40 39 28 26 32 45 28 40 2 41 39 12 22 34 11 46 7 19 14 21 14 10 20 51 18 25 51 66 28 45 17 27 27 38 65 57 44 71 76 107 130 134 137 105 99 46 6 43 68 52 33 30 14 9 9 17 52 62 42 28 24 39 178 57 141 50 94 104 54 106 158 232 153 64 23 38 30 19 7 10 7 22 15 18 28 26 19 18 22 14 21 15 12 7 8 9 22 21 13 7 10 5 8 11 10 34 28 17 19 13 8 8 8 8 8 8 38 41 26 37 22 24 22 21 16 6 19 25 49 82 121 141 108 30 29 44 16 10 24 35 57 76 59 48 19 38 4 39 18 29 21 17 15 8 8 14 18 12 17 29 31 12 27 31 20 7 20 20 12 17 39 49 33 31 35 35 37 12 31 33 16 31 19 20 8 8 15 15 6 20 14 26 19 5 31 19 23 28 18 15 25 26 18 4 0 
0 15 20 5 27 19 23 8 11 13 7 8 9 14 24 20 14 0 42 25 5 29 48 25 49 80 50 56 74 50 56 76 61 91 54 88 17 5 20 47 37 8 23 29 36 32 11 18 26 34 36 22 30 8 34 23 15 10 14 8 25 37 44 25 17 24 27 24 17 18 23 17 9 4 27 22 10 10 13 12 27 14 40 20 4 14 8 25 29 16 35 21 10 8 14 24 24 11 55 37 28 18 54 43 9 28 32 86 31 229 87 101 47 59 151 67 79 165 11 45 7 23 11 14 35 69 40 26 46 27 22 61 74 76 65 17 109 111 46 34 71 46 59 31 15 36 26 147 176 66 136 63 45 10 50 58 73 109 113 153 168 143 85 46 20 1 15 28 88 63 26 56 78 43 9 18 11 9 9 6 20 9 16 17 19 8 8 16 7 10 7 34 55 79 56 51 47 22 20 26 21 14 25 13 33 84 37 99 77 24 52 17 64 24 39 194 12 17 42 216 20 22 20 21 9 10 21 18 22 3 25 8 19 11 21 252 195 251 83 226 207 80 69 164 241 202 39 84 63 42 36 24 26 17 86 159 94 52 118 163 35 76 162 89 16 95 99 18 74 85 13 70 22 87 22 32 22 13 27 65 43 44 31 12 41 34 59 52 103 167 118 30 38 50 55 35 13 17 51 19 37 28 46 18 5 8 15 35 22 12 11 32 78 21 68 27 58 11 39 14 35 13 31 18 26 11 11 28 22 26 40 14 47 20 67 49 26 19 26 24 23 58 68 51 65 82 96 136 125 124 97 91 65 15 31 58 67 45 18 15 9 8 13 8 27 44 29 21 56 66 37 191 15 62 112 38 76 151 225 188 60 28 19 13 26 18 14 5 13 21 13 3 1 16 23 9 8 16 10 22 9 17 19 15 8 8 11 5 12 22 9 15 29 17 15 9 12 7 4 1 0 1 3 9 11 8 15 23 31 18 21 20 27 7 12 80 126 116 125 80 23 50 14 28 29 12 22 64 61 47 51 22 16 7 39 11 8 20 8 16 0 8 2 4 12 0 20 36 24 49 15 24 34 32 36 36 23 21 27 25 32 16 14 41 57 45 48 64 49 12 4 16 15 11 15 16 17 5 25 5 22 17 35 1 23 15 16 13 14 12 14 0 
0 13 16 13 28 11 31 11 2 8 9 19 16 14 15 40 7 20 45 23 2 35 46 41 65 47 31 58 73 65 60 74 69 93 53 107 31 11 13 25 9 10 26 32 36 38 14 9 10 17 27 10 19 22 31 3 33 30 34 31 17 9 9 12 26 23 11 5 9 7 1 11 20 24 18 42 26 7 13 27 21 17 28 16 38 62 88 62 37 27 57 15 15 25 25 5 31 39 54 30 35 18 19 43 13 26 11 190 18 128 37 122 68 41 207 103 19 122 26 47 38 16 48 52 56 60 66 30 64 25 41 53 12 21 14 95 120 39 36 57 53 7 27 26 29 29 72 117 135 27 109 131 116 107 128 181 216 191 130 76 48 27 18 15 15 6 21 29 97 51 54 64 67 31 15 13 10 3 2 12 22 3 31 12 15 7 3 13 15 10 4 4 11 71 84 27 39 32 22 30 27 8 20 22 14 44 24 89 72 41 39 34 46 4 18 142 15 127 233 14 37 10 11 15 22 3 14 8 10 10 15 11 25 17 220 157 26 49 208 200 75 116 202 235 190 55 66 78 18 13 22 5 21 16 80 147 76 39 157 170 91 108 22 116 86 99 95 25 70 87 47 31 62 48 10 17 21 25 12 41 10 8 28 50 56 22 39 111 149 92 23 44 65 59 35 29 16 36 34 29 26 2 41 46 31 14 10 33 36 17 15 8 68 38 61 27 60 25 36 10 22 9 16 29 14 19 34 32 27 5 21 9 38 49 29 37 3 24 12 42 15 46 35 46 72 61 80 134 118 122 124 108 83 45 36 47 61 47 22 19 10 14 15 10 24 43 40 19 57 34 251 244 16 21 89 76 69 175 197 181 93 14 37 34 16 12 12 7 5 11 14 12 15 14 10 8 10 16 20 13 16 19 10 8 7 9 31 29 37 17 10 21 20 13 19 26 11 4 4 1 1 4 4 18 17 5 11 4 21 26 17 7 34 18 2 110 153 106 100 65 32 41 35 62 52 13 41 58 61 63 56 15 12 22 18 27 11 14 10 21 24 14 11 14 27 34 17 18 19 29 27 31 15 13 11 20 17 18 21 3 8 27 21 8 34 56 57 48 48 48 35 23 27 21 11 23 11 12 12 16 9 18 33 14 22 21 14 17 24 28 10 0 
0 7 9 12 17 3 27 7 8 10 11 22 4 3 12 34 9 22 36 32 17 41 47 35 58 43 30 72 52 60 84 61 55 28 52 71 32 27 14 31 22 7 36 15 14 22 12 11 21 12 20 19 4 5 21 27 23 6 8 12 10 12 15 17 4 5 3 1 3 3 4 17 8 33 25 13 38 31 26 6 22 10 22 7 102 157 160 143 101 20 52 3 17 15 31 17 24 45 32 53 45 35 21 47 25 7 30 81 169 6 93 98 39 29 249 115 189 82 99 26 46 31 43 68 47 27 39 38 24 49 65 46 1 46 86 120 78 32 57 38 39 72 34 48 139 205 211 189 183 147 134 154 157 107 52 60 43 9 57 108 146 167 157 120 72 32 7 45 126 40 64 50 55 32 15 15 18 17 11 22 25 16 37 25 42 28 12 16 11 4 4 18 28 29 67 67 37 22 35 15 17 15 35 54 29 34 36 90 100 37 72 66 67 21 4 75 224 244 96 42 83 13 10 18 7 28 16 26 14 16 4 31 11 204 158 62 22 172 193 106 59 228 253 170 40 55 46 42 23 21 21 9 24 20 82 152 71 32 166 160 71 119 122 59 120 111 77 13 47 90 40 27 80 36 22 17 3 24 6 31 17 16 25 35 8 58 79 96 62 14 56 84 84 62 37 25 33 23 8 23 43 19 50 56 38 33 24 14 52 17 18 38 46 38 52 18 36 24 8 19 13 12 27 16 12 14 14 15 25 11 7 14 12 34 30 26 16 30 33 37 12 56 21 61 71 32 73 131 105 96 114 101 74 52 41 37 55 50 21 10 9 10 4 8 4 23 36 64 35 87 186 40 50 12 83 109 45 195 175 157 139 35 14 14 27 26 19 9 6 13 15 8 10 5 3 0 3 8 11 7 9 8 21 19 36 32 8 19 17 8 19 17 11 17 9 7 2 4 5 3 3 5 4 28 16 26 8 16 13 27 14 6 20 17 32 134 163 104 79 53 22 52 32 27 15 46 35 53 74 67 44 34 24 7 11 25 13 9 14 18 14 17 22 4 10 10 23 17 20 6 11 14 29 19 26 8 36 16 11 11 5 24 6 24 10 4 3 1 13 22 29 34 44 48 42 32 17 12 9 11 11 11 21 40 29 14 24 9 5 14 13 0 
0 17 10 8 9 2 18 17 18 16 8 10 17 13 10 22 8 19 27 42 33 41 44 27 32 40 56 87 60 55 80 51 37 20 5 36 20 28 16 19 34 21 29 19 22 29 7 6 22 38 43 44 29 24 26 18 13 25 20 11 17 24 30 22 9 15 6 0 4 3 7 12 40 21 25 28 34 27 32 42 33 32 8 62 239 226 129 153 112 5 42 8 13 18 32 14 18 38 26 51 20 24 15 42 17 13 13 35 254 52 54 75 35 55 22 122 144 8 86 50 32 26 52 34 25 42 18 20 58 57 29 20 12 87 129 76 22 67 67 27 64 77 94 122 178 163 109 47 72 24 8 23 47 94 80 100 73 30 25 51 65 15 51 81 56 25 18 84 150 45 98 66 57 30 14 24 16 10 22 33 23 14 33 23 15 37 18 7 15 12 6 28 31 24 26 58 64 39 8 14 7 18 3 36 56 69 119 163 194 84 136 97 109 33 34 29 110 21 37 42 119 31 21 19 15 21 29 18 11 21 31 9 182 156 83 61 159 168 65 63 147 7 187 38 56 22 33 53 34 32 31 22 29 20 81 147 76 24 177 168 27 64 82 90 104 84 60 45 26 73 69 64 72 14 12 16 8 14 12 26 21 22 38 29 90 97 66 30 17 46 60 59 38 15 15 11 32 33 21 48 69 33 34 60 28 42 17 15 57 33 25 30 42 42 48 37 16 4 14 21 11 16 18 2 8 11 17 18 27 7 16 12 9 7 27 26 15 10 24 29 10 62 24 61 46 46 86 141 115 98 127 111 73 53 33 25 49 63 44 16 16 18 12 10 12 15 43 72 17 122 93 93 146 70 38 120 22 192 167 145 168 33 31 25 10 7 5 2 8 14 17 13 8 5 7 8 8 8 5 7 17 11 10 34 31 16 21 18 17 14 11 15 18 12 8 15 8 4 7 4 4 7 4 26 11 24 10 8 34 36 10 8 15 28 66 151 163 98 62 30 23 31 27 57 36 45 51 71 75 45 14 26 37 30 19 13 35 36 13 8 15 14 19 20 29 34 20 8 5 8 12 4 16 25 39 22 40 23 23 15 9 26 27 27 10 5 20 24 18 16 32 40 46 47 36 17 10 12 31 38 39 19 21 21 32 25 18 2 2 14 12 0 
0 20 8 2 4 3 11 16 7 2 13 12 14 17 16 8 2 15 25 40 38 36 43 29 25 47 72 91 67 27 48 60 43 24 12 28 22 17 9 31 29 12 20 11 16 28 13 9 14 28 18 29 15 13 15 16 21 4 24 8 6 19 3 33 17 14 11 4 4 7 5 28 4 40 31 33 13 11 8 21 16 32 87 200 247 37 191 190 90 16 31 21 10 19 14 9 24 17 7 21 26 28 27 39 61 64 40 14 93 221 7 31 75 65 50 127 145 55 29 42 1 12 21 40 35 15 38 52 55 16 32 55 76 116 109 12 69 36 44 34 104 44 99 184 226 208 201 180 204 189 132 66 50 100 48 84 87 79 96 123 158 167 155 127 73 26 9 95 148 39 133 77 29 7 14 14 21 31 41 34 3 24 26 18 27 46 15 16 14 18 24 38 15 37 30 10 34 39 25 8 21 2 15 10 55 128 162 76 200 155 180 150 168 24 26 26 38 15 135 19 154 43 25 11 4 12 21 9 8 26 24 165 140 91 56 139 188 84 54 127 220 231 57 50 39 55 68 70 36 26 28 3 21 18 80 141 71 15 158 161 69 37 19 62 71 54 19 33 65 34 78 77 76 25 23 31 16 12 14 24 50 1 46 80 97 40 19 46 44 25 57 50 9 12 31 32 16 41 7 45 47 5 35 67 20 42 24 27 56 31 14 2 20 36 8 27 31 22 8 29 11 8 11 11 21 16 12 19 36 17 15 12 4 14 7 23 11 24 21 20 35 44 23 55 36 35 80 131 121 103 135 122 79 62 35 20 43 63 53 22 4 10 15 14 12 16 43 70 47 120 21 108 10 70 56 106 2 218 176 109 158 51 38 25 17 8 8 3 5 10 14 11 7 11 9 8 8 8 8 8 6 7 8 24 29 29 11 3 3 13 16 28 23 15 20 7 19 4 7 4 4 7 4 17 29 14 7 17 41 17 28 26 25 51 99 159 154 89 44 6 27 14 25 44 18 66 82 52 49 43 27 7 27 44 46 27 27 31 28 19 12 10 11 9 18 23 20 20 20 12 14 5 13 23 19 21 22 44 52 34 12 13 20 12 10 13 29 14 23 21 19 20 27 38 41 31 21 27 40 30 46 30 14 28 9 21 7 2 7 24 23 0 
0 22 5 2 1 5 15 13 14 12 11 14 5 11 1 8 8 22 23 27 29 30 47 32 21 58 72 84 84 31 50 57 56 20 22 11 7 8 18 24 14 16 25 8 13 19 14 24 17 18 15 30 20 22 32 26 5 19 4 22 29 44 56 35 7 15 8 4 5 4 8 14 26 30 16 30 28 24 22 29 35 89 188 167 60 232 1 112 19 26 28 26 7 22 25 24 7 13 7 16 14 2 11 27 17 13 11 10 7 52 88 13 43 83 41 160 193 22 22 34 20 34 25 13 10 18 22 73 99 13 78 79 84 53 67 78 22 74 45 18 95 77 31 116 173 177 101 34 47 96 118 89 52 43 61 84 67 21 8 14 19 48 48 29 2 20 19 86 132 41 129 73 35 22 22 31 36 40 46 23 25 33 17 11 15 34 17 29 21 10 37 35 18 39 22 7 2 37 26 9 12 8 5 31 15 118 203 98 98 85 109 172 204 97 57 31 17 240 205 232 221 68 6 15 14 5 11 7 15 36 154 110 100 55 158 179 102 8 106 204 245 120 61 45 31 55 38 53 41 34 39 26 40 51 92 175 90 21 120 120 58 29 32 45 44 64 67 71 59 49 93 72 61 17 32 37 7 39 41 51 47 53 55 52 42 40 72 60 51 32 48 49 9 17 46 25 31 20 4 48 35 27 51 45 15 14 37 32 35 22 13 4 25 48 47 14 14 29 15 35 17 8 8 22 25 9 6 12 32 25 16 8 21 15 18 21 29 16 14 11 20 19 19 50 35 49 81 106 117 101 129 121 74 67 46 26 39 49 40 37 28 27 23 3 18 25 47 86 108 75 104 39 115 38 94 87 2 4 181 54 120 76 19 21 27 17 10 1 8 12 16 21 15 8 5 3 4 6 5 12 20 12 15 15 16 10 1 1 9 8 10 32 29 6 19 2 19 4 5 3 3 5 4 8 9 24 7 33 28 12 35 15 19 74 129 160 135 72 20 19 21 4 25 49 8 82 64 22 31 33 12 26 22 18 34 25 20 26 23 15 13 18 21 17 16 18 37 5 11 11 11 20 15 31 34 30 18 29 20 11 26 35 25 19 23 7 34 8 27 33 14 4 8 9 26 24 34 41 25 13 37 39 34 32 12 23 12 13 16 30 18 0 
0 25 11 7 8 7 21 35 22 14 28 38 7 33 22 21 23 41 7 15 19 18 49 28 34 70 58 78 86 50 38 36 82 39 24 21 10 18 21 24 20 10 36 12 15 20 17 28 16 11 15 23 11 12 16 16 27 14 21 8 4 11 2 32 42 35 15 7 9 6 12 13 11 11 21 9 11 14 43 31 11 113 149 86 215 210 82 29 19 14 38 33 30 11 8 35 13 17 8 16 18 15 27 18 36 30 23 18 21 123 255 7 96 74 244 182 6 37 29 14 24 16 7 18 18 38 50 12 100 96 137 103 40 25 55 90 88 22 69 41 52 73 54 63 67 91 111 93 84 43 90 151 146 80 40 49 41 14 22 13 19 9 1 12 13 9 33 85 131 32 105 57 22 11 19 29 31 30 31 19 47 27 15 22 28 32 14 16 7 23 56 15 45 47 18 7 8 50 18 32 28 27 36 57 53 25 141 131 72 95 152 101 138 111 70 33 53 217 37 183 54 195 79 19 17 18 21 15 10 120 65 111 89 154 145 66 16 77 200 16 116 74 91 32 76 10 34 7 41 54 53 34 43 50 74 202 109 49 73 86 37 28 34 60 63 74 41 34 25 80 101 60 36 23 33 21 1 65 55 86 87 70 26 17 46 44 53 21 28 34 39 38 17 14 26 26 16 6 28 68 28 17 61 48 32 27 21 26 23 6 23 25 46 15 49 46 31 13 26 34 20 14 10 19 18 12 15 30 20 14 30 5 33 17 29 25 20 32 36 39 46 39 10 24 59 91 81 87 123 110 127 136 85 58 43 31 42 46 27 31 17 15 12 20 17 26 23 30 135 7 138 181 172 144 126 62 25 9 198 30 81 96 17 23 14 6 5 5 7 5 5 13 6 11 12 11 11 12 10 5 11 11 34 39 24 19 8 8 12 23 23 20 26 31 24 8 15 4 4 1 1 4 4 10 44 48 34 47 8 23 10 25 42 100 151 150 105 43 5 21 29 45 45 18 41 89 60 23 45 48 24 11 39 41 22 9 7 19 16 17 22 24 23 16 7 27 26 29 33 31 10 21 11 8 27 9 4 24 22 14 18 31 33 19 11 22 28 11 16 15 13 26 24 9 19 24 18 27 31 38 55 75 74 46 23 24 31 33 25 18 15 0 
0 9 16 13 10 6 17 31 13 15 31 43 9 50 10 5 12 43 16 22 22 14 47 38 40 53 61 99 82 43 42 14 71 66 4 17 31 29 21 3 15 15 32 11 9 15 24 26 23 23 29 26 15 6 12 7 25 27 21 5 8 17 22 35 9 27 7 21 15 22 17 29 19 24 15 28 41 46 36 8 14 117 109 143 138 28 36 30 10 16 50 20 31 21 14 21 12 12 10 30 41 12 42 7 39 38 26 13 12 29 12 101 54 27 190 171 64 96 5 46 23 22 22 35 55 57 50 33 23 83 112 9 41 24 56 32 105 70 29 61 8 53 69 84 90 83 48 36 20 25 41 63 89 93 68 43 15 24 22 15 22 27 18 18 11 17 10 62 134 20 108 65 37 31 18 22 41 33 49 50 46 20 26 12 34 25 12 34 73 79 13 44 45 30 17 29 42 53 13 53 20 59 35 20 91 130 55 117 65 89 173 123 32 75 93 86 101 233 84 91 255 189 108 35 24 10 39 11 104 45 116 135 136 161 55 15 54 182 245 159 69 137 37 65 79 35 10 47 22 43 37 14 25 35 69 179 84 21 52 94 20 25 32 52 75 81 40 9 28 92 93 67 28 29 17 32 35 54 49 3 21 14 29 41 31 26 29 27 4 20 33 31 34 27 20 8 10 24 50 58 27 35 23 32 24 48 29 43 26 7 2 48 30 41 44 29 26 18 11 1 22 10 32 9 10 17 22 23 12 7 29 24 29 19 23 34 18 24 15 26 32 57 33 18 29 98 80 73 118 118 121 151 103 51 46 35 43 47 31 30 21 10 11 13 2 6 8 13 111 41 131 60 173 4 113 36 38 236 219 38 76 119 37 6 8 9 5 11 21 19 9 13 3 14 10 8 9 21 24 18 8 30 8 2 6 20 11 8 4 13 13 5 13 7 5 11 7 12 10 5 11 18 13 23 45 4 46 36 29 24 13 28 88 130 168 153 84 22 24 28 43 43 17 15 54 86 33 16 55 33 29 22 8 5 10 4 15 15 11 11 25 29 23 7 11 33 29 32 15 33 29 23 16 15 18 14 4 4 12 18 41 53 33 25 5 1 19 7 21 22 13 16 12 16 7 20 13 22 7 27 43 36 36 39 41 47 41 32 31 17 17 0 
0 20 8 12 10 3 22 19 17 10 5 25 11 33 9 7 18 22 16 32 34 9 31 47 47 24 46 117 86 33 58 61 70 56 13 24 34 5 14 10 23 16 14 21 19 23 13 11 23 13 20 10 4 7 18 15 11 15 25 25 11 8 12 25 40 33 24 32 9 24 7 22 8 24 12 25 12 7 20 34 13 101 54 63 51 48 20 18 21 29 38 15 17 15 2 11 28 25 33 5 14 48 30 19 27 19 17 24 14 38 61 238 244 99 151 135 106 124 65 56 9 47 12 22 58 27 60 35 25 53 20 57 17 31 82 104 52 72 54 32 48 15 43 72 83 57 22 22 13 47 141 187 175 115 60 25 33 45 33 8 27 17 19 21 9 17 14 43 143 46 131 79 26 14 29 37 23 22 47 47 32 5 19 12 29 28 11 31 71 47 52 20 31 11 8 46 59 41 27 56 28 47 45 72 126 67 102 74 21 108 38 111 73 64 33 26 40 204 46 62 12 198 112 16 26 15 16 106 46 143 188 105 170 101 52 58 138 220 131 59 103 55 31 52 80 22 71 73 20 50 24 30 32 32 96 143 58 66 77 121 15 27 47 56 96 94 49 19 62 86 71 70 13 16 33 32 30 22 34 30 48 56 39 46 20 25 15 35 17 23 28 21 37 24 32 41 30 15 32 63 32 38 37 12 43 63 20 53 18 19 13 34 8 23 39 21 14 42 20 22 17 17 31 5 18 7 11 18 14 7 13 10 10 13 22 31 14 21 13 25 14 33 36 15 31 81 79 78 110 128 117 140 123 69 54 48 52 54 46 21 22 22 15 12 4 14 19 23 64 65 91 54 114 71 41 33 55 207 249 39 70 151 52 12 17 16 13 20 20 8 3 11 4 7 15 24 9 31 24 26 8 35 35 33 22 1 18 23 21 16 20 11 30 22 14 17 8 7 7 6 20 18 23 16 41 54 58 14 21 13 22 66 126 147 158 137 34 32 33 8 43 45 26 33 57 81 14 23 56 13 10 18 22 22 14 7 10 21 20 21 13 27 29 23 10 17 20 14 14 30 46 35 22 5 7 20 13 25 27 20 15 11 29 27 25 44 53 36 28 27 14 33 29 3 20 10 17 4 25 44 39 37 11 18 36 48 43 34 39 45 37 0 
0 19 6 4 9 13 28 24 24 13 22 19 8 16 6 2 16 19 4 31 39 17 39 46 54 43 40 92 92 40 66 66 24 29 21 25 35 3 7 14 9 26 12 28 25 16 9 8 20 26 24 37 46 41 30 15 37 30 22 18 22 11 4 11 17 34 17 24 24 17 11 17 25 30 12 23 15 12 15 35 37 73 38 29 28 13 16 45 13 32 28 22 6 28 38 30 31 20 37 13 17 30 10 18 24 21 28 28 21 17 15 24 37 70 100 116 111 131 19 21 43 39 21 24 80 29 61 67 56 10 63 52 20 55 34 88 91 15 67 61 22 38 59 92 65 35 39 39 28 77 122 51 12 23 27 27 70 58 63 36 28 6 17 2 20 13 12 34 131 74 129 104 20 61 75 55 29 20 10 12 6 22 17 3 13 17 26 3 83 79 42 19 32 1 17 59 45 22 22 42 44 24 6 49 172 65 143 43 98 118 57 67 58 112 129 132 125 214 112 90 31 226 96 42 29 25 81 21 121 200 100 189 89 48 78 186 210 123 39 69 44 13 26 14 82 87 49 60 47 37 18 27 23 7 155 137 52 108 104 175 36 25 62 75 103 79 10 47 106 96 69 46 13 38 38 22 13 16 25 9 11 13 21 35 14 17 23 47 25 23 21 4 32 18 17 11 27 21 2 31 60 69 31 28 50 56 34 34 10 10 25 27 10 0 22 19 27 36 43 21 15 7 24 10 24 9 13 25 23 16 9 3 4 5 9 17 39 19 11 4 21 16 15 21 34 62 82 93 111 128 109 109 135 99 34 33 54 53 63 26 20 33 12 15 16 23 23 24 30 76 47 96 19 103 65 16 72 159 53 37 19 179 66 13 8 10 8 14 32 41 32 22 11 6 15 25 20 23 18 28 11 13 9 5 12 21 8 9 29 12 12 26 24 12 7 12 11 7 6 8 14 7 18 6 12 27 13 36 22 13 17 55 132 142 115 90 36 41 15 18 43 65 31 46 57 81 37 33 36 10 11 10 13 19 22 14 9 12 30 20 10 16 14 20 27 3 21 20 31 41 34 32 24 20 20 26 22 27 12 18 4 10 19 42 54 36 36 22 5 15 39 25 18 12 33 35 8 10 27 34 53 34 21 7 26 20 29 6 8 32 43 0 
0 13 3 4 11 10 17 18 7 16 14 23 6 12 2 10 5 23 7 22 34 34 51 24 50 64 21 56 97 64 52 64 37 19 18 21 30 11 5 19 33 31 37 28 19 11 20 26 10 24 24 13 7 19 28 6 37 49 44 37 23 8 3 8 16 18 24 25 37 30 10 10 16 19 9 18 18 15 21 16 35 34 66 53 65 11 42 38 33 23 17 27 36 21 16 6 14 18 29 21 7 22 28 52 51 26 35 36 30 25 21 95 174 20 104 92 127 146 31 34 14 31 12 29 65 22 90 101 59 74 31 26 13 55 48 17 48 73 43 75 60 41 99 101 43 23 18 19 49 115 96 13 24 16 19 34 83 47 85 72 10 19 10 17 2 13 2 32 109 125 59 167 37 44 13 20 39 26 7 11 21 41 18 40 54 50 7 28 33 23 6 10 22 16 35 70 19 42 36 25 33 6 17 19 142 107 133 43 150 80 47 45 61 57 36 44 63 122 89 30 194 48 136 14 31 33 246 122 202 66 185 124 34 68 150 198 100 32 38 23 13 40 43 51 33 102 83 19 77 14 13 28 26 27 189 106 17 146 110 252 23 38 100 96 73 51 53 100 128 96 54 35 44 72 47 57 6 31 12 5 10 10 7 20 11 8 27 41 9 17 24 21 27 3 17 39 15 29 56 38 21 85 49 16 43 29 34 2 18 8 18 27 28 16 5 30 41 4 56 18 12 8 22 18 27 24 36 25 36 26 21 10 8 8 11 26 15 50 20 23 2 12 17 27 26 33 69 100 121 125 102 77 144 154 38 26 41 38 72 52 18 25 8 18 1 5 6 12 25 89 30 118 137 105 173 26 95 76 97 87 22 167 71 42 32 31 24 11 3 9 19 20 8 14 24 18 8 20 15 22 18 31 27 13 6 16 18 18 27 5 15 24 7 12 4 7 4 11 13 18 6 10 7 10 7 10 38 44 23 7 4 53 153 151 84 51 20 7 24 17 51 38 55 62 54 76 36 19 14 4 5 3 12 16 15 12 14 21 18 24 25 14 12 13 24 29 36 28 25 18 2 14 24 27 34 40 39 34 26 32 14 10 10 20 15 12 25 26 6 9 31 25 17 10 30 21 10 27 65 85 68 53 22 5 29 17 29 8 10 5 24 0 
0 11 7 7 7 6 2 20 7 25 5 20 5 11 7 8 7 27 15 11 25 46 59 12 42 78 19 44 90 77 55 49 39 23 3 9 17 21 3 17 8 10 27 16 26 28 34 5 30 4 10 20 33 32 11 20 21 29 21 16 7 12 17 11 15 32 21 13 23 30 20 23 30 17 21 2 20 18 4 38 44 54 133 70 137 51 44 21 36 13 8 18 48 34 28 21 21 5 24 28 13 22 44 17 56 10 25 21 16 12 10 17 206 37 103 255 148 154 61 49 4 20 33 44 20 73 100 53 15 78 91 45 35 43 20 48 34 74 86 5 67 37 126 108 33 51 60 80 111 120 46 12 28 47 72 102 89 29 113 61 5 13 11 7 20 17 26 22 76 163 95 165 123 24 40 46 24 36 12 36 52 47 33 54 25 38 25 15 14 26 14 26 36 12 65 59 31 53 17 15 32 8 24 25 95 131 89 94 94 60 8 21 83 45 8 26 27 22 170 119 31 52 227 80 51 209 141 9 58 165 93 42 62 158 193 111 30 55 22 11 13 66 44 48 55 82 60 43 69 6 10 28 43 63 181 116 41 195 90 59 62 24 134 96 41 20 82 106 95 56 14 32 59 46 36 62 23 21 9 10 15 33 28 22 17 21 47 39 14 18 20 7 17 6 10 21 44 48 22 25 20 32 27 34 37 10 35 21 14 25 11 10 24 16 14 57 42 51 44 42 27 23 18 16 32 35 52 24 38 25 24 17 16 16 19 33 21 62 3 30 10 22 14 39 22 12 58 101 121 125 105 65 124 162 71 22 24 27 57 53 32 24 5 10 7 11 19 11 9 90 80 100 21 53 6 14 83 38 82 157 51 122 54 11 32 28 25 13 21 26 19 17 12 8 21 17 8 30 17 26 15 39 36 39 19 19 4 24 15 7 23 12 8 10 4 4 10 17 21 28 7 17 5 11 24 25 53 34 33 11 39 96 166 130 70 43 5 12 34 29 64 7 57 53 52 61 30 13 8 7 8 9 21 20 4 16 3 7 16 20 14 23 8 14 3 11 15 5 10 7 4 8 15 17 26 26 28 24 18 30 46 41 25 17 6 23 18 14 17 12 31 19 14 22 9 23 16 34 28 33 47 17 6 10 20 23 16 3 7 8 16 0 
0 6 4 4 2 10 13 19 8 23 16 15 4 15 10 4 14 22 17 7 18 51 54 21 40 66 42 51 69 70 67 48 29 26 20 6 10 26 18 21 21 20 25 15 24 33 51 46 15 12 18 24 18 5 18 18 18 36 23 8 15 7 21 14 4 17 5 15 30 21 14 13 36 19 22 18 26 32 19 9 19 13 147 128 75 112 38 24 49 48 47 49 49 28 22 17 23 17 17 33 43 20 35 49 53 15 28 25 17 9 3 24 22 106 217 216 118 154 33 51 27 34 52 17 90 130 74 17 60 31 47 57 32 20 10 37 29 25 90 100 38 33 112 93 25 67 112 112 90 36 24 27 9 101 115 99 55 96 102 27 3 14 15 17 19 7 29 14 17 125 180 68 124 44 24 6 4 32 13 67 71 37 58 29 39 39 22 15 25 27 19 28 2 42 81 13 80 48 66 37 51 22 15 18 29 116 83 84 26 68 38 22 94 39 21 5 5 13 51 64 7 171 7 142 141 128 70 26 189 151 71 41 80 208 133 55 24 16 7 12 26 55 59 16 41 58 5 19 32 20 18 22 7 58 131 111 88 234 31 71 117 42 144 52 45 80 116 109 77 59 45 53 33 20 39 33 24 4 5 5 27 40 22 15 17 23 43 32 27 14 12 26 31 7 18 30 21 30 26 18 47 49 28 59 26 2 39 18 23 25 13 10 14 16 12 65 28 73 21 31 29 28 19 4 32 32 48 21 45 25 18 7 4 7 14 25 17 39 26 26 17 14 32 39 8 12 53 88 107 129 128 117 123 115 91 49 35 37 59 58 34 22 11 17 1 17 2 15 11 67 121 35 99 240 62 79 48 30 18 251 49 77 68 31 17 19 34 10 12 18 6 14 10 11 14 11 10 28 20 32 22 41 5 31 33 18 20 14 2 14 12 10 8 6 4 8 14 17 21 30 4 17 7 13 29 23 35 19 5 50 96 137 148 85 57 52 16 13 40 30 54 12 60 59 42 39 22 23 11 10 14 13 27 27 4 16 4 4 13 18 13 25 7 17 3 10 10 16 7 8 5 4 9 2 15 8 12 5 12 5 22 34 13 7 12 16 17 14 15 23 26 52 43 4 34 29 26 14 45 36 57 26 22 18 8 5 17 25 20 17 8 0 
0 10 8 6 7 11 13 7 8 7 15 14 16 15 6 18 8 14 25 8 20 53 41 34 42 44 60 60 52 58 66 59 22 10 22 5 10 4 14 14 14 21 22 10 11 8 15 30 18 7 12 13 18 18 10 4 22 13 23 21 25 28 51 46 39 30 22 25 14 10 2 18 20 25 12 21 28 31 10 17 23 37 45 154 33 158 40 91 24 4 13 32 26 5 5 17 22 15 6 11 31 34 25 28 16 12 20 17 5 9 18 24 31 154 114 253 42 167 54 11 20 63 57 62 107 75 23 49 11 40 21 18 44 28 58 15 47 58 32 49 66 100 101 69 65 83 69 31 14 45 37 33 33 96 149 80 70 130 88 15 3 24 18 23 10 6 8 18 9 51 144 136 47 85 34 5 10 17 53 76 53 51 72 20 15 12 22 15 19 8 10 24 8 54 70 28 92 8 112 53 84 8 21 17 21 43 61 33 8 75 82 64 114 23 24 1 15 13 12 153 72 93 191 209 26 149 94 165 162 88 47 133 154 166 47 80 12 34 31 8 23 46 85 77 38 55 11 12 17 32 12 22 5 40 97 118 137 252 66 31 143 65 124 55 96 99 89 61 32 43 27 16 19 45 32 18 27 24 24 9 41 32 14 13 18 16 31 33 12 14 10 17 31 20 19 15 21 27 21 25 52 35 16 63 9 5 30 16 43 8 12 13 24 17 11 59 41 57 17 11 24 19 18 15 23 20 30 5 27 25 29 34 35 32 30 14 3 17 26 15 22 17 34 18 9 24 53 59 74 121 145 164 133 92 86 46 22 38 58 63 48 26 7 14 2 10 17 14 4 36 113 39 95 189 75 134 11 15 216 52 75 43 82 21 38 30 38 15 22 14 2 17 10 14 15 10 6 13 22 25 24 39 38 13 7 20 25 6 10 23 17 20 18 4 7 7 13 7 13 22 8 11 10 10 16 25 24 21 11 55 105 116 104 54 46 53 18 24 24 22 30 32 64 59 35 32 38 31 14 11 20 12 30 33 0 7 16 14 10 19 15 18 24 4 19 22 14 7 10 21 19 17 7 0 13 10 13 7 11 11 18 21 24 20 14 3 14 9 18 25 25 22 43 31 14 4 15 6 16 9 38 22 32 8 20 18 27 24 20 19 15 0 
0 17 15 11 11 11 9 10 16 14 17 12 26 15 20 21 12 12 35 15 25 54 28 33 43 35 69 71 57 63 58 54 29 17 20 2 13 8 18 5 10 34 10 10 10 18 36 21 13 30 30 20 20 10 20 25 11 28 36 26 18 2 40 3 19 26 33 15 3 5 8 1 18 8 10 26 19 17 27 9 19 33 54 76 78 91 63 45 54 45 43 27 10 17 23 6 12 16 28 44 35 7 46 34 34 35 33 32 30 37 44 50 64 47 155 162 184 162 57 59 20 80 34 106 97 25 13 50 47 32 33 10 53 61 68 76 77 73 106 126 121 125 90 81 106 77 5 50 57 22 38 50 31 42 118 96 66 111 54 16 16 14 18 11 26 21 5 10 13 10 39 114 72 42 77 38 10 47 78 57 4 67 70 19 19 28 38 23 25 2 19 10 18 60 63 47 88 26 112 6 76 41 11 14 15 10 25 22 23 79 137 110 160 27 21 5 23 24 13 30 238 167 28 199 39 182 120 184 102 42 117 241 226 111 60 29 46 19 30 12 13 45 60 92 54 72 57 5 21 21 10 14 20 11 55 89 140 245 129 238 153 69 69 69 112 81 47 33 18 43 14 24 35 27 8 21 53 48 52 28 44 28 18 4 23 21 21 35 8 8 20 33 35 13 21 31 24 32 28 24 25 30 24 58 4 12 13 18 48 19 7 6 26 11 30 30 22 26 12 12 15 10 22 31 10 24 21 11 7 12 15 20 22 24 25 14 2 4 4 11 12 3 15 24 17 48 62 33 24 95 155 153 144 123 83 52 34 24 41 62 66 49 27 15 9 0 4 7 14 28 69 30 42 145 30 181 38 35 196 67 94 69 105 8 43 18 37 6 14 10 13 29 17 18 15 21 16 12 15 17 12 8 24 40 31 20 37 17 13 34 51 25 43 5 12 4 7 8 7 10 19 8 16 7 14 19 18 29 8 47 127 137 109 72 55 30 28 34 32 38 14 46 65 61 45 34 44 15 29 15 27 17 32 38 5 2 12 9 10 2 31 34 8 13 19 1 22 7 8 20 17 32 25 22 21 20 18 17 21 22 34 39 52 33 21 20 23 10 5 22 14 12 37 27 25 26 31 10 22 38 16 5 17 14 9 14 18 10 12 14 7 0 
0 6 12 15 14 7 10 10 11 14 21 24 28 3 22 10 25 10 37 22 40 37 20 41 46 40 60 71 80 80 55 46 42 19 7 5 14 24 18 23 24 24 18 24 15 47 33 30 15 9 17 31 25 8 19 14 23 7 17 41 41 17 31 46 36 26 20 11 7 9 8 22 25 16 22 12 15 12 29 9 10 19 14 29 45 16 50 50 17 22 64 82 63 46 59 68 68 67 52 48 57 55 25 36 87 125 107 35 34 59 80 68 38 72 135 202 77 161 50 96 48 49 80 124 34 51 54 35 82 77 36 19 47 63 12 9 35 56 111 118 119 91 42 60 91 19 75 73 29 47 57 20 2 1 93 73 47 74 35 13 24 46 33 9 16 13 14 10 8 15 13 48 100 71 63 60 28 91 70 34 54 65 42 10 8 18 53 21 29 22 15 12 17 68 60 70 85 22 92 53 51 43 35 18 4 13 22 21 18 102 186 116 219 63 7 18 15 25 14 10 118 158 150 230 87 86 163 124 39 63 191 231 108 59 89 10 34 25 24 15 7 38 40 58 46 73 63 10 14 16 27 31 52 50 46 36 92 190 110 193 135 45 32 104 119 74 26 39 40 17 25 26 32 22 24 37 42 18 44 42 41 8 20 11 32 14 18 29 15 24 26 27 20 5 8 11 12 46 27 41 31 9 34 37 33 28 12 17 44 36 10 6 27 11 31 10 10 13 14 20 9 16 32 31 4 36 16 25 22 19 7 9 7 19 20 13 12 5 5 7 3 2 8 11 23 49 63 32 22 91 151 134 145 147 87 52 31 23 37 55 57 36 11 2 10 21 19 8 11 30 44 28 8 96 242 220 81 61 179 63 92 71 123 17 41 4 32 9 15 16 19 17 32 24 10 7 21 27 16 14 14 10 2 13 23 7 45 8 7 38 55 25 42 12 17 8 7 16 11 8 16 17 21 7 5 18 7 36 31 64 154 147 96 51 11 12 37 28 27 35 77 60 62 55 36 24 14 36 33 4 22 15 28 25 27 41 45 34 21 15 17 18 14 14 22 13 15 10 4 10 24 29 19 28 27 25 15 23 24 17 21 2 35 35 21 17 32 32 13 8 18 19 17 33 28 4 16 15 14 19 5 11 7 25 19 33 39 33 20 21 26 0 
0 16 12 1 4 2 8 17 20 4 13 27 10 10 11 17 17 26 26 18 65 14 2 54 56 52 41 57 97 92 36 37 41 4 1 4 5 22 30 19 15 12 17 10 48 42 17 25 17 36 30 25 9 19 18 19 26 17 7 28 29 33 28 36 26 8 13 12 17 29 34 18 16 31 33 36 24 20 12 13 17 24 22 3 21 21 5 19 42 45 12 21 31 26 49 73 83 89 75 77 102 132 147 154 145 115 127 97 79 89 83 70 143 170 198 241 196 86 134 48 96 37 75 57 39 58 75 93 13 51 77 100 103 87 71 60 47 94 96 79 83 58 53 73 57 31 107 26 58 55 38 10 4 5 147 120 127 80 29 16 56 59 58 44 32 15 25 23 14 3 17 7 48 85 35 53 123 104 21 63 57 31 28 8 15 8 50 29 50 35 9 8 13 99 57 111 82 17 67 63 41 58 56 56 43 43 10 20 13 139 165 82 214 80 11 20 33 19 7 24 46 133 132 200 237 226 159 89 74 211 235 99 62 104 42 12 14 15 10 21 24 14 15 30 16 97 49 16 28 36 44 54 16 21 19 5 70 135 106 174 83 20 51 63 45 35 33 53 35 36 34 36 57 50 51 43 13 17 16 28 28 21 20 32 24 6 27 23 21 26 21 12 11 23 38 34 26 26 34 11 45 11 20 35 41 30 7 13 39 33 13 17 15 14 10 26 25 21 20 8 10 27 39 12 7 29 13 3 15 29 2 10 8 24 18 6 18 21 13 10 8 7 19 25 20 21 52 39 17 103 127 132 154 135 111 54 15 21 51 64 60 27 8 20 16 34 42 7 10 29 47 36 20 63 229 4 131 46 151 32 140 62 126 46 40 4 30 8 32 32 21 13 12 6 14 29 32 7 33 21 9 9 4 22 24 9 37 16 11 32 24 34 14 10 14 10 6 16 5 8 3 18 18 9 6 10 10 31 63 77 143 131 73 37 5 26 31 25 36 78 62 12 51 40 36 13 5 8 19 36 17 24 1 16 23 22 8 25 22 10 10 14 12 12 14 1 11 5 19 15 34 18 21 19 2 29 25 36 9 25 12 19 21 22 5 16 6 25 13 8 30 8 20 21 32 25 14 20 15 14 15 27 15 20 15 29 22 5 8 6 17 0 
0 4 7 10 8 8 17 12 22 1 7 24 12 1 20 31 28 29 18 16 72 28 24 64 56 58 36 51 90 82 52 68 63 28 27 23 13 4 23 33 32 20 1 26 40 17 48 24 37 10 17 43 41 17 15 37 18 36 10 37 31 26 21 14 30 7 10 3 14 6 19 12 1 18 18 12 13 22 20 6 10 5 12 24 29 21 9 17 23 63 92 93 69 52 70 82 80 83 72 65 50 30 28 46 103 161 140 60 115 88 58 138 181 138 53 101 236 139 114 73 89 127 55 18 39 43 69 62 94 119 96 74 61 59 53 58 38 122 80 58 72 47 51 62 20 68 108 22 73 49 21 4 17 18 192 132 161 128 35 10 71 39 68 53 27 26 16 35 19 2 16 7 14 60 80 95 74 15 60 79 42 16 24 29 16 29 59 28 42 54 8 16 39 126 31 136 72 8 57 91 33 47 44 49 41 26 46 36 53 127 85 189 172 50 4 12 9 7 10 15 121 23 218 76 139 164 108 78 228 47 147 67 62 8 40 29 12 34 29 36 19 20 14 37 22 89 43 24 43 27 44 54 31 36 37 24 58 70 94 110 18 59 24 33 57 14 38 44 26 33 5 15 49 17 25 27 32 14 4 11 31 46 57 37 19 23 45 16 14 48 12 22 20 38 26 14 16 8 32 37 33 20 12 11 41 24 23 28 47 35 30 39 17 19 21 24 22 34 18 15 11 23 48 31 18 10 24 29 22 39 15 19 3 26 24 8 8 18 15 15 23 20 38 23 24 36 35 36 27 105 123 118 132 135 137 73 14 29 67 58 52 18 8 36 29 34 38 21 12 9 44 41 25 30 234 64 164 25 137 242 175 61 115 60 43 4 31 7 33 5 13 27 28 13 5 26 7 38 19 28 13 13 3 20 16 8 24 9 15 26 4 19 6 3 8 10 8 16 8 5 10 7 3 6 7 11 20 33 92 95 118 116 69 31 17 23 25 21 42 52 100 67 46 24 36 10 5 11 20 46 26 21 18 4 14 25 32 19 5 22 29 27 19 4 17 13 6 22 11 17 27 14 28 36 28 11 36 29 15 26 12 11 14 20 15 5 17 20 11 25 23 18 16 5 34 38 35 4 19 13 22 29 12 14 17 12 43 26 6 10 5 0 
0 17 10 4 7 13 15 11 20 3 18 30 19 16 5 7 27 45 30 24 62 39 38 70 57 62 49 55 78 65 20 46 59 25 14 7 8 19 30 31 17 12 24 31 26 11 24 24 36 11 18 41 17 20 25 21 29 15 34 2 20 25 26 36 40 19 13 8 16 25 25 7 27 34 37 30 23 7 8 20 17 13 8 3 16 23 18 8 19 20 24 34 37 35 60 87 109 107 85 89 108 121 132 144 128 91 80 107 77 104 249 17 211 66 108 232 5 216 151 199 31 157 61 30 11 43 21 77 122 72 30 53 37 31 51 103 77 133 123 106 106 85 85 70 22 137 130 96 101 39 0 18 29 17 196 147 139 142 48 34 41 31 59 23 24 13 7 14 36 56 65 69 87 130 130 46 54 83 79 58 34 32 21 22 17 34 42 44 48 41 22 4 65 115 38 127 44 20 30 92 69 28 72 63 41 39 68 41 85 76 111 137 49 8 22 21 8 6 33 129 19 59 143 215 107 12 45 212 64 207 52 105 21 48 67 58 39 48 31 51 25 12 15 50 39 88 61 27 24 55 49 21 36 33 31 67 54 16 45 30 46 38 15 33 82 82 100 81 46 44 7 15 48 26 28 24 36 19 20 22 45 14 21 4 25 43 37 22 24 45 15 29 18 26 10 18 16 28 4 16 3 25 13 22 30 7 8 12 41 23 12 41 12 24 38 43 39 42 8 12 23 5 27 21 18 11 20 23 13 36 5 29 26 37 43 17 7 8 12 25 32 5 38 29 32 12 8 33 25 91 133 109 106 130 137 82 34 45 63 47 55 31 22 24 20 59 54 5 12 4 45 50 38 31 241 110 175 34 137 206 198 85 83 75 36 12 34 12 34 25 22 23 27 15 12 30 11 29 39 41 18 18 7 13 17 15 21 10 14 21 7 16 2 4 9 9 8 16 8 5 11 7 2 4 5 16 13 46 107 101 107 106 60 14 24 43 42 27 26 12 55 88 39 24 44 11 21 26 11 16 38 19 9 18 8 5 12 2 7 17 22 27 29 15 27 17 17 26 5 25 15 17 6 18 15 35 39 30 17 19 3 1 9 19 21 12 11 12 4 27 4 30 12 10 16 26 24 23 17 24 12 23 15 25 39 36 39 32 34 34 35 0 
0 14 7 3 10 24 39 38 18 10 33 23 31 11 15 25 40 43 22 13 45 21 46 79 53 45 45 59 82 73 36 40 39 25 25 17 10 18 27 32 25 16 14 34 29 15 24 36 33 22 13 34 14 12 22 19 34 31 36 9 21 32 21 22 8 30 11 14 21 13 17 14 25 37 22 18 15 24 19 32 10 5 5 10 17 21 16 12 25 29 23 15 27 8 21 12 11 30 47 33 11 4 5 13 21 37 50 120 162 220 214 131 47 139 1 80 93 107 109 164 183 93 67 35 35 24 108 123 35 55 11 56 35 3 14 76 50 76 70 45 71 111 120 56 65 169 72 141 119 16 14 6 30 7 174 159 96 133 78 37 21 38 33 8 18 11 20 18 40 41 45 58 87 114 67 80 77 22 26 49 34 11 7 13 16 16 23 10 19 25 12 6 70 104 62 99 18 3 12 68 110 50 101 105 8 20 32 97 89 17 83 37 18 19 6 16 13 18 94 15 48 114 133 205 101 49 233 103 253 27 93 30 34 35 50 33 38 25 27 50 24 36 24 53 55 90 63 11 29 28 17 18 34 1 22 71 47 39 27 10 27 26 63 116 124 116 108 101 63 60 56 41 33 38 52 58 37 30 24 38 24 18 22 3 43 38 19 4 22 20 21 22 1 33 12 5 19 19 11 5 13 21 9 22 9 7 6 10 34 24 15 43 16 15 25 19 18 25 6 18 11 16 15 24 21 27 28 25 17 36 15 33 28 28 46 29 6 4 5 25 35 17 43 17 30 28 18 47 40 72 124 116 109 127 135 91 53 51 51 46 41 29 25 28 24 10 10 25 13 13 46 64 50 52 231 110 201 38 123 166 221 133 56 40 34 40 46 18 17 9 17 18 5 14 17 15 28 3 10 18 13 22 17 3 10 19 24 14 8 15 8 13 3 5 11 6 7 15 7 7 12 6 3 17 13 4 34 61 108 105 112 89 31 5 7 23 19 2 10 26 61 79 45 38 32 6 28 24 16 19 28 31 17 21 12 11 17 19 22 24 22 17 15 6 21 21 25 18 3 21 21 8 18 14 26 37 27 42 15 24 15 13 8 11 19 22 15 0 7 26 15 24 11 4 8 5 12 21 31 28 17 17 22 20 18 30 38 24 16 14 18 0 
0 14 5 10 15 14 9 13 22 17 23 15 35 11 11 7 18 29 11 18 45 23 37 61 38 41 50 68 82 69 39 38 45 39 28 12 19 21 27 29 2 28 23 23 23 23 23 14 18 3 9 20 28 23 10 13 29 16 31 8 39 27 39 38 44 56 30 26 15 23 23 11 11 27 9 7 4 19 12 29 17 8 8 17 19 11 7 11 30 2 36 52 41 22 21 12 9 34 13 27 34 20 13 11 7 29 58 186 164 33 212 55 55 6 162 156 125 153 148 148 58 65 40 37 49 96 103 5 85 50 13 51 45 6 43 71 7 77 101 120 131 119 75 5 100 148 28 153 97 22 10 19 24 2 159 174 58 114 86 78 34 27 9 27 6 31 16 36 47 24 15 63 63 43 58 111 59 7 9 36 43 26 21 5 10 9 35 33 38 41 15 5 91 93 93 77 2 0 14 56 130 52 98 125 31 22 33 116 35 91 47 18 31 29 32 22 14 24 253 141 173 141 200 120 23 210 140 55 92 96 35 44 35 22 51 27 52 22 30 60 45 40 18 73 70 62 57 18 15 20 30 48 31 21 27 28 51 38 12 14 66 156 223 221 215 194 129 102 101 95 87 105 83 59 59 60 55 63 50 42 25 25 16 17 40 38 30 18 32 4 16 11 22 44 20 41 34 19 10 9 18 32 33 36 17 16 11 9 22 21 18 38 23 13 20 6 15 20 12 24 14 22 18 34 37 29 21 13 6 27 10 22 29 7 30 34 18 2 1 18 35 33 48 23 24 44 41 74 67 80 114 116 115 122 128 97 70 58 41 44 22 1 9 60 102 50 16 29 7 14 45 81 51 86 198 87 214 32 106 123 211 196 88 34 34 29 40 20 16 18 9 4 20 18 25 10 18 24 26 25 8 16 17 11 7 15 18 11 7 8 10 8 9 7 13 2 8 15 8 10 14 8 4 28 5 15 47 64 121 127 104 49 11 26 26 27 28 21 17 39 55 68 60 22 13 24 16 23 10 28 12 30 5 17 19 29 21 8 6 15 18 15 15 8 11 22 24 8 8 17 29 17 30 29 35 11 21 29 18 21 11 13 13 7 9 21 23 9 14 15 20 10 6 8 10 7 3 17 26 29 25 19 26 5 17 12 27 9 13 31 10 0 
0 14 19 18 21 27 29 22 8 9 12 22 24 8 4 8 7 20 19 30 43 20 31 54 43 46 61 66 65 53 30 53 58 27 13 7 15 13 29 42 37 12 26 18 17 14 24 35 34 8 3 14 4 51 5 25 9 5 32 17 40 2 25 43 44 26 32 36 8 27 20 11 8 18 10 6 11 27 32 18 7 13 18 18 15 12 9 18 23 27 17 12 9 26 21 13 13 26 15 21 11 26 26 11 9 45 34 196 2 46 32 241 151 91 46 112 206 244 236 244 32 99 61 15 51 63 31 63 72 28 28 49 50 52 141 123 89 103 126 139 96 30 42 68 79 117 35 147 84 25 8 10 17 15 137 186 24 122 105 88 12 11 16 27 7 35 6 29 39 35 45 58 13 69 108 92 41 46 65 53 34 18 20 3 21 17 46 45 37 44 21 17 122 48 128 49 18 22 11 59 134 34 118 120 24 23 79 118 61 113 15 44 22 18 12 8 18 137 138 43 109 243 114 32 156 80 69 54 134 101 8 46 7 14 50 25 40 48 49 56 36 5 22 88 76 46 55 29 25 20 26 41 25 33 32 35 35 50 46 112 198 19 252 206 177 126 116 83 73 85 75 93 98 68 63 46 47 70 81 83 69 62 24 12 20 41 23 18 44 25 9 5 19 38 10 62 8 12 21 16 11 12 28 33 27 20 20 9 12 20 30 37 18 30 34 39 41 34 17 22 51 40 8 24 18 10 36 10 10 21 20 5 29 20 16 29 29 17 10 18 34 37 39 26 35 52 63 88 75 99 117 117 128 127 126 105 88 65 38 36 24 25 29 60 37 89 13 32 17 12 43 99 34 116 146 100 1 58 116 122 168 201 147 22 56 52 35 10 5 30 5 18 13 13 16 8 7 8 26 31 4 11 11 13 13 15 13 3 3 2 11 2 15 8 16 9 11 17 11 14 19 12 5 28 12 17 49 64 146 143 71 31 30 36 8 20 23 4 24 63 70 70 55 2 24 27 20 36 27 9 14 28 11 20 21 17 18 13 19 20 13 21 28 19 15 21 13 17 16 8 24 21 29 31 16 25 21 5 20 14 5 5 9 10 3 14 20 14 12 14 17 8 7 11 3 18 7 21 4 25 22 41 15 4 10 17 30 34 27 29 13 0 
0 6 10 22 29 28 21 4 24 17 13 19 19 12 3 7 9 5 6 37 50 27 31 50 41 37 63 76 73 61 50 50 44 34 16 8 16 9 24 18 41 24 5 14 20 13 18 31 38 25 36 24 29 57 13 20 18 29 22 22 31 11 29 31 31 32 1 50 57 18 12 7 14 28 31 21 14 14 15 10 5 16 21 21 14 7 0 10 7 2 19 15 15 19 24 21 30 22 27 17 42 22 47 111 170 193 127 110 217 156 2 28 250 17 180 121 195 221 64 29 163 52 30 66 75 20 19 60 64 13 34 59 30 55 114 22 134 147 134 126 34 51 57 60 66 74 43 136 61 5 10 19 13 44 107 195 28 172 87 54 18 29 19 12 11 24 19 28 39 43 30 85 133 118 73 39 38 60 45 27 14 5 8 13 11 10 17 34 25 18 32 15 130 24 145 25 27 11 10 83 140 25 129 104 20 35 121 82 99 70 68 37 46 42 37 44 80 51 85 69 242 198 48 61 249 94 122 125 100 29 24 24 27 67 72 42 50 85 64 34 13 24 28 94 98 58 64 38 41 36 23 22 36 30 10 6 53 128 171 240 39 28 184 105 39 65 90 53 86 107 92 98 117 114 143 153 150 143 112 93 96 103 89 36 18 35 15 9 54 30 11 12 26 17 26 40 36 26 31 24 15 22 31 3 36 41 35 21 25 33 51 46 18 28 22 4 19 12 10 29 24 34 31 19 32 13 38 11 23 30 38 21 15 22 10 27 37 31 12 21 25 27 20 35 66 70 90 106 93 127 133 133 153 141 131 110 93 62 30 28 18 14 12 65 81 54 31 13 21 15 41 114 10 135 94 132 54 48 130 172 142 143 175 77 33 44 22 31 23 44 29 18 3 3 10 7 2 11 31 17 21 17 7 8 14 17 15 9 3 1 12 1 19 7 19 18 11 14 9 17 24 15 4 23 14 31 64 79 150 133 36 27 18 41 21 26 26 26 42 59 72 68 25 3 20 37 11 38 12 11 1 24 30 16 20 2 27 21 29 31 24 18 26 11 4 12 7 17 14 5 9 15 19 22 11 34 21 20 13 17 14 8 3 9 7 12 20 17 14 30 21 22 17 10 20 24 10 19 31 13 51 50 44 10 10 12 12 28 35 35 15 0 
0 6 10 16 21 18 13 24 2 10 7 30 10 14 7 14 8 7 10 53 53 21 21 52 46 26 44 68 90 77 58 31 27 34 21 7 25 18 2 9 28 35 11 21 13 20 15 21 24 14 44 28 39 45 33 25 28 15 10 25 28 14 22 10 21 21 34 10 26 38 31 29 8 8 18 25 21 25 15 16 11 24 28 24 23 18 11 22 26 30 32 31 7 22 25 15 24 9 34 24 27 135 22 87 45 19 36 193 81 193 114 76 243 37 22 251 37 50 74 88 225 56 51 93 55 39 44 60 22 52 100 104 56 68 88 147 149 150 120 88 37 96 52 12 42 46 82 122 26 23 36 37 31 78 120 187 59 224 70 32 18 30 16 13 6 12 36 29 20 36 74 93 84 61 43 22 22 28 3 12 11 12 12 2 11 4 5 7 13 3 25 7 107 48 117 10 23 4 49 86 96 34 118 113 13 76 127 17 117 36 38 46 70 23 12 45 35 90 97 151 236 118 54 197 81 235 74 137 19 41 57 53 52 88 46 41 74 111 65 15 21 28 17 87 111 79 54 29 7 21 21 23 46 32 27 69 169 224 7 38 240 131 27 44 29 57 77 63 74 94 75 81 117 127 140 160 160 160 150 126 111 117 136 113 90 70 23 13 49 42 27 18 26 10 15 21 16 16 38 20 15 10 7 28 24 31 45 23 13 10 48 48 13 14 25 17 25 28 9 31 15 26 40 58 49 28 54 11 28 0 40 20 30 24 4 5 30 36 12 29 19 29 54 78 91 105 120 131 124 158 168 158 151 124 116 95 69 35 8 16 17 10 3 6 30 8 29 19 24 13 42 108 12 129 38 125 116 78 118 211 122 116 200 132 26 8 18 49 9 31 15 15 4 19 18 14 7 4 28 3 20 15 9 10 15 10 7 11 8 4 11 12 8 19 15 15 19 11 5 13 27 18 13 23 17 42 91 102 135 106 34 34 4 44 7 20 27 23 39 54 74 54 11 22 33 28 40 34 27 13 17 11 22 17 5 22 19 17 21 23 12 4 9 18 7 6 22 19 13 12 2 12 36 15 32 18 14 15 13 15 24 8 4 7 2 19 28 18 4 17 17 29 20 11 21 26 13 17 29 6 57 29 58 5 19 4 13 15 17 35 26 0 
0 8 11 12 14 12 13 16 7 11 2 20 15 9 5 22 8 4 19 46 40 16 8 51 62 28 26 56 109 82 55 44 46 38 20 10 24 22 11 7 21 32 11 16 4 24 27 20 22 34 20 2 17 31 23 23 5 18 25 4 29 10 29 38 27 22 24 26 26 11 21 17 24 17 18 33 28 8 17 12 22 42 42 19 21 14 9 12 35 43 29 26 33 9 33 11 31 18 35 22 18 26 157 8 136 103 94 64 115 44 22 133 48 75 105 137 182 212 174 165 209 67 43 143 212 152 52 29 46 75 80 25 65 53 67 142 179 159 102 37 57 99 35 51 54 48 128 110 27 20 14 25 23 117 145 128 100 240 57 18 8 19 8 5 5 13 24 5 26 49 52 10 25 25 33 24 29 25 8 8 6 13 22 23 17 10 9 6 10 14 24 27 67 12 87 11 21 15 65 72 17 55 82 140 27 98 76 68 103 49 63 58 50 17 33 223 155 168 132 188 164 20 225 58 247 46 137 52 51 15 37 54 53 82 42 33 106 118 57 11 16 1 56 119 129 75 17 27 46 15 7 18 39 22 81 200 234 248 241 147 21 126 166 155 133 98 34 1 15 33 38 28 61 97 106 125 132 132 126 118 115 126 144 140 131 132 109 71 53 37 37 44 27 17 12 28 29 22 24 21 28 12 27 28 14 12 31 17 15 25 51 34 23 40 29 2 26 33 20 29 14 15 8 19 7 7 55 45 31 17 56 11 54 22 9 3 34 38 18 44 35 62 111 136 140 139 141 164 157 141 131 119 123 87 77 53 42 36 6 11 26 17 21 14 14 9 15 26 17 21 48 75 32 97 36 49 172 172 108 190 85 93 208 148 31 21 6 53 37 14 16 26 12 13 14 6 6 13 33 10 28 2 13 16 12 8 13 17 12 11 15 11 10 9 7 3 30 11 21 16 24 14 10 13 21 53 91 115 118 84 46 33 23 40 8 29 29 40 52 59 70 41 16 12 26 15 53 34 24 4 15 20 12 12 13 14 10 24 18 24 5 16 19 12 10 16 16 26 16 2 4 11 29 7 28 21 10 12 5 5 16 11 11 13 15 23 23 5 9 19 17 12 5 12 14 15 11 12 15 10 41 41 18 32 19 9 22 8 20 25 18 0 
0 8 9 8 7 3 2 7 9 11 8 12 13 6 10 5 24 18 17 33 47 32 6 47 68 31 13 50 101 74 54 56 67 31 22 21 20 22 9 11 16 25 21 9 5 11 40 37 24 12 5 11 7 24 14 14 17 10 11 23 12 21 23 17 19 18 14 19 15 7 8 16 43 22 20 32 13 17 20 14 42 50 29 15 29 29 22 12 29 22 45 20 27 14 24 12 12 17 22 28 34 141 149 174 129 104 127 79 45 26 128 25 27 13 6 18 24 16 42 255 34 136 207 150 8 226 249 23 61 53 36 20 68 15 123 133 106 106 56 12 49 91 14 44 61 25 130 66 31 20 34 28 39 146 163 78 134 229 59 29 29 36 27 15 2 16 31 34 28 15 14 16 2 8 30 25 29 39 7 14 1 6 21 15 18 18 11 1 20 44 44 60 88 62 97 39 34 16 64 83 30 45 48 160 30 111 54 95 73 14 12 4 30 20 143 119 34 97 216 133 39 184 66 204 40 73 57 25 46 20 37 26 64 102 65 75 131 105 45 7 26 25 81 116 80 30 17 13 30 25 4 19 65 135 238 10 191 133 77 195 9 244 218 218 206 178 144 91 59 18 18 30 49 66 86 106 124 134 128 119 136 154 159 151 134 156 181 158 98 55 55 63 44 21 5 26 24 27 18 41 40 18 43 16 14 26 27 19 11 31 41 7 24 55 20 33 30 12 20 29 5 23 18 10 5 5 13 43 47 40 74 25 44 18 11 22 43 73 76 81 89 121 141 162 189 188 179 193 169 124 89 85 84 47 46 38 38 48 40 30 23 7 25 18 9 13 12 7 17 13 41 55 45 72 55 223 147 207 68 158 82 82 212 173 29 7 20 24 38 32 20 42 23 7 17 23 12 15 22 17 17 14 9 4 7 14 21 17 9 11 10 17 5 19 13 5 26 8 35 29 33 23 23 9 24 59 96 124 113 75 37 15 48 38 25 41 13 57 43 46 79 50 17 17 38 24 41 29 15 4 12 13 13 13 11 15 30 21 12 12 11 18 8 8 2 12 9 12 13 2 8 4 20 28 25 25 21 9 7 7 6 12 21 18 11 23 25 4 15 7 13 14 22 13 19 19 14 12 13 9 6 9 16 8 17 17 33 38 34 15 26 0 
0 12 11 7 5 5 3 8 15 2 9 8 12 1 4 17 27 11 16 30 47 34 7 45 71 36 19 67 84 65 58 41 54 29 17 12 16 34 29 31 16 16 14 14 15 13 5 47 30 32 30 18 5 24 21 4 12 12 11 12 18 20 26 5 16 14 17 25 26 31 34 34 26 19 29 44 48 37 31 27 7 18 29 32 30 25 18 23 17 18 25 7 17 16 23 11 31 30 15 31 83 170 94 38 234 25 235 34 4 143 40 12 10 14 18 12 29 12 89 63 211 49 24 46 183 85 139 117 38 69 77 96 127 115 148 103 61 39 31 20 40 69 28 43 58 108 100 27 18 8 13 39 64 148 168 70 160 242 70 32 24 16 14 17 18 16 18 21 15 14 31 33 22 17 25 39 18 45 10 13 5 4 31 8 26 23 16 3 23 46 11 51 121 100 123 71 46 33 44 75 69 72 13 176 13 115 38 105 55 4 11 4 36 76 69 116 34 240 207 74 99 45 21 37 68 37 16 30 30 28 38 54 84 68 26 130 126 98 38 30 26 51 95 96 45 17 26 24 46 39 25 55 159 224 226 154 43 107 219 2 217 166 131 111 103 123 157 162 162 149 112 66 57 73 71 61 0 58 123 153 160 177 202 219 223 214 202 223 200 158 120 88 68 34 24 13 28 20 40 10 10 23 48 17 24 11 16 43 53 47 29 17 23 66 52 36 27 22 29 45 7 26 20 20 15 14 15 8 37 38 78 46 31 30 54 73 89 129 167 188 207 221 205 190 206 216 215 216 176 154 135 91 84 36 48 46 36 34 54 68 53 25 23 19 23 21 3 21 13 8 21 41 44 55 46 213 129 208 51 132 99 62 196 228 31 23 31 25 20 44 21 19 10 27 44 23 20 12 19 1 18 8 11 11 15 15 6 7 2 8 14 10 19 10 14 30 61 60 60 33 31 18 23 11 21 65 117 134 112 66 12 26 34 28 20 6 29 55 54 58 79 50 31 22 24 39 30 10 17 16 12 1 12 15 5 11 14 12 25 23 7 26 15 10 8 5 7 12 8 4 8 7 10 18 12 15 12 20 18 19 20 15 5 10 0 19 27 7 28 23 28 26 15 25 11 6 6 10 28 21 18 13 25 27 16 12 15 42 11 31 30 0 
0 16 13 5 4 7 9 7 15 15 9 10 11 7 10 15 22 26 17 49 44 17 9 39 77 60 47 85 74 72 76 41 39 45 41 22 7 48 36 26 7 11 9 12 11 17 50 47 21 40 42 12 18 17 23 7 17 7 17 8 36 19 34 17 22 5 15 22 17 11 4 7 13 24 4 11 5 7 27 22 30 29 19 6 21 28 30 14 13 18 25 20 27 19 16 14 35 24 32 13 109 105 44 26 146 2 189 71 43 31 38 33 19 20 32 53 78 148 1 3 119 132 252 246 70 38 106 179 49 104 103 99 127 121 113 59 29 44 22 34 50 16 25 95 21 163 83 10 1 5 29 48 66 102 155 124 146 29 85 28 28 31 25 20 12 4 10 14 33 52 43 33 31 32 11 36 8 42 38 8 9 23 27 7 42 26 25 10 7 42 47 80 124 62 147 100 23 37 53 25 90 119 53 177 41 114 18 105 46 20 3 10 44 2 160 173 168 246 108 92 38 90 140 77 59 41 43 34 21 54 55 71 86 9 114 139 100 96 27 49 25 47 79 72 46 43 46 34 48 14 105 173 239 208 103 36 108 127 104 67 33 50 49 17 20 70 129 156 160 171 180 160 131 132 133 122 79 48 25 59 41 43 86 130 157 148 139 186 224 225 207 175 153 106 73 50 28 23 51 44 47 48 51 30 45 15 20 22 44 64 35 4 14 35 36 45 26 23 26 56 31 38 25 19 36 12 8 3 53 11 57 42 45 77 105 122 141 178 218 249 17 18 247 222 216 182 182 171 134 121 99 70 76 29 18 28 58 88 114 115 105 54 7 16 52 66 32 15 8 14 5 39 36 41 46 212 150 199 77 120 92 39 141 11 96 37 11 38 9 26 37 14 9 25 34 37 19 19 12 20 16 14 16 13 13 15 11 11 1 21 13 15 9 13 12 34 54 28 42 4 25 26 25 17 23 76 137 137 102 53 12 24 22 32 7 30 38 45 71 57 40 49 12 27 13 8 20 13 23 24 10 13 17 13 21 10 5 14 15 20 14 12 23 17 11 2 8 10 4 7 7 4 12 13 11 8 22 38 26 21 17 12 7 12 10 16 25 8 30 10 30 40 13 13 16 10 10 3 15 3 12 15 7 12 12 6 10 21 13 11 10 0 
0 20 15 2 3 10 14 3 6 15 12 17 15 12 12 31 38 25 18 44 47 28 13 24 56 40 52 95 71 74 76 34 32 35 29 24 4 44 48 42 25 13 8 3 9 31 35 8 41 36 34 27 27 16 24 28 21 5 10 16 33 7 41 19 17 21 22 12 4 17 25 23 9 9 22 30 26 22 21 6 11 20 22 28 18 5 12 22 12 34 15 20 39 32 35 22 14 5 33 51 88 248 3 220 194 244 57 186 23 52 15 24 26 9 40 24 25 127 206 111 92 169 102 61 186 155 11 158 103 108 88 44 38 40 38 27 7 37 11 65 60 38 64 72 115 161 39 29 17 4 54 78 60 24 144 218 101 36 99 20 9 11 4 3 5 16 25 23 25 27 29 48 43 21 17 33 31 40 64 41 22 40 10 27 32 13 34 8 12 14 25 69 171 191 47 137 86 11 101 42 93 119 107 134 80 81 43 78 52 24 7 2 200 162 31 82 224 165 52 53 149 224 57 89 29 43 64 21 33 75 78 69 55 56 156 101 78 82 4 49 43 58 74 62 43 41 59 50 20 139 238 237 205 114 31 76 79 48 26 40 43 10 45 44 51 90 43 80 83 90 127 159 135 112 120 133 126 139 127 79 64 70 42 2 34 70 96 145 208 243 248 227 210 161 113 89 36 23 27 42 43 34 24 7 39 24 21 15 27 48 60 64 41 22 15 27 34 40 30 31 38 15 29 42 13 26 33 35 44 21 39 49 80 135 150 159 173 190 199 210 219 207 185 173 153 89 48 24 13 21 86 100 140 153 152 150 137 105 63 42 97 74 25 47 42 67 38 10 5 8 8 41 44 46 63 208 187 207 117 129 82 58 85 216 154 17 24 32 8 7 36 25 9 35 25 17 10 16 16 24 8 10 4 1 5 8 12 7 15 15 8 20 13 14 12 14 48 47 44 25 5 10 9 4 22 91 156 133 86 46 28 29 20 36 15 39 36 53 74 50 27 18 25 13 21 16 4 39 28 23 5 19 18 11 29 4 17 24 18 1 15 9 7 10 4 8 8 3 4 6 4 8 10 14 8 5 20 28 10 11 27 21 11 11 7 8 17 7 24 23 20 32 24 20 9 12 14 26 15 12 7 18 34 25 12 22 7 20 22 17 34 0 
0 24 17 4 7 9 18 5 8 4 4 13 13 6 2 17 38 35 18 15 43 50 39 36 53 38 55 85 65 64 78 50 30 27 21 23 17 31 22 12 21 23 24 19 11 32 41 3 19 25 15 21 19 22 11 12 7 3 3 12 16 19 29 13 22 26 17 11 9 20 13 24 10 10 25 17 22 19 13 6 11 9 18 29 12 14 17 30 34 49 28 22 24 16 55 19 8 37 67 73 44 121 201 215 84 108 77 35 147 58 22 38 27 12 38 66 103 188 236 145 146 138 185 48 15 32 242 133 141 98 69 15 47 56 48 49 6 24 38 103 68 44 56 49 155 70 32 48 32 24 98 117 43 91 99 4 41 0 115 25 18 12 5 3 8 22 31 22 13 8 48 45 25 13 31 32 40 32 73 67 25 43 15 34 10 24 24 15 15 12 10 24 60 186 166 27 151 122 147 105 113 73 132 45 122 8 58 44 46 6 6 90 108 136 49 192 169 94 194 136 248 60 127 44 18 50 59 15 29 86 74 39 4 110 158 74 68 61 31 62 66 81 83 51 28 44 61 45 178 5 10 187 94 6 69 61 36 28 22 32 41 53 48 86 115 186 163 41 25 33 49 101 104 67 73 119 149 159 151 106 74 67 71 58 42 4 47 53 45 92 155 201 227 209 156 125 85 23 24 29 21 13 5 3 25 25 5 26 28 18 7 17 60 50 20 17 5 8 34 41 72 31 43 33 40 36 39 45 49 50 54 71 116 166 160 174 205 210 198 180 148 93 49 34 32 63 117 125 132 152 178 192 207 190 152 118 95 78 46 34 87 74 20 50 28 80 37 7 11 7 13 33 60 54 85 203 179 232 104 145 72 82 87 153 161 21 16 34 12 15 41 35 40 27 43 24 14 11 28 17 9 13 22 14 10 17 7 23 26 11 2 11 20 10 17 16 34 27 29 23 1 9 5 12 41 113 174 119 59 37 25 28 17 31 20 27 47 69 53 33 8 13 26 33 14 20 37 15 18 17 2 19 14 14 27 7 23 10 16 10 11 9 17 26 17 11 5 5 8 3 5 21 25 17 11 16 21 32 27 25 3 8 12 9 2 7 2 14 11 27 18 15 14 24 26 8 23 18 22 20 28 31 8 27 12 18 25 15 24 21 27 0 
0 27 15 8 12 8 19 3 13 17 8 7 7 8 16 31 16 49 20 11 21 54 61 28 28 50 58 76 72 58 89 47 30 34 21 15 19 32 17 2 11 3 13 14 25 33 25 20 17 16 22 29 33 12 22 12 5 8 8 12 18 27 10 4 16 39 39 46 35 15 10 32 16 14 27 7 14 20 23 22 22 0 9 33 3 8 18 34 29 32 3 16 29 42 53 31 82 107 57 16 18 31 71 83 155 53 230 242 128 61 44 22 12 6 7 20 13 106 186 83 133 177 165 189 72 11 96 77 135 101 57 37 73 44 53 69 32 17 51 90 4 50 59 108 92 9 7 24 10 41 135 81 65 111 36 4 103 253 140 2 13 19 19 16 17 32 36 14 8 7 50 20 19 20 39 52 55 21 66 72 16 30 22 23 4 14 17 26 21 25 10 15 16 41 124 138 14 147 158 183 121 40 125 58 130 85 26 42 22 11 33 228 140 195 135 172 107 90 41 64 49 158 104 29 35 52 49 26 30 76 65 7 64 128 150 65 50 57 73 91 75 90 76 64 79 56 53 198 25 9 177 67 22 56 40 38 72 63 41 25 62 83 61 59 150 118 235 155 33 16 15 62 113 77 7 45 70 109 89 53 64 55 68 89 83 71 58 64 68 43 26 90 140 176 155 121 125 53 40 25 16 7 14 3 5 24 34 24 16 17 33 33 12 52 14 18 21 34 30 6 49 38 22 17 13 6 51 52 50 54 46 55 119 149 119 129 149 136 123 88 21 67 135 141 113 123 112 132 140 114 128 104 33 45 62 49 38 50 44 48 85 68 23 45 30 96 36 15 8 11 9 36 66 48 92 184 136 254 51 169 67 94 112 112 149 41 17 33 41 20 16 58 37 30 20 15 17 22 12 29 3 12 10 11 14 15 19 28 16 27 9 6 8 23 18 12 26 23 40 29 15 5 10 42 75 129 178 90 24 35 41 22 10 36 20 19 41 78 41 25 12 12 8 11 30 32 21 27 8 9 3 15 8 15 22 11 23 10 17 7 13 12 41 25 21 8 2 10 8 4 12 22 7 13 5 27 2 15 33 30 4 25 18 13 29 39 42 24 1 8 10 9 11 5 18 23 17 25 19 7 1 9 21 21 13 32 27 3 25 25 22 0 
0 21 18 13 23 17 28 17 21 17 7 11 15 14 1 21 17 36 18 15 27 38 64 31 4 40 60 74 78 58 89 53 42 26 12 32 21 20 12 12 21 26 30 25 24 18 12 14 18 18 11 11 20 34 9 6 31 38 26 15 13 24 26 17 29 5 30 31 22 12 7 25 19 9 43 27 34 6 14 8 37 24 25 21 25 32 26 9 6 20 7 31 13 22 82 115 141 94 79 33 30 28 19 21 120 92 28 32 168 67 27 35 22 26 23 9 27 75 210 99 9 99 33 167 101 35 53 51 97 146 79 55 73 23 89 63 18 21 90 55 40 34 45 57 17 3 16 24 44 87 113 7 99 93 46 229 214 216 240 41 31 19 44 44 3 51 34 21 25 27 50 14 19 7 18 68 88 29 64 76 28 13 14 19 19 23 24 16 39 22 7 2 7 3 33 114 146 161 59 237 160 20 113 118 89 102 28 22 22 10 125 104 4 81 185 140 11 227 65 128 96 83 47 17 59 46 49 29 42 67 66 21 108 119 115 38 29 53 118 120 63 78 67 70 49 87 212 19 21 175 24 60 69 66 35 40 29 74 42 42 52 35 49 32 174 108 188 240 104 17 16 46 127 112 46 65 34 130 62 19 39 56 58 46 56 63 77 72 55 51 44 47 82 115 129 124 147 93 44 34 48 36 26 18 23 42 63 64 43 37 52 5 15 38 33 27 37 19 9 15 34 14 32 37 35 26 63 56 39 43 54 97 156 168 118 108 107 45 46 88 140 170 158 129 106 71 41 9 15 28 86 70 98 85 108 117 114 75 58 74 76 37 32 35 15 86 11 38 25 5 8 46 51 50 72 151 108 35 7 180 98 97 103 100 130 55 28 28 46 19 17 60 15 35 29 10 15 29 24 13 19 7 14 16 8 1 4 19 5 17 14 7 15 7 7 10 23 39 40 24 17 15 29 59 94 137 153 56 9 17 27 4 12 41 35 28 32 79 53 29 21 18 20 13 7 21 21 4 26 19 11 20 24 27 10 1 18 18 4 11 1 10 32 7 21 4 0 10 18 17 8 31 27 21 24 20 2 8 0 2 14 17 15 16 35 18 12 18 8 8 18 14 20 4 29 19 7 0 13 19 19 19 10 12 23 13 29 41 28 24 14 0 
0 7 26 3 23 17 22 7 13 3 12 23 22 14 13 11 8 23 5 29 30 25 57 36 8 26 62 80 75 64 77 61 51 20 19 14 8 21 23 24 13 8 10 12 16 14 5 24 16 25 5 21 33 24 10 15 14 21 5 9 14 25 22 23 33 45 14 12 20 18 10 26 30 22 29 26 42 11 32 19 24 44 25 24 37 30 37 20 25 24 17 40 47 92 147 122 59 13 60 66 58 50 34 15 123 83 58 250 79 42 19 80 136 122 57 23 50 79 241 104 35 148 110 219 159 50 64 121 66 151 151 36 47 84 76 18 25 55 122 66 63 50 86 37 10 14 9 42 113 127 50 73 108 77 39 165 36 55 55 152 16 148 162 144 3 70 41 41 36 22 34 4 18 7 16 64 101 36 64 96 84 24 9 18 10 9 24 16 13 14 2 4 7 10 14 24 93 223 239 103 204 87 55 124 123 70 34 21 20 89 60 86 22 183 175 73 188 68 171 84 124 48 12 41 57 22 66 42 63 78 38 39 125 99 68 38 25 44 108 100 43 81 99 42 99 11 58 7 177 51 66 41 38 57 25 57 17 71 66 77 48 27 34 79 173 183 150 49 212 76 71 102 167 148 81 102 75 151 31 29 46 88 97 74 82 76 70 75 69 71 86 72 76 60 75 105 132 114 52 39 48 54 40 38 44 40 34 45 41 44 56 30 19 38 34 35 28 27 14 21 47 18 29 11 5 21 57 81 29 25 73 106 127 129 59 41 74 94 106 103 95 68 26 96 96 62 81 116 137 108 117 128 134 98 114 109 93 70 57 76 48 10 17 22 46 63 29 22 32 22 20 51 36 53 48 127 81 63 34 167 167 101 62 106 86 75 60 10 27 25 1 62 18 31 24 17 24 12 21 18 17 14 13 7 12 17 16 22 27 26 13 12 15 8 4 12 5 35 20 20 2 35 44 58 111 138 119 50 31 24 29 16 32 20 43 32 40 82 49 12 8 7 15 17 12 12 5 28 2 42 11 14 12 13 18 9 8 10 17 12 4 8 29 32 16 8 8 3 24 26 29 18 6 5 12 9 16 4 10 21 18 13 27 17 30 21 24 25 6 12 12 12 27 11 36 11 10 4 12 16 11 7 32 17 43 8 52 13 18 10 12 0 
0 10 27 16 14 10 28 13 13 8 10 12 4 17 23 6 11 18 9 23 40 36 54 36 26 41 70 69 57 71 80 63 59 43 25 19 15 30 30 8 6 5 10 21 24 17 3 21 27 20 10 29 26 1 19 25 38 33 27 21 34 58 58 41 38 32 16 18 2 21 8 27 7 37 31 11 22 28 35 11 5 43 15 41 27 18 16 19 14 17 9 53 99 124 102 37 12 8 24 41 48 47 47 50 186 209 180 182 225 61 71 247 122 123 255 95 25 82 243 114 4 156 72 202 3 189 74 123 196 161 153 79 75 73 40 18 38 82 133 72 81 80 101 24 22 31 20 89 151 101 89 130 96 51 14 101 13 147 235 222 46 162 45 188 40 69 42 34 57 30 18 8 11 13 1 35 111 80 36 72 106 69 23 10 35 35 11 18 24 4 20 25 24 19 15 15 19 59 184 185 45 145 71 49 56 29 6 32 61 34 141 115 186 187 69 195 88 215 47 158 75 47 48 42 42 42 76 75 59 28 24 67 117 85 59 25 29 67 89 76 62 89 56 135 44 114 48 158 40 29 67 64 70 112 128 112 102 123 120 116 111 105 97 111 158 178 98 23 28 134 96 136 199 174 138 140 111 153 75 60 75 93 104 47 14 50 76 77 83 83 88 82 47 38 70 79 74 104 69 32 19 38 32 22 16 6 10 27 35 42 48 60 59 37 11 34 17 26 4 22 55 15 25 36 36 18 37 82 63 50 91 92 79 91 60 59 129 143 84 27 72 100 113 142 134 116 118 117 113 116 119 139 147 135 106 68 34 43 45 62 35 18 27 17 66 41 20 37 39 17 20 54 47 52 54 116 71 71 41 161 203 107 43 78 69 86 76 17 7 17 15 66 10 28 5 10 20 13 9 15 28 26 13 4 4 3 4 9 14 8 5 9 10 1 8 18 7 27 16 21 14 35 50 82 140 134 102 43 7 28 28 31 34 11 48 36 44 69 34 11 6 1 3 25 12 12 21 25 37 39 5 19 20 23 16 6 11 13 2 12 12 13 13 25 19 12 13 8 26 16 34 17 8 17 17 15 14 21 16 27 11 33 16 14 26 19 22 12 9 7 16 14 22 3 33 26 21 27 31 23 29 5 45 2 45 8 36 38 59 41 19 0 
0 20 18 7 17 18 20 18 20 8 13 20 24 33 35 24 15 11 7 14 30 49 51 29 40 44 58 49 42 63 79 56 50 36 5 15 18 33 34 18 7 21 33 27 12 4 13 22 19 19 27 29 16 10 26 21 17 15 13 1 17 18 21 9 18 7 22 25 18 22 15 30 39 21 25 22 22 5 22 10 3 39 15 5 24 18 28 34 29 18 18 93 137 100 36 10 15 16 24 36 43 42 42 57 180 233 248 180 224 184 215 114 17 77 111 59 7 228 230 83 10 123 137 46 143 235 194 20 77 71 113 54 19 7 23 34 48 68 107 21 93 74 65 62 48 54 71 116 133 18 154 142 61 13 9 57 173 216 98 222 62 121 161 118 60 80 47 43 66 28 5 15 5 22 3 18 113 104 22 49 120 117 7 35 8 13 16 7 23 29 12 7 4 7 2 6 21 32 8 109 147 20 148 77 25 2 16 3 178 153 215 166 217 82 142 111 26 10 143 92 25 45 40 64 61 63 69 82 40 19 49 85 83 78 70 3 34 56 78 101 98 25 159 87 127 50 138 46 20 33 53 44 22 54 95 124 114 118 129 137 145 153 156 154 142 132 54 175 11 184 175 183 175 144 151 186 161 150 121 117 105 56 134 101 56 91 104 88 72 56 53 71 57 45 75 50 30 67 63 34 20 25 25 8 9 8 11 21 37 42 27 76 80 12 22 27 45 17 17 29 24 39 45 21 10 18 46 89 84 81 98 86 51 66 58 35 64 97 144 154 149 151 155 154 124 96 105 103 91 101 108 113 86 84 74 37 31 43 32 49 22 37 29 44 65 19 6 7 2 13 8 49 70 37 76 100 76 81 56 143 211 166 40 54 87 89 66 26 8 5 12 70 14 47 21 18 10 5 8 12 22 25 9 7 9 5 11 12 3 8 8 10 7 4 5 12 23 21 8 14 17 29 60 126 151 105 76 15 38 30 12 21 31 28 44 32 43 59 30 4 15 20 13 22 10 15 24 12 16 10 8 14 7 15 8 12 15 8 8 6 9 12 16 15 9 11 12 2 19 19 7 12 21 8 23 17 6 13 3 23 36 33 16 16 27 26 12 17 25 19 8 11 24 23 15 10 9 7 12 22 27 7 36 16 27 19 18 26 32 26 49 0 
0 25 15 21 22 25 31 13 29 12 8 4 7 20 21 25 17 13 27 26 28 54 43 17 41 46 58 54 56 73 73 49 51 39 5 15 14 26 29 12 7 25 43 28 13 18 21 8 3 7 16 21 15 5 24 28 23 27 12 5 25 44 34 19 22 19 21 18 25 24 8 2 12 20 18 21 18 18 29 32 17 34 48 42 19 36 39 43 40 51 84 121 102 43 51 25 0 9 15 26 30 25 20 39 117 12 39 155 5 181 150 93 149 144 224 25 71 46 150 45 110 136 147 156 163 204 194 33 52 49 67 21 28 42 79 98 86 65 79 55 122 58 7 20 34 56 60 97 86 56 163 118 26 15 17 30 79 174 104 162 136 25 41 45 31 100 73 67 80 21 9 14 7 16 7 17 91 124 75 9 111 151 55 20 22 18 16 11 22 24 30 22 15 6 17 21 24 11 33 11 110 121 57 117 25 7 16 61 79 79 50 238 103 98 48 84 66 123 98 21 50 51 57 69 78 57 45 60 20 45 60 72 42 86 84 41 28 74 93 126 34 177 64 103 252 99 25 52 17 40 70 87 64 45 55 61 64 78 94 103 113 126 133 134 114 75 41 77 190 197 222 211 171 126 104 165 172 114 120 139 153 79 153 70 128 157 74 65 41 28 49 68 82 48 46 49 36 34 49 43 26 24 28 6 12 22 14 21 42 41 18 63 83 16 32 18 37 27 13 27 21 19 14 31 14 10 87 115 105 103 116 116 103 115 104 117 192 220 204 163 120 111 113 106 72 47 58 60 39 51 68 51 29 36 36 30 25 34 31 29 17 42 8 65 46 7 14 14 13 12 12 40 86 28 98 78 74 84 92 82 184 207 50 35 98 86 56 30 17 11 13 69 22 65 7 10 12 17 19 15 27 32 24 12 5 14 19 21 12 12 16 22 9 9 22 23 5 7 4 6 10 14 71 142 149 104 60 8 25 25 17 30 17 44 52 48 55 50 20 16 20 20 16 16 3 16 19 26 11 8 2 12 15 7 19 11 19 17 6 3 5 4 16 19 12 15 8 11 10 16 13 7 24 17 14 15 17 17 8 7 15 18 31 29 21 18 9 15 10 21 1 12 12 18 2 5 2 12 22 21 6 12 13 15 18 14 7 21 38 33 20 0 
0 8 7 24 8 16 30 13 35 9 5 5 9 21 21 24 17 21 33 20 22 48 35 20 47 35 49 65 76 73 50 38 52 38 12 21 21 26 26 17 1 17 31 42 22 5 20 11 14 17 24 31 31 17 4 27 24 8 28 21 26 32 43 30 12 14 15 4 10 16 12 14 17 10 5 16 14 16 15 18 15 12 50 61 26 21 53 62 102 131 114 60 58 28 36 46 28 12 11 20 23 15 4 37 28 202 155 89 94 127 114 181 65 95 92 71 36 87 162 194 158 169 180 230 4 225 138 57 83 79 34 28 30 48 71 84 104 94 25 117 121 52 20 6 17 16 1 89 71 83 142 86 16 12 18 31 50 53 144 40 173 37 32 62 27 75 118 50 104 9 23 7 4 0 12 10 42 116 138 79 43 137 106 17 20 5 16 23 8 7 10 24 20 8 29 19 24 31 15 30 23 104 90 75 60 15 37 227 171 134 208 182 30 230 91 144 103 85 9 34 15 15 53 78 83 70 39 18 40 68 71 68 39 39 63 50 55 138 123 32 221 114 105 2 91 2 9 41 18 31 53 113 138 113 81 72 74 93 98 91 87 90 91 82 60 33 13 19 96 137 141 115 86 35 19 42 65 41 88 121 173 162 124 62 170 83 24 41 46 44 59 35 59 33 43 55 44 14 32 43 41 38 37 13 6 12 15 26 39 40 25 46 74 45 27 49 24 41 27 37 24 12 12 32 33 64 102 118 141 139 144 170 173 182 162 154 150 116 89 47 9 15 36 24 12 23 25 16 31 24 8 8 20 32 32 23 13 19 31 16 12 16 61 70 26 6 1 7 4 8 14 38 95 23 103 61 63 61 112 46 153 233 103 39 75 78 57 33 24 8 7 72 24 68 9 14 11 13 21 5 30 37 21 12 11 17 16 15 22 24 15 19 7 10 7 17 5 4 6 4 4 14 96 151 153 134 65 32 18 16 31 52 21 72 56 48 49 28 2 5 8 14 9 16 11 21 18 13 15 12 10 13 21 20 17 8 5 8 12 15 15 10 5 5 12 17 9 9 13 9 22 10 12 15 8 15 14 5 16 2 15 21 14 14 11 5 7 23 11 25 3 18 6 19 11 11 8 2 17 8 5 8 11 17 12 6 15 15 9 23 15 0 
0 26 21 28 28 19 32 17 21 21 19 16 12 17 17 21 22 22 22 19 19 36 36 30 46 26 34 63 90 81 45 43 61 32 1 12 17 21 20 14 5 19 36 44 21 10 32 32 32 19 11 11 19 21 18 11 19 23 16 35 16 22 18 42 15 26 17 21 17 12 21 4 12 8 7 16 12 15 8 35 22 28 66 40 36 46 62 93 127 80 45 22 45 42 2 33 45 31 27 25 24 12 3 13 27 86 155 191 18 47 29 248 97 78 115 176 3 68 27 158 62 96 156 182 147 80 35 29 20 17 26 65 58 51 40 93 92 60 94 166 77 79 31 29 26 19 39 110 92 109 144 66 14 6 15 42 69 40 98 85 153 46 46 22 26 42 129 49 112 11 24 4 4 5 18 19 21 40 107 105 63 144 175 89 17 18 25 8 21 5 24 7 4 15 21 36 25 21 9 21 22 18 51 42 57 8 167 137 52 92 221 103 134 118 2 96 118 32 34 11 10 31 59 50 55 58 18 30 41 60 51 63 53 34 23 30 93 128 18 228 110 110 4 102 62 22 24 30 36 48 70 76 107 128 112 85 62 50 45 29 17 15 15 4 6 3 8 9 22 41 27 24 8 19 10 26 11 37 68 129 186 197 142 184 119 23 21 37 41 45 40 19 50 27 33 28 32 18 17 21 35 39 33 37 22 17 18 33 27 33 43 40 50 69 23 52 39 48 21 28 36 36 27 54 57 70 117 161 197 168 165 195 160 151 129 109 76 48 36 10 4 17 34 15 27 1 28 16 18 25 4 0 27 8 31 28 13 15 15 18 18 28 77 43 15 6 7 9 13 8 8 41 95 11 84 38 41 39 118 17 144 219 137 6 51 67 61 25 27 31 8 70 33 64 14 15 13 16 21 35 38 31 9 9 15 10 5 7 1 7 15 16 15 17 10 15 12 8 16 17 13 19 125 183 160 113 14 43 16 2 49 42 58 85 38 24 34 12 11 19 19 12 3 22 11 21 18 7 12 27 15 5 7 14 8 5 12 7 3 2 7 7 9 15 12 16 12 4 13 15 22 4 17 16 1 5 5 2 18 10 14 13 19 16 8 4 13 27 7 19 14 25 16 24 24 21 10 15 21 20 5 15 12 9 25 29 29 19 33 24 18 0 
0 16 26 8 19 11 22 9 5 8 1 7 6 15 19 21 30 18 11 32 36 31 48 33 39 34 25 41 83 91 54 57 69 29 11 5 13 16 17 16 1 6 36 40 29 18 39 15 21 21 29 32 33 31 31 32 20 35 41 17 21 7 13 22 13 37 18 24 29 29 11 4 5 8 16 10 20 20 16 30 28 49 94 83 111 146 180 181 79 60 67 11 31 53 6 8 38 37 30 23 18 6 7 7 31 5 64 135 217 208 209 247 219 144 154 215 196 136 67 37 18 46 36 36 5 43 17 20 19 21 56 65 18 27 55 119 101 88 154 122 20 62 56 41 23 52 40 132 104 118 161 55 7 11 2 41 95 46 28 135 65 102 17 38 17 43 129 72 124 14 6 10 4 8 21 12 13 20 90 155 130 104 198 187 157 77 20 44 16 17 31 25 17 24 13 11 11 10 5 12 8 21 20 37 43 54 115 127 23 199 127 92 47 133 59 182 79 64 48 30 13 54 40 46 67 63 10 59 47 41 31 59 42 21 18 36 120 7 225 107 76 213 84 25 74 39 59 49 78 114 87 58 37 43 26 25 25 15 7 8 8 4 5 15 7 16 22 17 14 17 5 9 7 13 24 19 24 17 13 27 74 79 152 7 182 76 31 12 23 29 21 29 21 19 11 18 41 45 22 14 27 35 10 53 30 42 41 48 20 32 71 38 16 72 53 18 26 29 12 11 7 25 35 69 86 128 184 205 195 157 154 151 85 53 39 24 12 21 26 21 13 22 10 10 17 24 17 8 19 25 11 12 38 41 13 25 27 14 17 31 13 49 52 18 25 27 24 22 19 15 13 40 83 15 57 11 24 50 140 21 149 195 156 24 50 53 65 7 22 55 11 58 13 47 7 13 3 5 11 32 27 22 12 6 2 1 3 2 4 12 20 23 25 20 7 8 21 16 21 5 18 37 157 207 127 58 29 44 15 15 39 29 63 84 28 22 38 14 3 7 7 7 10 27 6 23 14 15 3 42 11 11 9 5 15 4 5 4 19 31 30 19 2 15 16 10 2 13 12 9 18 18 8 11 16 17 16 20 32 33 2 16 21 26 23 11 6 11 22 21 17 19 9 14 1 4 19 8 28 31 10 16 22 39 40 6 47 17 22 23 14 0 
0 22 31 11 4 22 12 11 15 16 1 7 5 11 23 18 31 7 18 26 33 26 55 32 37 34 31 46 66 90 72 76 75 25 17 20 10 17 10 18 5 7 35 48 13 11 27 51 25 2 8 27 27 7 17 15 22 14 5 24 17 17 10 18 6 28 17 18 6 22 19 22 15 3 10 18 21 15 7 18 26 101 169 137 113 177 14 0 222 112 51 36 14 31 12 10 18 25 13 23 22 16 10 22 54 77 69 124 223 100 63 140 235 248 171 157 175 113 54 32 14 24 17 30 16 32 41 88 112 113 82 40 25 52 106 115 17 117 127 85 39 21 59 61 11 66 26 154 111 139 177 44 2 5 9 29 98 15 89 77 84 92 87 32 30 68 130 84 149 14 28 37 38 35 12 12 21 27 60 162 234 91 107 160 192 211 121 4 25 9 5 20 19 24 29 17 8 14 20 7 15 20 19 5 21 243 204 142 213 216 59 194 108 213 117 151 16 68 34 37 4 57 27 46 75 66 10 82 63 20 31 27 32 28 23 77 62 185 73 55 216 86 9 31 29 42 55 55 78 64 38 25 15 37 11 17 15 10 3 7 10 8 11 22 22 43 35 5 16 30 23 18 17 13 32 4 35 13 14 25 8 37 76 222 25 225 134 56 43 49 54 25 8 17 10 7 28 55 27 6 32 31 2 39 44 41 41 51 14 36 92 38 11 54 59 14 10 14 25 5 13 33 27 95 175 227 242 227 208 181 127 77 39 19 15 19 21 28 14 34 7 53 96 87 39 7 17 19 16 3 7 22 7 20 19 22 24 22 23 33 21 60 31 5 16 18 15 38 33 24 2 24 69 45 52 33 22 59 158 10 146 189 204 67 38 49 66 11 5 56 6 47 12 31 15 5 18 19 15 14 15 20 16 12 10 10 10 11 11 12 26 17 17 33 35 27 11 5 21 14 30 51 160 202 96 34 14 39 7 8 37 12 67 75 21 24 34 3 15 23 23 16 10 23 10 22 12 13 4 41 12 16 10 13 31 17 15 8 14 10 2 5 17 15 20 19 23 18 18 3 6 10 8 4 8 22 33 18 13 32 18 6 12 11 7 4 4 8 18 15 26 19 11 15 14 12 22 10 23 14 14 5 14 17 38 41 43 24 15 10 14 0 
0 37 15 18 14 25 12 21 5 20 4 8 18 18 7 2 29 10 7 46 31 20 47 35 48 12 26 85 63 77 78 83 64 35 33 18 11 21 8 12 8 8 16 31 26 15 14 20 32 4 11 31 7 30 31 27 13 21 21 15 15 26 34 26 22 29 5 8 12 8 42 11 25 1 10 7 10 22 22 32 53 141 170 45 68 6 6 181 44 135 53 39 16 9 15 10 13 34 17 38 7 37 21 31 13 41 53 120 192 129 64 143 204 239 187 120 139 92 34 21 26 22 26 21 14 72 149 169 163 111 66 9 40 72 96 34 110 96 42 97 71 60 99 53 32 64 30 180 94 165 189 47 10 12 7 27 82 5 89 17 114 38 85 52 7 89 152 73 195 25 29 8 8 14 26 8 7 20 21 47 193 248 74 44 56 151 221 162 50 5 10 10 20 20 10 12 2 11 4 16 19 14 34 26 94 180 67 129 250 114 179 103 255 16 180 80 38 39 29 23 19 35 46 71 59 46 22 91 61 8 23 17 27 44 81 22 161 78 73 199 92 19 29 40 20 38 44 45 33 8 5 3 10 12 36 23 16 11 7 10 16 17 21 30 20 22 26 19 22 183 20 22 201 136 40 25 20 9 2 13 7 21 15 63 160 204 182 137 87 64 59 26 12 28 22 28 17 32 32 20 40 32 19 23 28 17 55 38 8 35 97 53 12 44 45 26 19 22 35 30 20 33 58 171 9 15 0 219 176 127 62 34 28 36 30 33 51 25 44 27 89 194 204 184 136 81 40 16 20 6 14 30 38 32 14 6 18 18 21 38 52 49 20 3 14 7 32 43 19 38 6 7 47 19 44 17 43 37 149 48 120 191 15 80 39 51 69 17 11 47 13 45 24 22 17 22 23 26 22 16 20 20 12 6 5 9 14 14 11 8 22 31 27 22 16 17 21 15 5 20 58 89 145 189 86 30 18 42 27 7 33 28 73 51 35 31 20 8 17 6 5 2 8 22 24 9 20 22 4 31 12 6 4 7 30 17 29 6 19 28 23 11 17 11 4 7 18 15 22 7 8 8 7 3 4 10 16 33 48 41 18 7 11 17 21 14 6 15 24 37 44 26 21 17 18 5 18 18 16 11 12 5 14 13 9 25 22 17 26 10 1 0 
0 37 8 18 17 20 8 20 21 10 11 15 15 28 13 10 28 19 12 55 18 11 36 39 57 2 22 105 54 65 78 65 56 13 20 11 9 15 7 10 19 22 34 29 8 6 9 16 31 11 7 31 21 23 13 12 6 16 29 35 39 27 21 15 10 22 15 16 12 17 31 26 21 9 13 19 27 39 28 81 204 36 171 74 220 54 80 28 94 105 71 31 21 5 1 11 19 46 10 40 42 22 14 32 104 137 161 233 235 161 92 85 88 122 139 34 100 100 54 46 32 18 18 15 76 162 162 63 35 69 94 29 86 77 20 132 193 121 65 55 73 24 74 22 75 8 122 192 51 175 191 62 4 14 8 27 80 9 80 48 47 100 8 99 52 46 215 38 253 40 25 44 55 44 28 16 12 16 18 28 66 222 206 89 4 28 103 207 210 123 50 7 23 17 26 10 7 0 14 5 22 15 31 33 28 185 49 255 206 34 117 105 54 140 148 8 57 6 12 31 31 18 58 77 35 16 32 66 52 26 18 20 6 49 23 182 67 81 234 84 21 45 4 34 55 68 55 28 4 7 11 15 1 25 10 13 25 10 5 18 25 29 15 16 14 33 36 32 143 156 189 221 168 100 251 109 22 17 1 19 28 17 8 8 51 136 182 187 126 44 44 8 32 19 26 33 26 29 26 12 32 39 26 5 5 36 53 32 24 37 91 68 39 53 48 39 32 26 33 28 22 74 166 1 42 1 208 121 57 29 27 20 20 38 25 22 82 127 170 110 198 36 248 18 239 189 141 85 20 9 18 15 5 12 26 34 27 8 15 30 31 21 1 21 24 20 32 28 40 36 3 10 61 36 60 11 66 25 132 68 101 187 35 116 65 27 99 11 17 33 29 50 33 38 20 15 27 12 14 9 13 3 7 11 12 11 9 7 4 18 20 6 11 14 24 7 14 17 8 17 119 148 154 164 75 26 13 35 36 12 20 41 59 39 42 25 7 11 10 11 17 13 17 20 32 10 21 15 12 28 13 6 5 11 29 17 26 10 4 10 13 7 8 14 5 8 16 19 21 9 4 8 9 7 11 26 37 22 16 33 8 14 13 17 11 18 7 11 9 17 14 5 22 19 11 7 15 26 27 28 12 6 27 33 25 16 6 20 24 5 18 0 
0 34 7 17 14 16 6 7 14 12 14 23 22 19 17 12 15 15 23 57 18 3 30 39 56 12 26 99 55 64 80 47 50 46 40 26 17 13 13 18 26 8 20 18 8 2 6 13 24 17 15 20 17 11 9 3 24 26 17 7 19 24 35 36 14 5 16 20 10 28 19 19 17 22 22 16 24 49 79 28 175 97 231 144 32 165 153 111 8 20 93 17 13 6 7 11 15 27 33 20 34 32 58 96 136 97 60 119 120 103 91 84 18 60 89 100 133 93 56 15 24 21 32 118 193 155 5 96 115 116 96 45 112 59 84 164 121 106 130 21 66 9 66 47 71 59 187 158 57 186 165 68 4 15 7 28 89 17 85 53 14 63 84 31 96 18 13 43 36 54 16 27 17 3 2 24 14 15 17 27 13 81 164 185 77 61 74 49 89 154 168 129 38 21 21 11 5 10 4 14 33 19 38 166 157 222 172 229 94 213 184 165 134 153 77 43 39 25 4 54 33 10 56 89 40 11 34 59 37 30 19 32 26 28 166 97 86 211 77 29 12 41 25 13 21 30 16 3 6 11 11 17 5 30 12 4 13 42 43 51 9 5 41 57 42 20 66 178 62 228 48 15 55 101 139 113 16 100 6 25 29 29 21 4 9 73 147 185 154 61 22 32 42 33 30 26 25 35 28 17 14 39 47 4 15 35 48 28 14 31 78 67 61 80 65 43 30 21 22 24 36 160 20 38 17 201 127 27 16 13 11 14 12 20 3 5 81 228 248 79 133 112 135 224 207 183 164 120 49 22 12 3 9 21 22 17 12 18 20 11 2 9 5 19 15 8 26 21 10 10 27 36 81 32 82 5 63 37 123 75 111 187 11 142 74 43 121 58 17 15 27 46 29 54 2 26 34 34 12 14 9 5 3 6 8 7 4 8 10 2 6 10 11 5 17 5 12 7 17 18 143 137 106 114 63 37 22 33 22 23 27 48 56 46 40 13 7 8 2 8 5 6 20 27 35 17 15 8 18 18 4 6 5 7 21 15 10 15 5 6 7 10 8 8 4 8 16 17 19 11 5 5 4 14 20 24 12 14 29 24 11 6 11 17 17 13 4 16 26 43 50 39 10 34 36 11 3 13 21 17 8 12 43 29 20 18 12 17 21 1 26 0 
0 29 4 14 11 11 5 3 11 8 21 17 18 17 5 5 15 11 22 51 27 8 30 40 48 18 33 92 56 61 82 44 50 61 21 21 13 7 22 24 12 29 27 24 18 20 23 18 12 8 15 23 6 4 19 11 26 10 6 7 7 10 19 28 15 25 51 53 33 18 13 23 23 26 19 8 20 28 234 200 87 84 176 82 213 46 18 79 139 53 72 12 21 17 8 19 30 26 31 23 53 122 163 150 41 51 51 96 83 149 118 34 73 34 47 110 103 48 23 19 12 23 88 238 189 78 137 132 121 92 25 103 91 76 160 113 42 44 119 62 34 37 24 24 38 88 190 85 146 212 128 51 5 15 13 24 87 31 80 56 20 20 91 84 89 41 1 83 25 118 39 25 45 36 16 15 11 10 11 11 30 19 51 177 185 134 133 176 175 83 69 175 176 71 18 12 3 2 9 18 12 7 80 74 104 66 242 146 67 110 75 55 177 66 20 36 29 20 31 57 34 29 51 102 51 35 56 47 28 9 37 74 58 159 68 118 205 26 52 51 25 37 27 24 34 34 17 13 17 4 15 17 28 34 28 2 26 43 7 59 9 24 38 60 82 77 56 149 1 131 182 95 123 199 37 156 221 81 134 29 15 11 67 119 138 74 104 150 133 85 52 58 19 37 5 18 37 22 18 24 2 37 46 29 22 35 46 25 9 39 74 67 77 97 63 34 27 21 25 36 96 7 83 1 196 125 47 28 23 13 7 7 7 8 3 3 79 40 155 58 101 170 212 148 138 159 171 142 87 49 30 18 5 27 30 23 17 21 20 11 17 21 7 12 21 13 6 17 14 10 20 49 96 31 84 16 30 59 119 78 102 178 234 152 74 81 115 113 16 30 51 25 25 50 7 29 19 42 10 19 11 9 11 11 12 11 9 15 7 11 10 6 6 20 14 6 12 8 16 53 145 137 111 104 51 16 34 27 15 14 25 56 55 53 42 20 18 10 15 7 10 6 10 19 25 9 26 15 9 9 10 11 11 11 8 20 0 17 2 5 4 11 12 1 3 8 15 16 17 13 7 9 10 14 14 31 43 28 11 24 14 7 15 10 14 14 13 27 6 11 5 11 36 27 28 5 5 10 28 18 7 6 36 41 22 4 23 25 34 2 35 0 
0 25 5 8 7 4 4 11 15 11 15 5 9 17 13 5 24 7 14 40 34 10 35 45 40 25 39 83 56 55 81 43 44 65 24 20 17 13 15 15 2 24 33 31 18 7 7 14 10 14 22 13 8 16 14 3 23 32 26 27 25 20 19 22 20 31 20 15 12 9 28 25 43 38 27 8 28 28 65 238 158 164 149 112 132 153 70 9 64 43 49 19 34 22 18 24 32 0 21 16 96 207 213 177 118 16 77 139 119 134 57 144 88 56 50 35 12 21 15 20 17 40 163 230 19 193 149 80 65 37 73 139 15 155 112 43 1 8 84 95 24 44 59 55 36 100 146 65 187 180 73 26 1 11 15 21 65 44 65 47 14 4 41 78 91 46 195 184 203 212 40 32 9 13 13 10 6 22 22 22 10 7 18 52 107 103 94 89 106 153 176 107 85 96 70 26 11 10 16 22 20 29 195 148 161 248 217 54 254 150 97 157 97 47 68 53 48 42 53 29 36 27 97 100 33 53 57 31 34 32 41 26 210 79 96 239 33 67 54 31 11 41 38 43 46 36 11 2 11 25 13 49 58 48 62 26 56 38 33 61 3 17 31 95 71 71 40 176 98 212 199 57 53 92 94 163 110 176 74 202 81 69 174 246 250 189 64 124 116 44 32 61 40 49 48 50 59 28 31 39 14 36 24 17 10 36 47 32 27 55 73 53 76 110 60 20 24 23 38 108 230 92 74 185 114 72 4 12 14 16 18 3 8 10 11 6 50 250 23 254 173 132 36 95 102 147 172 149 112 63 35 35 15 20 28 31 26 15 9 10 6 12 16 16 8 6 16 27 0 29 40 53 89 41 75 23 248 86 117 77 86 176 208 187 22 115 53 123 27 41 22 19 22 49 12 35 35 29 13 19 17 18 20 22 22 23 23 13 3 2 8 8 17 13 4 15 17 11 24 72 125 129 131 93 10 29 38 17 17 18 40 42 27 43 32 14 21 16 22 15 3 7 10 13 17 10 25 17 5 7 12 10 13 15 5 19 9 17 5 7 15 12 19 5 5 7 13 17 16 15 8 11 9 20 30 20 7 30 32 8 30 8 20 7 8 13 11 33 30 44 42 29 9 28 24 14 12 21 18 8 14 20 14 19 19 16 24 23 52 5 37 0 
0 23 11 4 5 2 3 15 11 21 12 5 3 10 17 8 18 9 14 35 43 17 38 49 32 32 43 73 56 51 80 51 35 47 31 2 19 24 27 28 30 26 28 15 2 16 23 22 19 28 26 14 16 31 14 10 15 11 12 26 27 27 16 5 23 22 13 24 26 7 24 39 24 47 33 3 23 35 47 4 131 220 80 160 32 229 38 193 57 49 45 30 43 19 18 8 32 25 27 12 138 246 154 137 167 29 64 136 118 102 39 47 103 101 48 17 11 14 27 4 76 130 136 105 191 203 99 36 25 92 118 71 95 167 41 35 25 18 43 102 84 81 80 84 36 89 113 73 181 128 39 14 12 5 11 18 33 48 45 32 9 13 23 37 47 32 117 5 93 25 15 46 13 5 3 16 9 20 23 20 24 21 6 29 22 33 34 32 17 50 116 154 123 73 41 21 39 50 57 34 13 107 79 52 67 10 106 185 204 69 111 147 11 101 51 57 53 24 31 38 39 83 108 46 7 38 46 15 29 40 26 167 71 73 207 43 80 41 37 40 51 77 71 55 33 13 12 18 15 6 39 107 91 100 100 39 85 59 90 106 32 1 10 83 123 39 104 65 17 62 43 35 21 56 41 37 176 77 116 76 165 22 154 206 109 223 102 87 127 48 18 51 38 59 40 51 42 21 24 39 30 32 31 25 14 40 47 38 39 60 63 40 75 115 61 15 17 15 60 198 57 56 232 105 55 58 18 31 6 30 46 32 11 13 15 7 26 142 185 164 75 88 42 34 78 131 161 139 119 65 30 44 26 8 9 10 10 7 3 4 11 7 6 12 9 10 17 18 25 36 32 45 78 57 73 12 229 116 124 74 64 172 177 224 85 98 73 88 75 29 20 36 26 54 21 4 10 17 8 14 4 11 5 3 0 3 3 8 4 18 14 14 7 4 8 11 25 25 46 90 119 123 128 73 21 14 20 23 29 9 47 40 30 33 24 5 12 8 3 5 11 6 21 17 18 18 12 19 5 7 11 8 14 16 5 14 14 15 16 8 24 18 22 9 8 5 11 19 17 16 8 7 6 13 20 30 27 21 26 13 26 0 17 10 8 18 2 18 8 17 4 20 21 16 19 22 10 32 48 34 14 12 17 17 24 16 22 4 51 15 32 0 
0 21 16 3 10 5 2 14 1 17 19 12 8 19 8 14 14 24 28 43 55 23 35 50 31 41 47 63 53 47 79 78 41 14 27 21 7 17 23 26 38 22 16 5 5 15 27 16 4 22 15 29 16 32 24 11 18 32 41 44 34 29 8 19 25 25 21 35 28 8 10 15 22 47 30 14 9 31 197 216 2 170 38 189 92 241 234 155 30 42 36 38 42 26 16 35 22 12 29 13 169 236 79 198 214 158 144 193 180 104 42 54 100 51 16 9 26 31 45 55 138 114 22 143 153 114 48 14 36 122 65 52 127 98 19 12 24 7 36 118 119 65 59 85 59 68 133 54 185 83 11 26 15 2 5 15 15 37 29 14 14 20 21 43 26 8 58 30 32 40 93 49 21 21 7 18 6 19 38 20 27 20 4 28 8 32 29 13 21 11 19 17 52 68 36 13 32 44 95 125 95 0 145 90 203 195 53 122 158 75 178 120 37 65 46 31 10 18 22 41 65 89 73 32 46 52 35 14 34 14 144 4 50 210 38 108 110 49 50 20 46 64 34 8 5 7 12 14 15 42 82 142 102 143 158 14 105 72 57 122 67 30 15 84 161 96 166 86 217 88 82 52 18 45 54 33 68 195 25 91 21 93 104 24 133 153 171 13 118 91 2 54 30 6 24 60 21 33 33 18 33 38 37 24 25 42 43 39 47 60 53 49 93 113 54 11 9 35 97 250 83 237 146 67 11 62 58 28 41 53 72 77 48 11 49 74 93 74 64 91 51 97 29 23 56 120 158 135 125 62 23 42 26 18 17 14 9 3 3 5 2 5 11 18 19 11 9 17 28 42 29 50 79 72 83 9 216 139 125 60 36 165 146 238 130 48 86 57 81 41 46 19 40 49 20 52 51 30 27 14 22 17 12 8 6 8 11 4 14 18 8 25 17 2 2 20 30 35 54 115 149 135 99 60 17 5 12 26 20 17 43 43 44 20 18 7 5 10 8 15 26 14 19 11 8 12 18 25 11 11 12 12 15 17 8 12 17 11 26 12 31 25 24 10 8 4 9 21 19 16 8 7 12 27 38 31 13 7 18 20 9 8 10 11 11 23 10 24 26 30 16 6 17 11 25 10 4 57 44 60 9 17 5 25 28 8 24 28 28 20 24 0 
0 17 25 2 8 8 4 13 7 7 1 18 10 21 15 18 19 31 38 41 49 8 35 48 20 41 52 62 48 54 88 77 31 11 16 15 28 18 12 53 54 15 15 13 8 12 8 31 31 20 17 12 9 21 13 13 11 22 12 25 33 33 21 25 17 37 48 11 11 21 34 29 19 15 25 25 4 47 140 150 144 125 91 218 72 202 90 137 28 124 59 38 19 33 35 24 24 20 35 31 183 190 108 18 206 67 145 32 211 57 88 94 92 13 15 11 63 66 65 95 111 27 123 110 32 31 2 34 58 84 63 77 74 46 21 23 8 16 44 112 135 34 135 105 52 44 182 61 219 99 23 22 20 7 1 11 21 4 12 4 11 12 24 21 34 13 26 255 134 239 169 27 12 28 21 15 7 7 14 15 1 14 15 37 13 32 4 20 3 18 13 15 9 27 17 15 46 65 52 42 77 75 29 127 213 60 238 164 166 154 168 76 37 64 84 99 65 26 50 50 50 54 40 47 51 32 15 39 2 123 7 47 239 58 94 100 55 70 71 65 65 55 29 36 39 36 17 24 46 52 51 130 112 141 231 73 89 100 23 77 104 106 100 126 125 48 169 56 112 116 15 89 40 51 53 30 41 109 193 29 68 214 58 187 5 18 175 102 57 120 57 38 23 18 27 54 24 46 41 11 19 13 15 36 38 46 43 39 64 68 53 77 106 87 49 24 16 46 136 31 66 199 113 28 106 142 151 30 65 72 71 110 99 79 75 86 96 83 17 82 117 148 232 49 63 127 149 134 122 52 23 39 29 12 5 10 10 7 3 1 3 6 9 8 4 4 11 27 10 28 17 73 80 83 85 10 178 147 154 52 14 162 146 254 138 63 68 61 59 10 23 19 47 54 30 25 40 39 30 4 10 33 39 29 16 12 10 11 11 11 11 13 15 11 20 22 18 12 56 131 167 119 58 43 13 18 15 29 33 26 61 49 37 26 7 13 13 10 15 5 20 8 21 14 18 21 8 26 24 31 24 16 8 11 20 13 8 21 22 8 23 25 17 10 8 1 4 17 14 19 5 13 12 9 1 8 11 6 5 12 15 5 13 12 5 14 15 27 24 21 17 10 26 10 39 2 15 67 10 74 33 24 28 18 20 41 24 30 25 24 26 0 
0 15 37 10 7 1 17 15 9 8 10 14 7 10 23 24 13 30 30 31 42 24 50 43 20 41 64 75 43 73 94 41 41 43 28 17 6 17 21 62 12 38 24 34 32 36 41 24 34 24 7 14 20 19 34 16 32 15 22 20 19 9 29 19 21 8 38 36 32 33 18 24 11 9 3 25 49 76 82 8 155 60 25 159 218 16 24 215 113 58 179 81 27 32 60 51 26 9 24 36 183 131 155 217 45 117 6 32 153 67 123 93 96 11 18 18 108 102 110 91 5 111 118 62 15 11 35 76 67 16 74 33 49 68 13 21 41 41 68 94 149 15 178 80 39 87 195 45 216 96 3 7 21 12 4 10 8 21 12 4 18 10 14 30 18 8 15 186 200 125 222 25 28 24 28 14 17 10 7 14 5 25 10 31 8 19 21 17 6 8 8 22 16 27 15 22 29 67 98 85 90 238 222 44 205 102 51 4 125 227 155 117 139 153 124 114 77 46 63 62 48 31 3 36 43 23 42 10 121 8 42 235 94 73 92 43 32 51 38 60 73 106 102 81 52 58 18 36 65 56 39 89 168 29 229 193 38 82 73 21 34 61 83 57 65 156 104 165 25 9 112 81 22 21 46 7 18 86 146 181 15 6 153 75 230 110 106 156 53 80 67 7 25 20 15 37 33 36 38 20 23 22 15 41 41 41 45 40 78 68 55 97 101 59 58 25 41 49 186 69 12 161 84 89 163 160 233 161 48 105 37 66 105 98 65 36 41 54 77 28 41 152 125 58 73 124 131 139 110 37 29 38 27 17 6 18 18 12 14 14 8 1 4 8 9 3 6 16 7 5 9 97 58 95 71 2 121 139 216 58 29 155 159 252 154 70 60 60 69 12 27 40 41 82 23 45 37 7 16 25 13 36 10 19 9 3 10 13 6 7 15 21 21 19 13 20 20 22 86 139 158 97 47 24 14 18 7 26 22 46 87 45 19 43 18 13 18 6 14 14 29 13 2 27 24 25 17 42 32 7 24 19 11 6 15 18 17 34 17 21 8 22 17 9 8 8 11 14 17 21 14 14 14 18 17 7 7 13 12 13 27 9 29 20 10 8 30 9 17 29 22 22 27 18 26 26 20 27 49 45 49 31 38 9 35 17 34 34 29 16 26 0 
0 19 39 18 15 18 18 7 20 19 11 7 6 7 14 11 7 29 44 32 38 18 36 46 18 38 65 70 41 87 83 36 61 52 8 20 19 8 30 48 38 5 56 42 9 10 10 21 28 20 8 20 30 28 41 11 31 13 10 7 20 38 37 15 4 12 17 18 20 9 20 17 15 26 4 69 117 87 44 26 232 114 152 14 236 104 85 149 60 236 56 234 144 89 47 35 53 41 17 99 148 102 127 251 9 70 67 191 74 67 47 86 40 13 23 32 145 102 52 32 87 91 50 18 28 40 64 69 8 60 32 60 17 78 36 31 8 24 52 104 166 56 200 79 74 166 190 119 236 86 14 15 24 11 2 13 11 8 14 14 31 11 24 20 19 10 22 114 208 12 224 109 14 14 16 22 18 14 21 14 5 16 41 40 29 14 9 3 3 5 9 15 20 16 31 11 8 22 67 104 203 67 162 233 117 238 15 156 245 195 92 37 26 83 134 137 130 113 86 66 41 6 29 43 29 39 22 121 249 42 226 69 72 74 48 44 73 87 69 67 125 158 158 122 94 97 29 26 65 58 40 54 120 119 60 209 154 14 86 106 63 15 23 76 92 58 129 204 30 247 70 80 37 32 56 36 52 112 138 136 179 225 212 123 160 138 31 134 114 36 76 50 69 59 32 28 35 32 46 29 22 34 31 38 35 36 51 39 69 63 63 110 100 61 54 5 49 56 228 101 235 95 72 126 126 92 200 32 117 65 106 32 34 25 12 19 43 69 25 233 162 24 38 54 65 117 140 156 100 21 23 41 25 15 12 1 11 18 27 22 10 1 1 2 1 3 3 9 4 21 27 118 39 108 60 12 79 123 9 80 34 159 173 230 148 40 65 40 82 18 24 39 32 80 19 9 1 23 38 21 21 28 38 24 8 8 15 32 29 33 25 30 27 13 27 26 21 49 106 138 139 90 43 8 14 18 17 31 38 48 71 30 10 32 10 24 6 15 10 11 25 23 22 13 24 27 12 29 35 30 35 23 21 12 10 5 32 8 43 17 30 8 25 5 7 17 2 13 7 19 15 5 11 5 11 15 12 3 11 19 29 9 30 29 10 22 25 28 16 28 8 22 20 7 34 55 33 25 15 40 20 30 20 7 34 54 65 39 42 46 43 0 
0 28 31 18 11 12 1 21 28 27 19 10 4 8 10 26 25 8 53 49 48 14 29 67 65 35 45 48 53 108 71 22 67 47 32 13 22 18 27 17 8 37 62 22 20 11 12 1 12 20 11 15 23 43 31 11 20 29 22 10 16 21 9 21 18 17 20 25 33 44 46 14 11 43 57 106 102 33 18 12 18 72 245 65 96 20 191 40 220 164 155 245 24 15 188 110 88 50 128 201 185 176 206 44 56 40 202 79 17 90 16 77 21 2 22 99 168 53 68 102 97 44 38 17 50 51 25 25 40 53 18 61 62 80 88 8 30 11 40 151 172 80 189 112 81 225 176 169 21 86 10 22 21 4 8 14 9 7 12 8 22 9 30 8 9 2 23 67 187 113 160 155 23 25 20 8 9 18 18 19 26 22 49 23 25 19 14 3 4 3 7 20 17 27 3 18 1 33 38 7 14 125 176 51 216 109 206 74 95 34 131 157 184 210 187 134 117 110 75 41 7 34 25 26 10 46 97 20 43 222 74 60 54 34 53 67 66 104 132 140 131 113 118 103 125 148 95 27 42 93 79 55 65 62 64 73 198 149 41 48 81 74 91 70 32 186 184 44 40 15 43 19 30 12 45 20 34 124 127 122 102 120 208 164 59 134 32 70 100 56 65 70 2 23 39 51 14 31 60 34 31 46 13 20 29 36 63 52 54 67 100 127 101 57 38 21 50 80 7 114 209 26 49 60 65 90 74 253 7 103 68 99 45 32 29 42 18 54 240 156 70 74 52 37 70 118 148 154 101 33 35 36 18 13 8 13 21 15 22 31 19 3 3 3 3 1 6 13 15 29 32 138 32 119 52 16 58 97 25 104 44 166 177 223 172 43 93 27 64 30 25 16 35 47 22 4 4 8 9 18 13 14 18 14 7 15 7 41 22 15 5 18 29 11 8 8 26 60 116 157 132 80 22 20 28 34 29 12 15 33 52 44 30 18 15 28 24 17 9 8 19 21 17 28 9 4 11 18 10 9 18 7 20 11 16 17 19 9 41 12 30 14 19 22 25 29 26 13 29 38 30 16 15 8 8 16 18 12 3 7 16 15 1 14 25 14 24 16 15 23 28 30 13 17 34 36 31 19 16 28 22 30 20 32 30 22 19 20 11 15 10 0 
0 32 21 14 15 8 22 14 14 19 4 10 18 19 16 32 17 21 49 35 49 29 12 57 78 36 36 27 49 123 65 15 58 25 38 30 34 20 11 9 15 35 42 14 20 12 21 16 23 33 12 14 23 24 34 10 15 19 23 9 19 8 28 16 15 19 11 23 71 80 89 54 88 111 86 82 54 14 10 144 3 185 33 177 250 131 178 63 75 18 86 130 47 100 53 206 95 103 197 242 210 208 143 99 87 64 33 19 11 56 85 62 23 18 74 141 76 85 132 117 69 16 31 23 60 52 22 18 17 25 29 37 70 19 108 59 31 15 36 183 153 88 139 115 60 217 182 135 41 113 19 4 2 11 13 13 5 7 8 3 17 7 25 8 13 11 10 35 148 176 133 159 32 5 13 27 32 14 11 9 9 7 35 29 11 23 16 3 4 0 5 17 16 16 12 3 15 30 240 113 123 172 187 82 142 97 136 144 108 171 182 107 50 68 44 10 51 68 6 12 21 38 7 19 33 88 243 70 223 56 71 61 10 8 38 46 28 13 56 76 75 89 111 88 99 129 105 76 15 61 116 112 73 70 29 36 127 245 227 141 45 13 30 131 36 201 3 56 47 17 36 54 80 76 83 41 67 181 147 99 40 51 133 203 98 108 80 28 77 96 74 47 20 26 36 10 42 31 53 20 29 59 53 52 44 34 73 67 48 77 129 126 87 46 30 42 59 118 39 76 157 38 26 61 88 132 79 101 4 4 123 26 49 32 18 21 114 21 151 72 108 47 39 27 91 152 156 120 90 57 32 28 17 7 8 11 22 17 8 11 27 28 18 7 9 16 19 12 6 39 41 149 14 126 42 18 46 58 26 122 69 154 175 211 211 21 97 25 40 6 24 31 26 24 38 10 4 10 21 29 20 15 15 14 14 15 18 27 14 8 7 20 11 23 30 18 28 66 141 181 104 49 21 4 12 24 13 29 29 35 50 45 20 24 22 12 24 9 18 5 28 15 30 24 40 30 2 14 7 3 11 8 23 17 25 21 25 18 23 23 21 17 8 7 3 12 20 9 38 11 33 7 10 7 10 17 17 10 6 7 24 17 15 2 31 17 21 22 7 6 11 1 13 12 20 44 43 21 21 20 28 25 14 28 25 23 17 10 17 28 21 0 
0 29 10 5 19 18 33 16 26 22 16 15 17 18 15 33 14 6 49 11 33 44 33 48 49 44 39 36 52 107 63 31 59 7 22 21 26 2 14 22 31 17 25 25 7 19 21 11 20 39 33 27 35 29 43 30 35 10 21 10 17 4 30 21 30 10 41 69 49 48 172 172 129 80 38 40 32 14 31 52 10 30 91 91 196 138 205 168 219 157 203 31 218 10 54 255 206 199 8 9 115 37 14 26 16 20 16 25 7 14 19 10 44 92 110 51 78 112 53 28 31 41 31 24 52 45 32 25 16 7 26 14 66 63 51 66 70 66 72 184 98 102 97 76 7 154 215 68 32 141 29 2 7 17 14 8 1 7 4 7 15 9 27 14 14 10 5 12 69 142 129 111 14 6 26 48 43 45 13 10 18 22 15 21 11 24 15 4 5 2 4 6 8 4 12 22 9 146 111 210 152 213 57 62 234 147 164 95 18 108 86 25 24 71 75 63 42 62 20 33 35 27 8 24 137 10 43 236 51 94 90 38 34 46 30 18 35 40 45 44 45 55 84 74 100 119 114 120 83 77 118 141 82 63 92 109 114 177 242 8 32 59 81 123 167 117 204 48 15 17 34 36 49 9 84 84 137 207 152 75 34 43 45 170 186 32 104 27 48 86 65 20 17 8 32 23 15 31 34 10 7 25 15 36 45 25 71 79 53 91 137 116 82 49 20 50 76 155 46 21 120 54 56 85 104 144 171 110 72 211 14 204 116 127 181 4 83 112 11 60 62 60 65 106 146 170 144 76 53 73 54 29 23 50 54 34 21 27 5 10 3 15 18 15 7 2 5 7 13 33 34 143 22 125 31 15 36 32 27 131 98 145 191 189 214 54 81 29 27 16 36 6 13 27 56 21 8 4 25 6 27 10 23 11 26 4 42 21 10 10 12 9 10 8 14 20 36 90 165 174 67 24 23 24 21 41 12 35 39 29 40 30 16 32 17 22 14 21 16 37 35 23 22 44 20 29 8 21 26 24 17 2 24 18 23 25 17 25 20 3 24 21 10 15 17 20 26 11 31 26 34 16 24 13 6 9 10 5 8 22 22 12 7 15 31 37 21 28 24 27 24 12 4 4 12 28 46 39 34 43 38 17 10 28 37 23 23 25 22 17 31 0 
0 17 9 14 8 13 29 24 36 30 24 12 8 19 27 32 17 8 33 16 29 36 53 47 44 41 33 55 50 78 69 49 56 12 21 20 23 13 12 41 43 17 15 31 14 16 12 15 19 33 15 36 26 37 48 20 31 6 8 17 12 2 15 17 7 50 135 74 116 219 194 93 27 26 56 72 40 11 12 82 216 192 157 35 67 9 212 88 38 21 141 237 61 131 197 48 101 80 14 145 35 35 20 5 16 18 23 25 4 12 12 21 102 155 71 57 73 15 42 68 90 66 45 16 25 46 15 43 43 18 25 31 19 78 66 102 53 9 54 155 38 120 109 82 34 97 201 29 3 142 59 26 18 19 13 3 10 10 5 11 11 21 33 12 17 3 11 24 12 39 46 46 13 15 34 47 29 54 8 7 5 9 10 20 20 23 13 1 6 0 5 9 14 21 19 21 85 68 77 48 232 107 155 215 110 157 217 33 46 77 81 28 10 80 69 10 36 17 27 29 14 10 33 141 51 74 206 51 96 110 49 41 44 39 18 16 52 63 46 40 26 17 38 47 103 144 160 163 141 131 104 59 120 119 51 62 57 33 101 176 248 33 28 3 206 97 114 120 77 62 77 89 120 151 152 141 124 119 135 50 37 42 37 128 163 31 87 58 24 32 54 27 2 21 23 28 31 33 18 13 14 3 13 46 51 23 57 80 62 102 124 117 97 50 17 50 94 178 24 247 125 85 82 35 59 72 97 111 68 74 187 1 11 19 19 25 239 140 54 89 96 113 129 154 150 121 105 42 24 72 85 24 36 22 31 41 9 23 34 28 28 31 27 14 4 21 32 25 13 21 21 122 36 111 18 11 33 26 31 144 137 138 222 191 211 82 40 24 14 50 53 45 36 15 61 32 4 5 23 19 17 13 6 16 22 14 41 7 12 5 14 8 5 25 9 26 61 112 159 145 69 41 13 34 50 59 27 43 47 42 47 32 10 26 14 21 11 32 21 43 5 34 17 5 31 26 7 26 13 12 21 5 30 34 23 34 5 13 21 22 21 5 26 16 15 15 15 13 16 11 18 10 10 13 6 9 10 5 5 9 23 30 23 16 21 43 27 22 1 12 28 35 26 17 18 13 13 27 15 15 21 23 34 34 15 15 45 21 12 34 54 0 
0 4 21 31 7 5 24 10 22 18 5 9 15 16 10 10 17 10 19 23 45 19 35 50 55 35 20 77 51 47 87 58 47 33 15 16 18 4 14 43 31 12 17 36 17 27 10 24 9 37 27 27 6 37 19 45 36 20 22 24 18 15 8 17 15 74 161 193 239 148 47 15 67 65 67 25 41 100 208 75 133 144 233 19 215 108 234 132 14 146 192 103 2 71 171 240 224 70 92 50 73 27 15 4 25 14 10 10 17 12 17 47 148 122 61 88 67 46 24 15 31 42 58 26 26 60 47 39 61 87 84 83 73 74 60 56 70 57 99 156 21 102 101 67 84 120 197 47 238 127 78 36 17 15 7 10 16 10 9 12 18 24 26 18 28 14 4 29 5 0 11 29 22 14 51 31 44 46 5 5 19 22 2 4 9 16 5 6 5 3 8 4 12 0 18 20 225 145 124 242 170 57 30 204 146 245 166 71 58 52 79 36 41 68 51 46 13 36 17 13 22 46 172 49 82 204 33 100 89 29 19 17 43 37 24 22 39 56 43 13 18 25 40 50 71 102 142 164 159 123 63 39 96 190 221 129 83 64 31 52 66 65 31 43 123 144 100 98 132 120 102 117 134 117 81 54 47 117 188 154 74 2 48 119 93 54 97 43 17 21 60 29 11 14 33 46 47 8 21 24 19 19 12 64 63 27 38 73 68 106 100 135 127 42 16 48 106 183 241 207 199 220 216 181 140 108 55 57 109 116 70 141 160 117 87 64 37 75 94 119 143 160 140 120 77 56 89 55 66 104 81 12 44 25 18 33 10 14 20 14 15 19 16 5 8 17 18 22 21 29 29 95 29 90 8 7 26 21 25 157 184 98 233 191 215 100 23 22 1 69 44 89 53 28 51 33 4 7 5 13 9 13 16 24 1 25 15 18 11 9 16 13 4 31 29 44 69 131 138 105 92 35 49 14 16 23 28 61 58 49 39 17 21 21 5 12 10 11 8 21 24 29 11 15 10 4 21 26 18 2 22 35 38 20 23 58 27 30 14 17 29 30 23 14 12 18 9 3 14 30 23 4 5 7 11 15 13 4 7 17 17 9 5 4 16 34 43 35 21 27 23 1 20 22 4 12 8 13 47 21 27 27 7 29 34 21 51 14 34 17 43 0 
0 9 31 37 7 18 24 2 11 4 3 3 5 9 14 13 14 15 30 38 46 15 26 46 58 45 36 81 50 32 67 60 56 53 20 9 12 12 31 35 17 23 15 27 10 21 31 35 29 16 28 37 45 14 20 6 11 10 18 8 32 28 21 65 123 183 241 227 128 23 4 46 160 209 6 246 36 90 87 31 200 163 136 110 60 138 201 46 61 125 27 133 170 227 18 219 56 111 86 92 118 107 15 17 2 22 13 12 12 47 77 162 204 101 77 107 97 39 39 66 104 102 65 38 39 92 27 38 26 34 38 53 54 6 84 60 81 40 136 191 95 154 158 98 103 186 197 50 210 111 114 57 36 22 5 17 22 7 10 10 24 24 7 10 24 14 13 29 14 15 22 17 25 35 47 10 55 26 20 24 34 24 8 4 8 8 5 4 6 7 8 6 13 25 22 109 108 31 176 51 61 248 157 76 55 217 78 41 31 64 89 45 50 72 72 53 22 53 36 30 60 175 45 48 179 4 118 75 26 17 12 31 38 48 37 33 15 48 69 18 17 2 21 30 28 29 69 98 88 70 41 90 147 112 166 76 71 127 143 112 116 146 109 75 96 116 99 66 87 106 79 84 109 97 50 17 39 59 131 134 119 112 134 188 173 126 76 30 4 2 46 32 35 40 14 36 51 39 18 25 30 25 35 73 63 22 12 72 78 87 91 152 135 44 29 55 111 185 216 117 154 234 19 26 242 189 144 86 107 115 29 66 97 88 82 47 64 63 18 67 95 80 43 54 56 67 103 89 91 91 29 45 64 50 39 47 10 27 34 24 18 25 26 12 5 20 25 19 32 15 5 73 29 81 9 21 21 12 3 144 219 72 231 159 216 108 15 13 26 73 47 117 34 30 29 39 12 17 5 17 17 11 19 16 22 37 21 14 17 4 26 12 18 9 11 49 95 140 109 70 86 34 67 23 6 15 45 54 40 45 27 11 30 24 11 1 7 3 10 4 5 17 2 8 11 18 4 20 35 34 16 7 15 19 15 36 15 23 3 12 17 22 8 13 3 10 7 5 13 5 12 8 17 21 11 3 2 3 3 19 17 17 14 16 22 12 15 6 15 15 9 17 16 16 5 25 17 21 53 30 41 20 21 4 19 17 35 19 31 38 73 0 
0 24 40 24 34 29 26 7 17 5 8 10 8 4 3 15 19 12 50 34 38 17 11 40 60 53 38 58 59 47 43 38 64 49 22 29 31 14 39 19 7 15 18 25 22 8 21 12 8 22 41 39 49 20 24 12 17 31 36 89 146 156 107 147 160 101 29 28 26 15 22 56 204 135 185 16 60 30 184 66 42 122 177 93 239 192 3 3 161 136 3 35 56 21 151 212 53 14 91 141 64 158 54 31 34 20 5 58 143 193 232 248 151 70 27 53 103 84 75 72 58 44 14 31 58 124 38 69 82 60 37 35 32 37 23 56 48 84 102 206 90 158 218 140 87 250 208 104 178 50 142 99 48 44 7 20 43 18 4 6 21 1 9 1 40 25 30 27 8 8 14 15 3 12 27 35 27 23 18 6 9 12 5 9 12 19 13 5 4 6 4 5 14 13 47 255 126 38 60 160 174 133 103 57 206 154 13 25 33 75 59 19 25 56 44 7 31 41 38 36 197 36 37 181 19 87 96 34 30 40 34 32 42 32 17 20 24 52 78 8 31 12 18 5 17 7 28 59 72 69 52 89 155 200 162 34 76 84 137 140 173 240 7 179 113 127 152 150 173 205 185 179 204 208 170 115 142 156 107 43 65 99 118 154 164 103 55 52 8 22 35 11 19 61 56 64 39 31 36 34 31 16 27 39 57 42 1 74 81 57 111 165 115 71 47 54 104 185 220 66 19 41 92 120 119 116 132 140 109 55 58 124 150 144 173 166 143 155 161 152 177 161 148 146 155 138 112 83 60 32 19 83 70 53 44 71 11 20 12 11 4 20 27 8 16 12 18 12 18 28 30 58 23 81 27 10 22 5 248 124 220 43 225 125 227 166 15 24 59 68 46 116 14 48 15 52 31 34 8 28 29 21 28 13 23 47 11 20 15 13 26 13 19 5 26 80 113 120 98 69 60 5 51 5 18 32 66 48 31 57 24 12 19 37 24 11 5 4 17 11 10 25 13 4 6 10 22 25 20 56 21 30 28 24 22 42 38 15 0 10 17 10 11 7 12 19 7 11 5 30 22 13 26 17 10 3 10 9 6 25 19 40 31 26 27 22 22 20 25 25 29 16 18 15 11 26 7 15 53 22 28 31 15 7 7 10 11 36 17 17 57 0 
0 6 49 40 22 45 16 8 17 8 10 8 4 4 8 18 31 24 60 35 45 37 18 45 56 43 49 53 67 71 45 44 70 41 14 18 6 12 35 28 25 24 25 24 19 13 19 19 28 29 23 24 42 17 32 12 20 44 29 233 185 2 237 128 38 3 25 30 9 17 36 84 187 221 114 97 62 94 30 50 41 58 159 177 181 122 214 162 27 125 166 163 99 239 85 25 23 9 57 151 56 141 119 35 48 75 124 225 0 197 99 65 160 185 143 114 113 79 62 7 24 14 26 16 90 135 103 95 88 66 16 45 37 13 37 62 22 48 37 178 191 101 21 144 113 20 203 176 183 45 98 106 50 55 36 52 66 50 11 28 27 14 11 10 58 24 37 14 15 12 2 7 14 17 9 7 14 28 17 14 27 15 7 7 14 11 7 5 11 16 19 22 13 5 186 120 199 205 248 39 40 145 168 158 198 60 46 38 46 62 39 17 46 62 17 29 17 21 41 191 79 63 200 59 59 94 67 44 52 41 41 39 43 31 14 24 31 44 52 20 15 30 18 18 6 21 32 57 73 101 111 117 104 70 39 105 65 17 74 13 110 125 188 180 88 81 107 180 20 57 33 0 44 56 35 132 130 183 147 63 23 42 62 80 89 50 73 59 29 37 19 18 20 18 29 37 26 29 20 7 22 24 31 38 58 70 23 65 63 43 117 167 111 89 55 51 87 167 225 101 31 55 58 57 53 55 41 21 13 44 87 104 100 94 167 203 175 191 236 231 235 218 219 199 154 113 62 26 58 76 88 82 57 32 44 84 32 8 20 7 14 32 32 8 11 19 17 15 5 30 53 52 27 81 33 20 15 255 3 124 225 49 234 115 198 230 76 16 78 56 46 94 34 40 18 45 42 31 14 25 30 7 32 7 25 30 6 17 16 26 23 19 21 12 46 94 107 105 94 61 33 4 37 25 25 18 82 50 35 57 12 29 32 21 15 13 14 12 16 16 11 34 5 23 15 22 17 36 32 30 16 20 11 20 38 32 38 20 16 13 4 7 14 18 13 10 7 19 17 31 17 4 24 24 19 17 18 7 14 7 22 25 12 12 24 22 24 6 14 19 1 10 27 12 20 21 8 15 21 17 13 11 7 26 23 13 11 22 11 17 43 0 
0 16 24 2 18 35 15 24 16 9 11 10 5 5 11 13 17 14 51 20 40 48 35 60 51 29 48 53 56 71 71 49 56 36 7 25 12 20 25 34 43 39 41 37 8 14 31 7 29 35 10 12 11 25 18 19 24 25 48 51 45 147 12 50 15 7 24 10 20 38 99 233 115 35 96 45 41 117 172 102 43 36 164 58 42 104 154 105 244 43 50 182 54 47 57 33 30 8 19 106 150 110 230 146 137 146 160 153 34 114 187 10 251 143 75 66 86 72 39 20 18 13 18 14 119 137 142 137 89 108 46 78 24 18 14 35 31 39 18 108 204 72 237 141 127 221 162 212 198 89 54 142 51 41 82 30 70 75 17 37 27 7 13 5 48 35 41 15 12 5 4 2 6 12 11 6 25 16 26 13 5 22 19 23 17 14 12 8 4 0 3 6 26 74 101 59 75 11 104 150 97 58 33 190 90 10 45 47 21 36 48 41 67 72 35 48 23 32 192 62 67 182 25 62 101 93 50 27 39 28 30 45 36 36 27 28 22 24 22 7 8 17 9 29 14 36 33 52 36 56 66 63 53 58 92 113 32 77 106 72 127 60 98 150 62 31 25 118 155 84 153 57 170 104 25 98 80 51 122 85 64 67 67 87 89 63 74 73 45 20 11 7 7 6 39 29 20 18 11 18 17 14 11 18 45 58 50 56 51 63 108 147 116 99 49 48 71 140 214 144 47 27 42 50 66 79 87 90 84 104 89 84 71 48 27 45 25 54 28 24 124 116 30 24 12 19 32 28 66 100 82 38 38 14 22 80 47 10 12 23 16 47 36 4 14 21 2 19 13 40 55 41 34 79 21 12 11 0 27 118 210 31 227 123 124 217 127 39 71 60 43 65 33 2 20 18 41 17 15 24 22 35 31 29 12 12 26 10 16 34 26 24 24 18 57 118 133 114 85 38 20 40 43 34 16 41 79 40 36 47 15 13 33 24 16 11 12 15 16 11 14 18 18 13 20 19 6 15 4 12 7 22 12 31 12 28 25 16 10 7 5 11 15 8 14 3 7 14 13 18 18 2 14 26 19 12 16 15 6 19 14 15 20 4 24 7 39 20 13 12 5 10 32 13 26 10 13 16 14 3 17 21 40 34 36 20 41 31 19 17 13 0 
0 4 21 12 16 14 32 8 18 20 14 4 7 13 15 17 18 14 43 5 18 36 34 67 49 25 57 60 49 65 83 46 45 40 7 29 12 23 21 47 33 21 22 24 9 11 27 43 48 22 3 7 16 15 14 13 40 48 35 60 26 198 182 8 4 5 22 57 132 230 8 72 70 167 108 31 77 73 113 186 198 211 168 80 115 181 34 249 107 84 229 56 36 55 40 12 19 15 20 41 201 155 181 201 77 28 114 191 243 234 173 103 41 91 44 61 79 39 6 19 3 10 20 29 124 134 138 165 53 136 53 50 68 63 58 62 13 18 44 71 139 108 125 68 59 147 119 175 194 70 72 78 166 178 85 67 85 46 18 27 16 21 26 17 20 27 22 12 14 23 21 18 12 7 17 18 31 41 13 14 19 25 17 24 31 27 21 12 10 16 22 28 11 206 134 92 223 158 47 241 109 161 157 148 25 54 38 56 21 21 67 38 40 54 26 44 9 157 78 97 209 29 72 70 77 70 40 34 37 18 11 20 22 36 42 20 11 7 21 25 17 8 8 24 15 37 12 43 31 55 58 37 25 39 89 126 84 132 90 91 141 78 140 125 28 13 51 121 223 114 188 113 251 159 7 104 95 9 94 94 91 70 60 70 56 31 49 85 41 28 17 31 31 34 59 24 39 23 15 20 15 18 8 21 45 46 64 44 51 93 107 125 113 105 47 42 64 118 197 152 87 43 42 41 48 60 38 10 36 39 31 59 50 78 104 104 94 99 109 108 140 195 145 96 135 127 45 30 68 38 40 24 19 34 17 68 55 21 10 29 7 50 30 15 25 16 19 21 21 47 55 34 40 76 13 7 27 255 42 98 191 92 202 167 95 179 142 74 43 69 25 47 25 30 15 5 39 7 15 19 9 17 19 43 10 17 27 14 22 29 13 29 20 19 67 146 133 70 47 8 27 36 29 15 8 58 66 27 36 42 27 22 31 20 10 12 24 26 20 13 5 11 8 31 38 19 19 13 28 24 15 31 14 36 14 21 15 9 7 18 21 22 21 3 18 10 9 27 33 40 43 31 21 18 8 9 16 12 21 31 20 18 29 33 42 24 40 11 3 4 8 20 31 12 25 17 24 4 28 18 11 22 50 22 43 16 35 33 21 4 20 0 
0 22 7 16 27 20 19 20 17 4 8 10 8 8 7 10 19 14 43 4 14 35 38 60 42 37 69 62 42 56 80 38 50 58 18 36 21 9 31 37 24 26 24 32 13 17 41 45 12 30 16 24 32 28 2 20 15 49 25 61 11 181 221 10 7 3 74 219 42 22 228 197 201 51 179 77 127 130 64 71 96 72 106 233 197 37 86 214 101 179 24 69 50 12 24 38 10 10 33 26 130 3 95 144 177 113 78 121 130 98 34 95 198 139 69 124 52 26 28 6 12 19 26 20 101 144 99 165 20 112 90 24 79 125 39 89 66 21 55 72 74 55 67 34 10 100 95 141 182 22 60 98 150 119 144 118 41 6 11 19 10 11 5 15 4 13 13 16 18 17 7 12 18 21 23 24 26 23 26 14 16 1 25 24 28 32 25 15 9 15 23 18 138 108 252 107 188 63 74 40 7 84 176 52 76 40 12 54 28 20 72 38 27 46 13 42 140 60 118 4 63 87 77 44 59 63 26 27 24 3 18 32 31 32 49 28 16 13 39 44 40 21 16 27 13 23 23 35 24 41 28 26 36 32 53 101 109 117 50 76 148 149 139 69 15 10 70 6 160 67 147 60 139 142 187 68 76 50 38 24 39 35 32 18 37 62 73 100 59 17 33 52 36 37 21 36 22 38 26 18 12 25 9 7 43 58 79 40 39 99 109 116 112 104 55 29 69 108 176 134 87 82 68 24 36 78 91 86 43 37 48 70 64 89 95 82 82 76 70 44 46 142 173 93 117 116 103 38 106 32 56 57 36 44 27 56 57 32 15 20 9 43 18 16 26 14 35 12 22 42 51 36 41 72 14 13 25 244 37 67 166 155 161 207 98 165 152 99 23 93 26 57 23 43 12 17 35 5 11 7 13 31 66 49 44 40 23 12 21 38 28 41 27 24 79 166 131 48 35 4 24 16 13 17 26 61 55 27 37 36 16 17 17 13 20 22 18 7 7 9 10 11 19 18 20 13 24 13 22 22 42 30 39 20 32 7 5 4 14 18 11 14 25 15 15 14 15 21 16 7 17 20 21 7 7 11 7 11 25 18 12 14 31 20 31 28 29 32 9 4 16 23 21 8 22 21 13 33 28 30 32 26 26 18 36 39 31 49 27 19 15 0 
0 29 15 22 28 19 3 7 18 23 11 4 18 27 32 32 27 20 49 11 26 37 32 43 41 55 67 52 42 57 72 25 45 72 28 26 17 3 32 15 19 8 8 17 26 27 19 30 47 31 1 7 12 12 17 11 26 36 12 255 139 80 53 31 20 19 145 16 175 19 119 179 255 224 230 157 128 41 67 101 80 56 94 249 104 184 147 233 60 45 73 36 29 52 63 48 21 27 11 18 52 208 44 110 193 26 201 99 44 20 91 212 197 122 168 105 39 51 36 6 29 11 10 5 64 146 56 156 8 80 108 48 34 130 108 40 70 86 80 20 72 34 52 50 72 39 59 113 99 140 191 137 34 183 183 80 8 15 12 15 10 21 31 25 14 8 15 10 16 11 12 6 2 4 5 12 32 20 30 8 7 19 18 29 28 20 16 12 7 3 4 58 64 137 77 198 103 34 163 72 103 108 61 71 97 42 36 47 50 37 69 51 56 45 41 167 74 127 5 77 83 118 66 36 58 58 7 18 12 12 31 44 36 31 43 33 37 37 43 37 30 25 29 31 31 15 5 40 38 63 29 7 40 36 27 65 85 60 35 47 87 113 81 25 25 42 66 68 133 139 127 86 67 104 107 39 51 74 80 65 38 31 31 50 79 79 97 85 72 24 59 43 26 21 23 20 42 54 49 36 21 29 11 11 29 59 88 65 69 89 83 106 118 103 76 8 81 108 151 127 73 75 103 68 50 49 53 76 68 65 45 52 42 46 36 30 50 15 10 5 12 71 149 22 81 82 110 56 95 16 44 63 45 45 43 45 53 36 12 8 16 36 13 12 30 13 33 18 26 27 40 35 32 68 12 21 14 228 37 63 149 183 159 201 67 185 194 113 17 109 27 79 27 36 12 18 30 2 5 1 12 32 83 26 53 42 15 17 21 41 31 42 28 25 95 185 135 51 38 23 34 24 8 12 32 59 55 38 30 19 12 15 30 35 27 19 7 14 27 18 15 21 25 39 39 37 17 38 20 33 27 20 39 14 27 4 6 4 4 11 6 6 11 28 12 29 8 13 28 41 50 45 16 7 9 11 3 16 21 12 27 5 32 21 21 36 22 24 14 10 19 34 24 8 22 19 17 32 26 39 23 11 15 14 17 49 13 43 32 16 51 0 
0 32 27 7 36 18 7 12 5 17 18 16 11 5 10 18 17 4 49 22 34 30 23 39 52 68 52 43 55 72 66 30 62 74 28 32 18 13 33 32 28 34 25 24 43 39 13 18 20 22 14 16 43 42 14 15 2 29 17 152 205 181 128 157 178 226 207 202 102 105 118 183 7 246 68 115 178 129 12 120 196 226 237 17 50 250 109 38 46 18 38 70 73 63 44 18 23 25 33 48 30 49 248 59 85 188 45 22 138 128 216 203 59 123 178 120 139 95 87 41 24 21 25 19 35 137 11 138 24 39 108 89 30 115 147 43 17 120 85 72 92 101 5 67 100 88 64 90 125 174 137 74 176 200 116 19 19 21 23 14 3 12 11 8 8 7 29 36 12 9 17 14 7 2 12 11 11 20 7 24 18 6 11 4 4 4 4 5 11 16 20 180 167 198 193 194 22 73 17 38 42 97 18 93 48 17 35 31 63 65 60 51 53 34 188 84 155 29 62 67 82 90 53 8 48 57 4 26 24 21 46 38 21 32 35 21 55 48 20 24 24 8 21 25 29 46 49 58 45 38 12 27 33 41 20 38 45 43 37 19 19 35 52 34 38 45 60 62 59 111 119 77 58 60 42 32 40 49 39 52 50 69 74 65 50 48 112 69 47 47 68 25 9 30 6 26 35 13 35 25 8 26 5 8 27 47 80 98 74 58 65 90 109 99 100 22 91 112 127 137 67 56 108 83 39 39 66 71 44 51 53 67 54 14 7 30 56 24 22 18 11 38 114 47 42 30 118 118 43 35 18 51 17 5 58 36 45 36 14 5 17 36 20 20 41 13 16 29 29 14 29 37 23 65 18 17 11 211 42 86 157 185 198 224 63 147 216 115 31 99 26 91 17 18 11 12 26 8 3 24 41 27 75 23 41 31 28 9 5 44 18 35 25 39 122 202 120 8 20 7 28 28 15 27 44 53 60 46 22 13 24 13 12 16 24 28 19 5 17 20 7 29 9 9 34 22 30 14 18 7 34 26 12 27 37 26 19 5 3 10 7 8 14 33 7 35 13 14 20 24 24 19 14 10 9 17 17 15 14 15 21 28 24 12 11 17 13 19 22 19 20 45 32 11 24 10 13 9 25 22 3 14 24 15 14 28 24 31 41 62 107 0 
0 38 19 11 32 5 8 17 14 12 7 4 8 10 16 7 21 0 44 24 36 36 20 19 57 78 40 27 60 87 65 41 67 53 29 26 8 13 30 25 13 46 29 6 31 34 8 22 25 49 22 10 29 15 26 14 6 44 7 87 225 97 134 82 88 116 93 218 97 97 148 175 201 209 157 86 101 197 4 13 228 171 147 104 82 40 52 66 56 38 47 56 49 27 5 26 39 10 41 9 9 24 92 1 46 123 141 67 36 30 240 113 43 90 140 161 181 160 143 46 13 34 16 18 14 125 34 112 53 21 63 123 87 96 157 103 15 130 82 70 46 104 97 65 67 48 10 76 106 35 47 146 214 114 46 31 21 7 6 13 3 10 23 26 20 17 17 11 19 5 7 16 16 17 25 15 12 5 20 6 15 21 24 17 4 7 1 9 12 13 88 108 110 43 234 117 43 195 63 162 80 71 44 64 36 9 32 44 86 94 53 55 4 181 92 144 34 55 98 85 69 69 57 22 26 53 34 52 42 41 46 34 5 29 22 25 50 35 13 8 12 29 8 18 15 34 52 79 84 59 29 16 38 51 44 55 22 6 25 32 27 22 50 62 56 38 35 48 23 54 67 52 55 66 79 50 22 10 29 25 30 31 32 31 8 93 121 58 6 34 29 2 15 16 32 23 3 25 32 26 10 27 17 21 39 47 65 93 67 77 100 90 97 89 95 57 70 120 120 145 60 32 76 98 43 8 42 73 41 46 43 47 63 46 27 26 51 51 38 28 33 25 76 71 84 82 80 93 65 40 31 42 34 17 62 23 40 29 27 12 17 32 27 15 34 5 3 21 8 8 17 42 25 52 20 4 9 189 53 112 134 197 165 35 55 81 213 103 16 75 6 98 32 14 12 11 21 9 13 30 12 21 60 36 24 19 25 11 10 35 34 31 24 73 146 180 102 18 20 9 18 24 27 22 60 51 64 46 20 34 11 17 17 8 18 28 15 5 4 12 0 23 10 36 18 23 21 29 7 18 8 19 7 21 36 17 38 19 10 16 14 5 23 25 8 22 27 14 13 17 22 31 22 12 7 11 4 25 19 17 27 15 12 6 5 10 19 27 21 21 25 41 23 25 23 15 18 20 30 10 9 30 26 18 28 11 41 42 66 94 109 0 
0 24 20 30 25 20 36 34 12 13 4 2 17 18 17 20 12 7 38 14 29 57 34 13 47 88 37 15 61 91 64 50 70 39 4 0 8 13 43 32 22 23 49 9 8 35 42 4 28 21 31 17 21 39 17 17 9 33 34 24 186 23 120 9 83 87 56 147 176 176 212 237 177 46 132 22 67 6 172 121 67 11 32 17 12 54 98 27 81 66 46 18 13 24 20 19 38 15 33 29 31 22 24 92 4 98 190 114 170 150 55 44 44 37 79 47 33 94 153 75 41 24 24 24 8 104 78 74 53 22 14 136 145 44 141 156 101 109 74 90 96 77 135 91 76 98 111 112 20 97 104 101 164 141 104 81 54 27 10 15 7 10 8 4 8 0 18 24 12 10 17 17 11 3 7 23 7 13 22 14 22 27 17 15 28 33 15 12 34 8 16 148 127 197 178 39 102 38 222 24 62 47 57 36 30 49 41 56 96 73 52 42 138 96 141 41 86 81 87 61 41 49 48 29 28 31 13 67 48 39 40 29 7 29 12 24 29 30 20 7 3 38 7 15 25 34 37 58 53 47 48 35 23 45 27 59 34 3 18 45 30 45 42 60 62 61 65 74 50 45 37 39 34 41 27 36 8 15 38 24 27 17 7 4 57 109 80 28 24 11 1 11 32 40 30 11 34 37 31 26 11 30 12 8 44 53 71 85 18 52 127 106 113 91 55 68 28 123 128 141 58 31 38 99 100 20 15 32 41 54 41 24 36 46 39 21 30 7 12 33 35 50 72 83 58 21 11 43 29 30 45 58 32 29 62 41 53 13 15 33 27 18 24 20 35 12 3 22 12 4 14 38 19 41 21 19 18 161 75 135 58 197 55 63 104 33 224 117 23 67 38 82 42 14 23 19 9 35 8 30 38 26 38 23 15 24 29 29 31 12 15 12 24 104 148 139 85 32 24 34 16 3 29 16 68 50 66 44 10 31 14 4 16 12 27 14 16 24 22 23 0 17 10 20 30 25 11 26 12 12 24 20 9 10 31 14 33 33 8 7 23 10 46 3 18 17 14 15 4 9 31 16 18 17 10 21 17 34 24 12 11 24 25 15 10 13 29 32 1 13 22 31 18 14 15 10 4 20 26 24 33 42 23 19 15 15 57 76 105 111 90 0 
0 20 12 12 16 17 12 15 15 15 22 20 13 3 11 5 5 11 35 11 23 65 42 8 46 88 37 12 51 81 64 66 88 49 11 14 4 8 33 44 11 41 49 10 11 14 32 36 27 19 34 35 28 17 25 12 29 25 12 20 50 52 221 177 119 129 133 61 65 81 26 76 168 228 248 204 126 79 63 50 9 35 9 6 62 90 33 88 91 30 18 10 16 16 20 25 37 25 35 34 20 19 18 27 75 253 54 125 66 47 71 94 102 109 88 80 115 157 140 37 59 34 40 19 14 87 94 38 53 26 31 94 204 81 100 179 151 61 52 108 34 17 95 156 80 77 108 186 77 175 183 166 35 104 125 95 76 80 79 58 17 5 9 11 11 10 5 5 7 13 17 17 18 19 20 21 3 16 12 12 16 21 17 5 24 22 24 15 33 126 161 22 110 223 102 32 167 18 102 71 7 41 48 36 52 65 42 79 76 48 44 83 68 182 12 89 60 100 58 64 33 23 36 13 17 51 50 35 46 16 32 14 24 37 14 12 27 14 26 19 14 45 26 38 47 44 32 22 28 39 58 85 102 122 133 113 63 48 62 86 64 66 55 66 73 86 99 75 43 36 51 62 41 21 32 19 50 48 53 25 34 23 8 34 84 75 47 42 36 25 27 43 41 27 18 29 40 23 27 21 26 43 36 39 18 55 82 84 15 40 101 109 149 108 48 62 19 128 134 118 57 18 7 46 123 77 18 9 3 25 34 35 34 40 42 42 34 10 9 28 40 55 57 45 50 1 11 34 15 15 30 58 34 28 49 53 69 21 30 37 48 11 17 2 29 16 12 24 13 11 32 52 39 58 27 2 18 119 76 185 37 160 14 13 131 52 234 151 27 61 54 71 60 12 23 16 18 27 13 7 18 7 27 18 12 20 4 11 4 21 18 24 45 122 144 122 60 24 43 16 17 15 14 55 78 52 62 29 7 17 20 39 29 12 24 41 21 16 30 12 10 2 11 9 10 13 1 17 9 7 12 12 4 16 18 13 29 29 8 4 21 17 52 21 21 40 16 10 17 27 10 27 28 24 8 28 9 37 14 4 29 17 23 26 27 21 2 9 9 8 11 17 10 8 12 6 12 27 24 27 41 19 12 11 37 65 104 133 124 109 89 0 
0 20 5 17 33 29 26 28 11 3 23 17 12 19 20 16 16 17 30 15 24 57 42 7 45 78 37 16 46 72 54 59 85 49 26 17 8 14 56 46 14 34 11 30 30 15 20 36 47 35 7 54 21 16 22 23 21 10 33 37 38 132 75 102 162 160 147 55 83 176 219 243 216 109 67 77 48 65 65 29 24 18 21 70 100 40 54 66 29 22 22 20 25 25 15 52 83 83 65 45 43 42 40 28 34 107 196 203 178 132 127 108 90 79 85 80 102 119 62 14 38 39 50 25 5 69 93 39 29 31 51 40 177 223 94 88 148 117 106 34 72 98 100 81 62 89 49 185 93 217 191 111 134 73 89 72 60 26 22 43 29 0 4 8 10 7 2 7 6 6 8 9 10 12 15 8 2 4 4 7 4 12 13 10 32 41 26 15 37 39 142 56 228 158 24 94 227 194 20 15 39 38 51 65 83 68 55 99 64 46 53 38 190 122 111 36 53 74 58 58 20 12 40 8 31 65 11 19 15 14 39 11 32 32 9 9 25 3 14 32 48 56 43 48 48 32 12 2 6 10 31 54 76 91 100 85 64 56 71 94 93 66 52 45 52 65 77 62 59 32 50 26 46 34 34 34 51 31 59 21 23 22 11 65 84 38 13 30 11 7 22 36 18 34 40 7 26 24 57 33 33 35 5 24 3 47 83 72 29 62 72 80 153 128 64 54 21 123 132 106 58 31 48 38 74 101 46 19 13 14 10 15 25 38 48 60 56 36 26 20 2 23 28 26 50 20 14 36 14 30 15 40 25 29 38 63 82 31 43 28 54 9 17 2 33 11 5 26 8 10 37 47 22 77 17 31 15 85 40 234 81 133 7 200 132 105 233 173 17 64 56 63 66 6 19 32 12 13 23 32 13 8 26 19 13 23 5 3 11 8 12 8 73 133 146 114 41 16 31 22 13 24 28 55 51 51 56 23 14 18 40 13 18 20 10 12 17 17 2 8 10 19 18 22 21 17 24 25 21 17 6 8 12 8 14 13 18 17 2 5 9 11 36 23 17 25 15 6 11 26 21 32 26 37 8 19 14 31 44 18 28 48 44 38 16 29 17 15 17 23 19 17 33 37 26 14 19 21 21 37 19 32 29 15 59 86 131 115 67 49 59 0 
0 47 37 37 22 29 23 19 14 0 15 15 10 15 24 17 15 15 23 18 26 46 39 20 42 62 38 25 55 84 76 74 74 34 18 26 15 27 61 5 38 57 15 8 15 14 16 8 25 10 5 39 24 15 17 20 48 65 60 61 5 25 198 14 111 62 37 115 208 227 207 189 126 54 36 93 86 79 51 11 5 21 77 100 45 42 74 52 35 31 24 8 21 19 41 93 58 80 78 55 60 47 61 61 98 143 47 95 178 193 182 154 109 47 17 42 88 44 10 28 68 56 26 16 14 34 77 48 12 37 63 15 62 179 242 120 61 168 232 198 182 134 153 114 13 84 12 133 133 235 78 123 120 54 103 85 97 104 92 59 22 4 1 3 4 4 4 5 7 10 8 7 4 3 2 8 4 5 4 2 7 7 8 5 14 11 7 14 179 140 182 166 186 54 60 169 246 113 7 24 34 36 34 11 45 13 41 97 32 54 9 197 152 196 46 76 34 47 60 46 11 13 42 25 38 42 19 40 26 22 54 30 21 20 8 12 10 7 14 34 44 40 34 38 35 27 20 9 11 18 28 20 36 33 41 40 52 39 31 32 52 36 20 33 12 19 31 30 57 13 35 26 49 52 15 61 39 38 51 15 21 19 35 73 70 22 12 23 3 16 29 12 23 35 34 17 28 34 50 19 36 36 15 21 8 48 82 52 45 90 78 72 120 117 82 69 5 105 137 118 79 60 51 65 24 84 62 42 32 9 16 20 18 14 26 52 53 29 18 19 21 27 25 11 37 38 40 19 25 26 8 36 23 35 17 50 104 58 27 30 30 18 22 3 32 10 4 33 15 17 28 49 2 72 46 54 55 87 9 250 106 109 29 124 104 156 227 178 21 52 26 61 67 27 41 18 27 16 36 6 16 9 28 20 15 24 7 2 7 8 11 39 105 148 147 100 46 21 37 22 24 38 37 31 54 78 37 4 5 25 36 23 13 12 18 29 7 27 23 7 22 12 1 11 22 27 19 8 5 18 10 10 24 25 31 27 25 17 7 9 3 8 22 3 33 26 5 15 14 16 25 21 29 27 8 7 20 23 35 46 25 40 38 43 22 30 14 15 18 24 35 27 18 19 18 13 34 24 12 19 31 25 24 53 100 122 113 68 39 55 77 0 
0 70 7 32 8 31 7 3 14 9 8 6 10 16 5 20 10 18 16 22 29 34 38 39 45 44 31 30 65 95 84 59 49 21 18 27 15 32 58 33 37 58 27 15 14 39 24 22 40 34 24 15 30 18 16 30 29 109 35 95 40 43 38 121 178 183 170 246 208 163 117 24 59 61 65 176 151 73 4 37 43 109 139 71 48 100 76 42 12 10 18 24 17 7 49 84 27 78 38 27 57 38 56 79 120 109 89 133 60 111 105 93 91 89 16 54 76 16 26 32 31 36 33 9 28 18 29 58 58 50 91 45 7 59 197 18 154 83 223 8 186 74 33 82 124 74 64 46 130 87 197 28 187 151 120 22 8 11 12 13 4 4 4 5 5 2 2 1 4 7 7 7 5 5 6 7 2 6 3 4 7 6 3 4 7 17 19 56 98 81 61 227 122 54 62 232 177 24 47 47 39 20 33 26 45 29 68 110 33 254 191 166 226 25 96 74 44 37 65 35 10 23 38 27 11 34 37 69 8 43 54 26 19 22 19 1 8 23 22 23 20 4 24 30 19 28 33 25 21 24 35 19 31 14 25 17 34 34 22 40 21 23 6 36 19 26 43 22 41 15 25 37 20 51 26 53 21 45 30 19 36 29 50 59 51 35 7 10 12 31 28 20 49 38 16 11 8 17 17 42 23 44 15 12 11 49 77 45 59 113 101 77 85 85 76 77 38 82 140 129 91 70 51 27 29 54 63 42 45 31 22 24 21 17 17 36 36 17 12 4 20 30 34 23 26 46 50 22 28 19 26 36 26 59 43 39 96 66 21 4 5 19 28 7 29 11 4 42 17 40 27 53 14 71 29 26 62 93 15 255 85 84 25 71 88 179 228 186 15 51 24 64 72 19 57 18 27 1 38 21 9 13 32 21 15 25 9 1 10 12 11 58 96 132 119 81 42 15 37 30 18 35 26 51 70 69 24 27 26 16 21 15 13 12 11 14 48 33 49 25 9 14 22 17 7 0 12 20 23 32 21 14 18 20 19 23 10 21 9 6 4 12 14 24 14 23 18 29 31 39 51 42 12 14 18 15 29 61 52 33 36 38 35 30 4 14 13 27 9 59 29 35 11 12 3 17 19 15 29 28 11 4 35 106 150 137 100 70 77 95 89 0 
0 69 34 21 2 20 21 18 24 4 17 16 4 19 10 18 4 20 10 25 29 23 38 57 46 31 29 35 65 93 86 54 39 23 33 41 21 22 37 2 28 49 29 11 13 50 13 28 34 35 26 24 8 22 29 4 35 44 77 39 34 25 67 70 39 124 197 188 99 65 18 89 54 62 173 193 86 38 69 88 112 127 63 49 108 84 27 5 25 24 22 19 19 13 73 86 38 61 15 49 103 92 91 65 41 62 27 160 104 25 40 32 45 134 41 96 61 34 35 10 10 15 31 34 11 20 5 57 116 84 144 84 21 48 62 209 36 206 68 21 104 152 120 130 126 34 118 2 98 202 124 186 212 195 102 15 10 18 14 12 5 2 6 9 10 8 3 4 4 5 7 5 1 2 3 4 7 2 5 8 6 6 8 12 14 17 20 225 162 129 174 182 39 77 189 28 93 34 56 89 52 45 27 8 34 39 87 60 218 195 187 241 64 86 79 37 34 44 70 25 21 32 24 24 10 4 36 62 25 13 21 13 31 40 19 16 12 43 11 14 22 19 35 47 21 13 27 23 32 31 36 18 30 14 25 13 10 52 38 26 12 13 18 31 3 11 40 19 26 22 19 19 15 42 36 38 15 21 19 40 24 36 43 39 35 49 22 8 19 23 19 43 49 10 7 15 28 18 8 20 24 32 18 5 1 40 72 46 59 105 127 104 64 71 76 74 54 68 144 116 96 83 66 24 29 34 62 31 43 55 42 16 3 12 31 42 25 22 17 12 22 28 33 19 15 39 39 38 14 15 34 35 4 75 53 3 74 50 24 19 4 16 30 10 29 11 5 31 30 13 1 54 3 89 33 52 67 98 56 8 52 73 36 61 100 168 239 200 18 61 40 58 86 23 37 18 26 20 21 20 5 16 35 23 13 26 10 7 13 10 18 80 110 139 117 81 27 26 26 26 30 36 48 95 70 18 20 14 18 15 10 19 20 10 5 11 66 3 71 20 12 19 10 15 18 19 24 12 16 28 17 20 5 32 32 37 12 23 10 5 8 7 18 16 25 19 23 41 34 29 25 38 17 16 11 21 26 17 25 11 32 48 38 17 19 6 14 5 24 39 47 35 12 5 10 16 17 24 17 27 25 35 90 123 103 77 60 42 44 50 40 0 
0 33 31 11 21 15 8 18 32 28 19 18 20 9 3 8 2 21 2 29 31 15 37 57 44 36 38 45 61 81 78 57 48 30 37 22 32 34 5 22 23 28 6 7 11 45 55 22 21 35 39 14 19 26 28 25 17 22 19 31 28 43 34 7 37 101 117 60 13 81 129 82 82 165 109 87 237 29 15 227 178 76 66 134 107 38 7 13 15 14 32 15 18 26 106 89 57 68 26 90 145 76 50 29 37 74 66 158 97 21 29 94 162 154 55 134 62 37 17 8 20 8 29 28 15 17 100 119 148 120 185 141 55 63 55 47 202 38 62 244 92 155 155 75 78 28 139 37 151 80 173 199 71 174 44 5 21 5 16 30 13 5 7 9 10 12 8 5 9 10 11 9 5 4 4 8 10 14 15 16 15 15 16 15 7 19 127 127 20 102 180 82 84 145 87 242 93 25 95 67 16 5 22 26 59 80 68 134 135 194 21 82 19 75 68 59 41 56 70 19 29 35 13 21 9 10 31 38 39 15 13 8 24 50 28 21 8 48 7 18 24 34 25 51 33 15 23 3 17 21 26 10 27 12 23 7 15 35 73 60 51 45 40 31 17 10 32 15 17 11 24 40 41 43 38 31 31 32 32 69 37 28 20 27 23 39 46 14 15 14 25 39 48 32 23 24 8 3 8 6 15 4 11 22 26 13 60 60 68 65 122 130 72 89 94 68 53 61 140 93 100 96 51 29 32 35 32 32 43 66 48 15 17 25 39 23 3 27 18 13 21 27 34 13 23 7 30 41 18 13 17 49 11 38 67 51 72 47 21 21 7 17 28 7 32 11 12 4 21 21 5 63 8 95 24 5 32 70 71 1 55 96 53 69 93 148 250 200 31 49 41 69 69 11 20 4 18 7 10 21 6 19 37 25 11 25 10 14 7 9 25 88 131 140 109 72 30 29 33 22 23 28 83 74 41 7 21 23 23 12 23 7 33 14 4 20 59 37 49 21 16 10 20 13 5 14 8 30 4 25 15 17 34 30 33 31 17 24 9 6 7 2 29 17 14 9 38 47 53 50 18 27 17 21 21 14 48 43 49 29 11 12 12 26 45 39 7 50 39 21 27 27 10 10 15 24 25 14 25 35 58 100 123 94 71 66 48 35 40 42 27 0 
0 7 23 31 23 12 8 22 13 9 13 20 2 28 22 8 4 19 11 30 30 20 31 47 36 30 49 61 60 66 71 55 58 54 38 27 53 21 31 22 52 19 13 2 10 10 30 19 17 24 26 29 27 13 34 11 17 6 38 43 39 52 8 58 142 132 34 104 241 82 26 141 119 161 225 101 128 76 254 214 192 159 129 87 23 17 10 7 24 18 21 25 7 27 109 64 57 62 11 98 140 21 87 22 46 25 71 128 52 46 137 209 170 42 133 118 53 23 14 9 21 35 56 34 26 45 98 41 86 142 146 234 102 73 104 93 24 94 187 25 248 73 167 28 234 191 236 219 245 158 190 86 220 50 37 29 34 34 43 13 16 15 19 10 14 16 18 18 14 12 10 7 2 2 2 8 20 32 34 26 21 17 21 2 20 33 40 143 29 235 115 24 25 176 88 52 123 49 93 43 30 37 34 57 99 84 72 66 177 62 111 18 67 68 62 62 39 63 42 21 38 37 4 20 10 17 27 21 41 12 13 34 34 20 48 17 8 28 24 21 17 24 22 34 29 25 11 8 8 10 19 16 32 20 32 28 35 29 45 68 56 45 35 24 28 39 24 23 17 6 13 23 13 6 13 12 17 27 21 65 59 9 13 17 16 18 47 29 14 10 18 17 36 28 18 26 10 12 27 34 15 23 12 21 22 21 43 70 82 41 95 119 84 124 108 64 47 61 136 67 93 120 63 48 20 13 21 29 36 53 65 34 8 19 46 31 7 29 10 20 15 27 48 43 19 18 14 36 34 27 14 46 31 14 31 57 72 48 34 17 13 26 27 7 39 20 16 23 12 31 15 58 8 85 28 4 16 46 59 252 48 104 18 81 44 123 8 208 50 43 15 54 35 17 19 23 31 36 16 18 30 35 37 24 13 19 12 10 11 8 46 98 142 132 91 37 16 25 39 20 27 57 56 39 36 19 21 10 21 26 8 14 22 3 13 24 35 19 8 11 26 18 22 25 23 20 20 31 9 26 9 21 27 36 34 17 16 5 3 1 5 9 30 15 26 25 14 12 22 45 21 29 23 17 25 36 1 32 12 41 16 12 25 15 26 27 22 61 9 47 29 31 24 24 32 15 15 19 17 47 97 124 87 45 57 75 50 32 34 34 17 0 
0 7 13 21 22 16 27 27 20 9 2 7 37 26 20 10 8 19 27 22 24 33 21 38 46 28 45 64 57 58 80 59 26 43 74 13 53 59 23 15 43 19 12 13 10 35 46 27 15 38 58 50 23 41 14 32 7 17 17 31 37 50 47 86 92 63 154 218 73 27 6 251 240 51 60 239 90 56 70 99 161 175 121 78 43 32 20 27 23 37 34 32 15 55 127 73 79 71 16 97 150 22 107 47 23 46 49 92 78 121 159 132 24 142 137 81 42 5 11 15 35 36 29 21 15 31 89 115 118 202 69 203 172 84 105 136 134 106 66 54 133 198 184 146 95 129 60 194 38 178 62 229 15 126 138 100 70 59 79 85 53 29 26 25 8 11 4 14 17 15 12 8 4 3 3 3 26 26 37 28 31 15 2 10 15 147 149 14 175 241 53 53 37 11 250 58 41 82 76 37 64 32 78 60 88 27 25 165 124 196 29 57 63 47 41 48 52 62 17 3 36 26 19 28 28 32 29 12 28 21 27 37 1 12 29 44 25 11 32 28 23 13 20 11 13 20 33 34 22 3 13 30 41 20 49 46 14 57 38 7 6 20 17 11 33 34 25 20 33 12 30 21 11 10 17 3 10 15 33 27 54 50 17 18 20 6 35 38 45 47 32 16 20 27 25 18 11 11 21 21 25 30 24 2 3 52 31 40 96 60 84 104 115 151 85 56 43 65 134 66 78 127 85 40 4 18 46 56 34 10 58 48 28 1 31 57 33 22 7 14 19 18 38 22 17 8 4 18 19 29 33 20 36 21 20 62 83 59 40 13 5 31 23 16 43 16 23 31 14 33 14 36 25 77 26 8 14 27 37 18 91 112 30 108 23 72 13 241 108 55 21 65 27 2 20 47 8 46 23 8 16 11 15 22 21 11 5 7 18 8 82 118 133 124 78 18 15 13 29 23 19 56 57 46 41 21 12 15 18 19 5 20 14 12 24 21 18 8 15 7 27 21 20 12 5 12 11 18 8 27 16 8 15 43 38 12 7 6 10 8 9 8 22 25 7 19 32 34 37 37 25 15 17 14 3 35 41 14 48 45 52 23 45 13 25 27 7 28 31 18 25 22 4 24 15 24 5 20 24 76 116 113 79 61 63 87 59 35 28 27 15 0 
0 3 14 19 28 28 15 22 31 7 11 12 43 17 35 15 14 11 34 23 25 43 24 36 65 46 44 48 51 61 90 76 41 33 56 38 22 31 24 24 42 38 24 4 32 21 14 16 14 32 17 7 27 27 16 40 85 84 84 106 113 113 109 164 203 51 27 173 180 149 155 96 78 37 67 164 237 9 5 22 33 223 132 59 26 27 8 15 18 41 10 23 14 76 158 55 102 67 11 114 140 19 69 5 56 43 34 96 114 106 68 79 148 162 101 52 15 24 24 14 15 32 39 26 3 4 28 77 107 196 240 122 107 69 76 107 167 187 168 117 56 32 242 28 97 79 51 121 239 21 222 49 168 207 189 165 108 44 40 74 97 91 18 43 34 24 20 4 11 4 1 0 4 4 4 2 16 30 28 10 26 25 11 7 20 42 114 29 240 185 31 74 161 52 109 64 44 70 45 40 19 59 87 62 25 234 183 164 5 53 40 54 65 36 35 59 66 48 19 38 45 21 16 34 17 15 20 5 16 13 16 38 28 8 35 51 8 27 16 27 12 22 16 8 19 34 35 16 28 16 4 31 50 12 43 64 41 21 44 52 26 16 17 10 31 19 21 27 56 39 35 28 18 28 22 24 13 21 19 9 36 51 26 23 29 5 17 32 24 12 24 20 21 46 25 14 19 18 35 20 15 28 12 12 15 46 13 18 80 79 96 115 134 136 69 72 70 48 112 80 78 126 88 44 31 32 29 27 20 14 43 48 43 5 11 44 46 27 11 5 7 9 35 1 11 24 3 16 12 27 46 3 35 35 27 70 91 51 24 5 5 24 37 2 45 31 23 36 12 35 24 20 28 67 21 16 14 22 0 28 132 106 43 136 50 31 247 22 170 45 30 62 20 11 7 48 21 45 17 11 22 2 13 29 21 21 23 20 10 22 100 130 122 97 52 22 8 15 31 22 17 60 80 52 14 14 20 11 12 18 6 19 37 24 25 27 20 30 27 21 19 29 27 20 13 7 1 8 21 29 15 8 21 15 16 25 6 18 8 10 15 13 13 11 24 22 11 4 4 13 29 32 26 14 21 20 49 29 49 22 33 38 38 29 29 27 10 9 21 5 11 10 17 32 18 17 15 21 80 109 107 92 74 65 66 84 45 18 13 18 12 0 
0 13 16 30 28 10 18 16 8 28 20 15 29 13 15 15 10 7 33 18 20 41 19 26 72 64 29 35 58 69 79 71 53 11 29 17 26 27 29 24 15 26 24 8 27 18 41 41 35 45 46 28 15 80 129 167 188 183 180 195 177 130 89 114 147 181 118 56 112 174 198 254 53 74 82 75 62 24 213 139 85 46 34 34 37 31 30 5 18 43 19 37 20 95 150 35 141 60 31 120 86 68 77 73 103 49 104 100 102 74 28 90 127 113 58 22 4 23 8 12 11 17 31 20 18 17 31 35 34 87 120 146 121 65 72 59 45 97 161 176 186 201 85 186 73 94 93 91 26 174 81 103 246 161 133 136 130 80 11 26 36 96 65 15 18 12 20 10 14 4 4 1 4 4 4 5 2 8 7 14 30 28 14 23 122 147 224 159 206 76 60 120 0 240 26 20 72 48 14 16 29 82 91 38 168 157 204 47 80 48 24 43 78 31 32 61 58 46 19 20 32 16 11 27 35 31 31 33 24 25 20 20 42 31 5 41 50 23 14 29 15 15 23 25 21 14 38 36 1 23 21 22 45 26 18 52 58 53 26 50 43 16 23 29 25 27 15 25 45 48 36 34 28 14 12 29 18 5 12 5 25 46 18 25 26 8 4 18 17 22 7 10 21 45 36 36 33 12 31 22 8 16 5 10 7 34 47 25 67 76 94 126 132 109 53 52 64 10 82 91 90 119 74 26 57 46 17 19 8 12 28 31 53 13 6 26 37 36 27 25 21 18 38 22 14 30 7 18 7 20 41 12 38 45 34 72 85 39 15 9 15 17 31 12 31 29 15 28 12 36 27 13 34 60 19 13 7 17 235 36 147 90 69 137 75 60 190 40 214 11 20 44 14 18 13 35 14 28 25 22 35 25 29 23 10 20 7 10 5 36 100 155 133 68 32 25 8 24 28 18 38 74 74 38 9 17 15 7 6 19 22 17 7 7 5 11 29 43 14 28 11 14 15 14 10 7 4 3 8 8 8 13 6 27 24 18 12 17 15 5 8 13 11 5 5 19 16 17 10 4 22 28 24 12 27 12 30 24 21 36 27 28 46 36 7 12 9 23 26 18 16 15 26 40 14 17 28 83 110 105 90 84 68 36 44 57 22 10 13 26 27 0 
0 8 25 25 15 11 11 15 25 27 16 32 20 17 8 13 8 6 33 20 26 45 29 12 65 79 25 25 62 74 73 55 68 45 35 15 25 6 22 20 9 27 17 11 24 17 11 36 39 49 78 86 103 171 172 117 54 45 73 59 50 96 95 82 111 179 150 110 21 26 176 33 40 4 227 193 143 69 24 40 49 39 16 13 19 24 26 12 13 31 26 50 29 110 95 74 109 29 82 109 20 78 84 61 25 95 143 46 46 29 73 102 91 54 14 8 5 17 19 27 23 14 27 12 10 18 25 19 8 75 74 2 57 121 162 157 82 56 5 88 158 167 152 52 128 14 53 245 127 39 13 153 6 97 75 94 125 138 82 13 48 87 49 31 27 21 4 23 14 2 4 3 4 4 4 4 8 8 7 21 11 10 9 27 26 143 35 178 127 50 49 128 2 126 63 44 85 37 22 19 62 116 85 141 136 208 81 114 39 33 10 62 76 28 38 60 54 50 20 8 11 18 13 22 17 4 21 53 21 14 3 10 53 23 23 11 26 19 21 18 10 20 37 32 9 16 29 41 35 19 31 25 32 26 6 15 43 71 75 54 39 8 19 17 20 27 12 21 17 24 21 26 13 20 15 21 18 4 21 20 31 48 15 12 30 28 28 27 13 14 16 9 16 32 14 41 36 28 21 15 30 22 8 22 28 26 29 44 80 72 69 123 136 104 61 53 64 20 71 104 99 100 76 40 63 46 12 17 16 26 20 8 52 32 18 22 29 28 10 19 17 6 25 4 2 32 11 18 14 20 41 21 45 47 39 74 86 40 15 17 14 44 26 14 28 7 14 14 10 35 33 9 45 53 15 7 6 4 229 64 157 56 67 147 77 138 108 27 245 36 21 36 18 13 6 24 26 12 6 7 33 9 41 29 3 26 15 14 14 45 101 176 142 50 30 18 4 20 14 19 49 69 58 35 22 30 27 11 4 5 8 13 22 15 7 7 18 35 27 10 6 7 9 6 4 8 11 14 20 14 16 5 19 7 25 22 27 13 11 9 5 8 12 18 26 27 11 10 12 11 24 7 24 21 39 47 34 21 7 17 11 16 19 29 34 30 18 24 30 22 14 39 22 33 17 32 32 99 94 80 86 93 75 54 58 55 34 30 26 15 18 0 
0 30 24 12 2 3 13 16 14 25 11 39 12 17 22 18 0 12 34 24 31 49 25 6 56 90 27 16 51 75 84 58 70 43 26 20 20 12 22 7 10 34 12 15 33 17 48 69 64 93 109 94 84 98 49 120 148 141 138 162 216 209 161 125 125 147 138 112 116 209 57 241 100 65 51 14 78 99 37 24 70 54 30 10 25 33 5 20 35 54 35 26 90 94 28 29 56 44 90 102 39 109 34 95 176 183 117 32 97 139 132 99 91 23 5 13 14 15 24 11 25 28 29 23 8 12 12 29 28 60 131 64 35 56 67 184 181 162 163 168 153 134 126 121 123 81 52 24 17 24 16 154 249 102 50 67 66 78 83 68 72 73 36 33 42 23 14 4 11 4 4 4 4 3 4 1 7 13 9 16 26 15 20 108 137 244 160 147 47 34 45 206 207 26 51 83 58 20 13 39 109 117 33 71 229 113 171 24 48 18 33 71 54 32 41 59 44 25 42 18 9 19 34 15 10 6 18 49 23 19 1 4 53 40 18 19 33 21 11 22 10 15 46 39 8 18 24 39 39 20 22 20 13 19 10 7 35 32 73 37 14 12 31 22 45 17 4 15 19 14 21 13 11 30 3 23 31 21 20 19 15 28 18 9 19 42 24 19 11 13 29 13 24 27 8 34 29 14 5 7 7 6 18 46 26 24 45 55 73 55 52 114 131 114 94 69 62 25 76 112 100 81 85 74 47 39 25 10 9 18 6 5 39 27 16 25 31 27 10 22 15 11 27 27 12 31 11 15 20 14 34 16 52 42 35 74 91 48 22 31 2 67 20 37 32 22 31 18 25 34 40 11 58 46 10 5 8 3 196 78 190 56 53 180 49 163 29 253 13 75 31 26 32 8 1 8 19 16 4 12 36 11 43 27 5 29 20 14 5 51 116 182 138 41 20 20 24 22 12 20 50 62 56 24 15 30 27 13 2 10 9 12 4 10 6 18 17 4 21 8 9 10 10 6 4 7 8 10 13 3 19 7 18 7 36 19 31 14 4 8 12 8 8 6 4 10 9 18 5 16 25 26 15 24 7 22 13 12 34 27 11 21 36 47 41 27 33 34 18 8 25 41 27 28 1 59 83 119 98 76 77 70 34 28 31 13 5 13 20 6 18 0 
0 38 30 9 3 9 14 7 22 38 16 33 11 5 17 30 21 5 32 20 31 54 26 10 57 67 38 34 58 70 82 56 54 45 28 8 23 17 42 18 11 49 24 16 38 9 55 59 61 77 42 20 34 98 162 178 131 121 138 142 141 85 75 19 32 35 162 231 12 49 251 98 12 6 55 106 94 27 52 48 40 20 34 21 27 27 15 15 24 17 28 72 76 14 34 47 26 34 86 67 85 83 104 196 135 66 23 104 164 155 111 80 69 10 14 7 10 17 34 21 24 26 28 30 10 5 6 35 38 42 42 108 84 80 148 28 130 189 191 212 222 171 175 157 88 23 20 21 6 25 80 134 191 125 20 83 77 50 58 99 87 46 13 8 12 27 8 7 8 5 5 4 3 1 3 6 12 0 14 12 21 21 17 255 114 37 229 76 38 46 158 64 152 76 90 69 26 51 48 83 147 5 36 218 175 236 32 39 29 22 47 55 43 62 43 50 34 7 39 35 15 26 14 28 36 29 28 43 35 29 21 27 26 38 24 14 28 8 5 18 6 10 43 42 19 4 42 36 10 37 4 16 6 18 13 3 31 20 37 20 7 4 36 20 51 37 25 38 18 26 11 6 23 25 15 36 49 21 10 18 12 22 23 26 41 35 18 44 52 20 31 7 34 25 12 20 25 11 17 21 14 7 30 24 34 15 33 37 68 49 57 110 112 120 120 74 50 11 76 115 105 85 99 91 38 35 31 8 7 18 17 11 21 30 39 33 31 37 28 32 22 19 20 28 25 29 9 13 18 10 34 17 54 43 36 77 95 51 22 31 13 65 18 43 44 12 57 8 42 35 43 22 67 37 8 4 21 28 137 55 223 85 37 201 93 170 57 215 43 138 16 8 30 18 25 24 17 31 22 22 33 1 34 26 13 26 17 14 24 70 139 173 118 31 1 14 11 39 17 28 61 69 51 12 15 17 15 4 11 24 29 14 6 10 17 22 21 23 36 18 24 14 18 18 19 20 20 26 39 41 22 5 13 7 28 15 13 14 14 18 15 5 11 23 31 31 27 20 19 26 12 4 8 22 17 4 15 25 31 24 12 21 35 22 22 36 21 11 6 4 27 38 22 16 33 105 117 120 90 63 67 53 18 26 27 7 9 7 21 9 14 0 
0 31 22 15 7 3 17 18 7 23 9 28 18 7 16 9 24 27 34 21 26 50 26 32 59 33 32 59 64 56 78 58 36 37 44 16 4 15 44 43 28 65 30 27 34 12 73 75 41 19 67 97 127 126 100 68 50 24 15 14 52 28 57 66 27 128 147 120 121 111 44 52 47 53 91 51 19 38 27 18 26 15 31 11 26 49 32 8 29 42 69 71 14 58 70 66 42 76 97 46 88 105 205 109 70 112 86 126 178 101 37 32 30 12 17 4 7 15 29 17 13 16 33 20 9 10 16 46 10 33 23 25 124 125 37 169 141 19 93 109 119 54 101 67 24 8 14 11 22 66 98 76 130 155 41 100 128 56 67 103 54 47 56 49 40 17 4 2 4 4 4 3 0 0 1 10 11 14 0 5 10 20 182 117 208 129 170 15 59 21 12 44 114 76 103 26 21 20 26 142 129 198 229 197 16 95 31 43 31 15 36 53 39 85 73 57 28 15 55 48 23 24 3 21 12 18 23 31 49 48 38 3 7 18 23 29 36 8 10 10 13 16 41 33 15 25 57 12 16 47 11 25 13 28 33 21 17 36 1 24 23 28 24 15 54 38 21 51 32 53 39 17 26 24 35 34 53 8 3 29 31 36 38 14 20 26 29 29 40 25 32 4 42 14 13 20 18 15 23 7 25 12 29 15 33 40 3 36 82 47 60 117 104 110 126 81 57 22 61 110 114 116 109 73 44 34 15 10 9 13 29 7 1 18 47 33 17 30 15 30 21 14 7 23 31 29 9 17 16 25 47 22 45 53 47 85 96 45 15 24 15 55 6 46 30 29 52 15 45 36 45 31 73 30 7 5 32 15 106 39 228 97 14 197 144 163 132 173 64 200 12 21 21 7 12 15 5 35 7 23 22 24 17 14 18 14 6 7 31 89 159 155 86 19 21 29 21 41 15 43 71 65 34 11 16 15 18 6 15 17 2 13 14 29 28 14 13 21 24 3 20 9 10 11 13 19 23 17 15 21 23 18 2 22 18 4 4 5 17 25 21 12 27 17 16 22 46 24 24 41 21 25 27 19 9 20 15 6 15 19 29 16 7 6 8 8 16 22 3 7 30 32 15 26 62 103 105 99 66 41 55 59 42 43 25 11 15 15 26 23 21 0 
0 15 18 18 10 10 31 26 15 3 5 17 19 9 10 9 10 15 30 21 27 37 26 45 48 25 39 70 55 55 86 67 34 31 42 14 34 41 22 18 41 62 24 3 14 23 77 101 84 89 87 80 69 49 31 8 64 63 74 71 72 46 41 94 90 127 125 70 86 117 114 87 80 57 34 34 32 24 9 8 28 7 23 5 23 18 22 34 40 76 84 47 44 76 57 31 63 105 95 43 81 169 90 101 193 171 170 119 113 134 28 17 26 22 17 10 5 21 21 13 4 4 18 4 12 11 19 42 25 32 12 18 40 123 180 59 156 197 94 32 119 40 90 80 25 7 4 10 20 55 96 41 78 181 85 67 132 103 81 58 95 87 51 23 12 9 2 4 8 9 7 5 3 1 0 8 5 16 10 12 13 88 66 82 75 175 63 45 13 102 110 177 131 28 52 29 41 22 88 138 83 132 241 51 99 7 31 31 12 11 27 61 53 82 84 42 10 14 55 29 16 11 3 15 42 35 18 15 39 34 40 34 17 8 6 44 35 4 11 22 16 15 43 24 17 22 54 27 8 46 5 24 4 31 41 31 30 29 34 7 10 29 30 28 47 15 22 68 37 37 24 32 25 27 33 33 43 13 27 42 37 32 10 11 18 34 11 41 25 26 30 5 38 14 18 28 24 14 35 28 8 14 14 10 39 22 14 36 75 40 58 120 121 119 124 74 55 39 33 97 115 147 121 55 61 40 14 7 5 8 27 9 17 39 43 27 14 21 8 37 45 20 3 14 35 35 14 21 20 28 47 7 40 68 63 82 89 22 26 26 24 47 17 41 15 32 23 24 37 49 69 62 92 25 11 16 17 35 110 48 228 71 19 179 156 168 157 125 63 254 40 27 7 3 14 31 28 50 7 28 1 6 2 10 19 8 4 12 51 100 154 138 71 23 34 10 22 27 12 47 69 47 23 7 11 1 5 11 14 8 25 7 12 17 21 11 17 7 15 6 17 11 8 7 8 26 22 21 27 20 26 15 26 15 5 11 15 14 14 10 4 18 34 44 32 28 32 32 20 49 4 35 18 16 14 20 27 20 29 29 20 19 6 4 18 23 12 15 11 7 27 22 17 53 84 104 111 94 54 41 53 64 31 11 6 7 3 9 9 16 7 0 
0 28 15 16 20 14 26 28 20 18 16 15 13 5 13 18 5 7 28 15 23 22 30 49 35 22 43 73 41 58 87 65 46 36 47 12 33 15 5 26 24 34 41 14 13 21 47 84 81 57 20 10 32 33 11 11 76 67 15 15 61 92 70 123 169 150 89 16 26 60 70 60 63 70 53 31 40 66 31 23 30 41 25 24 12 18 24 38 65 86 77 42 99 80 22 42 79 137 81 38 45 77 86 196 162 119 138 139 53 127 75 26 5 7 10 12 10 15 4 15 5 4 20 10 8 23 11 25 9 9 2 6 5 14 75 167 102 96 151 70 104 73 73 93 35 13 15 20 13 47 135 60 54 191 101 59 118 129 60 140 121 103 59 29 8 8 14 4 14 5 3 1 1 3 4 4 12 18 15 8 15 162 115 179 195 149 18 31 41 17 105 17 105 18 31 26 37 65 147 21 16 203 135 174 7 26 21 33 6 13 43 66 40 53 84 74 25 9 41 42 15 18 20 31 34 38 20 38 44 21 12 26 31 15 19 45 18 26 33 32 23 21 42 22 12 30 31 8 19 43 29 15 15 29 10 11 14 5 38 42 45 51 10 44 21 10 28 55 12 38 8 5 18 23 12 14 32 26 25 28 25 7 9 32 65 45 7 15 1 17 18 8 29 18 23 31 26 15 26 27 6 13 11 27 34 4 2 55 37 30 64 86 115 146 128 71 42 36 20 78 104 160 142 58 60 32 14 18 19 14 17 25 31 21 10 20 30 16 12 8 34 29 21 22 36 37 14 13 14 22 49 11 40 73 70 71 84 3 49 35 55 28 32 28 14 13 10 15 39 73 75 84 108 15 26 9 16 8 102 58 4 61 28 165 157 169 129 97 39 29 53 41 14 14 8 29 1 69 57 65 31 5 2 10 15 19 18 34 78 119 134 128 64 19 34 11 30 13 9 56 66 26 20 23 10 10 14 24 25 31 20 24 7 22 17 11 7 4 19 7 14 25 10 2 14 25 25 9 15 19 11 22 31 19 7 7 10 22 17 11 15 10 3 17 14 22 12 24 29 39 5 16 25 23 16 14 13 22 35 22 10 34 19 5 17 21 27 29 32 27 15 25 36 81 88 101 109 80 50 46 45 48 15 10 7 8 24 24 15 17 24 0 
0 20 19 35 36 17 18 19 9 11 24 12 12 12 12 9 5 9 27 18 19 22 43 43 33 33 49 60 26 65 88 46 38 51 59 15 31 42 41 12 7 21 45 15 15 9 25 32 8 21 37 33 18 15 34 35 62 52 53 51 76 132 94 78 109 135 131 101 76 39 49 33 35 2 38 36 58 69 49 51 9 4 24 44 21 9 31 63 98 67 13 75 133 72 40 44 93 202 99 105 86 142 127 148 122 52 56 74 112 57 108 10 28 18 18 15 8 18 10 15 17 10 11 18 25 14 16 17 2 15 18 15 10 24 38 32 168 158 75 61 68 84 69 63 46 50 18 26 10 8 121 88 70 166 111 52 131 90 159 144 216 159 44 12 22 15 19 7 9 11 9 7 4 2 3 10 8 12 8 5 57 14 43 88 243 115 85 56 116 104 179 110 54 49 31 39 36 111 114 178 187 169 249 67 32 28 5 34 18 3 40 56 41 42 57 65 36 11 22 34 35 22 13 21 10 21 19 39 22 7 6 4 21 26 26 31 20 27 15 5 18 31 47 22 17 39 17 27 37 50 37 31 32 28 24 32 20 20 8 34 45 72 38 40 31 19 9 59 39 24 19 27 25 10 8 9 31 34 18 24 31 8 12 60 54 31 23 7 19 22 18 10 23 23 10 19 25 21 23 12 6 14 24 20 17 16 10 61 18 29 79 59 97 150 139 95 40 28 12 71 91 156 159 70 46 23 16 24 24 28 11 13 31 34 8 25 33 2 10 28 38 33 15 12 40 27 7 14 20 35 51 27 41 57 72 74 78 14 44 52 62 8 39 21 14 10 16 17 36 81 79 68 84 54 4 17 33 50 63 50 49 56 18 144 164 129 114 60 18 44 61 62 43 27 18 29 20 74 52 53 52 11 18 22 10 20 17 42 90 133 142 103 18 42 20 16 31 36 27 58 55 18 3 31 10 13 22 30 33 17 24 14 29 4 21 24 13 7 17 18 13 12 21 17 5 31 20 5 3 18 1 20 13 24 24 28 24 19 12 7 11 19 36 43 35 15 18 6 20 24 21 12 7 5 3 13 11 10 17 26 7 31 26 14 27 19 44 40 10 9 2 20 61 104 89 96 101 69 50 44 21 28 7 8 17 30 30 26 32 17 54 0 
0 14 10 5 23 27 7 18 21 17 19 17 12 27 13 3 6 2 21 25 17 30 49 21 32 40 48 47 20 72 91 57 56 66 48 8 16 10 40 14 9 23 40 18 18 13 24 29 14 7 11 33 34 28 20 22 36 17 36 27 75 146 71 22 86 68 27 53 78 65 45 27 57 26 72 62 43 89 136 82 30 26 25 25 39 75 103 137 118 31 97 124 106 36 50 48 138 243 83 208 133 138 73 82 142 58 35 56 89 26 109 33 17 5 8 11 7 22 9 5 15 25 14 10 15 9 29 14 12 8 9 15 19 22 22 45 12 72 80 63 63 86 46 34 19 62 12 16 11 23 101 97 90 116 90 127 90 125 199 125 29 154 20 9 19 24 24 12 7 8 8 7 7 7 8 10 5 8 11 23 175 103 127 158 111 18 26 62 24 41 12 94 24 60 5 25 82 113 61 126 231 42 93 12 37 18 15 15 38 29 43 58 66 76 67 50 32 19 20 17 31 44 39 20 3 19 41 35 4 21 26 16 26 36 26 13 14 0 10 11 11 14 41 21 22 39 43 45 25 32 17 29 51 68 64 49 22 17 31 43 10 35 46 7 58 13 31 23 43 14 48 27 50 21 2 16 28 20 18 32 41 17 17 45 43 34 19 15 26 20 21 12 15 24 13 10 20 23 15 27 47 58 72 66 47 21 14 64 25 31 74 41 82 129 141 133 56 42 16 74 84 155 180 93 39 15 14 26 37 56 47 42 31 27 21 26 16 14 18 28 23 11 17 22 30 10 17 22 7 33 35 27 53 45 67 73 57 29 15 58 45 5 38 12 15 12 20 5 52 58 46 19 48 69 59 23 37 14 35 27 85 92 24 135 173 86 137 21 237 58 61 19 33 18 17 22 10 54 69 42 55 9 11 22 8 19 11 60 111 148 148 63 41 15 29 34 25 13 47 54 45 30 17 15 7 8 22 23 32 15 23 9 28 10 18 17 13 12 2 11 28 4 27 3 25 9 22 3 8 11 5 18 23 20 13 4 26 19 6 14 2 17 31 37 32 5 11 7 22 14 15 10 13 5 25 33 42 42 32 28 15 26 14 6 29 27 31 34 15 19 13 34 96 127 110 106 96 58 41 35 14 17 4 14 21 14 5 24 31 33 47 0 
0 23 2 16 28 19 8 31 12 23 14 21 15 34 16 14 10 6 18 27 19 34 53 14 27 35 48 50 32 84 81 70 45 34 42 2 10 5 33 19 12 8 28 26 13 7 17 35 22 39 62 57 21 12 26 45 47 48 32 29 82 158 52 71 47 124 107 69 22 2 88 144 97 90 108 54 228 235 182 116 83 19 10 45 114 126 102 55 44 111 134 93 36 23 52 73 153 205 84 216 233 25 102 47 165 117 46 102 75 52 73 25 30 8 1 10 7 23 11 13 23 17 17 22 27 14 25 4 17 7 3 4 14 24 32 13 24 14 12 27 55 92 7 41 57 56 12 12 6 70 109 75 99 99 11 132 93 14 123 179 240 20 128 41 17 10 21 4 4 3 0 4 8 12 15 22 21 13 12 58 62 64 94 145 38 52 43 162 102 157 63 26 71 41 13 72 141 62 30 223 105 111 27 27 24 14 7 13 14 33 45 59 73 67 38 35 43 47 48 40 21 18 30 22 11 22 34 14 24 26 15 29 33 24 30 27 14 4 12 16 12 18 34 12 17 36 45 39 42 31 24 19 21 31 46 56 51 52 22 39 15 18 27 40 43 39 17 22 34 11 44 15 32 33 17 20 25 10 16 23 44 17 19 29 23 2 5 19 21 13 20 17 4 22 25 14 19 24 20 31 29 8 26 37 39 10 22 69 36 37 70 33 68 97 131 159 73 55 16 66 65 142 207 131 41 22 24 28 31 34 19 8 12 14 15 21 11 8 37 37 16 10 15 36 24 11 10 21 6 42 23 40 72 28 57 68 35 2 18 55 27 8 29 14 22 7 16 11 53 46 39 5 27 52 71 25 51 50 48 0 111 143 35 123 173 32 120 43 168 54 127 23 50 45 42 27 15 38 52 17 45 15 10 24 14 19 23 77 137 156 132 40 59 17 44 15 32 18 63 52 39 42 13 8 4 3 17 15 19 17 29 28 13 30 21 8 5 14 22 15 16 37 36 23 36 37 8 18 12 2 4 10 18 17 12 25 12 29 16 7 23 35 49 49 26 18 10 8 21 30 41 31 20 26 42 22 15 24 8 19 10 15 17 20 11 18 25 17 24 37 38 49 104 116 90 82 72 37 26 28 12 8 6 16 15 9 7 10 21 22 13 0 
0 25 9 9 19 11 9 24 10 16 12 22 17 29 20 16 4 4 20 18 22 31 50 26 28 25 44 64 53 84 64 79 54 32 59 23 13 10 21 33 20 13 9 15 19 20 25 30 40 26 21 19 18 14 36 16 23 26 27 42 82 176 93 115 80 97 162 155 171 217 177 28 116 162 66 146 229 12 151 90 89 25 34 99 154 107 41 76 145 137 103 33 28 34 52 58 90 220 214 95 20 80 84 63 117 163 31 87 70 96 45 30 32 10 5 10 18 36 29 6 27 18 8 2 22 10 22 20 20 13 11 10 11 13 16 28 37 28 13 10 34 78 52 49 87 34 14 21 57 125 118 46 100 133 85 210 157 138 64 159 176 29 24 145 14 30 35 18 10 4 4 2 4 7 8 7 16 16 8 146 131 151 201 100 18 11 50 2 53 6 51 47 36 17 41 115 63 192 216 187 182 7 17 13 27 18 11 21 37 36 31 45 68 75 55 58 59 40 28 26 31 24 27 17 12 28 36 16 28 18 21 44 24 8 23 24 17 1 11 28 19 5 27 1 14 17 15 13 45 32 16 18 15 11 5 14 13 32 36 29 22 15 12 26 11 41 9 17 13 18 14 27 24 34 20 17 21 7 22 35 36 9 28 34 25 11 16 23 32 8 17 24 16 15 31 29 21 9 27 32 13 36 37 33 46 12 3 55 44 53 78 52 70 84 131 174 85 61 21 66 58 112 227 169 28 10 13 11 10 25 34 24 8 8 10 14 7 10 43 39 3 11 12 39 17 23 17 21 10 49 18 44 86 7 49 79 46 40 43 40 12 5 15 18 19 18 12 18 34 51 38 23 68 73 50 4 23 16 25 230 119 163 69 71 141 44 91 52 96 14 202 46 9 14 20 7 19 37 43 24 37 12 9 26 16 14 35 90 148 139 94 44 36 36 38 14 34 28 66 42 29 34 7 1 18 22 7 13 10 11 2 30 25 7 2 5 7 7 3 17 33 26 5 21 13 13 29 7 12 5 4 8 8 18 24 23 11 25 18 25 30 21 8 16 28 27 8 8 9 9 22 24 28 8 32 35 33 38 26 18 19 6 21 5 10 15 11 4 32 31 67 80 102 91 65 73 64 26 24 27 18 2 10 9 23 12 19 14 9 10 16 0 
0 18 7 15 27 19 4 19 21 6 13 20 18 10 23 5 7 10 28 7 28 19 40 44 35 29 34 58 55 81 48 80 63 22 50 31 14 5 8 35 36 14 18 11 25 19 21 16 31 35 38 33 10 11 25 11 17 29 18 24 104 178 82 100 208 174 167 189 179 109 93 173 140 61 63 148 153 123 156 86 71 5 84 130 112 26 96 144 120 53 25 24 53 27 34 78 113 183 33 55 212 156 29 133 29 179 31 61 85 38 11 33 13 6 3 4 33 46 35 30 14 22 22 15 26 18 16 17 26 18 7 13 16 8 7 20 60 88 79 55 27 47 83 19 95 47 10 20 45 97 85 23 101 99 161 222 90 119 42 10 127 205 89 33 78 42 37 8 2 7 4 2 4 7 9 11 13 4 57 8 64 43 187 49 38 38 116 85 209 92 18 63 36 55 104 101 109 136 232 41 60 32 13 19 42 26 16 17 17 10 36 59 61 51 41 55 60 56 51 30 13 7 18 8 2 19 38 31 20 3 31 46 21 18 18 15 29 12 21 23 16 15 28 8 16 14 17 28 39 42 20 9 17 21 19 27 37 31 5 2 34 19 25 31 28 50 28 18 15 38 27 15 27 28 4 13 29 26 17 12 23 30 48 24 7 14 18 22 39 10 21 32 34 18 32 38 10 6 24 31 8 19 8 20 48 3 12 37 22 36 62 62 69 63 126 173 97 68 36 71 61 75 238 202 20 23 18 24 8 5 23 28 15 16 32 26 8 18 34 37 24 4 7 34 16 18 35 29 14 56 22 33 94 15 47 89 55 32 29 25 12 10 8 21 2 31 7 12 35 52 33 21 81 52 8 30 25 8 7 210 113 150 51 38 143 76 91 49 65 214 252 51 27 36 20 10 21 34 20 15 16 38 35 15 15 30 45 107 164 125 62 39 10 10 8 31 16 46 68 50 32 10 24 28 23 12 11 13 7 7 14 6 29 34 25 23 20 19 27 22 14 18 46 47 48 34 20 18 21 9 18 12 15 29 23 11 16 8 14 22 11 14 31 28 11 7 16 17 5 1 17 22 7 27 32 9 11 21 4 22 13 17 30 15 16 26 24 21 19 39 98 104 104 84 64 88 76 28 26 27 27 7 12 12 15 33 18 22 20 10 10 0 
0 13 3 4 22 22 6 11 17 33 9 13 14 13 21 15 17 21 36 19 37 8 25 60 42 42 35 49 52 83 65 80 66 24 48 28 20 22 23 34 38 19 25 18 29 49 28 21 25 7 33 32 18 5 7 14 18 17 15 25 127 129 99 42 32 111 37 35 76 163 204 139 36 41 127 111 22 63 105 83 37 89 149 104 16 132 168 125 49 34 17 11 44 12 44 56 41 102 15 189 101 168 118 121 45 189 73 13 15 34 8 29 24 17 12 7 40 43 32 42 5 3 15 7 20 11 17 18 27 20 10 7 9 5 9 48 97 102 102 53 40 51 105 46 78 67 8 22 43 114 145 116 90 41 141 111 75 137 132 236 18 48 230 124 44 117 17 17 20 12 7 3 7 14 19 17 7 14 187 92 157 117 131 15 57 18 200 111 91 103 98 68 39 86 101 25 58 252 129 140 20 19 14 19 37 32 15 12 13 15 51 61 37 33 49 50 35 33 38 31 20 18 22 14 12 5 24 30 17 14 35 33 4 2 13 4 28 16 1 16 7 27 32 18 22 25 28 17 14 37 29 24 23 23 25 22 32 28 37 18 33 11 24 30 43 48 23 22 12 29 32 34 20 18 17 15 27 32 9 2 9 36 56 12 3 31 43 40 31 14 27 33 42 25 33 34 12 17 15 20 13 15 22 21 49 16 12 36 23 32 48 62 68 60 126 157 100 67 44 61 55 52 245 236 26 32 5 23 20 23 36 22 7 24 44 18 25 26 17 21 29 22 13 25 19 2 37 13 15 59 19 14 109 66 77 69 35 46 26 21 18 24 13 24 11 31 0 15 40 63 51 74 135 108 24 11 13 27 24 193 106 160 21 31 167 63 96 21 57 160 248 68 19 57 15 4 20 47 8 21 28 9 14 10 18 9 52 132 174 112 44 12 19 19 17 32 29 61 52 45 24 18 18 17 24 27 18 7 5 7 7 14 18 19 4 12 17 9 20 28 31 10 39 58 48 12 11 14 8 7 28 3 9 28 18 32 14 17 13 4 7 8 4 6 3 5 11 12 34 43 50 26 8 23 20 29 24 7 12 9 33 10 42 36 34 27 28 26 12 22 105 92 82 70 66 92 74 29 27 26 36 14 12 12 26 29 13 31 8 16 17 0 
0 22 19 32 29 14 8 25 2 40 13 4 5 22 18 28 10 17 30 17 37 8 15 52 49 57 31 40 46 83 88 72 54 26 27 13 8 14 40 22 42 68 91 104 48 26 11 45 24 23 8 18 35 27 17 30 43 27 27 49 139 162 11 31 71 112 127 207 250 185 106 57 25 153 154 42 43 57 104 52 70 182 130 35 136 182 128 34 26 52 42 36 33 10 50 34 43 41 155 213 69 127 150 61 155 191 181 18 16 22 17 29 36 9 5 10 35 37 30 37 10 5 7 12 15 4 17 12 20 21 10 21 26 17 6 43 99 48 121 84 25 21 81 82 40 65 22 4 28 39 139 181 43 61 82 150 147 86 30 84 229 218 81 16 162 94 137 12 11 10 4 14 17 11 7 9 14 40 42 51 61 166 84 42 47 21 53 67 55 48 89 55 17 97 68 176 232 231 209 31 11 16 17 4 46 53 36 7 18 8 45 69 36 33 61 52 38 24 24 32 31 34 20 8 8 17 18 9 13 28 49 43 21 18 11 11 14 15 17 23 25 32 25 20 27 38 17 20 19 32 26 21 40 49 25 10 34 7 46 15 25 29 19 24 38 17 14 27 11 14 18 27 18 23 34 35 18 29 8 19 36 34 45 30 36 41 23 21 32 29 25 11 27 19 23 34 37 39 29 14 12 16 8 26 48 15 13 32 41 50 62 65 43 57 140 146 94 74 39 46 39 52 239 15 48 31 8 19 31 9 27 17 10 19 53 20 15 29 8 7 42 22 7 22 8 24 45 14 16 46 32 18 114 89 49 27 10 46 39 17 13 27 13 11 25 23 8 12 22 88 62 37 108 138 15 21 7 13 22 161 84 188 29 7 177 86 124 39 72 108 214 88 26 59 7 15 38 43 18 43 42 49 36 25 11 24 91 144 155 110 42 13 13 34 24 41 44 57 38 35 25 8 26 31 27 24 32 32 21 18 9 5 21 12 12 9 28 25 17 10 5 30 21 40 43 47 7 18 19 12 19 17 18 29 7 19 22 17 8 14 13 4 7 6 4 6 10 11 34 41 54 21 12 11 14 12 5 23 21 14 28 17 34 16 21 5 20 17 13 69 123 94 80 72 52 69 62 8 5 25 21 28 13 10 21 10 14 21 9 12 25 0 
0 33 30 13 5 4 11 10 29 31 18 14 14 22 29 20 2 12 27 13 11 7 22 43 53 43 33 39 40 71 106 88 48 27 11 21 10 27 22 25 65 111 122 160 135 31 20 38 24 15 10 11 8 24 25 77 109 123 145 146 190 223 161 78 216 228 194 225 181 86 24 18 154 237 109 100 69 89 87 63 174 128 38 179 184 71 53 78 63 95 92 83 47 47 64 22 22 32 97 167 70 100 183 36 250 111 28 37 24 30 38 10 42 8 15 21 13 30 14 29 13 8 9 13 9 3 10 17 24 11 16 27 21 11 11 36 80 85 118 21 30 31 37 66 9 52 2 16 43 102 178 130 52 46 160 167 178 174 116 24 16 3 91 63 28 145 72 72 13 14 2 25 13 10 9 15 15 105 86 204 156 154 34 68 65 136 98 218 57 23 36 46 40 86 77 127 9 79 63 26 6 5 19 28 75 47 54 38 30 26 25 64 39 30 57 47 52 27 12 32 57 52 16 20 20 7 31 32 22 7 32 43 20 25 23 10 7 12 19 31 17 14 17 10 20 41 30 25 7 21 25 6 22 51 41 39 44 20 26 5 21 22 12 19 10 26 16 33 15 10 16 33 26 23 20 26 7 39 29 25 20 13 41 61 34 9 11 8 35 11 6 17 12 11 8 33 35 20 20 12 20 35 25 22 46 17 12 12 27 46 77 83 36 51 154 137 75 90 41 24 23 48 204 40 90 27 7 14 44 10 25 37 2 21 24 27 17 31 5 4 53 3 19 40 31 17 33 20 13 30 39 63 88 80 63 22 31 61 25 9 24 18 2 8 33 22 14 17 22 66 75 48 117 104 17 21 4 10 22 129 56 195 32 18 190 125 188 64 142 90 194 137 51 44 6 23 33 17 27 39 16 26 13 4 6 38 107 149 139 93 37 14 22 5 54 52 56 81 56 35 22 14 6 5 9 14 7 23 15 18 13 18 18 10 11 14 16 13 24 24 17 17 42 55 54 45 30 30 22 8 1 8 6 26 23 19 14 3 4 8 8 11 10 11 4 14 15 14 18 24 32 20 16 5 14 30 32 19 2 11 15 27 19 38 10 17 19 17 50 111 114 90 93 82 53 54 59 13 22 28 22 10 30 28 5 10 11 13 7 13 21 0 
0 31 22 24 25 22 16 18 35 25 19 9 10 9 20 5 5 14 24 12 5 9 35 48 56 33 34 30 40 74 92 96 60 23 4 24 15 30 23 41 86 123 129 104 167 25 12 17 27 26 10 16 46 100 165 196 172 126 91 65 24 81 187 32 36 214 149 96 25 62 39 153 38 205 120 147 111 83 26 159 125 47 183 194 81 40 74 49 53 100 62 86 38 15 55 29 43 110 163 163 110 86 203 118 0 40 67 131 14 28 42 54 34 15 36 24 14 16 10 24 20 8 5 1 3 7 8 6 11 19 9 21 23 10 7 29 48 27 41 76 91 109 90 52 20 58 21 41 72 131 127 25 10 189 174 130 184 204 68 159 119 130 137 211 71 17 133 197 12 5 17 16 14 20 15 27 35 226 69 57 159 70 37 65 106 219 40 93 40 25 37 17 48 14 244 225 148 177 25 14 13 3 31 24 93 39 70 38 41 35 14 48 43 29 52 34 47 49 11 11 48 53 18 11 8 20 31 8 18 28 22 27 16 27 27 25 23 22 22 25 37 43 36 29 33 42 8 32 6 42 34 30 10 41 16 29 55 40 24 24 24 26 31 21 9 20 28 39 34 39 36 18 26 46 40 30 9 47 22 6 15 21 49 67 7 15 11 9 34 18 10 18 4 5 4 24 22 27 13 3 17 21 7 12 35 19 15 19 37 38 55 85 67 67 130 120 67 94 66 21 24 54 153 39 149 31 22 8 45 7 12 33 17 21 3 1 28 36 23 21 53 16 28 48 19 26 24 18 18 36 52 64 68 72 63 34 36 37 14 8 13 5 8 17 42 27 16 24 14 43 75 20 102 79 22 8 17 22 20 116 40 206 57 42 203 168 224 69 160 73 175 191 82 31 8 24 29 20 25 9 34 32 29 17 17 56 124 163 112 46 43 23 9 23 47 29 69 87 56 15 10 27 28 22 34 44 49 48 24 21 35 26 4 2 5 3 14 13 2 10 2 11 7 12 8 12 27 29 24 5 7 14 14 19 24 16 14 4 9 12 5 10 12 5 11 20 12 11 36 50 63 47 22 15 18 20 14 19 18 20 14 35 34 54 36 45 39 46 91 110 79 78 91 60 32 48 33 25 10 25 14 39 18 43 11 14 11 8 13 9 1 0 
0 28 14 3 5 8 21 24 24 3 3 10 14 14 18 10 10 4 26 24 9 22 34 48 46 28 32 18 49 94 70 79 71 23 10 22 15 22 15 44 109 139 84 126 151 29 10 10 21 59 58 72 130 192 209 186 113 55 93 112 136 226 15 232 162 84 38 2 33 97 122 241 13 95 192 209 125 5 132 122 59 181 150 53 6 38 106 72 75 70 122 101 68 26 49 38 120 243 208 95 45 49 173 177 199 179 249 253 38 41 32 15 15 20 32 7 19 13 4 23 13 8 5 1 3 7 8 6 8 14 19 27 33 20 7 50 73 74 93 90 65 75 81 41 46 33 47 73 75 94 32 32 188 255 146 133 189 220 189 30 77 79 43 42 176 193 34 245 79 22 14 8 16 6 7 21 157 99 225 89 127 11 34 55 158 3 198 14 21 4 40 46 17 178 133 205 4 55 15 16 8 13 22 26 98 63 82 60 23 36 16 37 52 24 44 34 37 67 23 17 32 43 23 24 14 9 24 23 13 8 19 18 11 15 12 6 11 22 25 11 2 21 31 17 16 38 35 46 21 60 15 40 13 31 22 32 49 46 24 22 26 24 31 17 3 4 17 22 5 8 12 17 22 38 25 15 18 46 22 11 21 18 48 64 21 6 15 17 9 13 15 27 8 13 7 31 17 10 19 19 31 33 23 15 32 25 18 36 46 31 41 63 88 81 90 106 72 83 95 61 27 67 114 23 228 43 64 47 41 17 22 43 29 18 8 18 24 31 14 8 46 11 15 32 25 17 5 9 31 43 31 52 77 66 49 40 39 19 8 12 19 5 10 20 45 25 15 29 18 30 77 27 100 89 21 10 28 17 21 105 23 225 88 63 161 221 171 106 148 49 164 228 90 12 25 34 27 14 18 12 20 16 28 17 19 78 141 168 97 28 32 32 12 34 36 37 76 64 41 10 21 31 38 15 16 5 2 17 18 26 30 16 18 22 29 18 11 20 20 14 10 16 7 9 5 11 22 22 9 11 5 3 2 9 16 8 4 9 3 9 9 8 9 4 12 30 33 31 10 10 12 15 11 43 40 47 34 13 8 19 35 15 20 34 11 7 33 85 115 107 66 78 91 49 27 35 5 19 28 7 32 23 26 25 18 10 15 13 14 16 10 0 
0 45 31 2 11 16 12 12 20 2 4 8 11 14 21 16 1 7 15 22 18 23 35 44 33 34 36 14 61 110 56 64 72 21 15 14 12 19 17 26 137 168 29 144 118 55 39 22 55 92 113 160 176 127 67 63 193 220 147 96 118 185 158 67 31 24 14 19 39 134 149 211 135 136 237 188 50 114 110 53 181 137 21 46 45 17 30 115 144 28 144 58 78 2 84 60 195 2 29 122 106 103 116 215 91 31 70 52 65 38 41 15 16 5 27 16 7 7 18 18 7 14 11 5 4 8 12 10 4 6 11 12 11 16 52 83 83 56 48 11 36 46 27 98 43 44 119 119 60 34 31 167 59 186 101 131 237 15 238 56 98 92 200 11 220 226 225 205 87 15 19 15 6 20 19 33 62 122 56 196 122 76 33 74 210 253 120 14 10 3 40 34 151 99 200 111 114 13 20 13 7 4 11 25 100 66 63 65 6 36 23 32 61 25 41 47 53 60 21 6 16 41 29 16 18 13 12 12 14 3 10 18 19 27 20 13 12 22 24 8 9 15 34 24 15 21 7 17 26 47 33 18 22 2 22 25 31 43 25 19 25 13 22 21 23 23 10 14 26 23 15 7 28 38 18 12 14 32 18 10 35 23 31 50 18 23 18 16 16 17 17 31 6 7 9 46 15 16 13 7 28 6 19 7 24 17 4 34 53 44 52 47 70 88 88 106 83 100 119 73 25 78 99 250 46 59 53 16 20 13 25 45 24 7 9 24 18 29 12 9 41 22 12 4 19 25 16 25 47 56 27 50 88 65 44 51 39 13 12 11 26 3 8 22 46 23 12 40 22 15 60 49 96 94 27 5 29 13 16 84 248 235 112 80 91 237 79 134 111 43 155 250 95 8 14 16 9 7 11 9 20 29 29 18 34 107 156 161 89 48 41 5 33 41 25 72 81 37 34 13 30 18 29 20 14 14 25 16 17 34 19 14 26 28 8 16 24 9 17 13 11 17 7 16 4 5 5 11 10 7 6 12 14 14 15 4 17 30 33 17 18 33 29 16 18 19 24 11 23 28 22 23 45 59 21 24 24 16 7 10 40 11 7 23 24 38 73 98 105 96 52 71 86 38 16 25 17 18 24 14 36 18 14 11 16 4 14 14 12 11 2 0 
0 36 34 15 24 5 4 13 31 16 14 11 5 5 2 8 12 5 18 13 11 29 50 44 24 40 36 15 62 106 55 61 67 22 26 14 10 17 27 31 142 210 82 224 212 64 74 52 78 145 153 137 48 92 210 42 66 185 79 10 107 164 114 52 46 18 2 15 120 168 128 122 102 228 200 60 128 104 35 148 116 6 33 5 51 25 47 173 142 97 112 81 126 97 93 28 231 224 79 183 76 156 72 246 68 19 126 40 157 19 35 10 1 10 14 8 20 23 10 18 15 15 15 10 5 7 8 11 5 5 7 19 34 59 100 132 122 83 59 67 54 34 17 104 49 106 157 85 53 12 65 24 52 77 39 62 205 56 19 145 53 100 125 168 70 91 151 157 78 17 13 11 18 5 24 91 150 219 225 166 14 49 34 124 17 193 63 37 24 35 62 76 47 179 134 171 22 18 8 11 8 2 5 18 95 75 64 65 13 28 20 29 66 38 47 45 25 41 25 24 34 45 26 5 16 15 10 16 12 14 19 32 39 4 2 5 10 24 31 24 18 27 43 12 17 25 23 8 15 21 44 27 13 30 19 8 14 34 28 21 20 5 15 12 8 10 12 7 7 22 31 24 20 20 17 14 17 19 12 29 41 11 31 43 10 22 26 8 21 12 18 9 25 30 16 54 15 17 8 1 29 9 11 2 29 30 14 11 45 62 81 49 40 70 90 107 106 149 127 49 5 62 86 195 78 132 59 18 26 7 20 32 16 1 11 16 14 24 2 4 43 27 4 4 24 18 8 4 49 69 43 62 88 62 49 56 28 12 12 11 27 0 9 20 46 20 9 48 17 21 27 54 85 91 26 11 18 9 17 68 214 245 139 55 64 226 14 174 91 71 130 2 118 17 24 24 20 18 23 16 1 10 12 15 42 130 164 133 77 26 4 26 25 5 35 82 72 10 29 14 29 12 21 20 17 29 12 46 34 31 13 5 10 35 30 17 15 18 17 26 18 11 5 25 17 5 11 21 11 3 7 13 14 20 22 4 18 11 13 30 31 11 15 16 21 14 22 16 27 1 15 17 25 39 44 57 39 17 10 10 27 18 12 16 14 33 68 83 86 89 55 63 74 39 10 17 17 17 17 6 35 6 18 24 6 17 5 9 11 2 15 0 
0 21 22 21 31 13 17 17 35 11 13 15 14 11 3 13 11 7 25 18 8 26 44 49 34 44 32 20 50 86 74 72 57 24 40 14 10 21 27 33 105 242 191 146 71 234 89 102 169 199 85 42 135 183 171 132 45 113 118 47 138 167 90 6 28 22 84 177 212 137 69 46 168 222 124 83 63 74 137 88 19 23 13 8 41 12 87 153 58 133 47 143 86 160 85 140 240 144 80 152 14 207 41 255 160 210 13 212 35 60 23 17 13 6 12 15 15 24 11 7 6 14 17 11 5 3 5 16 10 10 24 27 26 53 97 144 131 135 104 90 89 26 37 88 39 122 160 35 60 83 113 255 26 50 50 31 133 21 30 212 34 97 105 167 140 103 194 143 53 22 16 26 2 42 17 209 123 53 223 46 74 54 41 197 54 114 35 57 31 48 10 243 167 145 211 17 36 7 6 17 14 6 7 25 101 100 83 96 9 29 28 45 59 36 40 50 20 37 36 18 31 29 22 9 13 17 1 19 30 26 1 24 42 20 16 15 16 22 30 36 36 19 38 31 9 5 17 31 24 18 28 51 19 43 4 16 7 18 29 30 17 5 9 15 9 17 28 30 27 35 26 17 7 20 18 12 29 15 10 27 38 11 35 42 21 10 22 21 17 38 4 25 27 23 43 40 37 9 18 22 19 6 15 19 37 23 13 8 22 48 86 62 26 35 73 94 122 193 131 24 19 48 80 142 70 183 54 20 30 21 7 22 17 18 10 6 30 21 23 23 52 24 14 14 25 15 21 48 63 66 47 65 72 50 57 49 11 14 7 11 22 3 12 17 46 18 8 45 27 15 2 49 67 86 10 11 9 7 20 55 188 7 171 36 59 203 34 206 93 119 94 247 137 11 10 17 13 10 19 13 14 15 24 30 47 143 166 105 58 37 11 28 20 17 36 58 51 12 25 6 20 18 10 10 6 32 7 53 29 15 18 36 39 21 7 12 10 13 27 41 5 21 20 30 32 4 2 16 8 3 8 10 3 17 23 10 18 35 28 24 28 31 32 21 2 18 17 12 11 5 5 10 13 19 14 34 39 38 20 9 21 8 4 20 23 41 63 87 84 87 74 58 58 51 19 8 13 10 15 32 14 19 9 34 12 22 2 10 4 10 26 0 
0 21 24 28 41 12 10 8 40 12 3 2 10 24 25 25 12 5 18 22 12 21 33 44 44 53 34 33 40 60 98 86 40 22 46 13 12 21 17 40 29 174 55 171 159 61 198 99 184 69 115 182 161 110 45 98 182 169 41 116 158 143 61 24 19 48 231 58 219 49 75 116 217 166 70 128 76 168 117 16 17 11 6 8 26 75 130 74 77 120 44 168 48 188 37 142 180 49 96 126 13 224 74 254 197 116 80 26 90 168 25 25 34 18 24 10 19 19 7 21 20 18 14 7 5 10 13 11 3 11 48 47 30 27 91 162 122 86 154 130 106 43 34 63 50 67 159 62 69 149 59 158 88 150 75 72 106 233 25 242 100 66 86 171 209 192 245 131 18 14 14 24 15 32 112 51 0 70 138 11 27 10 68 32 19 66 34 51 18 18 190 175 214 16 45 21 1 14 13 16 14 10 16 22 102 102 56 107 23 42 35 50 36 27 27 51 36 39 32 4 29 46 47 5 2 21 17 10 10 25 13 10 32 17 9 5 3 5 13 69 21 52 34 46 30 13 16 10 26 7 2 40 32 32 12 24 11 11 26 29 23 11 9 23 17 28 12 25 27 29 12 27 2 16 17 18 38 7 6 24 28 22 35 41 12 7 36 12 24 31 25 43 2 10 31 15 37 30 8 8 5 9 15 19 34 38 31 14 35 46 67 65 36 26 51 70 118 213 146 29 20 45 80 122 62 218 32 32 25 22 5 17 11 25 17 22 36 21 29 19 64 24 17 22 21 14 31 34 33 42 50 69 51 47 76 43 6 10 15 8 21 5 15 16 45 19 8 33 42 5 17 52 53 86 24 12 11 8 21 43 166 20 196 53 37 183 59 189 95 117 80 5 161 21 2 24 21 12 28 11 20 18 24 11 43 150 163 98 43 15 21 7 25 5 38 48 43 28 17 5 12 19 17 6 2 16 19 37 18 31 33 21 17 13 13 8 21 28 17 13 27 21 11 22 42 6 5 15 14 8 7 16 13 7 15 25 27 5 12 3 17 19 12 31 25 3 14 12 10 12 3 9 18 19 8 6 13 16 12 14 35 22 13 20 44 64 67 99 86 85 90 52 45 65 26 29 15 16 16 29 32 5 31 28 25 12 8 5 10 25 28 0 
0 26 17 14 27 10 14 10 24 24 29 35 36 27 7 4 2 4 17 14 12 21 32 37 40 50 35 52 39 50 112 85 32 24 42 8 4 12 20 38 15 49 203 38 173 86 227 111 111 177 211 141 76 27 27 67 59 70 90 89 114 129 77 46 29 56 252 185 129 143 91 134 175 52 110 68 111 118 15 24 2 9 8 4 59 126 95 43 90 5 149 126 131 167 19 170 171 63 110 78 12 222 123 250 249 12 46 178 9 244 17 41 34 8 24 11 6 12 10 19 16 9 5 8 9 13 10 9 15 33 60 27 34 11 58 154 237 214 95 141 139 45 15 35 127 149 84 124 109 64 90 141 118 139 119 55 99 199 14 6 138 27 43 113 158 183 162 39 19 4 31 26 8 17 219 93 110 146 101 39 29 27 176 89 196 61 31 53 26 174 123 210 68 82 19 3 7 9 5 14 20 13 16 18 107 106 50 100 12 25 25 44 46 49 38 29 41 58 45 14 19 29 55 30 30 38 9 8 21 25 14 2 20 21 14 11 8 7 13 61 39 58 9 36 21 21 22 2 11 11 14 23 31 20 22 22 26 21 4 17 21 1 22 44 29 39 25 24 26 12 4 34 8 37 45 42 36 24 44 47 33 33 25 32 9 37 42 23 21 17 37 42 34 7 22 31 28 37 15 6 21 16 25 4 22 26 10 34 42 33 56 58 44 30 41 45 99 217 169 66 25 44 77 111 50 254 19 29 19 15 10 14 1 21 19 9 36 24 38 34 56 18 21 45 21 8 44 37 30 62 77 67 47 59 81 33 8 5 10 12 24 8 12 23 44 22 16 23 43 19 18 38 40 70 35 13 12 1 27 32 123 8 215 92 27 137 93 141 53 85 47 6 201 26 6 24 29 21 30 12 21 20 25 13 58 157 166 103 32 14 22 17 29 11 41 66 59 38 2 19 28 33 34 26 18 12 15 17 14 27 21 14 27 17 13 17 12 10 1 17 32 4 13 23 48 21 25 25 21 14 4 5 8 6 11 17 18 9 4 12 13 7 31 18 26 26 10 34 13 6 9 10 18 28 28 15 15 20 3 22 14 15 8 13 67 81 84 126 108 89 90 36 31 59 16 37 25 21 23 41 34 10 32 17 31 9 13 4 22 39 31 0 
0 16 13 6 11 9 21 19 18 17 17 9 2 12 13 10 5 7 13 12 15 24 24 38 48 41 30 65 42 51 104 83 51 33 29 5 8 10 8 24 29 22 58 176 29 219 93 78 34 120 85 48 57 71 79 95 114 75 7 65 134 154 89 8 12 52 226 232 179 127 94 127 100 40 114 6 100 42 55 39 25 5 5 24 87 87 51 111 16 130 170 15 163 105 26 177 156 93 80 16 35 193 167 187 37 110 179 16 163 2 50 24 17 8 16 23 22 18 8 25 11 13 8 8 5 11 5 21 7 38 52 52 49 10 18 44 137 222 213 144 115 27 23 99 21 65 236 94 74 76 141 173 247 223 150 252 166 158 219 19 157 4 21 70 75 94 57 12 10 8 35 12 20 34 36 42 59 162 39 87 40 50 18 48 97 24 51 80 36 125 212 84 117 15 6 15 8 17 21 18 5 6 12 20 115 109 43 72 28 21 34 28 30 67 45 20 15 37 65 27 8 16 33 32 17 27 14 6 8 15 14 16 24 24 11 7 11 14 15 41 25 24 26 52 22 19 26 18 2 12 16 10 14 10 16 15 23 12 12 21 15 9 23 31 47 26 33 17 10 19 20 31 7 59 21 26 18 33 41 26 24 35 19 19 41 48 20 21 36 27 31 16 41 23 32 28 32 43 22 22 28 13 27 19 14 38 26 31 22 29 66 62 47 37 43 21 74 219 197 92 5 44 85 96 23 49 26 55 34 19 11 6 12 22 13 20 38 26 10 15 30 25 31 23 21 12 55 31 36 83 59 43 66 76 57 10 7 10 10 10 20 3 8 32 41 14 20 29 41 8 18 22 38 50 34 9 5 14 44 35 75 232 221 110 23 95 133 76 55 89 48 227 244 45 22 10 18 14 10 12 43 15 4 37 86 165 170 100 40 39 31 6 37 14 51 93 67 28 18 13 14 10 6 8 13 11 20 16 18 15 13 26 6 13 20 9 12 24 19 29 20 31 21 15 28 8 3 3 11 7 6 8 9 11 23 48 36 18 8 1 9 18 38 48 8 41 3 42 3 8 8 8 8 6 25 20 12 13 34 19 10 22 31 34 75 78 86 136 99 56 66 28 19 33 10 26 29 27 16 18 23 17 7 25 14 20 0 30 34 49 19 0 
0 17 33 26 11 31 23 15 13 23 25 17 11 7 25 32 17 5 9 14 23 24 17 40 48 39 31 64 50 48 91 87 61 25 19 7 7 4 4 4 21 36 16 41 150 238 221 161 74 71 72 88 100 72 13 17 90 128 126 81 114 151 117 41 45 59 161 139 44 57 109 100 16 100 65 17 68 75 55 31 47 5 55 98 83 26 83 59 104 184 38 110 95 77 44 180 121 147 71 68 45 143 172 113 44 168 84 240 81 232 54 21 15 12 13 17 21 20 21 10 24 31 18 19 14 21 10 12 9 24 28 37 37 98 105 100 79 56 76 11 82 26 27 181 72 145 245 94 31 13 132 139 28 249 197 237 198 154 87 254 121 13 5 45 21 41 19 15 5 20 33 13 17 115 53 168 131 78 52 22 20 121 47 211 28 109 174 194 220 24 169 156 19 8 8 8 13 19 9 10 14 12 3 11 123 107 44 47 38 4 44 16 17 60 44 44 22 17 67 27 22 24 7 16 39 22 13 4 11 16 19 14 16 15 11 16 5 21 19 27 22 7 16 35 12 27 29 32 18 18 17 13 7 10 16 14 5 2 12 27 30 10 22 33 12 11 14 34 24 22 14 18 28 43 32 11 12 26 35 29 20 20 7 21 51 39 17 34 34 35 8 19 35 35 24 18 20 35 47 40 17 13 21 23 23 37 28 30 12 5 53 77 62 41 40 3 65 220 219 94 5 37 96 79 253 86 38 63 45 26 21 20 12 19 13 18 37 20 10 20 28 15 27 40 10 35 49 24 38 81 48 54 83 50 19 0 7 11 2 21 29 20 15 33 41 11 7 25 23 22 20 9 14 32 30 8 14 7 45 32 56 214 216 133 32 92 128 54 101 74 61 192 7 61 24 32 15 8 1 15 42 37 20 70 104 168 155 72 5 10 5 14 36 22 67 85 56 20 19 16 35 19 20 12 8 20 24 34 41 40 35 18 4 12 20 15 27 19 33 28 60 51 36 32 9 8 14 17 25 24 17 15 12 4 10 26 19 21 11 18 13 31 12 53 7 39 5 39 5 7 11 13 7 10 24 13 24 6 40 25 8 19 17 79 99 83 81 136 82 11 51 36 14 3 23 2 22 22 16 17 17 22 11 10 21 8 34 53 40 40 4 0 
0 25 48 20 21 40 17 24 13 18 17 33 28 15 28 2 16 10 13 19 26 25 20 39 36 44 37 58 62 39 80 84 59 38 28 17 18 12 3 14 19 29 19 25 7 82 111 103 69 21 58 53 82 139 171 168 119 45 34 38 143 172 126 48 17 13 136 105 53 57 98 76 109 123 51 24 37 55 32 66 56 49 106 86 43 44 66 7 173 117 138 125 22 71 64 153 103 150 55 96 72 108 159 70 43 187 10 181 108 222 108 29 23 5 5 5 7 5 3 16 29 23 32 31 1 16 7 7 13 3 25 18 82 134 90 129 101 46 79 62 76 16 32 166 11 163 144 87 131 94 155 108 50 40 112 192 248 11 241 160 52 16 4 36 12 29 9 22 2 24 5 26 39 219 16 2 95 32 15 32 95 242 243 119 98 248 10 23 107 14 254 4 23 0 8 3 11 12 9 9 10 14 4 27 152 121 76 62 55 24 56 16 25 63 39 51 36 8 52 21 4 22 14 21 31 26 26 25 23 21 21 18 29 39 33 19 14 25 22 24 15 7 11 20 16 18 42 32 10 5 8 8 6 0 7 14 16 10 8 7 13 21 20 1 8 4 12 17 3 10 12 14 7 7 29 27 14 7 20 39 35 5 16 40 55 44 34 39 24 36 26 25 32 37 10 15 19 7 8 15 18 22 19 4 32 24 17 36 15 2 37 72 72 64 49 25 73 196 211 113 24 45 118 68 229 91 79 37 30 20 19 22 15 14 13 29 42 20 15 38 37 20 9 37 30 15 28 25 43 69 56 87 90 35 8 2 12 8 11 27 17 23 21 29 35 4 10 21 1 19 16 7 13 24 24 18 11 24 37 15 52 211 212 152 38 100 99 55 81 48 46 170 21 97 36 32 20 9 15 19 12 9 56 101 119 166 123 40 7 13 27 32 43 22 53 59 51 14 14 18 32 3 5 13 7 21 19 16 14 2 13 20 9 8 20 25 14 26 14 41 9 15 8 17 23 11 16 4 20 11 8 11 8 7 9 28 28 8 14 10 15 24 8 44 14 28 13 33 3 2 4 23 5 21 19 4 12 21 31 26 13 5 40 88 87 65 76 120 82 27 36 39 4 19 15 14 32 28 7 8 7 10 17 14 10 17 40 38 6 29 24 0 
0 15 48 24 7 30 12 24 18 27 17 14 22 13 12 18 1 11 14 23 29 28 21 36 26 48 44 57 70 30 68 86 58 39 33 11 11 14 7 4 11 26 31 15 33 24 39 87 112 50 48 120 151 111 39 41 31 57 89 104 188 181 82 19 19 65 122 39 78 94 72 13 101 56 44 12 6 47 80 59 39 100 77 34 79 86 63 49 195 40 204 88 106 74 55 121 74 133 62 101 104 109 185 67 55 199 56 142 221 173 222 16 6 7 5 5 5 4 3 15 32 19 23 30 25 29 25 9 6 14 7 8 73 163 46 74 90 85 48 71 27 38 186 53 190 62 176 204 225 239 205 125 26 179 64 16 163 96 83 44 12 11 16 30 2 23 11 13 26 27 70 124 169 6 177 121 85 80 40 21 223 1 117 66 234 59 171 114 228 81 96 37 5 9 8 4 9 5 5 24 19 31 12 38 158 110 62 78 79 16 80 35 36 48 56 35 42 35 41 25 9 7 37 28 10 10 7 1 4 16 25 14 8 22 24 10 10 25 37 17 4 8 12 3 24 10 47 20 31 28 18 7 3 12 18 16 1 25 15 10 4 22 33 22 14 11 27 24 17 19 19 18 17 27 42 52 33 28 36 61 38 11 27 58 62 49 42 27 13 39 48 25 30 41 25 28 15 16 19 31 49 59 53 31 23 8 17 42 29 8 33 52 65 101 75 37 76 145 177 152 77 53 143 75 222 83 105 36 14 11 5 15 15 16 19 39 45 26 23 31 27 5 17 34 29 22 22 32 55 73 77 106 79 18 10 1 18 4 22 21 17 28 9 38 32 7 18 22 18 17 12 0 22 21 20 24 7 18 15 16 52 203 216 179 62 90 82 57 32 25 21 133 16 113 11 36 34 13 19 4 13 11 86 130 120 146 86 32 38 36 18 19 34 5 45 54 45 11 18 27 35 17 14 17 8 8 14 26 29 26 21 5 18 25 29 43 30 27 44 64 54 43 35 8 33 4 12 15 15 30 29 26 19 17 32 31 9 17 19 5 16 15 13 24 27 31 15 25 29 25 12 32 11 33 15 7 14 30 33 39 30 34 43 76 76 73 102 103 71 37 20 25 21 18 5 21 24 30 10 4 2 21 15 20 29 25 28 29 7 41 30 0 
0 11 20 22 25 20 14 11 11 13 33 34 18 5 6 14 14 11 16 24 29 31 23 32 23 50 50 63 71 24 57 93 68 31 27 12 5 17 27 23 17 13 31 33 21 69 101 127 76 56 99 68 50 107 159 153 89 39 18 75 176 116 18 52 72 92 88 20 79 57 37 74 109 45 76 38 65 92 60 53 128 79 7 52 67 55 9 143 190 54 208 79 103 92 38 144 55 133 62 93 127 111 200 8 41 237 88 74 24 30 43 64 18 9 8 8 8 8 7 7 18 19 12 25 20 16 6 20 16 10 22 29 33 129 84 122 113 52 120 78 48 121 55 101 46 87 57 158 52 91 60 28 179 250 152 182 152 51 40 36 14 10 30 22 12 24 20 19 24 70 216 229 193 120 90 159 62 89 118 127 27 220 135 203 251 172 43 47 192 16 135 52 21 19 5 13 11 5 4 32 16 39 16 37 162 111 64 80 66 21 86 25 35 34 44 28 45 64 49 26 18 10 54 34 13 20 17 12 8 13 21 10 19 13 26 29 15 11 51 24 13 8 12 15 16 18 43 13 16 7 9 10 12 12 11 12 10 27 8 21 25 25 33 17 27 32 11 11 3 21 28 32 22 25 49 45 24 27 45 50 19 12 32 65 64 47 33 27 39 43 49 24 32 39 27 33 36 33 32 42 58 74 79 53 18 14 18 43 34 14 27 36 53 122 86 26 63 101 139 158 122 65 134 85 238 71 112 31 20 18 10 2 9 14 17 32 33 15 1 17 24 11 22 32 28 31 32 40 57 81 89 96 54 8 14 3 18 4 27 5 24 20 13 48 24 12 19 28 22 18 25 17 39 21 11 28 7 23 11 11 35 184 224 205 87 67 27 41 33 41 62 110 240 145 12 23 52 24 23 15 2 6 105 153 124 126 71 32 32 17 27 36 20 31 72 66 28 15 21 22 28 18 16 8 2 7 12 14 8 12 22 16 21 41 44 38 16 10 53 21 24 13 35 6 30 14 4 20 27 7 7 7 12 17 15 27 10 20 11 13 4 0 17 11 15 26 22 5 15 24 26 29 8 36 21 8 10 23 23 17 33 55 59 86 90 91 112 79 48 33 2 20 21 20 20 21 10 22 14 12 5 24 7 8 20 13 26 29 17 49 25 0 
0 9 20 27 23 8 11 18 10 12 13 19 22 15 0 19 17 9 17 25 29 32 25 29 26 48 52 76 67 21 50 88 78 38 38 33 29 19 2 28 42 31 29 75 137 160 129 39 77 130 57 30 40 6 41 64 59 37 29 113 172 66 38 28 46 45 38 44 85 56 68 131 117 60 121 45 55 49 14 87 51 62 65 41 43 26 63 222 136 165 206 67 39 22 62 193 97 198 105 71 155 101 157 76 218 14 121 19 237 149 12 175 6 8 5 5 5 5 4 21 45 43 28 25 10 18 28 20 4 21 29 47 45 49 91 72 66 254 70 94 72 148 21 38 163 58 93 249 226 153 57 221 131 126 14 6 173 86 64 41 15 11 41 15 26 24 19 13 90 18 106 38 220 127 62 48 28 28 47 83 20 110 111 24 72 140 185 85 187 201 94 49 48 26 3 22 14 11 8 28 11 37 13 38 170 120 60 85 77 40 43 62 40 24 33 36 54 66 50 4 28 10 53 32 7 12 5 5 8 14 24 27 10 36 38 21 7 7 45 27 13 7 10 13 11 21 27 22 19 14 18 19 17 13 8 2 3 15 13 24 16 15 31 15 26 21 29 18 21 21 23 17 8 22 30 28 20 14 26 28 16 3 27 63 74 46 10 45 52 40 39 30 39 25 22 8 12 11 18 25 11 18 38 51 29 8 10 37 37 35 39 46 64 112 76 50 63 80 120 120 151 128 108 84 3 45 96 38 30 19 17 11 5 10 9 18 18 22 13 19 24 17 29 29 14 27 37 33 51 98 100 70 32 5 12 4 13 7 26 7 23 4 27 50 11 24 23 36 21 8 36 33 63 16 13 31 18 20 12 15 7 153 237 212 88 48 21 61 48 16 77 83 178 171 7 7 57 38 22 17 9 18 116 183 133 104 68 21 11 14 15 21 8 44 63 32 2 17 21 12 8 5 7 4 2 11 12 18 17 7 7 26 9 17 20 6 14 14 31 25 26 21 18 14 12 17 17 29 36 18 12 10 8 13 13 17 9 11 10 8 22 21 25 10 20 17 29 22 22 25 35 37 22 22 20 5 8 27 37 9 26 34 55 93 95 80 93 67 28 22 15 22 4 26 18 19 19 2 11 15 6 21 16 9 19 13 39 39 24 38 18 0 
0 18 27 3 33 44 19 17 24 4 20 22 6 11 14 22 14 7 15 24 28 31 25 26 32 43 49 92 59 20 48 87 91 46 40 21 8 17 12 30 71 101 159 194 190 103 70 116 106 46 28 11 44 13 68 41 13 50 44 147 157 5 69 20 33 25 15 22 75 67 118 174 76 50 138 51 44 50 76 38 52 78 39 30 50 13 154 208 19 216 168 36 41 74 82 192 70 195 153 38 206 127 61 89 124 8 140 52 163 9 145 2 32 11 12 15 19 20 20 34 39 11 22 33 17 3 11 11 8 19 60 115 96 65 76 103 245 90 55 89 91 57 29 139 210 243 114 145 118 167 152 102 178 225 200 156 98 49 28 8 5 4 42 15 34 16 10 71 68 153 20 148 142 199 209 220 203 146 110 77 51 153 102 114 202 172 110 179 232 188 105 58 47 30 7 29 13 11 9 16 6 32 11 41 165 131 39 68 39 35 22 34 48 39 51 55 47 42 48 38 12 32 50 23 7 18 9 8 14 17 20 15 21 13 7 16 17 18 18 30 10 7 16 17 8 30 8 19 15 7 12 16 19 20 17 18 27 28 8 15 22 11 16 22 8 14 35 14 28 29 15 25 18 27 22 28 28 21 19 36 34 18 22 58 89 54 13 45 50 44 32 41 40 11 33 14 17 10 17 10 22 24 7 47 51 26 34 60 73 59 56 53 66 97 70 78 67 71 110 85 102 86 71 90 28 11 55 25 16 17 19 17 1 7 12 18 8 12 9 43 55 43 20 25 14 30 56 34 56 130 119 50 5 11 8 7 8 6 21 7 23 10 27 46 13 33 28 40 22 5 46 43 84 8 37 28 17 11 17 3 21 130 1 216 97 21 52 91 85 20 95 85 125 157 48 24 31 41 19 12 11 36 118 202 133 72 63 18 22 14 21 27 19 51 64 20 8 13 16 19 28 15 13 5 3 14 18 22 19 8 10 17 14 11 31 35 15 15 12 3 17 6 24 36 25 7 21 25 23 28 22 10 11 15 14 20 19 15 35 1 51 35 42 24 31 38 22 19 22 29 23 20 33 28 26 20 15 12 50 27 35 52 79 107 94 68 85 63 17 22 28 7 15 11 25 25 36 23 20 22 13 20 24 17 24 26 39 17 15 30 16 0 
0 28 24 19 7 34 32 23 20 25 26 29 27 10 10 31 29 19 10 28 27 30 21 17 38 48 54 85 55 46 67 102 93 35 37 28 11 13 11 63 157 181 156 125 25 114 165 116 27 37 48 28 48 46 45 14 29 40 89 154 100 82 60 27 41 44 28 33 67 72 167 144 12 86 143 64 20 48 38 43 42 11 26 27 52 71 228 105 137 164 107 51 40 75 72 182 67 174 187 25 236 190 63 60 88 252 172 61 82 26 41 9 68 14 15 10 27 47 46 17 27 53 43 20 16 27 26 19 16 28 54 133 55 32 92 197 53 250 136 109 122 168 63 158 206 63 195 216 160 94 20 211 161 94 23 17 24 28 27 22 28 27 38 18 39 20 8 228 176 226 36 25 37 72 127 188 250 1 253 22 32 77 142 82 174 29 200 19 235 153 68 28 17 28 12 27 11 7 4 9 5 24 16 34 145 132 27 64 23 13 52 22 53 58 71 57 43 36 16 38 27 7 35 11 12 17 16 11 10 10 17 2 16 36 23 14 24 26 7 18 10 10 17 13 4 24 15 12 21 1 7 9 5 10 14 8 6 20 24 13 4 17 12 9 12 7 14 23 19 30 11 28 11 33 7 11 36 30 17 19 45 35 27 49 96 69 26 47 48 50 22 41 41 37 41 30 43 35 12 6 12 14 21 17 38 55 48 13 14 20 65 60 66 97 79 105 79 56 84 58 68 60 47 140 55 214 23 19 12 19 25 28 22 17 15 28 15 6 21 62 43 8 9 12 17 36 66 47 93 150 92 12 14 10 0 10 4 7 21 5 20 8 28 34 10 18 49 35 30 15 46 50 79 3 40 20 29 13 32 13 46 115 13 222 117 42 24 100 107 20 76 96 101 136 97 32 15 41 24 10 13 43 125 208 134 57 51 16 12 13 41 38 27 69 69 17 5 8 7 11 27 6 10 5 8 25 20 13 2 11 22 22 20 16 30 6 20 12 0 14 19 10 42 20 45 25 4 10 21 26 3 8 8 25 19 2 28 31 27 20 41 41 34 24 24 19 25 25 10 28 31 13 14 13 25 14 23 13 46 31 50 92 88 93 81 60 83 49 17 36 19 21 22 15 26 43 22 41 26 13 10 15 37 43 38 28 25 18 7 19 18 0 
0 33 4 6 31 26 16 10 14 14 15 18 10 13 21 8 18 27 13 31 23 28 17 16 36 53 63 58 38 22 79 118 80 29 33 34 15 47 90 172 213 126 5 73 155 171 99 35 41 43 17 20 24 37 14 21 49 12 126 129 28 22 36 79 68 94 49 43 43 90 155 52 53 103 129 24 52 31 43 84 37 45 12 71 50 150 236 14 177 85 69 60 30 53 89 195 72 167 200 39 188 7 109 38 100 255 176 67 23 227 127 248 158 29 19 19 48 62 51 34 40 48 41 12 18 19 20 13 13 16 20 89 112 97 114 220 82 64 77 120 88 180 32 8 20 43 69 114 88 48 94 103 38 3 26 27 15 17 9 32 31 28 23 43 25 15 62 112 73 22 31 8 9 29 36 44 67 131 208 18 51 22 228 64 151 239 34 4 188 113 41 11 8 15 4 15 15 10 11 12 19 30 12 30 122 131 8 62 38 38 61 7 55 53 55 42 42 41 40 37 19 9 21 12 7 10 14 22 26 17 27 16 14 12 12 19 29 10 15 12 15 16 11 15 7 13 11 11 16 13 14 17 14 5 5 4 12 16 29 29 29 9 21 7 15 24 7 10 7 16 25 14 15 36 28 5 42 38 21 24 38 35 31 39 92 79 35 62 47 40 12 29 24 33 25 24 37 71 60 54 50 32 31 40 37 55 32 17 34 18 35 71 58 76 85 126 113 65 68 38 33 47 102 238 17 115 30 22 7 25 26 28 13 14 5 25 12 10 35 55 32 24 8 24 46 66 73 90 132 119 27 20 6 4 9 11 2 16 26 15 26 8 27 23 19 13 58 18 39 23 37 47 52 20 23 23 29 21 43 36 56 88 7 222 137 93 28 106 106 34 18 85 119 135 135 42 31 24 46 7 23 60 166 217 131 45 16 18 8 7 42 38 63 73 43 8 19 10 3 4 33 17 17 14 22 28 24 24 17 20 22 15 3 26 26 8 14 24 17 24 9 14 43 15 35 20 18 8 29 17 29 31 26 36 30 17 18 32 8 13 17 38 10 12 31 12 30 10 20 28 32 11 39 32 41 11 19 13 29 15 52 96 62 82 88 65 77 32 20 43 9 24 4 19 10 39 10 20 17 9 17 34 49 30 21 21 10 19 14 6 12 0 
0 25 20 27 20 4 12 21 18 14 17 16 10 6 9 19 27 22 4 23 24 27 19 44 53 41 56 55 50 34 71 114 78 31 23 36 110 152 155 165 112 44 156 182 164 91 30 18 38 17 23 14 11 17 21 46 33 53 123 112 29 38 65 54 35 105 62 46 21 100 98 28 81 102 80 28 48 29 62 61 24 68 29 76 32 190 200 96 155 35 72 59 21 46 86 188 109 140 197 66 93 238 226 123 108 37 201 59 18 189 18 225 54 31 36 8 43 45 67 73 31 2 21 24 34 24 42 31 17 8 5 14 17 36 74 119 4 111 112 43 200 110 47 46 63 78 55 109 99 109 152 208 127 48 9 21 30 24 14 41 5 18 18 35 18 17 174 162 196 21 23 21 62 61 35 8 7 18 34 28 25 26 80 167 236 219 195 147 114 62 27 16 13 14 10 11 12 2 8 29 28 39 19 32 128 131 5 48 14 31 58 15 43 50 59 29 46 69 42 22 15 20 13 6 17 5 15 25 3 21 10 28 25 12 21 11 14 7 14 13 15 9 8 26 9 20 28 36 28 22 9 9 14 8 7 7 20 4 12 13 40 5 21 15 2 24 4 2 12 9 24 20 24 34 31 10 36 57 15 44 43 37 16 34 87 68 31 59 33 27 25 39 18 56 58 67 79 116 171 184 140 89 59 43 37 33 16 4 22 16 7 59 47 60 82 128 132 92 83 49 29 29 177 243 151 37 36 28 30 12 12 26 18 5 5 14 15 10 46 42 11 3 33 45 43 60 80 107 113 63 10 5 8 8 8 13 2 18 27 19 27 7 30 28 27 26 34 25 23 22 28 37 40 29 3 48 34 7 54 21 57 54 0 229 150 119 25 103 123 85 50 40 136 147 160 62 28 8 44 20 31 99 196 197 103 34 34 32 14 8 29 32 55 58 24 14 15 6 14 11 23 14 23 22 28 38 31 17 12 8 11 13 17 13 24 8 12 30 15 22 12 6 25 32 47 26 14 9 24 16 20 14 13 28 23 17 14 37 13 22 25 6 2 11 20 29 4 24 15 16 15 40 57 32 55 9 20 17 25 4 49 99 64 87 96 64 63 39 43 31 6 19 1 5 17 17 13 13 1 21 20 31 22 3 19 33 31 24 6 11 19 0 
0 28 12 7 10 8 21 6 11 4 4 0 8 13 16 11 13 15 9 7 28 28 27 55 37 22 45 64 57 27 62 88 84 71 61 113 171 141 64 55 143 193 182 113 50 5 41 27 10 30 29 25 22 14 13 41 6 91 124 89 20 9 60 33 49 96 77 45 52 60 104 71 81 68 62 33 17 60 41 39 33 63 53 36 144 241 84 171 127 36 69 59 4 39 85 195 146 91 157 113 27 132 6 228 60 61 14 69 20 150 130 101 145 140 14 37 63 67 69 61 24 31 22 5 53 69 72 72 18 3 8 16 15 41 64 53 75 70 55 40 26 23 10 27 16 37 92 155 79 98 91 131 105 45 29 26 23 13 7 44 8 22 19 8 8 14 58 175 142 76 65 69 86 61 48 47 61 49 26 24 57 55 130 238 205 176 149 117 77 24 11 8 7 9 9 15 18 16 20 29 14 39 17 37 144 122 15 48 52 50 14 25 42 44 63 19 7 58 39 28 28 27 13 8 9 17 15 23 14 8 16 26 27 16 23 13 16 17 17 15 7 19 18 21 10 22 29 13 25 19 7 15 9 13 31 39 49 36 22 10 34 7 20 8 23 24 10 5 9 10 10 3 17 35 21 10 14 57 57 24 13 46 25 32 84 73 27 71 40 13 31 51 63 128 161 211 252 9 19 8 254 217 166 138 116 62 5 17 18 17 26 58 58 58 74 119 113 90 96 75 52 105 207 154 46 38 7 23 20 5 6 19 25 13 11 11 23 24 53 49 20 7 53 25 19 70 96 106 88 41 15 16 12 6 1 13 3 12 25 16 19 8 38 46 36 50 47 33 26 28 29 34 47 30 2 58 24 39 32 19 44 20 244 253 147 119 15 91 158 123 96 35 138 162 160 73 19 37 32 36 47 129 192 163 73 22 25 27 32 16 39 22 64 73 37 35 37 29 16 16 8 17 6 30 24 15 15 6 20 3 14 18 17 6 11 30 34 22 7 22 5 10 7 25 7 18 16 13 16 11 18 19 20 8 28 35 13 27 21 28 19 17 13 8 26 15 25 9 11 15 8 34 16 32 53 15 15 8 21 25 52 105 84 91 92 64 51 39 24 4 17 8 10 11 22 15 5 15 2 21 42 34 27 25 28 33 15 17 15 17 31 0 
0 28 13 21 17 2 15 10 7 16 12 8 7 8 14 11 12 27 21 12 23 25 36 65 45 29 41 58 49 35 69 60 48 79 69 35 105 158 174 181 193 143 68 5 46 30 21 32 22 20 32 48 22 8 8 37 26 112 117 44 13 37 57 24 45 98 96 33 64 26 79 43 36 55 58 38 43 29 17 39 29 24 83 168 13 212 125 182 53 26 47 45 19 9 19 182 152 63 96 94 94 64 250 10 65 29 101 136 44 85 138 130 95 219 30 33 35 46 41 30 58 42 26 20 62 113 73 110 8 7 8 25 18 41 50 12 21 69 92 59 9 24 16 78 7 121 73 127 72 120 140 181 126 52 8 14 18 16 3 32 12 20 14 7 14 40 174 133 53 29 44 83 66 66 19 52 66 56 60 51 39 55 208 34 9 230 181 102 32 12 2 8 4 10 12 18 21 17 17 0 23 21 8 37 125 115 17 44 55 44 31 53 46 21 56 17 9 46 39 12 29 46 14 17 16 11 10 25 7 16 6 21 13 25 30 14 13 12 7 12 17 23 12 10 21 25 38 12 9 17 32 41 33 20 20 21 23 14 3 8 36 20 28 29 25 14 6 4 5 13 13 14 16 13 3 7 13 42 67 29 27 32 36 22 74 101 18 67 54 10 27 50 84 140 170 192 195 161 113 97 132 160 149 152 184 195 157 100 56 12 40 30 28 37 84 104 93 89 90 79 37 147 147 74 45 50 54 25 11 11 15 5 30 24 14 21 28 13 46 45 15 8 54 38 21 96 129 110 56 10 11 10 8 4 13 12 7 5 24 4 20 8 38 44 31 22 8 14 12 19 23 27 53 31 5 51 7 39 20 12 37 13 218 10 158 122 36 92 190 142 113 86 164 179 124 76 10 31 8 48 57 148 189 145 58 16 38 39 10 51 50 24 91 76 25 17 15 51 17 14 5 18 18 17 20 14 15 22 26 20 16 11 17 12 12 31 24 4 8 19 14 6 20 18 15 12 28 11 21 16 16 3 23 36 40 32 15 14 18 15 13 2 7 22 13 12 21 14 9 5 13 16 32 32 31 21 2 9 1 18 61 109 97 86 79 58 36 29 27 14 7 22 22 14 21 20 19 7 23 24 50 29 26 38 34 21 7 7 17 24 18 0 
0 24 22 27 35 19 19 18 27 18 12 23 25 14 4 10 7 20 14 12 23 21 26 67 65 35 29 55 43 34 63 68 26 20 53 97 151 167 126 80 47 49 24 40 48 19 10 32 17 22 34 48 20 6 18 8 73 113 87 23 8 33 71 83 97 112 45 75 72 37 95 136 127 102 88 55 10 28 34 48 24 3 124 37 209 94 204 131 58 29 5 45 44 14 24 167 162 63 84 15 87 47 192 1 179 171 141 218 43 36 59 246 8 23 53 17 39 38 35 12 56 29 32 40 57 123 83 117 10 5 12 10 10 41 65 78 69 43 9 65 72 29 13 169 193 193 185 36 187 104 73 89 27 24 32 18 15 21 2 22 22 13 4 13 20 144 214 15 72 54 19 99 48 96 24 35 27 25 38 56 89 128 236 15 179 164 97 17 8 9 5 10 1 5 7 14 16 7 7 24 9 1 7 32 100 129 14 45 45 39 37 63 30 25 32 30 19 44 50 19 24 39 26 34 27 14 24 4 14 5 18 15 16 10 31 19 21 19 14 11 13 25 15 12 18 21 34 12 26 24 13 28 36 26 9 14 40 30 19 17 38 9 22 19 13 15 13 6 6 2 5 6 3 9 15 11 25 28 28 25 7 31 28 18 59 106 60 43 44 28 19 10 64 94 130 150 100 80 84 121 150 142 100 72 17 89 145 172 170 90 28 27 12 35 78 111 129 130 116 65 85 122 69 43 17 10 55 74 43 17 15 5 34 31 25 32 39 29 16 36 25 8 8 49 87 134 144 93 28 9 11 15 17 6 24 12 14 6 20 7 12 19 34 23 10 17 24 32 38 45 42 25 54 25 5 31 11 21 36 26 30 14 175 3 174 147 80 107 209 131 125 113 195 194 89 85 31 33 39 39 54 162 190 134 51 19 7 27 20 44 51 46 91 63 19 24 24 41 14 10 2 16 12 15 10 7 6 31 25 32 24 5 14 14 21 41 33 14 12 7 14 18 15 12 11 5 28 11 22 12 24 45 43 32 20 8 3 14 13 11 7 31 32 10 13 19 1 15 12 9 3 10 12 22 18 12 15 6 19 37 84 103 98 68 61 59 26 20 20 13 9 4 13 13 13 23 35 33 41 31 37 26 25 30 23 9 10 13 15 20 16 0 
0 18 35 14 35 21 18 5 25 33 21 7 11 18 20 19 18 14 14 10 25 24 22 55 70 26 21 58 41 31 48 89 56 50 104 80 19 45 29 12 25 62 26 19 32 21 21 34 5 12 20 29 31 21 13 40 88 71 46 23 8 22 39 34 69 60 37 64 60 68 192 193 144 175 111 34 31 19 66 60 17 9 157 72 99 246 199 63 80 38 73 78 93 27 28 141 173 45 104 25 23 37 115 211 3 19 102 43 67 25 230 55 150 68 87 7 34 27 33 12 56 22 44 73 24 94 84 91 11 8 11 21 22 18 2 24 54 77 66 41 116 126 52 208 221 192 226 107 38 21 56 38 19 21 35 25 17 24 32 28 12 17 8 15 37 6 152 130 81 69 75 117 12 100 27 40 50 59 69 50 173 78 64 240 106 34 18 21 6 1 26 29 17 5 5 14 15 7 10 19 11 7 4 26 94 149 54 62 83 43 50 65 26 44 39 23 22 49 62 24 16 28 25 3 42 27 8 20 12 18 14 11 16 16 36 25 21 18 8 7 8 17 10 15 14 24 26 17 27 44 43 30 14 7 27 37 41 15 25 16 30 37 55 47 30 19 15 8 6 5 10 4 12 21 21 24 39 32 24 15 13 21 17 24 50 83 54 5 26 21 30 27 69 86 140 222 14 0 231 211 192 181 185 194 178 131 89 19 102 125 93 56 28 43 65 81 111 158 130 43 93 56 50 45 19 10 13 52 44 3 4 24 35 21 5 25 44 28 36 22 42 42 42 61 134 132 116 50 10 17 22 12 14 10 32 12 20 7 16 10 5 14 24 21 27 39 35 66 48 31 37 7 53 19 8 17 17 29 30 57 17 22 118 251 200 158 101 98 184 133 91 128 186 241 95 94 38 8 65 42 85 185 181 107 26 7 11 9 11 6 47 56 59 42 20 19 16 39 18 16 14 26 17 11 16 16 8 36 13 33 13 16 4 9 10 31 28 17 3 9 9 27 8 10 10 27 4 20 22 39 38 9 20 15 20 24 12 25 26 23 23 30 18 20 23 18 20 7 12 9 10 3 16 34 15 9 13 11 20 64 116 84 89 47 52 69 25 29 25 8 5 6 10 2 24 9 19 33 24 23 24 20 27 34 7 20 13 16 15 9 31 0 
0 42 21 12 26 8 10 20 19 15 3 14 15 6 6 15 7 3 14 28 25 29 25 21 73 44 30 59 31 33 54 89 78 80 104 48 32 40 27 10 36 36 13 25 35 17 25 37 45 31 10 11 25 32 38 61 80 59 55 27 41 38 54 28 71 37 49 48 50 157 206 71 153 194 98 23 32 51 63 47 12 47 208 10 90 18 119 32 85 36 157 87 134 38 23 118 165 21 113 35 47 28 82 111 244 144 7 101 143 34 165 104 45 98 137 7 31 22 25 12 53 64 74 118 48 54 42 56 15 15 5 11 4 11 17 21 7 29 79 119 66 115 142 159 115 44 79 54 254 70 56 37 23 28 41 26 23 14 11 15 31 15 14 10 111 84 19 34 51 55 110 158 76 67 10 47 44 18 39 37 29 178 231 105 27 32 34 10 18 13 34 5 21 16 13 18 17 10 11 15 7 8 3 26 118 152 38 25 89 80 25 68 55 24 24 20 25 30 63 30 32 47 28 33 43 15 14 17 30 15 2 14 12 16 36 19 16 21 16 19 28 28 15 22 11 15 14 23 1 23 21 17 26 32 36 12 38 34 4 23 36 24 29 30 19 9 11 9 12 20 25 27 29 36 26 11 54 26 22 17 13 24 14 15 45 84 63 10 7 27 53 8 31 41 84 131 186 219 214 187 135 94 94 119 133 114 140 136 67 25 81 73 39 30 52 90 162 189 88 42 46 23 58 43 8 13 39 62 33 4 18 34 26 7 4 27 31 22 3 27 39 27 19 68 126 136 87 17 16 7 6 13 11 10 36 9 24 8 12 10 10 15 21 31 32 14 24 73 28 43 45 26 63 22 8 19 18 28 20 61 18 20 61 242 2 166 73 84 130 132 38 166 118 13 134 109 54 15 60 93 105 180 160 71 4 16 27 20 12 25 21 30 36 35 20 8 13 33 16 23 4 18 14 5 1 6 15 34 12 43 23 5 18 14 11 15 11 21 11 7 14 22 8 1 19 24 37 44 65 39 37 20 38 29 13 27 12 25 32 28 28 38 41 38 17 8 19 19 5 4 8 16 23 43 7 4 18 4 26 82 119 67 85 37 51 83 28 34 17 19 16 14 17 21 5 11 9 6 14 20 26 30 22 23 5 15 24 10 10 23 29 0 
0 19 11 19 34 20 28 8 31 27 17 4 5 8 7 13 13 18 20 45 24 22 10 4 69 61 38 53 10 53 72 74 73 76 75 29 32 44 30 6 36 20 15 23 25 4 16 9 8 35 24 10 7 17 16 39 50 78 67 49 112 76 108 27 75 35 42 44 45 161 203 131 225 144 47 40 58 57 38 39 16 151 255 125 137 197 56 58 30 92 144 82 156 56 28 108 158 44 105 87 42 91 71 17 175 255 122 114 218 71 115 123 63 118 191 8 26 24 22 5 41 101 100 100 64 32 19 60 87 50 17 21 27 28 13 19 7 2 21 101 172 70 61 134 160 179 53 250 147 38 26 6 31 24 22 17 33 28 33 36 15 15 10 30 206 53 135 73 58 31 61 127 129 111 84 95 108 113 110 145 75 131 137 48 34 25 1 7 16 17 22 34 14 8 5 14 7 11 18 23 12 8 30 34 141 164 48 23 57 98 8 60 78 58 20 13 46 58 36 2 27 48 3 23 27 17 24 25 17 8 5 17 11 25 25 14 24 11 6 36 28 8 8 31 27 20 4 16 8 21 18 8 13 37 59 67 32 34 19 7 28 13 23 19 13 6 13 12 22 17 7 2 11 22 20 10 40 34 27 23 10 17 15 14 27 85 86 71 57 39 34 45 18 21 15 31 3 19 21 36 43 37 21 59 65 43 51 93 112 106 106 70 59 132 176 204 212 144 28 41 33 37 56 46 30 37 36 40 8 5 26 35 27 20 14 31 13 12 21 15 18 31 49 79 128 137 59 5 11 18 20 7 8 13 35 14 32 18 17 8 7 21 8 37 41 5 26 43 14 38 39 18 64 38 6 33 13 17 31 35 18 6 25 229 32 188 69 90 125 145 14 166 93 233 111 126 83 23 34 108 147 178 124 37 21 19 29 9 29 13 14 50 37 30 16 16 13 16 11 5 19 23 15 17 19 8 11 33 40 28 4 10 4 8 4 15 8 12 20 10 4 14 15 14 11 33 19 12 36 8 23 15 18 17 13 28 11 15 24 21 16 16 25 17 9 22 20 7 8 16 10 17 33 33 15 18 32 31 20 72 103 67 85 52 68 84 27 23 4 26 5 21 20 9 7 21 15 7 18 29 17 22 13 9 12 8 13 15 28 34 15 0 
0 23 18 17 46 14 23 10 10 17 14 11 9 7 6 14 21 14 18 44 32 31 26 9 74 44 41 58 10 73 76 58 79 59 44 43 20 20 11 19 24 8 19 37 24 24 30 28 30 24 28 7 11 18 18 37 63 108 82 94 125 54 138 56 104 40 65 33 36 115 210 187 172 85 28 37 86 37 22 27 100 6 187 43 136 129 89 54 73 109 71 65 150 86 12 98 181 114 123 167 32 141 87 28 87 48 50 80 28 94 63 104 188 106 19 27 25 30 25 9 7 49 122 131 44 77 146 22 46 238 87 58 27 20 21 14 3 7 22 13 83 134 87 108 5 161 132 62 48 41 36 28 5 4 5 21 42 29 7 45 71 83 115 178 243 152 136 136 93 52 61 117 165 154 119 106 98 128 237 67 123 37 78 57 44 61 11 21 14 28 17 17 6 11 11 14 17 31 14 36 14 26 14 30 158 192 24 49 33 110 8 33 66 87 23 18 62 36 28 12 32 15 21 20 13 17 11 9 11 13 17 15 10 27 7 9 18 15 16 20 30 46 40 43 8 16 11 19 8 21 21 27 11 27 8 41 30 34 13 15 38 14 36 26 29 8 15 16 30 13 24 27 32 17 15 9 14 25 20 15 14 24 23 18 17 56 84 83 71 34 11 32 10 21 34 39 12 15 23 16 15 3 28 38 23 17 16 16 77 148 205 227 11 35 250 202 143 54 31 37 48 48 40 60 43 12 11 42 9 11 20 25 49 10 5 37 11 18 29 12 8 55 66 98 148 109 28 7 2 5 7 14 10 25 28 27 32 20 26 12 9 18 16 38 55 7 28 45 7 43 20 28 40 47 16 51 19 32 34 26 18 21 27 214 25 214 104 80 162 154 28 139 114 207 62 113 93 38 18 119 186 154 87 60 23 36 5 16 9 36 10 71 29 10 15 17 11 4 14 16 24 7 10 13 17 12 6 8 7 16 22 8 8 10 17 2 4 22 11 7 19 17 7 12 14 31 25 32 15 24 18 2 17 16 6 11 24 5 15 15 21 13 15 20 12 35 23 29 8 11 26 10 42 20 7 42 47 41 52 73 92 82 85 67 69 58 16 8 20 9 14 6 14 21 10 18 6 6 40 15 19 26 7 9 17 13 5 25 23 17 22 0 
0 5 22 22 24 38 25 5 12 5 5 8 8 5 4 7 17 24 10 38 36 28 33 27 66 27 37 55 15 76 67 62 88 54 20 21 17 13 17 38 27 27 18 45 30 7 9 24 18 34 37 49 63 49 29 41 63 127 71 93 95 95 148 30 149 43 77 45 8 41 91 84 75 58 52 55 68 43 25 76 248 242 16 160 117 48 115 54 84 114 62 38 108 102 43 79 205 136 95 221 57 143 120 12 25 0 203 234 104 151 44 27 32 246 104 64 32 10 36 15 28 27 11 3 47 184 48 82 9 56 94 37 34 14 8 12 12 7 20 3 22 134 188 59 150 186 111 72 53 31 37 47 20 12 14 63 115 117 116 156 155 148 198 204 86 85 127 145 118 99 144 189 169 134 98 125 103 174 53 82 32 134 15 57 30 60 30 28 11 22 19 15 12 15 9 7 15 28 21 26 11 17 16 23 168 218 17 56 34 125 33 40 69 92 8 10 58 49 31 15 33 15 33 25 11 15 23 8 33 45 27 7 17 26 20 11 14 28 24 21 38 41 50 64 40 28 20 16 10 16 16 27 27 15 27 28 10 12 12 21 38 15 39 15 26 3 14 20 30 4 22 7 18 23 13 12 15 19 41 19 23 25 23 21 21 28 38 56 63 59 78 81 51 21 19 50 10 10 15 5 34 28 59 79 59 47 3 63 94 165 213 2 35 240 155 85 39 35 34 53 71 35 28 56 44 7 2 40 16 11 17 21 46 18 8 42 3 17 38 29 36 68 62 128 155 61 12 10 4 8 16 10 5 18 29 24 17 25 16 17 17 18 14 50 58 13 15 36 26 47 10 26 18 40 7 57 22 58 23 4 17 15 26 185 27 222 122 46 192 185 61 151 127 195 29 84 91 40 10 152 219 125 60 56 40 24 13 11 18 21 24 70 26 22 18 10 8 11 8 25 22 11 10 21 28 8 21 30 27 20 5 17 15 18 10 8 28 30 28 17 27 9 13 22 17 18 29 20 3 24 11 11 19 17 22 23 17 4 3 20 21 18 17 10 6 36 15 32 10 8 22 41 63 30 5 43 42 33 82 80 77 87 82 68 60 42 12 7 9 13 17 13 11 22 13 12 4 29 45 26 7 28 16 20 7 11 11 19 25 26 25 0 
0 22 5 7 8 17 33 6 22 5 7 9 9 8 8 14 15 34 7 25 26 29 34 41 57 22 39 50 37 70 53 72 92 57 18 19 13 22 19 33 11 32 10 44 36 5 12 5 42 44 38 53 30 34 15 8 87 131 42 69 58 101 95 12 141 37 45 29 43 16 38 77 62 74 64 97 91 41 47 189 253 58 126 158 85 54 65 95 89 55 58 73 60 70 44 53 207 157 79 208 92 85 134 65 71 142 58 54 125 222 102 156 9 94 115 118 34 28 13 30 36 29 54 44 30 249 55 170 216 98 117 52 73 58 22 2 7 9 11 35 49 140 154 93 151 137 68 28 6 24 59 108 110 104 69 155 193 206 162 155 141 187 216 120 103 66 44 76 117 114 110 104 136 46 69 32 186 83 119 210 74 2 14 30 52 46 14 15 21 13 7 4 4 11 8 11 21 26 15 22 10 14 21 19 158 217 10 49 9 115 44 46 52 76 4 15 45 31 24 13 30 7 31 37 2 10 15 36 38 35 34 14 7 22 25 10 10 23 32 11 22 6 29 43 28 17 16 6 13 17 39 24 37 21 18 24 8 16 5 14 39 8 25 17 24 10 9 19 25 9 22 7 10 20 33 24 5 2 28 32 22 19 17 10 7 10 15 41 61 56 57 76 87 85 59 46 20 29 31 29 62 58 82 107 133 119 89 133 131 141 142 125 85 25 41 19 19 39 52 52 52 47 42 57 48 10 26 35 14 6 19 31 24 7 37 41 18 22 30 26 17 58 100 163 131 25 18 10 8 8 12 3 2 8 21 11 1 21 2 16 15 24 20 68 39 43 34 34 14 52 18 32 19 43 20 70 14 55 24 38 43 34 21 142 26 232 139 15 179 241 26 167 139 188 9 63 110 53 23 181 233 120 62 31 25 29 25 21 34 9 22 52 32 12 25 19 17 31 27 29 15 26 17 17 10 14 31 9 22 26 9 16 11 15 22 12 25 10 28 11 21 5 15 22 14 7 9 16 10 10 1 16 9 17 18 2 13 14 18 14 14 37 5 12 7 21 17 17 6 12 10 42 19 40 13 35 49 31 87 88 71 81 76 61 58 44 14 9 14 12 20 11 8 27 17 18 33 45 28 24 7 36 39 27 18 10 12 2 12 14 3 0 
0 35 11 15 2 20 26 7 18 6 8 11 11 8 7 11 28 32 14 31 26 23 24 41 59 26 43 58 48 71 46 65 91 63 24 21 13 27 24 26 18 17 13 31 32 15 5 16 32 49 39 25 53 48 23 29 91 109 23 36 78 103 52 14 95 43 22 8 52 38 24 51 76 73 54 28 16 55 169 223 97 131 168 107 76 70 42 66 46 11 46 54 31 40 61 38 188 146 76 153 86 47 120 125 96 45 77 159 43 254 84 89 123 84 28 193 10 19 17 50 50 50 47 77 36 243 61 211 169 101 51 0 152 65 21 9 4 3 18 17 143 150 25 154 92 85 166 77 24 4 58 130 82 149 151 142 76 93 126 179 239 22 177 140 136 40 60 43 97 102 43 39 16 158 244 91 120 231 81 89 49 17 15 14 26 22 8 14 13 13 24 25 7 11 13 10 17 25 10 38 13 31 20 3 146 202 28 71 45 85 47 49 35 66 29 23 31 13 7 37 39 19 4 41 36 27 27 45 49 48 49 24 1 6 22 18 15 7 30 18 26 28 27 26 18 4 8 11 9 29 20 24 21 28 33 46 4 18 1 6 37 4 14 18 21 15 8 24 24 16 24 8 8 15 30 24 22 10 9 23 21 21 19 13 9 7 5 10 35 24 17 24 40 60 46 39 36 48 50 48 75 60 76 91 144 160 92 103 81 91 117 98 40 41 45 16 2 32 60 38 22 28 36 52 50 30 25 19 13 15 22 37 15 11 58 28 12 19 10 36 42 71 164 160 57 13 14 6 13 8 3 2 5 4 17 6 8 26 5 21 27 16 23 87 32 62 19 12 4 56 14 40 21 39 21 58 17 50 15 14 26 24 5 101 3 239 162 78 121 30 10 174 153 179 24 45 141 40 69 185 219 109 35 11 7 5 40 12 35 14 26 37 24 25 15 23 23 16 8 18 7 29 15 20 17 14 25 22 36 23 31 10 10 20 12 19 26 7 30 15 33 28 19 24 11 20 24 28 3 16 23 31 23 38 36 31 35 19 19 24 17 44 15 18 15 5 8 4 4 15 15 27 15 28 12 17 21 31 86 96 72 76 69 55 58 43 12 10 17 7 19 6 4 32 21 24 28 9 23 21 14 32 32 19 21 8 4 9 5 7 17 0 
0 34 21 20 30 26 17 8 5 7 8 11 11 8 6 7 23 17 18 40 33 23 30 31 58 24 43 65 40 71 47 59 93 67 31 27 14 25 25 23 25 10 14 12 23 23 13 9 12 46 47 11 28 18 11 15 71 109 48 56 84 68 46 44 74 42 16 12 53 50 29 12 40 31 32 29 58 155 214 97 97 183 120 79 72 44 110 22 60 31 39 27 68 72 80 20 155 132 106 115 34 34 131 131 112 101 240 28 158 25 41 104 72 65 166 10 55 21 17 26 44 29 36 87 50 242 41 190 44 193 65 51 228 80 1 7 14 13 11 83 187 48 141 114 124 64 120 92 34 65 104 89 93 47 76 43 75 99 213 36 28 149 214 16 115 38 27 71 28 86 39 175 138 83 49 103 16 153 143 22 22 18 20 17 4 31 26 35 28 18 17 17 22 7 15 14 21 28 23 29 18 17 5 24 151 189 43 100 29 41 49 43 27 58 67 27 21 23 32 45 18 14 14 21 7 8 16 17 29 37 26 17 11 2 22 13 10 1 30 15 7 3 7 15 19 9 7 6 10 25 34 26 11 24 2 47 14 13 6 7 34 5 9 20 17 15 5 28 18 11 16 9 12 10 21 21 22 17 5 4 9 23 26 25 19 11 7 18 25 31 23 21 18 32 13 28 18 25 20 33 75 70 93 107 119 168 102 55 69 86 123 102 38 45 38 17 6 25 67 60 32 38 48 44 39 40 24 9 13 18 19 31 20 22 53 8 13 20 15 20 54 117 196 115 13 24 14 10 5 1 5 4 10 13 20 14 10 29 22 13 11 23 34 103 44 81 33 16 7 51 17 43 16 17 20 51 31 48 26 25 33 22 16 61 232 247 167 111 95 48 31 193 145 214 41 17 152 31 97 170 191 91 31 8 12 2 25 33 26 18 51 43 16 11 26 15 17 26 31 37 31 22 1 18 14 13 32 7 40 19 19 30 17 12 19 7 32 8 40 15 18 12 19 16 2 7 8 16 12 13 1 25 6 31 27 15 25 24 11 15 5 39 20 12 8 10 5 7 8 14 20 21 13 18 13 9 8 17 83 92 69 73 64 51 55 39 8 7 14 10 20 8 5 35 24 19 22 10 8 23 37 17 21 34 10 14 5 11 4 12 24 0 
0 23 27 10 49 12 22 11 5 8 8 9 9 7 5 7 24 27 5 33 36 32 36 26 52 32 48 58 28 62 42 61 95 67 33 30 17 20 18 10 24 26 7 2 17 26 20 13 19 50 49 48 38 24 36 54 96 152 125 71 43 12 7 49 79 60 34 36 45 30 24 25 34 27 34 7 134 217 124 73 168 140 73 58 29 36 90 65 46 67 41 66 124 81 117 25 144 61 62 67 34 51 137 77 131 119 124 58 36 20 58 164 75 57 84 18 153 26 16 33 65 47 30 46 34 213 32 194 180 168 105 109 26 46 15 3 13 2 39 108 100 127 166 28 76 88 90 45 103 170 176 104 39 108 27 46 141 198 225 185 21 234 110 186 70 28 72 4 79 67 101 32 118 103 2 209 185 197 11 16 14 10 7 19 25 22 16 8 20 24 32 14 21 5 11 7 19 18 8 14 15 7 17 26 147 188 74 102 47 19 57 38 29 23 61 27 16 49 46 17 18 15 31 31 20 18 10 4 12 10 8 15 14 12 18 23 23 14 25 20 11 9 1 10 23 18 0 7 18 18 31 12 7 18 21 32 10 3 12 14 31 4 10 21 16 18 10 32 13 4 11 5 8 16 27 20 3 12 17 21 24 7 15 21 21 14 12 8 18 11 3 32 20 29 58 63 43 18 15 34 92 104 124 113 88 164 158 40 63 87 123 113 28 51 40 31 23 5 49 84 50 31 50 30 28 46 28 10 14 22 7 19 41 20 24 14 15 28 12 28 87 169 173 58 29 7 28 9 13 11 4 4 12 14 19 15 10 34 27 4 9 23 30 105 36 84 51 17 12 54 22 46 7 13 21 62 26 72 13 5 22 2 17 23 207 19 184 125 104 36 52 207 119 32 27 42 131 31 118 160 160 82 35 15 21 12 17 26 30 12 78 31 20 13 16 18 13 5 13 14 19 21 21 28 23 20 38 22 33 26 14 11 24 28 20 7 25 17 27 18 19 7 11 18 11 7 15 7 12 9 10 26 16 18 14 15 32 12 27 30 29 49 10 27 17 17 12 8 19 8 15 26 32 19 12 27 35 40 92 98 77 73 63 50 50 32 3 0 10 14 18 11 9 38 26 14 28 23 28 58 48 38 34 21 18 12 8 8 1 12 21 0 
0 13 26 18 36 21 18 4 9 7 5 7 7 5 5 4 16 27 20 38 31 25 34 39 54 54 63 38 29 53 41 76 93 64 29 28 18 17 16 18 34 20 5 6 21 26 10 27 27 47 34 30 14 46 86 99 138 209 241 143 25 5 4 36 75 46 21 28 31 3 11 38 27 31 50 88 235 151 59 168 141 94 55 22 26 42 38 82 37 84 43 86 148 27 142 94 141 32 25 60 64 81 92 60 157 114 84 39 184 209 139 168 98 68 38 189 229 53 4 36 53 63 32 33 4 127 252 143 140 55 113 49 209 76 23 4 11 16 51 103 66 147 67 68 36 14 75 148 136 106 46 84 70 101 114 173 209 202 172 22 237 113 0 18 92 65 22 104 86 76 195 104 240 175 169 189 25 54 13 27 11 11 19 14 13 21 33 15 23 7 36 13 24 6 18 22 31 36 36 34 8 8 19 18 124 167 94 73 37 31 68 46 60 31 39 39 17 50 47 17 35 21 54 2 26 15 22 19 8 9 13 9 16 29 23 12 14 31 28 21 28 31 23 11 19 21 8 18 25 34 22 11 10 15 14 26 10 11 18 11 26 8 15 17 17 24 18 37 15 15 19 24 9 29 5 8 15 18 30 23 37 33 20 20 21 10 4 3 25 18 24 26 7 8 30 26 64 54 45 48 103 120 112 72 50 130 179 50 52 79 104 114 38 48 33 29 5 22 31 89 58 40 67 41 38 60 42 25 1 34 5 18 71 15 14 24 9 18 21 38 125 187 120 25 23 13 34 1 25 14 8 4 14 1 21 7 13 39 15 3 11 33 16 99 47 75 62 20 21 60 18 50 9 13 11 69 25 80 21 4 19 11 12 8 175 44 204 126 88 14 60 190 65 82 55 77 100 20 157 168 124 71 29 24 20 18 24 12 35 11 83 22 23 5 30 8 4 7 18 25 27 26 20 16 20 6 52 15 34 10 40 50 19 10 14 18 21 23 35 42 25 8 10 5 10 22 13 12 22 27 31 14 28 4 8 16 31 21 17 21 24 38 29 17 41 18 13 5 30 2 7 27 32 26 26 34 8 69 99 90 82 74 64 47 42 25 2 7 10 11 15 11 8 40 27 13 37 14 12 49 24 5 37 49 17 4 5 5 5 12 23 0 
0 4 18 20 13 4 4 8 4 5 5 5 5 4 3 6 18 21 21 33 20 12 22 36 53 60 60 30 40 47 37 91 104 65 26 16 20 17 17 27 25 9 27 28 38 32 10 25 17 41 20 27 39 71 128 129 103 146 10 205 49 4 11 33 90 40 22 23 15 26 9 40 25 41 27 219 225 31 176 151 57 33 40 16 34 70 73 40 16 53 47 53 144 67 80 86 68 73 42 12 22 72 35 60 109 91 49 250 15 151 214 133 187 49 58 85 229 113 35 31 56 59 16 43 25 80 200 169 55 107 84 146 86 61 58 11 32 61 61 44 88 67 12 69 41 88 211 173 128 37 46 95 202 249 242 198 133 145 113 130 105 62 83 123 9 103 109 191 145 182 76 55 28 120 202 67 121 17 4 14 14 19 17 3 19 15 18 24 26 27 34 6 24 15 10 17 9 23 11 36 8 7 19 18 128 136 59 23 27 54 98 37 80 15 14 57 34 40 35 15 14 25 42 16 20 13 26 33 23 8 20 25 28 15 5 10 25 36 24 12 17 24 27 33 14 16 4 25 27 44 30 12 5 14 37 20 17 21 26 17 20 11 18 13 5 14 5 33 36 40 30 27 13 18 21 10 4 17 18 16 6 23 19 14 15 7 6 7 30 10 12 5 9 14 24 58 13 23 25 54 103 125 101 47 37 98 174 89 39 76 94 107 43 41 37 41 4 34 31 109 83 50 58 31 34 54 24 23 16 31 17 10 76 12 27 31 19 5 13 76 182 176 60 4 10 10 25 5 20 17 5 14 14 19 14 7 8 38 14 1 10 28 18 103 50 77 71 14 36 44 27 49 8 9 21 38 42 50 29 5 15 5 18 15 134 52 234 153 30 0 99 161 38 93 85 103 82 44 176 152 91 60 31 30 31 8 17 13 32 7 78 12 14 8 16 15 5 5 7 21 10 15 5 4 13 27 37 15 31 23 43 23 35 39 22 12 18 8 22 21 7 10 16 10 19 22 18 10 7 3 27 24 30 11 18 12 13 21 16 22 30 24 41 11 37 22 18 12 26 8 17 11 26 37 21 16 41 83 73 84 94 76 61 46 34 14 10 12 14 5 10 7 26 40 29 15 30 8 25 30 15 21 31 20 38 15 13 11 13 10 4 0 
0 24 2 4 9 5 5 14 11 2 4 4 5 4 1 7 17 22 15 26 12 17 38 43 46 51 41 27 50 55 39 82 109 74 27 4 12 15 27 34 26 33 20 22 44 25 22 24 34 39 19 31 46 85 151 108 29 133 248 206 60 14 27 21 82 48 22 13 14 29 8 27 50 75 188 24 70 192 164 82 17 8 35 27 40 115 41 43 19 19 38 6 87 85 29 71 36 91 38 64 18 56 14 72 108 118 27 229 75 127 43 69 238 44 91 33 168 170 91 79 45 31 19 30 33 78 158 154 88 78 146 115 60 54 56 28 80 62 39 46 42 11 23 22 78 156 168 79 112 142 128 145 165 164 132 87 50 112 55 56 134 205 66 118 97 82 149 217 133 232 65 72 20 213 143 174 25 17 17 22 10 15 7 7 7 23 15 28 5 24 24 18 17 22 8 20 11 19 18 33 14 19 19 8 140 117 49 1 13 8 115 5 90 11 35 31 45 48 30 17 12 28 14 15 8 17 31 26 28 12 26 17 12 17 18 12 22 35 21 20 23 49 13 19 5 8 7 29 3 25 2 14 5 19 32 39 5 15 18 19 18 8 8 10 1 7 10 7 29 33 35 32 15 11 25 12 16 29 8 6 17 5 16 8 10 10 7 8 27 10 19 20 20 25 20 20 41 5 14 89 106 132 114 53 43 79 135 119 50 73 101 105 47 35 41 52 30 49 37 129 99 29 36 38 45 43 17 11 18 7 26 46 43 20 20 28 19 20 45 131 219 132 21 8 11 4 13 6 9 11 10 11 3 15 5 4 15 40 30 10 16 26 40 103 32 85 72 4 48 26 27 48 19 14 16 19 29 15 29 21 8 0 14 6 81 22 243 188 40 231 118 136 51 83 77 140 85 68 136 134 112 61 33 25 39 22 21 26 30 13 83 31 33 21 18 15 16 5 9 13 14 22 16 13 8 29 9 22 7 33 14 34 10 19 13 8 10 45 49 28 8 11 11 16 21 35 25 19 7 2 9 11 8 14 14 18 22 29 36 17 40 1 48 14 26 29 19 10 19 17 8 35 44 11 26 10 44 67 69 98 95 64 50 46 27 2 2 7 9 16 14 18 28 29 24 21 31 27 31 31 20 10 29 29 45 15 17 13 15 18 17 0 
0 28 4 9 5 9 8 10 16 7 7 5 7 4 1 10 22 24 17 26 17 21 37 38 50 60 37 27 52 68 51 71 88 73 34 9 20 12 20 24 23 28 28 57 40 11 41 27 59 18 20 59 94 119 114 51 127 193 221 158 56 8 12 31 71 57 39 36 30 23 20 49 82 143 233 120 161 254 120 57 45 65 60 21 11 114 112 93 49 27 36 12 40 63 57 59 60 72 73 97 67 20 26 22 110 157 73 178 116 17 94 55 216 131 81 33 78 157 71 56 38 17 46 100 121 42 142 84 163 181 125 153 36 4 28 79 67 9 73 59 8 16 0 12 100 239 132 24 47 107 135 92 86 67 22 50 54 39 154 134 34 38 120 18 116 33 124 242 225 205 132 216 191 170 234 47 12 18 17 16 10 16 7 13 13 7 11 16 6 20 24 24 4 20 22 16 5 11 5 25 20 27 2 8 121 116 78 9 25 34 98 48 71 48 44 54 35 32 48 23 31 24 7 20 9 8 29 23 8 31 15 13 19 14 25 16 8 32 23 10 17 29 36 23 5 4 11 20 16 28 12 15 18 12 9 30 24 31 40 40 32 22 24 32 28 18 1 11 29 29 27 41 17 42 55 48 37 36 36 8 16 24 26 22 11 15 13 7 29 22 11 7 10 14 27 37 43 21 31 111 109 142 112 41 49 72 88 98 55 58 115 114 46 36 43 56 49 26 62 125 87 32 31 40 50 32 13 19 7 31 40 60 8 21 13 30 18 50 76 164 199 57 7 13 7 13 14 4 13 21 10 7 9 20 18 17 10 58 29 24 17 12 57 84 21 66 69 13 52 39 16 45 17 9 20 17 25 12 9 34 13 12 12 28 73 213 244 204 70 228 146 144 46 63 90 180 58 94 116 114 107 60 48 19 38 34 42 28 31 31 60 29 50 10 14 18 5 15 14 16 15 24 13 8 25 15 9 16 21 20 39 16 38 32 9 8 15 26 39 47 30 17 15 12 7 34 13 15 16 20 16 9 14 16 9 29 13 31 40 24 38 29 38 15 10 23 13 26 14 22 27 43 7 14 25 12 29 83 101 86 76 62 48 49 29 16 19 20 15 17 29 19 16 25 13 28 37 20 1 5 3 4 9 16 32 9 11 1 1 11 10 0 
0 31 15 17 12 12 10 7 9 8 9 8 9 5 3 11 14 4 13 23 15 17 24 20 44 67 45 28 47 76 72 68 74 58 29 17 25 14 25 20 11 26 38 42 40 28 22 41 54 16 49 121 157 113 11 116 193 193 153 92 53 14 21 25 54 57 8 50 45 39 76 94 111 135 77 136 107 222 56 134 8 8 26 44 42 37 42 19 37 21 25 7 22 43 85 35 49 55 95 83 136 36 58 82 43 182 137 78 95 200 2 172 138 190 57 91 23 129 95 29 20 15 73 104 107 78 108 64 48 73 28 119 58 29 7 50 27 43 61 30 9 17 15 140 115 192 26 145 98 103 117 118 105 53 33 105 55 87 10 88 146 84 89 66 61 82 46 192 119 207 155 164 215 31 72 11 10 25 8 25 7 23 15 10 18 10 14 16 9 23 16 21 14 16 21 14 21 11 19 24 34 23 19 18 98 120 104 7 39 58 67 74 33 70 46 25 35 31 27 28 53 27 11 18 5 2 10 26 27 19 29 3 40 24 22 28 19 29 35 30 31 10 12 18 5 6 5 15 15 20 27 20 24 15 21 5 26 35 29 29 23 11 31 41 31 28 10 2 22 35 8 41 15 34 14 45 50 30 46 1 14 40 20 29 5 15 17 13 17 17 5 9 13 28 48 46 26 10 37 107 119 154 88 36 48 80 83 89 63 44 130 130 45 46 42 31 12 33 80 102 67 38 39 43 48 24 12 19 16 21 41 52 7 20 28 24 14 72 114 182 145 7 27 14 10 22 10 8 15 8 10 1 4 18 14 8 31 53 10 37 9 21 61 52 15 34 62 42 38 50 10 47 20 16 18 23 25 16 4 31 8 5 11 52 57 160 248 215 79 238 193 172 29 55 152 191 56 53 110 106 81 31 37 27 30 33 46 19 22 31 19 32 10 21 15 15 17 7 17 25 8 18 13 1 25 3 16 12 24 18 38 2 12 18 28 12 13 9 21 12 28 27 11 9 14 20 20 27 24 14 3 17 16 10 20 18 10 10 27 15 37 20 20 7 18 18 14 28 34 41 27 16 30 13 14 12 10 88 111 80 72 67 54 54 32 12 13 12 16 26 28 14 18 21 8 37 38 3 7 6 12 11 4 11 27 6 8 1 2 6 7 0 
0 27 8 14 8 8 8 7 7 5 8 8 11 7 4 12 10 17 25 28 25 27 24 21 38 54 54 44 49 73 73 81 74 44 30 20 22 5 34 20 10 17 9 18 24 29 38 32 34 25 133 193 133 29 137 146 116 93 84 67 53 22 19 18 49 68 30 67 13 124 160 130 65 38 138 228 163 206 244 245 25 16 15 20 36 31 34 11 24 37 27 14 7 20 92 23 22 29 74 26 146 51 85 122 113 124 143 58 208 51 71 229 25 11 48 174 35 98 149 66 10 12 58 108 47 102 45 53 31 33 49 74 44 40 49 75 74 15 66 30 10 18 58 36 187 19 208 172 67 91 54 64 95 87 103 133 50 221 65 232 21 91 37 56 39 41 8 188 155 129 116 198 55 105 23 5 16 25 1 31 9 34 8 9 17 20 24 13 12 13 8 22 28 15 15 12 37 7 30 16 40 25 9 9 96 137 99 12 30 49 27 94 2 73 35 56 39 37 54 61 41 8 21 19 5 9 14 19 39 9 35 8 41 22 30 24 5 31 26 23 20 20 17 23 2 7 14 25 25 22 36 23 30 30 11 15 5 12 20 41 35 15 22 12 24 28 13 19 18 31 2 30 17 14 27 27 26 35 26 10 19 48 11 33 3 13 23 14 21 17 17 24 18 14 25 14 36 47 58 98 126 160 62 34 28 75 107 105 72 26 126 153 56 38 59 48 37 43 46 89 75 41 43 45 51 30 25 11 13 14 43 40 24 25 21 19 25 106 176 178 84 40 6 13 9 12 16 12 8 10 4 5 3 9 24 14 38 52 24 32 10 38 61 25 7 9 49 45 35 30 31 47 7 29 12 14 40 30 15 16 19 20 22 31 67 160 246 231 104 215 246 144 136 30 196 152 89 11 87 109 68 20 21 28 26 36 43 34 7 27 8 17 13 19 19 23 14 21 6 29 28 9 14 9 17 17 14 2 27 19 32 15 10 5 27 35 6 12 16 29 37 13 13 16 7 17 25 10 20 25 27 36 37 26 17 15 22 12 21 44 27 33 18 1 10 22 25 7 19 18 5 24 25 47 22 3 32 85 89 86 82 67 55 55 30 4 5 6 14 22 12 23 26 14 5 34 33 12 4 17 16 14 21 14 31 4 7 5 6 5 7 0 
0 29 9 14 7 7 5 5 8 5 8 8 11 7 4 19 23 28 29 36 38 32 24 30 37 29 51 57 53 60 60 99 91 41 36 24 17 5 27 19 7 11 12 35 50 31 21 17 49 100 192 143 30 174 205 93 15 80 101 91 53 11 12 20 57 46 35 25 118 190 125 23 100 157 169 140 147 92 72 190 16 4 15 38 19 16 23 29 12 65 22 38 13 22 77 28 41 42 29 28 124 103 123 26 100 107 45 128 26 11 142 181 121 1 161 178 69 24 158 117 27 18 47 110 63 113 59 26 50 35 33 51 70 59 27 14 72 20 77 27 41 61 104 80 69 154 203 154 48 67 85 84 72 96 103 46 136 58 40 82 92 37 47 27 31 22 126 127 33 182 218 98 121 10 23 15 30 24 15 36 7 33 19 15 19 5 8 14 7 11 12 30 34 18 8 4 45 5 32 3 24 21 17 11 111 156 69 26 54 71 17 115 25 74 33 44 57 15 47 18 27 27 4 21 7 24 21 18 26 18 20 13 18 27 33 22 16 32 12 17 30 16 18 13 15 11 25 7 11 8 33 32 22 32 21 10 10 22 1 27 33 17 11 11 23 21 14 22 19 22 5 20 16 16 13 3 2 5 13 5 21 39 14 24 5 4 24 7 19 8 18 24 14 4 17 30 23 15 38 80 132 160 55 43 13 29 115 118 74 12 103 165 115 37 55 61 42 32 15 81 97 43 44 49 58 38 28 38 17 42 51 45 23 2 10 34 51 139 206 127 23 35 12 14 7 7 11 11 8 12 12 9 17 24 4 26 34 51 19 33 13 43 58 14 7 8 35 29 18 8 31 22 25 25 18 35 22 17 12 9 14 5 23 7 47 128 239 245 118 165 23 60 165 240 190 144 112 67 79 124 47 17 10 29 13 36 24 29 17 29 5 18 9 12 10 32 24 14 16 8 15 10 7 13 13 13 4 11 25 20 21 19 19 23 11 46 27 34 21 18 7 25 17 4 12 15 7 20 15 24 15 5 19 15 7 19 9 18 15 34 45 43 6 20 12 13 2 17 22 19 38 60 50 32 23 14 33 79 82 88 87 63 50 52 26 9 8 15 20 14 12 30 23 17 29 35 25 9 8 18 13 7 25 30 24 3 4 5 6 7 10 0 
0 29 9 15 16 20 20 18 16 11 10 8 9 5 3 29 17 16 11 19 34 31 6 37 44 22 55 65 49 46 46 93 94 48 45 32 10 5 17 33 17 13 33 35 19 23 8 38 101 153 138 36 188 227 133 63 55 81 131 122 49 10 10 28 61 15 26 70 182 157 34 139 177 144 89 33 15 52 88 50 15 22 38 5 24 31 35 47 16 76 27 51 40 22 54 32 25 22 23 29 74 144 52 129 76 73 75 53 83 142 221 54 211 123 6 101 141 24 149 181 17 64 83 152 77 106 78 45 50 43 33 48 70 39 9 16 58 32 55 91 149 168 184 235 193 185 123 54 55 75 91 88 95 66 27 94 250 71 231 52 77 97 36 51 37 55 87 86 94 185 164 186 17 46 34 25 19 1 14 43 42 7 12 10 16 25 27 18 12 42 31 27 31 30 11 5 44 15 26 18 17 20 25 18 110 166 63 39 32 89 37 124 43 54 37 51 55 20 53 57 42 17 24 22 13 28 14 17 8 11 5 8 9 18 16 20 26 32 11 13 28 20 21 14 4 8 16 20 27 32 21 22 23 29 23 7 15 14 16 25 20 11 18 15 26 15 20 9 9 15 10 19 9 22 36 22 9 15 13 22 20 16 16 4 16 12 21 12 28 18 22 20 7 14 17 20 29 26 25 71 142 152 57 47 26 34 132 122 72 29 75 137 112 25 33 62 64 47 22 65 97 51 53 60 62 33 18 30 27 47 55 29 13 18 9 62 73 161 186 56 22 17 2 8 5 16 9 12 12 6 17 14 27 31 22 15 38 44 11 26 9 34 53 25 11 20 27 14 7 7 30 15 19 11 42 23 10 28 4 8 12 3 26 3 57 105 243 246 130 100 13 49 160 200 190 119 120 53 54 102 22 17 8 33 13 38 19 24 30 17 15 8 12 11 17 3 38 21 23 35 26 9 13 19 11 5 22 18 13 18 5 12 18 32 37 47 23 47 10 13 17 22 7 9 2 6 27 6 22 44 56 47 27 17 14 15 10 8 26 31 15 10 19 8 18 15 3 15 20 28 35 22 18 27 15 16 29 85 91 85 88 54 42 48 26 8 8 29 18 10 26 23 17 29 39 32 17 4 10 8 11 8 8 26 13 9 1 8 9 10 17 0 
0 30 8 7 7 9 4 7 11 9 6 5 7 4 1 29 18 20 10 7 36 40 16 27 42 37 65 58 32 39 54 93 84 54 52 23 21 32 32 25 27 15 25 22 14 12 22 68 163 159 42 128 201 122 46 137 41 117 157 99 28 57 46 18 53 15 39 144 161 60 111 211 155 80 30 21 17 25 2 6 30 30 36 28 20 29 56 36 53 70 76 41 71 12 39 51 11 52 26 36 32 157 128 114 170 48 90 69 65 140 162 58 169 47 244 83 179 73 92 1 113 38 191 13 151 181 104 67 41 50 58 34 38 79 37 25 31 45 66 132 129 97 77 80 120 136 88 28 60 93 78 63 89 55 60 218 64 34 125 117 35 100 40 40 39 9 146 47 151 183 203 14 44 21 16 14 27 34 42 34 63 35 12 18 24 25 21 14 17 39 26 30 35 46 14 16 41 23 17 14 16 17 4 18 77 162 76 28 29 111 58 132 58 37 26 50 57 13 27 18 46 33 6 28 2 14 21 11 17 7 10 3 2 7 17 5 21 42 25 19 29 17 16 17 30 38 24 7 13 13 17 17 16 16 21 12 14 4 4 10 17 20 12 7 31 17 22 4 10 18 21 28 4 19 22 21 22 24 35 45 26 14 15 23 21 25 23 9 15 6 22 23 11 10 13 7 31 47 18 64 150 143 65 43 65 70 146 105 51 14 112 173 137 80 67 77 92 89 27 42 82 71 74 70 58 20 27 19 17 43 37 14 21 9 33 78 110 184 143 12 4 12 17 11 7 7 17 9 8 13 3 4 31 2 32 8 41 25 21 19 1 18 47 45 12 43 21 7 15 20 37 29 31 34 31 17 41 48 13 13 20 17 15 23 57 129 232 207 159 44 18 75 186 170 21 131 204 68 19 74 29 4 13 30 35 20 30 24 49 14 18 10 16 19 20 30 14 42 12 18 20 7 20 35 14 21 31 17 7 15 11 6 3 12 39 38 5 33 24 24 1 19 24 12 20 17 17 16 26 26 4 24 17 5 16 20 17 12 27 22 22 17 7 17 17 23 4 18 11 18 54 54 29 7 33 35 54 93 90 84 84 49 36 47 29 1 13 35 16 11 25 18 22 39 28 16 17 15 4 8 6 7 9 27 6 15 4 13 15 12 19 0 
0 29 10 11 12 8 15 18 19 5 4 2 9 11 13 17 12 21 14 8 33 45 24 24 40 50 56 51 36 44 58 82 82 58 53 32 2 10 6 7 21 25 29 32 23 17 24 125 175 42 141 206 135 19 125 119 58 144 149 59 57 41 26 18 59 74 89 112 83 62 156 210 99 18 20 28 11 10 22 36 54 38 41 31 19 27 47 25 73 46 129 14 98 21 18 52 40 49 13 41 58 94 202 63 224 72 63 96 128 99 82 46 70 104 118 137 134 83 73 228 234 73 104 79 192 36 136 35 27 18 38 37 40 70 122 49 39 100 121 92 60 22 43 73 38 78 111 56 49 74 75 103 94 18 151 73 69 153 32 59 77 62 42 15 190 141 184 34 220 255 24 29 18 5 9 6 21 14 58 33 37 36 15 19 28 35 26 23 10 27 9 32 42 43 31 13 26 32 21 15 21 29 12 19 51 156 90 40 31 130 68 125 77 21 40 49 44 33 29 12 36 29 16 23 11 8 22 22 16 8 6 7 5 8 25 20 7 32 23 10 22 21 19 31 36 12 40 6 10 22 34 9 27 43 42 15 18 6 4 8 16 16 7 5 19 29 32 20 18 23 22 25 15 23 17 22 19 25 45 29 19 29 35 16 16 18 12 10 9 16 14 15 6 3 15 8 37 54 25 76 151 134 71 41 74 132 168 140 96 89 155 193 98 28 73 60 43 90 71 70 94 99 102 76 40 1 27 27 42 40 9 19 15 23 33 87 161 193 85 24 17 17 5 7 2 7 3 10 15 12 21 32 38 45 89 57 25 23 47 29 15 15 36 52 14 55 25 36 25 14 44 36 24 20 17 42 22 56 18 5 13 18 21 18 60 160 200 171 181 35 12 99 201 113 93 65 2 91 33 51 46 25 31 28 43 18 39 17 54 23 24 22 6 20 17 38 20 27 32 24 7 17 9 29 6 21 29 11 19 13 20 4 4 15 4 15 28 14 24 11 21 15 3 33 11 30 20 37 18 29 26 26 21 11 25 25 14 34 17 17 12 11 11 22 2 20 23 28 15 12 7 21 5 10 37 10 82 94 82 77 72 62 43 43 29 7 19 29 22 20 22 23 25 31 30 20 31 1 11 9 21 17 6 18 15 17 8 11 16 7 11 0 
0 29 9 7 20 10 11 5 21 20 15 17 14 11 8 15 15 18 3 21 23 35 34 34 35 44 45 66 72 55 43 65 88 54 37 50 17 17 14 16 14 10 6 34 25 21 114 208 81 141 222 160 31 66 133 82 78 155 148 36 28 29 16 41 107 113 63 41 47 35 138 177 65 20 40 21 30 11 29 34 49 33 45 34 18 31 38 10 77 15 139 50 83 58 12 33 57 22 19 11 17 83 155 34 199 156 41 74 109 166 111 34 3 96 58 106 61 43 142 112 35 147 145 177 227 84 135 28 12 50 24 37 81 108 72 160 156 135 55 42 36 30 26 81 91 111 133 41 14 96 120 110 34 119 49 114 194 34 83 46 45 11 41 152 135 12 207 206 89 83 24 9 23 15 24 19 32 27 22 54 39 21 26 10 50 8 34 6 21 24 25 15 36 13 54 34 26 34 14 2 8 17 12 12 57 161 85 51 29 100 89 94 73 16 41 43 31 47 45 30 38 46 6 4 16 22 15 26 34 2 12 12 8 28 26 32 19 35 21 13 8 7 15 26 27 24 27 11 8 16 22 20 41 18 14 29 10 14 15 15 11 26 1 11 22 36 37 28 21 6 22 15 18 36 30 33 27 19 27 3 7 26 25 16 4 9 17 21 17 9 8 12 16 30 36 34 36 43 34 67 117 130 133 134 76 62 121 203 221 185 115 126 83 156 185 175 139 76 26 41 101 125 123 74 32 15 16 20 39 18 14 18 14 36 41 115 201 154 17 24 17 9 16 11 12 25 38 34 18 18 55 33 57 72 52 56 5 8 29 26 42 42 25 31 18 36 40 10 47 15 45 15 16 24 12 47 15 56 3 15 10 9 13 15 57 170 185 189 197 11 207 146 137 55 62 75 237 96 29 26 36 18 32 26 38 45 28 29 37 25 8 11 18 25 19 12 18 7 7 26 22 11 15 32 8 10 27 8 18 19 33 13 6 17 31 27 17 2 20 5 41 45 31 20 24 31 19 25 23 17 5 15 7 5 34 12 27 31 5 2 13 20 21 12 17 12 11 15 16 7 14 11 10 17 31 17 65 101 94 66 63 86 55 33 22 18 31 31 30 21 22 25 24 26 28 7 35 31 14 18 16 24 25 5 14 14 15 7 15 7 7 0 
0 22 13 8 20 10 15 12 17 24 12 22 26 10 14 15 31 21 26 25 26 29 36 37 34 41 22 56 87 61 39 63 97 59 38 58 17 18 27 13 13 19 21 27 31 94 224 186 106 201 127 20 76 106 110 28 92 155 143 40 10 1 28 77 100 45 25 29 23 35 132 143 53 20 33 13 28 12 37 49 36 19 45 21 36 20 57 18 68 31 97 87 32 52 43 21 39 39 15 31 13 69 95 95 62 202 53 59 63 147 215 137 46 65 178 93 44 59 146 43 242 196 64 42 25 29 117 44 50 19 43 15 22 154 135 183 223 118 43 62 87 88 50 120 77 80 114 42 63 131 142 61 83 17 159 4 35 89 26 54 32 34 127 99 105 142 224 116 137 12 30 14 21 32 38 42 62 65 29 17 21 24 5 15 41 17 34 10 9 29 37 17 23 60 14 34 32 43 8 21 25 22 3 15 57 148 72 46 30 70 84 72 85 38 53 37 24 41 37 14 19 43 41 43 21 24 8 8 33 12 15 4 22 10 43 51 21 30 22 22 12 14 14 25 40 36 11 18 11 33 7 34 33 13 18 19 16 11 22 2 19 25 10 14 14 9 9 20 22 8 9 17 29 21 17 18 42 40 16 16 20 9 19 13 29 32 24 19 11 9 14 18 22 21 13 5 15 32 44 79 130 173 204 239 246 212 136 16 69 106 48 143 216 193 149 118 145 139 122 89 86 131 131 73 22 27 20 19 28 11 27 8 24 43 71 160 203 93 24 21 20 15 7 10 14 14 12 15 26 12 61 52 54 69 74 68 24 17 38 35 45 21 11 6 15 10 36 24 50 27 52 14 7 23 20 55 36 53 13 17 6 7 17 28 22 149 172 205 201 25 155 180 70 26 253 54 194 73 50 11 21 11 22 28 17 26 20 31 19 20 18 13 15 11 20 21 21 40 25 27 11 12 10 21 17 21 32 28 32 40 28 33 7 19 29 15 13 8 7 31 16 21 8 4 28 15 36 8 9 14 14 4 24 29 17 14 14 18 9 12 17 10 31 28 8 6 8 13 8 14 7 15 8 15 18 10 60 106 99 65 69 87 55 22 20 27 29 29 26 12 19 27 38 35 14 9 8 38 14 15 18 16 22 27 11 16 17 21 8 12 17 0 
0 22 13 6 21 6 9 9 8 13 32 24 4 18 29 24 22 17 2 7 32 23 26 42 46 50 39 67 84 57 43 61 93 61 32 47 7 29 34 13 13 26 17 30 90 198 204 20 224 184 34 26 74 116 59 49 102 138 123 36 29 34 29 61 62 64 54 53 28 84 132 98 27 14 18 12 20 7 44 54 11 62 51 28 41 39 50 39 54 20 37 55 55 40 72 19 14 50 56 21 45 72 95 93 77 102 135 37 77 66 141 200 169 145 176 37 157 17 96 152 107 164 123 177 36 217 85 15 38 37 31 15 48 189 233 181 204 7 253 171 96 61 78 113 84 140 165 120 130 168 130 29 193 115 85 25 129 15 99 52 16 47 248 128 50 197 173 158 14 8 16 7 19 43 53 79 60 85 40 19 27 7 16 5 20 24 19 7 25 19 53 6 27 47 11 1 34 59 11 9 17 17 8 3 44 134 74 43 32 74 103 64 113 7 67 42 29 50 52 18 14 21 6 8 35 24 13 12 19 11 14 23 12 29 30 26 15 15 25 12 13 19 6 11 21 30 35 26 13 38 24 45 30 16 11 13 21 12 21 21 26 23 7 13 2 4 14 25 39 44 46 30 26 19 23 18 22 44 25 27 18 12 13 7 11 18 28 20 10 12 17 16 17 28 43 49 49 60 86 117 143 154 151 175 226 254 12 251 212 208 184 169 176 150 108 70 82 105 102 76 56 136 132 68 10 21 33 39 14 28 19 24 28 42 121 201 164 37 32 10 12 10 12 17 11 21 32 41 44 31 46 30 12 37 5 17 21 51 14 12 36 31 18 33 31 18 37 11 50 26 50 31 21 34 42 49 42 51 14 17 3 3 8 30 23 117 181 230 187 41 150 210 61 36 202 77 175 62 49 38 32 10 3 27 27 33 18 14 20 24 15 6 18 18 16 17 35 22 11 10 10 18 16 25 12 18 15 19 17 5 16 51 26 34 13 4 7 16 17 14 34 36 21 13 27 28 29 16 24 29 5 16 27 30 29 37 20 8 24 19 28 13 7 36 3 14 7 16 21 7 8 6 23 24 10 29 76 98 79 73 86 73 50 20 22 35 23 31 21 17 29 43 38 20 15 3 4 28 8 4 14 7 4 7 18 21 7 30 2 11 26 0 
0 21 16 10 24 7 7 23 22 22 19 31 14 10 12 18 7 21 7 14 46 36 29 50 60 44 33 59 66 48 53 68 98 67 32 43 13 30 34 18 24 28 46 52 172 208 25 219 0 86 32 34 51 130 34 57 70 117 116 36 35 34 27 28 97 94 90 39 69 99 114 67 12 10 4 18 10 29 45 22 49 63 13 65 32 71 14 36 19 49 57 12 80 27 63 13 25 14 45 22 42 14 74 81 90 46 173 165 33 5 46 119 199 20 177 134 3 115 66 147 123 71 112 10 23 151 34 10 21 10 12 107 249 53 232 151 140 221 82 109 67 6 180 136 193 22 221 134 96 111 16 168 63 107 131 151 76 78 55 88 93 160 131 216 38 208 228 11 27 7 18 18 38 44 40 103 39 116 47 28 24 28 17 8 8 15 21 22 30 22 49 24 19 26 18 15 45 68 15 13 3 8 6 11 28 122 68 9 18 59 100 33 108 35 55 40 27 50 63 24 9 21 13 30 34 17 15 11 14 4 14 7 11 30 33 40 34 23 27 11 7 13 15 6 16 24 19 10 14 18 14 27 15 19 34 34 11 14 20 36 29 25 14 22 25 31 34 32 35 32 34 31 37 22 23 17 28 31 10 18 10 15 6 5 11 27 22 5 7 11 17 28 43 57 71 86 100 109 119 125 125 115 90 79 90 111 159 200 209 192 140 87 69 64 70 61 67 82 94 105 103 150 133 80 58 58 43 19 24 32 13 48 23 55 194 208 88 7 25 11 17 18 10 14 17 13 5 13 13 22 33 18 14 17 8 10 8 64 19 41 31 60 48 15 17 14 46 11 50 43 56 31 15 19 31 51 31 44 28 19 9 10 7 15 5 81 194 11 180 40 165 239 75 94 151 18 158 52 37 34 8 28 20 34 12 27 38 34 45 26 15 19 24 17 27 17 22 20 2 8 17 21 23 17 11 13 10 27 41 28 39 46 12 32 10 10 10 7 17 26 33 26 13 24 19 7 21 28 30 26 7 13 32 21 40 33 12 7 22 1 22 11 18 27 2 9 11 19 18 13 25 26 17 29 29 54 88 96 74 70 86 61 49 25 38 52 36 37 25 26 42 41 20 2 10 10 10 25 8 9 10 8 11 20 9 8 19 26 8 14 17 0 
0 19 17 8 24 4 5 27 12 15 21 23 3 8 21 24 7 20 9 18 50 31 29 46 49 38 32 53 50 41 55 81 109 71 34 43 2 20 29 26 3 14 33 157 241 77 173 249 121 63 49 20 47 125 18 49 59 127 126 38 63 48 40 78 61 95 133 11 81 62 87 41 22 3 15 6 22 37 28 31 54 28 14 64 21 75 25 23 20 87 83 82 44 24 44 26 30 23 27 10 31 65 61 3 77 146 21 202 145 18 0 25 122 237 73 195 163 86 43 73 151 50 196 9 160 36 21 6 14 17 65 180 244 205 126 80 113 69 116 16 133 144 71 5 53 26 137 103 55 18 178 99 103 214 49 129 90 65 73 99 146 79 84 128 207 83 69 30 27 12 36 20 20 64 101 148 86 167 74 34 24 20 17 19 14 7 13 39 18 34 31 21 34 22 18 5 47 67 21 16 11 11 8 17 21 114 75 3 5 32 69 37 74 58 40 41 25 48 72 47 34 38 17 23 7 22 23 10 21 19 15 24 19 8 10 1 18 23 12 10 7 13 15 14 21 22 8 12 27 22 11 20 22 11 37 20 14 13 20 31 21 21 31 41 38 32 29 24 25 23 31 30 38 35 33 12 15 17 4 17 6 24 10 17 34 38 32 43 55 61 64 67 69 72 73 81 89 84 72 60 60 75 66 48 36 37 65 94 95 93 83 78 79 70 72 67 51 40 66 123 163 183 163 122 92 71 45 43 39 4 36 41 27 115 238 161 15 20 6 23 15 22 10 11 17 20 14 7 8 15 8 14 12 17 5 12 13 58 17 46 23 48 55 30 34 12 37 36 42 18 44 5 11 31 34 56 30 35 42 16 4 3 4 10 14 44 194 46 189 38 167 11 35 144 123 28 161 73 31 27 11 36 39 38 8 34 20 40 53 15 9 17 26 19 5 20 4 12 7 8 24 15 35 15 12 15 17 7 27 23 29 19 27 28 10 16 16 21 10 12 9 18 7 15 18 21 36 26 15 13 16 14 28 15 19 34 25 12 22 21 25 11 15 8 20 17 7 7 16 24 25 18 11 45 24 54 105 115 84 51 67 69 62 39 44 49 29 24 24 35 38 21 1 11 6 4 6 27 12 5 10 10 32 26 6 17 21 15 25 11 1 0 
0 18 17 9 25 8 9 9 35 27 18 9 7 4 10 19 10 22 13 7 42 28 23 40 42 36 35 52 40 31 62 76 98 74 40 48 27 25 13 17 21 31 120 2 166 125 239 127 30 48 48 8 38 111 32 53 87 139 106 26 57 48 93 78 14 126 148 42 102 88 98 36 27 14 24 8 29 38 14 47 39 16 26 55 37 56 52 2 37 122 61 135 46 45 51 66 40 10 17 19 19 43 39 65 26 127 178 70 234 100 15 10 35 108 201 248 206 132 94 66 85 140 89 19 245 92 10 14 15 35 140 149 155 208 176 148 152 111 135 105 130 221 25 13 250 118 39 68 20 154 99 140 214 5 100 14 140 59 109 52 252 88 43 179 188 180 36 17 24 14 39 12 20 132 136 102 39 177 108 20 29 13 6 11 18 4 15 41 5 25 19 18 41 7 41 42 12 60 50 13 15 13 25 20 14 104 78 24 34 41 47 41 49 62 16 44 29 38 67 44 31 48 36 18 16 24 38 4 26 21 17 21 28 14 20 24 31 11 9 17 13 19 6 18 25 25 26 30 21 22 9 10 27 24 55 46 15 10 31 24 19 25 52 63 48 36 31 30 36 43 53 37 17 24 34 35 32 34 44 53 44 43 40 63 67 74 75 88 90 90 89 85 80 76 70 64 50 41 32 33 41 65 64 53 41 44 61 81 72 70 83 100 113 119 130 133 113 76 67 110 157 176 149 89 55 75 69 55 22 27 31 27 76 187 214 82 16 8 8 17 5 12 11 12 10 8 4 1 13 5 17 28 32 32 12 17 21 56 12 38 33 46 60 33 22 28 22 18 33 20 53 8 7 45 31 37 43 24 52 13 8 8 8 13 20 25 183 59 202 47 132 33 45 192 111 96 160 85 34 11 13 10 29 22 32 43 11 55 31 13 27 23 10 19 24 12 12 18 4 7 27 5 22 14 23 7 15 20 13 7 8 19 25 23 19 37 5 21 19 25 20 8 10 20 27 26 12 26 32 36 17 34 10 14 28 34 23 14 10 7 20 17 26 18 21 21 22 18 19 30 35 3 19 35 20 63 108 115 83 54 67 75 63 41 39 34 10 14 31 33 22 2 10 7 10 12 10 23 16 6 8 3 40 29 7 29 8 8 35 10 12 0 
0 21 21 16 29 16 17 25 5 41 11 25 37 27 16 17 19 20 12 16 39 28 22 40 46 52 53 63 45 40 80 63 73 73 32 39 11 6 7 20 14 64 209 192 70 235 165 28 14 10 48 13 27 123 82 80 138 134 71 17 27 71 88 33 48 121 148 66 124 164 144 33 36 21 35 21 35 38 17 29 29 13 19 40 58 35 43 35 13 122 134 117 125 45 56 62 98 99 72 33 25 47 30 52 50 14 189 144 164 240 73 16 21 50 89 126 127 98 107 113 21 77 99 109 58 21 70 23 30 100 28 217 90 128 205 222 247 173 169 126 86 8 106 104 107 44 58 69 165 84 133 223 39 125 50 79 74 70 90 162 91 109 136 226 250 19 21 16 10 8 20 27 12 125 170 125 84 147 112 16 7 26 22 36 13 31 26 26 5 8 18 14 39 24 7 27 26 36 71 19 10 8 24 15 8 114 104 70 31 55 55 38 60 49 3 36 22 19 60 39 20 44 44 19 13 17 40 17 16 16 0 8 44 16 8 6 34 16 14 29 11 12 10 20 35 32 10 17 38 29 4 12 27 31 14 8 21 21 36 27 31 60 59 80 84 81 64 51 43 37 39 20 19 38 52 50 53 42 40 52 62 76 93 92 65 55 75 86 70 62 65 67 67 64 61 56 47 51 67 85 92 99 85 71 63 57 56 76 76 89 103 101 110 135 145 148 160 166 151 154 136 95 36 34 79 87 63 43 18 31 39 37 134 224 148 23 16 10 9 6 16 6 15 14 34 30 15 6 19 9 27 26 29 14 17 9 38 70 25 45 43 54 69 38 15 27 38 31 40 15 51 25 20 41 19 38 43 15 59 15 14 13 12 24 23 27 159 39 216 104 73 3 73 214 57 85 124 55 24 13 15 19 15 14 37 56 31 69 24 27 26 30 21 3 14 14 21 8 17 13 19 14 28 13 16 24 10 15 17 13 11 21 5 18 11 48 11 13 16 15 31 29 21 14 10 13 23 17 17 27 8 38 15 6 20 25 23 26 25 23 27 4 15 22 29 32 16 23 35 42 32 14 10 8 27 63 95 99 75 75 74 67 44 32 41 33 9 28 44 15 15 12 3 10 7 19 24 9 20 21 20 17 25 29 13 22 9 8 30 21 10 0 
0 15 10 15 26 8 5 24 20 36 12 33 14 27 20 5 4 5 7 17 26 22 27 25 20 44 51 69 55 51 92 60 56 72 43 45 22 11 16 28 27 142 0 32 220 175 42 36 32 10 60 12 11 143 122 90 188 140 59 26 34 37 32 8 73 106 107 136 22 186 187 34 40 30 35 26 37 34 11 18 20 10 12 22 38 56 29 17 37 80 190 37 187 24 100 47 74 70 76 82 41 43 41 36 4 39 79 229 123 172 215 89 22 18 45 62 61 61 44 122 69 70 43 126 79 86 43 134 50 8 210 64 74 164 54 57 203 243 145 70 99 60 73 29 55 71 78 153 32 91 217 35 133 49 74 61 40 64 167 97 236 247 231 50 39 42 32 5 9 27 38 23 3 58 134 146 87 93 88 33 10 33 18 47 10 53 7 7 20 20 26 7 34 5 26 5 35 18 93 20 24 18 21 13 18 129 138 95 88 50 70 49 46 17 9 36 25 11 55 43 23 40 34 25 15 14 40 22 10 10 7 23 23 30 27 18 30 9 10 31 31 13 10 14 6 22 33 4 7 22 11 12 21 28 41 30 26 28 18 14 45 88 80 122 162 184 174 145 113 81 65 61 61 53 55 52 61 80 83 61 50 72 83 46 40 56 57 41 37 32 30 43 44 44 55 65 73 72 75 78 66 74 70 80 85 79 59 66 77 121 149 157 182 189 150 116 114 133 133 112 49 19 61 71 84 79 54 22 21 29 45 70 184 218 72 21 3 11 8 13 11 15 16 25 21 25 28 7 22 15 18 15 51 47 24 34 56 51 37 72 28 59 66 41 12 25 34 14 44 2 49 22 11 22 4 21 42 18 66 26 8 5 9 26 44 31 119 2 212 76 22 228 82 225 47 99 82 55 26 13 11 14 8 21 15 60 30 71 8 43 28 15 27 19 8 21 32 23 23 7 5 14 13 19 27 25 30 14 22 17 13 21 25 34 35 40 10 23 32 24 33 10 17 9 4 21 17 23 16 28 19 36 25 29 6 25 21 10 9 11 26 8 20 36 4 16 8 18 19 25 28 24 26 17 15 55 91 99 76 68 73 74 40 31 39 33 26 37 33 8 16 7 6 5 17 7 23 10 19 21 14 21 5 10 24 8 10 21 22 14 15 0 
0 11 2 22 18 6 4 13 18 17 19 22 34 46 27 14 5 10 15 12 5 21 34 28 29 44 48 72 62 55 86 71 55 66 58 47 18 31 26 25 102 229 152 119 239 76 36 22 17 36 44 8 65 178 96 113 191 140 52 17 34 20 10 23 103 70 89 210 180 140 175 76 14 19 24 18 40 32 9 30 26 5 8 29 7 23 39 31 24 62 181 65 173 132 78 107 31 55 28 34 32 16 51 39 28 21 19 107 239 110 186 234 121 26 41 101 88 36 11 90 137 44 113 156 255 87 191 70 134 237 210 196 71 11 79 60 197 27 91 42 137 102 65 17 55 80 152 30 86 249 33 125 77 54 89 41 53 104 85 90 112 208 118 116 35 27 30 22 14 29 8 18 18 6 36 81 64 56 62 39 9 32 19 31 35 34 25 18 10 0 28 6 18 26 2 20 16 16 89 44 18 20 11 15 25 126 172 61 129 29 69 58 20 17 13 36 25 10 46 48 40 41 16 13 24 25 42 31 28 20 18 46 10 24 24 14 24 18 25 20 30 21 10 25 24 24 33 3 13 13 16 8 14 8 11 20 14 32 19 41 65 85 101 134 129 139 161 172 182 184 181 177 141 95 81 82 78 77 72 55 56 74 60 41 29 67 69 81 102 111 106 125 137 146 147 128 107 103 94 65 51 58 25 22 28 39 49 58 74 113 120 88 82 59 48 46 27 50 66 99 100 84 69 61 89 77 49 25 19 28 41 115 221 163 14 24 18 9 10 15 5 8 11 22 14 30 26 6 14 18 20 19 47 34 30 58 42 21 47 61 15 71 58 44 10 5 16 46 31 28 29 24 27 24 24 35 59 34 68 56 20 19 25 17 26 14 81 234 254 100 47 215 92 209 30 125 40 96 50 38 12 8 7 13 15 40 10 63 6 31 36 40 37 24 14 24 41 3 34 13 4 10 14 4 17 7 25 36 8 28 17 22 12 10 35 29 20 35 12 18 38 44 26 15 24 20 8 15 18 17 6 19 21 6 29 26 26 22 31 30 3 28 25 14 7 9 12 13 11 21 29 4 5 25 5 57 100 107 76 47 72 96 55 41 38 34 35 21 19 22 11 14 10 8 17 8 19 21 9 10 19 10 17 10 18 7 8 12 20 11 14 0 
0 12 12 23 12 9 3 7 23 14 22 21 25 23 0 12 18 25 28 27 23 26 37 48 30 25 43 78 67 43 59 77 66 62 55 42 17 20 34 106 246 195 47 177 151 20 34 27 46 24 24 74 144 165 45 145 165 136 59 32 32 9 35 61 104 2 119 119 198 90 105 84 51 18 4 13 38 23 20 21 42 30 21 36 5 34 26 23 15 79 195 125 140 198 58 110 22 72 9 37 60 40 31 41 28 6 37 32 114 243 110 148 1 139 42 133 62 67 83 113 195 127 125 125 134 19 208 159 71 63 150 161 22 18 24 205 0 254 62 43 124 128 13 47 39 73 220 103 44 118 98 78 13 74 75 41 114 16 147 75 141 193 193 11 24 33 4 34 2 30 24 22 17 7 25 52 45 10 53 52 5 32 22 8 32 12 23 11 18 15 28 4 16 34 20 34 45 26 69 54 21 13 20 29 33 123 160 55 130 8 58 79 36 35 22 33 33 21 41 44 43 39 20 4 19 38 50 47 24 30 36 53 28 38 30 4 15 20 23 9 24 32 26 11 5 15 18 14 23 21 24 28 3 12 13 10 4 17 15 40 70 81 102 98 112 121 92 40 27 92 127 151 172 173 170 173 158 119 93 103 115 100 82 89 77 83 93 113 91 97 109 105 96 103 96 84 80 102 114 98 96 90 63 39 16 14 10 24 18 50 99 126 166 194 161 113 107 135 152 162 144 86 56 68 93 55 24 12 47 32 55 191 230 97 21 15 12 16 9 8 9 10 14 18 11 33 20 5 7 6 14 25 29 33 14 64 20 21 28 61 22 95 64 62 20 20 11 52 22 26 11 29 42 18 4 39 68 35 56 66 42 8 13 31 24 12 58 199 41 130 36 173 116 152 98 124 59 100 45 42 17 8 13 12 6 34 14 63 7 21 26 30 26 15 8 3 35 38 22 15 15 16 20 25 31 29 18 19 43 11 53 15 27 21 22 18 25 12 17 5 7 13 28 16 31 18 22 20 8 13 4 9 24 16 24 38 21 7 2 13 22 9 11 10 14 19 13 8 6 24 47 27 27 17 15 57 99 111 85 60 72 90 69 30 32 49 35 6 20 26 17 17 8 12 13 15 11 10 8 3 9 8 13 18 25 16 11 11 26 15 15 0 
0 10 11 20 11 11 9 13 27 17 22 28 27 17 7 5 4 7 13 9 7 22 27 38 40 35 47 78 67 40 49 77 80 74 61 40 27 40 155 18 244 33 192 125 69 11 13 18 40 55 110 191 181 125 67 185 167 116 71 45 14 32 35 54 71 64 97 14 109 123 99 49 36 37 0 10 31 18 28 21 37 33 26 20 28 21 10 27 12 116 219 98 72 177 104 67 4 67 39 60 53 80 49 41 43 31 40 34 38 148 240 156 118 240 164 174 76 127 74 106 175 188 107 120 104 49 236 99 23 5 117 186 107 166 196 91 44 231 111 110 120 115 36 49 105 120 27 116 179 65 145 10 79 75 18 52 230 154 208 6 215 66 78 28 13 25 16 23 28 26 10 8 10 5 14 38 53 25 56 73 20 25 8 10 12 18 14 12 18 14 21 24 15 37 32 29 16 14 57 71 22 24 20 20 54 119 130 65 116 9 85 89 66 56 26 34 43 41 33 31 39 53 60 34 5 23 25 31 38 12 31 39 29 45 8 8 11 24 14 19 8 16 26 21 12 13 30 36 28 23 15 29 29 26 20 25 40 32 24 39 84 88 86 80 161 208 217 210 177 128 95 62 17 38 57 60 74 88 78 66 46 25 26 35 23 24 36 77 108 99 89 116 148 156 139 124 109 115 119 104 100 82 52 48 62 62 75 92 113 153 199 203 170 169 174 150 129 116 82 42 72 72 45 63 65 20 4 13 52 58 117 241 174 19 25 18 8 15 2 4 9 3 12 18 14 32 4 25 19 9 24 21 12 25 23 58 13 37 40 45 12 105 51 67 12 22 17 51 16 25 18 33 40 11 12 24 62 46 44 50 48 20 20 5 25 34 51 155 49 170 21 140 142 109 163 84 77 58 25 29 19 16 18 21 20 45 14 63 8 18 16 17 21 29 38 36 22 26 17 5 16 11 2 20 16 9 34 25 31 40 46 7 34 24 13 20 40 45 44 56 67 69 45 26 38 36 22 14 21 17 11 8 13 18 11 20 19 10 25 24 4 18 12 17 13 11 9 15 19 31 48 28 4 4 22 56 92 111 93 70 60 72 76 33 35 49 18 19 34 15 18 11 26 20 17 22 21 8 7 6 3 4 11 16 13 10 22 28 35 20 6 0 
0 17 13 18 11 10 15 12 14 13 7 2 1 9 15 12 9 11 15 15 21 31 28 25 41 60 62 72 59 37 47 71 82 88 66 34 26 86 8 239 39 213 169 49 51 16 17 16 47 102 166 152 62 17 108 204 151 93 74 42 16 51 34 41 39 94 60 7 20 71 62 31 12 43 15 7 39 22 23 11 51 31 21 29 8 14 5 20 11 155 209 43 43 92 126 31 14 61 24 55 8 58 82 59 16 40 79 44 13 49 123 0 193 73 235 186 90 154 107 28 111 107 145 145 87 63 79 227 242 231 212 100 43 151 215 5 193 94 135 199 184 93 13 19 160 217 78 73 62 140 93 69 100 23 90 208 131 66 154 225 144 186 18 31 11 14 17 2 8 4 8 14 14 16 20 36 68 52 33 75 25 20 16 19 10 15 32 35 18 5 21 17 8 42 24 35 28 19 45 86 13 8 19 37 30 91 129 57 107 23 84 77 77 60 20 31 38 52 53 45 28 16 27 39 28 28 12 27 38 36 28 7 20 41 18 13 5 20 19 31 20 20 17 23 19 14 17 2 3 15 22 28 39 22 32 38 17 24 15 24 81 100 125 118 89 79 110 146 171 178 192 200 189 159 146 147 135 122 118 116 121 149 151 140 131 144 177 186 167 161 177 195 196 192 185 189 195 221 248 244 215 194 201 207 194 193 215 214 205 192 164 146 109 74 81 78 65 70 30 16 31 37 35 44 34 9 25 31 48 108 198 220 84 27 25 5 15 18 8 5 5 7 15 11 26 27 23 31 16 13 30 24 21 17 42 46 47 26 20 14 29 87 37 55 3 20 34 49 34 43 40 44 42 5 20 28 57 44 43 46 46 8 7 14 23 26 53 133 34 212 32 140 168 99 180 51 61 50 48 50 19 13 7 9 15 51 5 65 11 10 8 12 14 18 20 14 16 25 26 4 23 23 12 8 21 27 8 12 9 15 20 7 20 32 23 13 4 8 1 18 21 8 26 12 17 39 40 32 17 7 9 5 11 13 15 31 12 18 13 5 7 5 3 14 14 7 21 28 31 34 35 16 11 7 26 62 94 107 84 73 69 72 68 32 32 38 5 23 31 11 15 16 21 10 14 4 15 20 7 12 12 9 22 12 11 13 4 15 24 7 12 0 
0 25 15 15 8 2 10 10 2 10 14 10 11 16 13 7 7 5 7 14 24 24 12 21 52 50 43 64 63 36 33 73 100 86 47 13 65 217 26 66 197 212 89 34 55 21 34 22 67 156 153 62 52 109 161 156 122 113 70 22 24 58 48 26 33 75 39 12 10 17 11 31 14 39 37 17 49 36 15 14 62 13 62 68 55 14 19 6 17 191 198 38 53 25 121 20 25 60 18 50 44 38 5 71 100 96 129 134 88 53 23 67 208 228 96 124 206 191 84 5 91 38 71 74 75 35 64 161 131 133 224 16 234 155 59 152 75 35 152 172 134 79 44 88 231 49 64 201 69 133 35 125 45 88 223 120 77 37 174 203 219 54 16 29 14 14 8 7 14 15 12 12 7 2 12 12 52 67 18 67 38 5 11 11 17 20 38 32 25 7 25 14 25 21 31 30 29 36 25 68 42 13 26 6 19 69 142 14 107 29 55 42 36 29 32 37 7 31 39 41 36 27 24 38 32 20 24 34 49 34 16 10 26 39 26 17 10 11 22 30 11 4 10 23 21 20 32 24 17 18 41 19 29 4 29 24 10 31 18 4 43 69 105 103 56 28 25 39 64 86 117 134 140 138 137 125 118 128 117 102 108 118 98 107 118 110 100 77 70 88 120 137 144 166 181 196 190 182 195 222 206 178 230 17 15 10 15 251 217 170 110 93 94 51 34 38 16 49 19 41 15 19 39 26 12 17 32 35 52 163 239 130 7 21 16 17 24 15 8 11 7 7 15 7 27 26 46 41 33 30 19 16 18 3 64 29 63 29 6 7 46 59 10 31 11 12 29 21 41 13 21 53 59 13 26 36 58 39 52 59 42 8 9 5 27 16 53 130 5 242 65 122 185 71 177 59 72 71 39 36 22 14 10 7 10 45 9 65 5 18 13 6 3 8 16 17 14 17 29 18 10 7 17 12 19 21 23 17 8 30 26 9 23 27 26 12 25 26 22 34 56 54 46 31 46 24 15 7 4 19 10 18 20 9 34 25 15 14 10 6 9 8 6 9 29 34 17 10 22 37 38 18 8 13 25 74 105 100 65 70 96 84 55 31 28 23 22 29 7 26 6 5 22 29 26 22 19 18 10 13 12 6 21 34 41 37 21 24 28 18 26 0 
0 30 15 10 4 12 19 8 4 1 11 7 8 9 5 17 18 15 11 18 34 24 5 29 61 28 31 74 85 38 14 85 115 69 45 43 203 25 109 165 220 122 57 26 15 29 37 33 121 166 97 18 90 134 104 68 124 134 54 13 23 49 49 45 52 27 34 11 10 21 4 27 33 18 39 38 40 46 22 4 66 11 100 58 104 46 18 18 23 212 224 80 41 22 123 58 36 29 35 41 14 36 60 53 62 83 86 125 149 156 144 121 91 210 208 79 202 222 121 49 68 45 78 55 19 46 130 229 187 160 139 102 44 4 21 73 229 191 2 9 93 111 92 167 24 46 242 58 135 56 97 54 92 181 63 95 20 129 214 17 31 38 40 30 17 12 2 3 5 11 18 23 20 24 41 39 27 58 10 51 58 28 20 20 1 38 38 17 27 21 29 41 22 20 28 23 12 22 19 45 51 16 31 21 27 54 157 10 115 23 47 14 11 16 18 34 9 32 59 24 30 58 30 17 36 35 17 19 25 17 5 6 17 29 22 28 15 14 12 18 29 24 24 32 31 20 14 3 11 25 39 5 12 24 3 13 19 28 14 1 10 18 23 42 52 30 7 25 21 13 11 8 60 92 97 91 78 80 57 39 50 43 29 35 33 20 22 17 35 65 78 95 131 174 201 225 237 214 208 222 215 163 233 203 174 158 150 147 133 130 125 88 89 66 34 42 19 38 26 40 36 45 30 20 18 28 36 50 93 209 204 41 19 5 4 13 13 6 15 17 7 5 12 12 20 2 26 25 33 25 14 23 25 19 66 12 65 20 2 11 57 52 18 26 18 32 19 9 36 37 49 49 54 27 22 59 77 50 44 70 29 24 14 21 22 22 47 115 249 8 77 91 192 34 192 53 84 73 58 22 24 12 26 22 14 26 23 50 7 23 23 24 27 29 31 25 25 27 31 9 26 29 19 24 19 26 14 7 21 5 45 15 31 18 19 12 4 11 20 31 9 23 7 21 21 46 30 13 5 23 12 35 12 28 29 15 17 7 22 22 1 16 7 4 23 38 18 8 26 35 31 28 4 21 22 80 113 101 60 76 112 85 43 29 31 28 31 21 25 21 15 4 17 15 12 5 9 2 10 8 5 2 19 24 14 10 23 33 33 24 6 0 
0 31 15 6 10 20 25 20 10 11 17 13 10 10 9 18 11 15 3 18 41 26 8 33 72 28 20 65 94 46 17 93 111 58 28 172 57 170 139 235 130 50 27 15 15 21 31 76 143 119 26 76 142 101 28 51 126 116 62 27 43 42 21 61 25 16 19 6 2 25 17 4 33 39 33 36 23 42 50 21 84 23 123 79 103 89 13 2 32 219 37 126 135 69 143 97 44 31 36 38 22 50 29 58 112 65 8 48 75 70 71 61 48 71 192 252 177 70 171 140 28 78 51 84 104 142 208 32 159 59 26 32 32 11 25 90 106 187 201 131 96 125 194 27 28 221 158 34 99 71 99 86 237 2 42 168 42 220 73 87 31 19 17 10 7 11 7 10 9 21 17 20 14 16 33 7 7 49 36 17 52 29 15 20 34 22 36 22 4 23 7 53 10 39 16 32 12 22 42 46 62 22 15 9 13 60 137 28 115 22 59 35 9 24 19 47 15 32 77 27 14 76 28 13 20 17 26 19 35 37 14 12 9 10 15 28 17 43 8 11 23 5 8 15 22 23 17 13 13 27 16 8 11 28 28 0 19 14 17 15 12 25 20 38 38 24 10 18 23 2 33 43 23 14 29 50 48 31 36 16 31 14 35 50 36 27 37 31 43 65 56 53 87 54 72 109 93 77 89 72 113 43 175 48 36 42 25 26 31 88 132 107 83 57 22 24 20 14 6 46 67 32 13 17 50 45 44 69 168 227 113 11 13 18 5 9 4 9 21 17 10 12 12 18 19 15 23 40 40 16 17 33 14 10 55 32 49 14 33 26 60 88 60 68 17 20 12 22 38 46 24 35 36 18 34 50 53 62 28 77 19 27 15 28 17 16 38 89 12 35 64 71 190 43 184 24 81 64 50 13 35 19 43 7 25 11 10 36 31 27 10 5 4 6 17 10 15 25 15 20 25 5 8 18 20 32 16 13 16 18 20 24 17 15 24 32 19 7 23 18 34 14 18 29 30 12 21 20 8 16 19 21 13 21 17 22 3 9 5 12 19 8 10 15 36 23 11 25 32 37 19 4 20 12 25 74 110 109 77 98 105 65 46 34 41 44 29 5 16 15 24 21 34 20 20 34 33 11 4 5 11 11 12 22 30 25 21 45 43 19 27 0 
0 41 24 12 7 15 5 14 12 16 10 11 5 18 7 22 11 16 9 20 44 31 17 27 65 37 19 46 80 60 33 93 97 60 224 90 208 116 19 188 75 50 37 13 31 45 76 122 166 103 62 132 118 20 10 89 105 78 54 14 37 16 59 12 32 39 17 9 3 37 17 17 12 37 27 18 14 59 88 52 100 24 91 143 49 140 23 31 22 235 92 69 114 70 169 139 64 98 69 27 26 33 44 61 21 49 74 85 55 67 66 35 23 65 136 206 224 178 65 244 76 122 31 87 152 148 164 237 49 50 5 58 45 20 39 75 77 8 8 224 108 206 35 30 205 149 78 96 35 91 44 254 87 1 165 97 161 146 161 10 4 26 21 17 5 4 14 10 2 20 10 27 20 15 40 4 11 30 31 36 41 32 12 22 25 5 29 10 22 27 5 42 17 37 15 31 11 36 30 54 56 21 5 13 10 49 97 34 89 38 54 43 31 4 20 36 48 36 76 36 23 83 29 8 26 14 18 20 34 44 25 15 7 17 10 22 10 48 30 26 43 12 10 1 12 20 25 19 32 18 16 18 4 13 30 9 17 2 10 18 20 31 35 57 47 18 23 17 31 21 40 32 63 60 74 70 38 22 33 11 21 16 30 58 38 15 55 12 21 53 25 23 77 89 99 125 90 60 78 103 147 110 183 189 159 147 149 137 126 119 131 129 89 38 12 33 27 22 37 43 36 32 41 41 50 31 22 124 228 155 11 16 18 24 7 12 4 4 26 15 17 16 16 17 7 13 7 10 14 32 30 16 21 15 35 37 21 27 15 21 68 122 47 90 26 10 24 40 13 45 35 37 26 15 33 39 17 59 22 71 25 31 27 28 24 8 32 68 20 55 57 48 136 76 127 24 52 29 49 12 52 16 43 36 28 20 27 37 13 9 13 24 18 18 18 25 7 41 12 4 18 15 3 12 7 12 21 22 14 14 5 20 8 9 18 22 25 12 34 22 37 17 16 30 5 31 32 17 18 9 13 12 23 17 14 5 14 7 7 23 14 6 18 27 18 10 20 13 35 52 34 23 14 8 36 85 97 114 101 111 93 48 51 37 40 35 12 24 13 15 12 5 18 23 14 16 19 12 14 15 17 4 3 18 9 35 10 31 30 11 36 0 
0 34 28 3 18 31 31 18 11 7 17 8 18 16 8 21 22 19 12 21 35 36 22 31 50 33 29 40 67 68 47 85 73 215 72 177 138 45 208 82 32 14 21 11 35 63 72 123 159 33 149 152 32 58 29 100 67 67 63 7 22 54 34 67 60 77 38 17 24 26 37 40 23 22 13 16 19 83 94 46 93 32 25 161 54 140 69 26 29 5 113 0 124 98 180 143 43 81 118 109 45 12 14 30 66 53 45 81 118 107 63 48 21 73 79 41 61 220 177 193 227 112 106 97 136 99 30 202 114 32 28 64 14 22 52 59 98 142 230 24 146 54 37 206 164 110 30 95 38 94 226 117 41 117 41 33 170 7 50 21 8 17 28 24 12 7 14 8 5 15 19 21 8 5 36 11 3 22 10 22 10 27 14 20 20 19 35 29 4 32 10 36 2 30 19 22 9 37 9 48 41 24 6 12 21 45 73 46 63 44 64 17 10 28 24 56 41 20 55 39 14 70 73 31 28 29 22 19 22 35 36 23 23 19 38 21 17 34 26 14 44 35 27 21 9 2 15 25 39 25 26 26 15 12 11 20 14 4 20 11 2 22 14 47 65 48 39 16 29 25 48 21 31 22 32 49 40 21 5 14 4 9 13 32 20 14 43 37 31 55 33 13 42 78 98 127 124 100 107 131 139 95 112 150 157 161 156 142 137 127 113 120 82 25 34 39 24 31 29 19 10 40 57 40 25 22 68 215 202 51 10 3 11 8 13 14 12 11 35 8 17 2 14 29 13 18 5 9 17 22 13 17 13 37 22 7 4 17 29 7 86 124 60 106 20 24 44 33 16 31 14 36 33 13 25 12 26 48 40 56 56 14 25 21 17 11 32 72 238 55 79 55 81 60 74 37 52 14 75 32 46 41 17 30 5 11 18 51 31 28 29 12 18 20 13 25 12 41 2 16 1 8 7 21 16 15 23 15 22 14 5 14 2 8 17 25 24 19 20 16 12 31 33 31 40 8 9 16 10 16 8 17 23 14 20 19 22 28 13 13 12 7 21 22 15 8 17 30 49 46 16 4 13 16 46 114 86 112 111 111 91 44 52 43 39 27 5 22 24 18 10 5 17 22 10 27 23 17 9 7 19 17 8 17 24 19 11 7 6 11 20 0 
0 26 30 7 22 4 8 9 8 4 16 21 8 19 12 7 14 22 22 23 25 28 23 52 37 12 36 55 62 55 64 108 153 228 122 175 26 200 77 35 10 22 31 17 24 77 91 148 113 80 209 131 52 60 55 75 43 83 86 33 10 22 32 119 81 109 55 31 21 11 57 25 18 22 17 25 14 87 91 27 85 33 17 94 105 92 112 19 7 11 118 1 154 101 151 135 59 18 63 92 102 46 18 23 13 43 107 98 30 72 57 53 39 77 49 35 28 123 3 78 201 101 153 84 94 91 74 123 171 40 29 66 22 11 68 47 51 146 169 248 203 112 4 185 154 12 83 44 88 193 21 25 89 79 244 153 88 119 7 11 1 4 18 17 11 12 11 4 5 5 24 10 4 5 27 26 34 42 13 8 12 17 27 4 15 14 31 41 22 22 7 41 20 40 15 20 34 38 26 37 21 30 16 3 10 38 63 46 48 28 80 39 40 30 53 23 38 28 52 55 10 28 47 47 36 37 42 20 33 21 13 38 25 18 39 30 32 31 3 26 15 21 22 18 19 11 25 14 38 31 28 32 33 28 24 25 27 20 29 7 14 20 27 32 23 40 27 8 18 31 51 44 10 7 17 24 16 22 29 14 23 22 27 36 25 2 23 32 47 67 44 30 43 42 38 40 79 101 95 78 68 41 34 48 74 93 102 93 96 110 114 104 61 24 52 46 24 48 26 7 37 53 39 40 24 51 170 243 99 4 1 2 4 4 5 5 12 5 34 18 30 26 23 24 15 20 8 10 13 15 21 23 45 25 36 13 8 14 28 18 97 114 74 113 12 51 41 29 38 51 29 35 41 18 50 24 26 65 53 63 76 12 10 28 21 7 35 75 196 46 123 74 69 41 68 52 70 17 98 39 35 22 7 24 8 11 21 19 41 40 28 17 17 24 16 25 15 22 19 3 21 16 7 12 17 11 17 2 8 18 24 13 5 19 19 13 24 8 10 18 10 21 50 12 39 15 11 19 9 16 20 21 7 14 24 28 2 19 6 11 18 20 29 41 42 15 10 11 33 35 14 8 8 35 34 132 97 105 112 113 92 43 52 51 42 24 7 4 8 8 10 12 15 18 21 18 9 10 10 10 11 15 14 10 5 8 10 11 13 15 17 0 
0 30 38 38 46 33 28 17 10 19 11 31 16 32 15 5 21 24 17 17 26 35 34 36 43 58 59 83 63 22 28 89 117 43 171 18 196 94 68 26 21 19 34 30 41 94 155 180 37 167 186 56 58 63 63 42 14 74 63 46 27 17 25 170 109 157 61 15 12 31 38 15 44 34 42 30 52 95 62 18 72 33 28 40 137 74 165 62 7 14 117 12 173 99 126 153 86 37 56 47 86 75 57 36 41 60 93 154 134 79 73 62 64 85 18 8 21 30 143 182 79 37 131 38 69 56 83 80 185 55 55 59 23 62 105 29 145 3 91 118 62 161 17 158 16 88 41 99 219 193 163 86 141 227 108 126 201 26 13 4 4 3 12 14 11 10 8 10 15 18 25 5 7 15 13 4 4 26 24 2 10 10 24 21 8 2 13 28 21 2 16 31 13 34 12 26 42 21 50 36 14 27 13 3 7 33 56 33 43 29 90 31 15 12 55 20 30 28 52 76 26 24 16 14 37 46 46 52 38 13 33 25 35 22 21 26 15 21 29 6 5 19 14 7 26 29 26 11 24 25 25 28 28 24 17 11 3 14 38 21 6 4 24 27 13 6 24 16 8 19 48 32 24 13 2 17 11 11 32 24 7 36 42 30 20 17 4 23 43 78 51 20 27 22 42 34 26 29 26 21 25 15 9 18 24 34 53 53 65 83 78 62 31 14 33 10 22 48 24 39 48 40 34 22 51 111 229 180 30 4 4 4 4 3 4 4 12 3 28 4 24 14 22 8 8 14 11 19 25 21 22 33 48 15 40 17 2 4 28 12 90 106 90 116 25 63 34 38 29 79 8 19 45 12 64 49 31 107 32 84 78 7 25 6 21 17 39 76 178 40 162 67 65 55 55 38 91 25 103 46 34 17 14 28 31 38 22 27 21 15 17 22 26 24 7 11 27 16 11 18 4 7 19 35 32 17 34 36 25 8 4 4 12 16 18 11 16 19 15 39 34 43 38 21 29 17 16 7 13 5 18 40 49 37 16 14 28 17 12 5 15 27 39 20 39 7 9 3 21 35 10 8 21 26 26 127 113 89 111 126 90 49 57 46 23 3 9 11 18 24 23 17 9 5 15 18 14 8 11 12 10 7 7 13 12 5 7 5 5 7 9 0 
0 13 17 7 29 8 2 39 8 34 1 31 27 31 26 7 5 4 13 24 31 33 27 34 68 72 86 124 109 80 69 78 29 157 205 194 121 80 41 26 21 8 54 43 41 98 174 137 73 219 110 23 45 9 41 35 60 107 52 17 59 9 87 227 81 197 90 15 30 20 10 25 32 13 43 22 78 105 35 49 38 25 10 19 154 44 168 99 5 40 106 8 168 96 99 191 124 4 39 80 61 67 98 100 107 130 51 101 162 131 61 44 55 118 24 39 58 47 73 91 115 84 133 103 38 12 37 79 177 46 105 47 31 99 58 178 46 56 231 103 187 149 172 55 119 93 119 210 1 145 23 158 253 63 101 238 53 32 9 2 7 0 5 8 8 4 3 5 10 12 17 12 12 12 10 14 17 11 29 18 25 23 15 24 8 11 7 7 23 20 18 5 30 40 20 32 31 38 41 12 18 28 18 8 1 28 54 46 35 52 66 42 37 45 45 17 27 23 40 70 38 35 15 6 26 39 57 55 51 45 33 20 39 17 23 18 8 3 31 31 15 31 9 15 23 30 15 7 8 14 19 20 18 16 9 18 10 13 23 34 17 7 33 11 14 12 14 22 10 14 38 28 34 38 20 13 4 17 4 36 50 47 29 16 13 26 19 11 15 67 67 39 12 3 14 17 10 11 9 20 22 23 20 17 4 27 14 25 52 61 39 15 10 21 32 20 28 29 16 56 27 37 46 31 83 186 202 82 19 2 4 4 3 1 3 6 12 12 37 22 35 7 12 7 5 9 13 9 10 1 12 24 39 13 37 15 20 29 49 44 96 93 109 97 28 41 42 67 25 75 13 22 51 26 40 51 10 121 36 99 80 17 16 15 11 10 29 82 186 34 163 55 31 22 20 44 90 32 96 55 36 9 9 30 24 31 11 6 21 10 10 5 16 9 5 18 10 24 32 28 11 22 27 17 8 21 43 17 36 21 18 9 10 10 10 23 8 13 16 37 17 55 18 26 13 16 20 11 21 19 6 10 15 18 19 9 10 25 31 24 34 29 37 21 43 22 21 14 5 27 17 29 29 13 34 115 111 74 119 142 81 48 59 47 22 2 12 13 13 11 10 8 6 4 5 9 13 7 9 10 9 7 4 12 13 7 8 5 1 0 1 0 
0 20 24 20 38 27 27 31 7 24 18 12 40 14 34 13 14 9 4 21 35 44 45 34 38 41 104 199 216 102 61 78 111 204 148 103 55 36 24 17 13 9 44 63 74 150 174 61 156 209 45 39 21 22 56 53 75 98 35 57 90 57 185 230 54 205 91 12 31 6 15 17 13 24 46 8 118 125 62 88 16 39 51 12 140 110 146 126 25 75 73 48 171 91 33 198 244 80 21 80 55 28 5 38 114 219 253 100 103 167 144 62 47 82 70 56 65 20 57 17 24 49 168 151 53 85 92 17 165 81 110 69 52 112 26 50 100 245 111 80 248 248 68 179 126 150 176 180 20 132 190 184 239 31 236 82 18 19 11 5 8 4 2 6 5 7 9 10 10 12 17 12 12 12 10 15 14 12 29 22 15 22 7 26 18 10 10 9 21 28 16 20 38 15 28 41 2 28 14 23 25 25 16 10 7 17 45 70 29 80 34 47 43 17 22 13 48 28 29 42 34 50 31 15 9 20 27 14 29 39 17 10 27 11 28 30 25 22 22 35 34 42 31 28 4 18 15 11 4 18 22 18 14 12 8 20 14 16 7 23 34 25 15 29 24 28 13 20 32 8 19 17 17 35 46 24 8 8 20 25 48 63 54 44 31 30 21 12 15 26 65 75 50 21 12 24 39 42 36 38 40 40 32 33 37 42 42 59 61 48 20 30 50 44 20 12 16 10 14 42 19 56 51 49 137 195 132 33 13 3 1 3 4 4 2 10 12 25 45 21 42 14 11 18 18 15 3 13 12 12 15 25 36 17 36 16 18 20 41 26 83 61 107 86 28 15 8 68 5 68 6 2 31 16 10 39 13 126 63 120 100 29 20 28 5 8 16 94 209 28 140 50 18 54 42 72 67 27 82 59 42 18 21 30 18 31 27 16 18 6 21 27 16 10 4 12 33 27 20 4 35 27 29 24 38 30 20 19 12 38 29 7 2 12 8 26 21 10 16 23 34 32 10 18 21 24 21 31 11 10 13 16 10 3 14 34 40 39 36 38 38 12 37 24 41 18 14 14 12 22 21 43 10 25 36 103 104 89 152 149 71 50 60 48 30 20 26 31 34 32 28 21 11 1 7 5 8 6 4 4 5 8 11 11 9 5 7 7 4 4 4 0 
0 14 21 9 33 14 11 7 8 4 13 11 17 43 9 34 12 15 18 21 25 29 27 24 60 85 46 92 223 200 50 67 155 192 96 48 13 17 16 22 7 36 17 73 174 201 120 79 204 119 22 42 20 33 71 48 63 76 52 79 61 50 249 150 159 172 67 22 23 9 13 29 10 36 22 37 142 110 93 121 49 58 88 93 70 132 88 146 91 108 253 115 184 94 100 66 22 184 8 65 81 7 36 53 103 63 219 18 99 87 159 198 36 196 254 144 84 37 97 86 97 63 137 204 125 140 140 144 54 145 59 109 75 90 83 74 65 149 162 233 176 54 183 111 131 220 109 137 18 129 34 217 253 201 89 25 18 7 15 6 9 7 4 5 12 16 12 13 14 18 25 5 7 15 13 15 14 13 15 11 1 16 19 7 18 5 2 7 7 27 32 18 41 16 33 46 17 32 35 12 42 31 17 6 10 21 45 69 32 77 26 61 57 20 17 17 51 40 21 27 17 51 42 17 0 10 27 20 16 27 22 18 23 18 24 37 36 25 18 8 25 33 29 19 19 26 16 18 7 22 23 15 9 9 9 14 30 16 13 4 22 30 24 20 39 33 22 25 44 12 8 10 10 9 25 47 18 11 17 38 15 34 11 24 29 14 25 23 14 24 39 64 73 63 58 64 65 60 46 46 53 51 40 52 75 77 79 79 55 10 19 68 56 39 17 11 10 8 21 24 44 71 59 109 156 136 84 18 5 4 3 4 4 4 4 12 13 32 48 10 42 5 17 38 37 42 17 16 13 11 11 25 31 11 34 11 8 10 36 46 79 78 79 56 18 12 8 81 30 82 7 1 26 15 8 27 16 123 70 112 117 27 19 38 7 15 19 102 217 23 139 42 29 85 34 98 52 20 68 52 38 15 21 29 13 14 24 11 10 12 17 20 19 8 5 1 10 24 15 35 43 17 26 5 10 12 5 8 24 29 39 11 13 10 7 21 22 31 7 13 28 7 18 25 10 20 35 17 24 26 14 4 5 10 27 47 23 13 16 24 29 11 31 37 25 15 14 2 11 22 20 39 4 17 45 106 104 127 182 131 57 52 63 55 38 24 21 21 21 21 23 23 18 10 3 5 5 8 2 2 4 8 12 13 12 10 10 8 4 1 1 0 
0 19 27 13 32 11 8 11 19 15 15 9 10 36 14 25 4 14 11 13 22 35 35 30 30 78 163 179 158 165 123 115 173 149 49 18 2 2 10 11 22 40 37 120 245 163 46 202 193 71 59 25 26 39 88 75 74 49 43 74 68 47 4 46 211 131 59 38 33 16 19 24 10 31 22 43 138 88 93 140 39 174 122 198 19 144 32 126 134 129 141 176 166 77 119 146 172 60 88 36 86 38 38 63 143 147 31 197 8 191 42 251 123 34 209 245 126 156 176 121 108 84 27 248 218 39 91 196 132 128 32 136 105 55 126 22 239 196 9 234 13 124 164 79 193 158 74 192 128 27 78 249 235 118 21 27 10 8 15 14 13 9 7 4 19 24 10 14 8 5 24 10 4 5 27 21 21 18 10 18 7 14 36 29 15 16 11 5 12 23 48 5 32 21 15 49 3 36 24 17 43 14 2 3 4 17 41 53 22 76 36 79 51 15 2 33 32 45 22 27 19 50 37 33 10 15 29 18 26 49 43 28 23 18 16 27 41 18 13 20 8 25 10 1 25 37 17 19 9 26 22 10 5 9 12 22 26 38 19 9 2 6 37 28 29 32 19 25 29 18 13 15 9 16 20 32 38 24 18 39 50 48 26 16 35 56 67 67 56 38 15 24 44 64 80 81 69 65 52 58 74 74 70 82 78 64 65 49 53 48 58 73 21 32 25 9 12 20 34 35 49 69 98 154 104 86 75 16 8 5 4 4 2 1 4 11 15 27 44 26 43 12 32 38 7 46 20 20 10 7 15 21 21 7 32 11 4 2 26 38 51 30 32 25 32 20 16 101 13 102 5 24 42 30 11 16 7 104 88 79 103 14 17 32 11 9 11 100 200 19 178 46 66 82 0 122 47 26 68 24 49 59 27 14 14 10 15 11 5 14 29 30 28 21 21 24 25 26 14 21 23 31 15 14 18 14 4 10 29 43 29 27 15 6 10 21 23 40 10 22 23 10 7 32 34 17 15 23 5 11 14 18 15 3 15 40 15 31 31 18 27 16 11 31 4 34 26 21 10 20 17 29 7 33 46 126 112 158 175 97 63 61 69 55 24 12 20 32 34 27 18 11 12 13 10 9 5 11 6 2 8 12 14 14 16 16 15 13 12 11 9 0 
0 25 22 12 32 16 13 5 32 20 26 10 27 31 8 20 9 17 16 19 24 38 37 20 40 54 46 98 138 131 111 105 114 70 23 21 13 13 25 20 10 70 93 209 224 37 185 232 131 33 81 49 34 44 110 90 78 26 25 45 69 150 29 61 227 124 53 19 26 22 35 9 21 41 21 64 132 43 101 110 12 203 113 175 77 107 52 86 216 123 26 234 128 76 75 238 80 91 239 68 77 32 77 88 107 148 49 29 155 20 201 96 180 147 203 208 62 162 126 70 80 107 107 219 62 144 138 132 237 29 65 148 110 20 121 247 211 94 225 138 120 185 185 193 137 131 167 94 228 133 67 246 163 50 11 5 5 17 15 13 20 11 10 7 17 22 12 17 8 18 13 15 21 13 25 10 12 8 12 12 8 21 11 37 11 27 22 23 31 19 35 35 3 25 13 41 26 25 12 5 34 18 1 7 21 30 46 63 34 78 13 88 27 17 5 39 26 48 28 32 40 61 54 58 39 28 35 12 28 34 49 49 22 20 11 11 25 20 17 12 7 31 14 10 14 33 19 20 2 22 19 10 6 12 18 28 21 26 9 11 18 15 31 24 2 17 30 15 37 29 11 10 20 14 24 16 24 4 10 8 25 3 29 18 19 17 15 36 46 49 57 69 72 67 70 67 57 61 79 104 113 100 105 108 87 65 10 53 97 83 60 36 31 42 19 6 18 34 44 29 30 84 182 147 46 69 68 19 10 12 9 3 2 6 8 4 16 31 24 22 21 21 41 15 50 45 4 22 2 18 20 8 17 11 22 19 8 13 31 66 76 40 39 9 5 41 13 113 17 102 17 29 48 46 11 2 14 56 79 40 67 38 31 31 10 12 12 95 181 11 213 21 93 94 17 120 51 46 53 16 15 29 39 7 18 9 13 18 16 24 6 30 22 38 26 24 34 13 10 23 24 21 21 9 25 18 34 46 34 29 8 16 8 8 15 30 22 18 29 1 24 11 18 11 14 12 21 26 24 27 14 26 35 38 48 46 23 17 17 14 11 32 21 32 17 27 30 41 32 26 13 31 16 22 32 134 134 155 146 90 71 67 76 57 16 19 29 31 19 14 9 14 19 10 4 14 10 16 4 16 18 19 19 11 7 8 6 4 9 16 14 0 
0 23 15 14 32 26 5 24 27 16 16 36 9 2 15 28 9 19 6 13 24 31 28 21 52 68 29 58 78 58 77 110 89 65 44 19 8 20 22 14 20 90 188 212 81 116 221 162 23 42 67 74 40 67 119 81 78 22 20 34 17 250 37 102 3 133 28 14 38 24 27 5 29 46 27 121 144 46 119 72 20 120 181 66 90 54 31 50 35 107 123 4 72 83 77 222 246 184 47 113 86 88 119 77 103 146 42 29 15 103 8 252 43 105 135 79 153 76 63 40 61 148 228 82 47 236 233 34 251 78 58 97 87 57 56 192 30 109 5 55 168 236 229 159 99 248 220 219 131 54 246 171 67 13 10 8 3 7 11 5 20 7 8 7 7 14 13 4 10 12 16 10 10 14 19 17 9 3 10 7 11 7 13 31 4 29 31 38 22 37 15 41 40 22 35 22 23 16 28 28 45 37 16 18 20 17 22 59 50 57 20 63 31 21 33 37 20 49 38 33 39 51 48 50 61 48 47 16 18 27 12 55 35 21 11 11 13 21 31 20 2 11 25 8 20 26 20 24 24 6 19 27 29 31 31 17 5 13 11 12 10 13 37 11 16 23 34 19 16 37 8 11 33 2 29 27 17 1 12 18 8 20 17 11 26 42 28 6 15 35 65 81 82 67 61 58 66 66 78 84 70 47 42 19 42 54 76 102 91 48 23 14 59 38 29 31 33 26 36 55 55 145 225 80 46 66 66 16 7 14 4 4 7 10 14 8 8 37 15 30 9 19 29 17 31 21 41 17 19 16 31 7 7 22 19 30 29 13 40 104 75 33 65 44 45 23 31 108 4 87 11 27 43 44 7 18 10 31 77 34 65 23 45 45 27 1 5 90 182 6 214 16 71 111 5 113 32 51 39 11 33 70 46 38 7 30 5 23 12 5 18 25 14 37 21 20 28 12 4 12 17 21 11 4 16 22 32 21 16 27 2 24 13 9 3 34 13 10 20 29 8 8 20 5 16 20 37 45 29 33 33 34 18 5 13 1 15 17 11 28 21 32 32 23 7 21 46 30 6 20 12 32 10 1 17 107 173 155 127 107 79 64 72 52 18 15 29 35 35 14 2 17 11 11 3 13 10 24 19 22 18 16 10 2 4 5 7 9 13 2 17 0 
0 48 26 23 32 21 12 27 7 21 13 47 15 24 32 23 15 25 4 21 21 19 21 31 70 65 30 63 65 32 75 91 56 63 62 41 15 10 33 37 10 132 251 156 82 196 176 63 35 18 49 80 24 113 121 65 67 23 19 28 70 22 234 138 13 131 18 15 19 21 7 32 15 53 68 145 92 58 125 74 22 45 111 67 36 37 53 37 82 130 184 19 75 113 88 152 33 81 217 158 56 55 83 45 116 134 50 32 45 47 69 59 20 28 219 192 139 51 170 142 182 92 66 166 187 51 40 242 80 151 105 78 70 23 33 188 87 85 24 204 79 150 81 97 105 45 41 141 139 236 144 59 1 5 4 4 4 4 5 9 12 7 4 2 5 9 9 8 15 21 13 4 18 8 21 20 13 8 13 13 6 8 11 15 15 8 30 22 24 35 14 32 53 12 38 12 3 13 38 17 31 40 19 25 28 17 14 45 50 24 42 25 56 17 41 33 1 32 32 19 16 31 36 20 35 60 55 25 20 41 42 11 46 41 25 23 32 34 24 34 22 22 19 18 13 26 25 14 32 13 8 8 11 19 27 30 23 8 7 18 15 26 36 7 25 26 7 15 37 26 20 22 28 25 11 30 11 8 4 14 2 16 14 10 3 17 26 28 42 54 57 46 31 11 12 9 23 16 32 60 76 91 108 130 138 117 99 70 31 5 14 30 66 35 20 43 65 68 60 81 122 205 183 30 51 85 67 24 4 17 7 4 10 10 11 13 4 37 4 32 10 7 17 7 29 53 19 35 25 14 27 8 19 22 19 21 31 16 37 123 85 50 96 40 48 12 29 115 35 92 21 18 28 36 12 7 14 45 84 48 96 33 27 43 27 5 15 83 192 12 213 22 61 109 29 110 19 51 20 10 39 38 15 49 13 33 16 17 7 11 25 6 28 33 11 28 27 11 4 14 15 7 17 14 4 4 24 32 25 38 11 25 9 13 7 18 14 0 31 25 13 13 22 10 17 12 9 15 26 17 18 5 10 20 32 11 24 18 11 32 35 9 38 5 14 11 33 14 16 16 35 20 10 14 22 89 187 166 121 120 81 62 66 44 17 7 14 24 38 26 2 15 15 19 9 17 11 29 27 11 5 11 7 13 13 2 15 17 26 24 32 0 
0 43 32 27 29 14 12 13 30 24 36 41 19 35 14 7 12 19 30 29 17 15 33 45 72 58 24 54 61 43 80 71 44 60 59 40 25 18 13 11 76 205 18 82 200 192 93 3 20 6 49 72 52 142 109 60 53 1 20 21 71 8 194 139 2 140 22 26 20 4 22 22 42 18 95 126 35 116 95 59 29 19 92 127 45 36 62 69 133 116 198 245 118 178 98 85 210 207 45 190 52 46 87 40 120 138 53 13 25 45 68 105 21 1 39 149 116 110 142 95 14 217 179 106 62 19 13 175 235 139 176 122 85 46 97 236 25 46 253 140 13 112 133 122 59 147 80 192 96 194 57 7 5 5 5 7 7 5 5 4 6 4 2 5 11 13 7 7 18 6 10 14 19 6 27 14 3 8 19 15 10 12 10 12 27 29 24 13 14 17 33 17 35 25 17 29 24 7 28 41 44 43 27 24 22 10 17 39 59 13 45 5 50 14 36 39 14 19 32 34 37 41 31 15 8 53 43 31 54 28 38 25 16 39 19 15 21 25 39 45 12 39 31 26 5 7 3 14 23 8 14 16 15 11 4 21 29 11 4 13 7 14 29 10 37 14 28 10 38 4 8 28 4 20 16 18 5 19 6 3 17 10 9 23 33 47 66 79 79 84 92 103 95 78 82 95 94 100 109 119 120 121 125 117 80 52 51 41 15 15 13 48 66 14 15 30 17 8 28 94 174 216 97 101 41 116 58 30 7 12 2 2 8 9 12 7 3 35 5 28 11 2 8 14 36 21 41 34 14 43 12 23 29 13 20 15 22 15 22 123 119 37 117 35 56 34 26 126 25 89 49 18 12 32 32 23 22 51 90 13 116 46 25 38 19 6 19 73 199 23 223 5 61 84 49 101 30 47 19 35 47 18 43 42 8 18 11 15 18 24 21 12 24 17 28 31 14 14 8 11 12 4 13 12 13 8 9 16 12 25 49 20 10 16 19 28 16 16 21 14 10 9 24 31 36 31 20 15 38 13 37 31 11 27 33 24 15 24 27 8 14 23 25 12 4 17 31 13 16 32 36 12 7 29 17 104 185 152 120 138 90 66 62 33 11 14 5 4 30 27 24 25 11 10 12 18 21 16 18 12 7 15 25 8 24 8 23 21 26 26 32 0 
0 40 27 20 28 14 12 5 22 18 25 24 28 30 10 3 8 1 5 17 26 30 47 55 69 40 20 51 65 52 66 61 44 66 74 51 24 7 8 8 104 231 229 54 15 135 18 15 24 41 61 31 72 135 75 39 33 30 12 29 62 249 194 168 11 121 18 10 11 22 11 17 11 34 119 97 63 98 36 17 34 29 27 119 124 25 55 146 146 209 228 127 129 4 118 46 128 243 97 189 124 41 61 72 68 172 87 36 46 3 74 11 129 224 169 55 48 133 182 144 89 83 150 63 247 199 19 74 173 154 213 142 72 96 184 23 210 138 50 201 93 80 72 213 254 207 215 143 234 68 25 21 8 5 5 4 4 5 5 3 2 2 6 13 17 13 7 20 11 22 18 22 28 8 16 18 13 4 22 16 11 15 4 25 10 26 18 14 5 9 3 32 33 38 15 24 22 12 21 33 22 22 2 4 16 12 16 29 56 38 58 32 63 25 33 40 22 10 29 50 54 35 12 29 31 58 50 38 62 60 27 11 13 45 10 35 33 52 60 51 54 27 34 27 13 28 28 15 18 13 13 11 6 6 11 22 32 12 6 11 12 18 32 39 34 12 27 4 32 10 10 17 21 9 32 7 11 25 25 22 24 21 27 29 32 38 47 56 59 69 76 88 93 87 93 98 95 91 81 74 65 53 46 44 39 24 17 20 24 36 34 64 52 28 26 43 43 33 45 141 214 169 16 129 8 122 46 22 9 11 5 4 2 10 14 7 5 32 8 24 13 3 4 4 33 41 32 32 17 25 29 16 26 17 16 8 17 10 7 114 150 36 132 14 50 50 34 109 18 77 58 14 2 31 34 11 31 32 83 27 96 54 27 11 14 16 28 58 202 31 231 12 52 66 73 84 52 54 51 32 25 8 56 23 20 10 8 7 23 17 11 5 13 26 25 3 13 18 9 10 17 10 7 10 13 4 17 15 23 13 25 15 18 16 42 28 24 7 13 25 8 7 14 14 5 24 27 20 25 24 47 33 22 34 5 34 17 27 26 32 10 41 12 15 20 12 23 29 20 19 9 24 22 26 21 106 184 153 141 149 88 63 55 21 2 4 13 8 28 8 19 31 24 12 12 14 12 7 3 15 6 13 38 10 28 15 29 22 21 20 26 0 
0 52 34 22 27 10 20 15 20 22 13 11 24 12 6 5 15 17 20 31 25 13 31 61 61 12 20 54 71 54 46 71 76 69 65 38 14 14 8 4 100 245 207 117 6 89 19 26 60 66 40 37 100 119 64 24 15 28 33 19 96 203 142 204 221 64 18 37 37 20 7 20 19 48 120 81 86 98 5 5 28 24 37 22 113 113 23 210 97 20 7 75 67 47 210 30 104 237 190 130 193 53 46 50 24 170 117 24 44 42 73 66 163 166 101 151 114 40 97 188 177 124 44 27 244 158 36 25 209 125 17 101 58 78 243 63 162 37 146 123 178 115 229 243 142 174 179 25 98 15 22 17 11 4 4 2 2 4 4 0 1 2 11 20 18 9 15 22 10 29 5 25 25 1 14 17 16 3 21 15 9 15 1 15 16 10 11 13 14 6 14 34 2 29 32 28 36 16 8 15 32 38 30 26 25 18 11 17 36 33 57 25 74 32 35 31 21 18 18 55 64 50 51 38 5 45 42 13 10 25 47 26 14 42 6 25 14 32 36 35 19 24 44 25 29 42 29 21 15 22 21 20 23 31 37 24 19 26 22 17 12 5 6 21 28 12 19 5 22 19 14 28 29 16 28 12 14 14 13 11 23 24 22 22 27 31 29 23 17 29 42 60 85 109 119 108 89 68 54 49 48 39 29 37 39 38 13 31 33 25 5 54 35 42 19 33 18 19 83 210 225 87 58 100 42 105 31 11 10 5 3 5 7 12 13 16 11 27 12 20 17 8 13 13 17 23 19 34 21 32 25 5 11 17 17 1 17 4 10 102 162 39 153 40 64 48 13 83 17 54 49 16 2 35 30 16 17 30 73 22 98 74 27 22 13 24 38 36 198 32 235 40 42 66 88 68 62 59 74 29 18 21 55 15 22 4 14 28 39 34 13 6 13 14 7 13 9 32 31 31 32 28 20 15 18 46 47 22 42 14 12 28 29 36 33 2 24 3 2 13 17 14 19 20 26 35 10 20 15 1 41 31 32 29 30 35 8 21 6 37 8 42 10 21 19 4 35 39 38 38 26 20 34 12 15 86 185 185 167 126 71 63 54 19 11 17 24 21 34 2 8 24 28 25 12 6 11 17 14 16 10 18 40 17 27 21 29 17 11 7 18 0 
0 62 48 33 26 5 23 5 11 15 14 12 16 8 9 19 19 4 14 27 25 32 36 62 66 39 35 55 71 68 48 91 92 45 44 29 18 11 3 4 94 0 194 143 242 70 18 31 84 47 58 113 113 93 53 16 8 12 37 70 115 140 51 192 128 49 17 22 24 24 24 16 9 37 108 74 78 95 15 5 24 8 21 38 27 124 133 32 31 151 10 135 67 204 24 201 25 212 17 18 220 50 64 35 36 123 108 86 94 86 109 154 162 38 85 95 106 103 54 23 159 117 135 141 75 173 232 25 204 128 147 125 99 107 3 179 216 58 155 250 40 209 226 116 186 136 247 103 15 22 16 16 14 5 5 4 4 5 5 2 2 3 14 24 17 8 23 13 14 12 21 35 18 12 10 9 15 4 18 13 7 12 5 9 12 15 14 20 10 7 5 33 31 15 20 21 31 16 22 28 30 22 17 3 17 32 23 28 34 18 44 27 66 26 20 29 28 29 0 41 52 37 35 31 30 42 33 18 21 33 76 32 14 38 6 17 44 70 50 31 28 31 31 10 28 42 10 38 5 25 29 27 17 15 16 16 14 17 16 9 1 8 10 10 14 14 14 13 17 39 12 4 5 21 19 26 25 34 43 36 27 21 24 36 49 53 48 37 29 32 37 41 49 64 61 50 57 41 24 23 28 27 17 32 12 56 26 9 2 11 24 58 71 57 23 30 9 37 139 245 183 10 86 50 57 72 19 5 5 10 8 1 14 15 1 19 11 19 12 17 25 14 18 24 18 10 14 36 14 19 14 19 10 12 28 9 21 12 13 79 148 29 145 17 42 34 18 82 10 39 38 15 13 34 10 27 25 14 63 17 72 81 41 34 13 26 43 16 192 30 234 79 32 66 79 55 61 57 89 45 10 40 44 18 22 11 5 21 12 20 21 10 23 10 15 12 13 27 24 25 29 24 17 21 26 21 63 41 38 10 14 34 15 25 33 45 43 37 35 26 17 8 33 7 5 23 47 45 31 26 37 29 23 15 31 16 19 30 10 25 24 26 3 22 41 46 44 20 29 34 36 46 30 7 13 85 210 199 160 116 68 60 56 27 15 14 11 10 36 19 4 10 15 12 14 15 8 13 21 14 15 28 39 24 25 20 20 7 13 10 19 0 
0 55 44 34 29 9 19 10 18 11 14 15 20 15 21 21 19 20 21 20 7 16 29 48 58 47 46 40 50 74 67 90 85 50 43 24 10 4 5 14 76 13 210 160 244 81 26 47 64 38 104 113 65 42 37 15 12 3 17 84 133 110 70 164 81 43 13 19 25 43 24 7 10 41 93 49 65 82 11 26 37 22 18 10 25 47 221 116 218 228 12 120 120 72 136 58 162 109 46 194 157 145 86 38 71 78 89 36 70 118 141 121 17 123 126 118 54 26 50 76 79 166 83 23 56 139 170 31 145 145 91 88 60 37 187 194 4 229 52 17 235 156 24 64 204 33 109 1 9 27 27 21 12 4 4 3 3 4 4 7 5 5 14 27 16 11 28 8 15 4 19 25 25 25 5 13 21 7 13 12 5 8 10 7 5 8 27 21 15 31 34 7 21 12 21 17 26 34 25 8 17 16 21 4 17 40 2 42 45 18 38 25 35 30 15 17 36 27 10 36 43 24 20 19 41 56 43 42 18 9 41 60 45 38 24 38 58 36 16 4 10 26 46 31 35 55 21 36 24 21 23 19 10 11 14 3 21 23 13 7 2 5 11 15 21 28 25 17 11 41 16 17 1 19 15 35 30 41 44 55 63 65 55 60 57 42 29 31 54 68 61 57 65 67 53 39 42 39 7 15 7 17 11 32 4 55 32 29 23 9 29 25 15 25 38 42 23 91 227 235 98 44 101 30 74 49 14 9 20 18 19 10 14 15 13 18 2 10 8 13 34 20 17 9 16 11 15 39 24 25 42 19 29 4 39 12 27 20 16 82 151 48 139 26 29 34 27 75 6 32 19 14 21 24 28 63 40 33 51 26 20 55 38 30 18 24 41 10 191 31 234 98 34 76 60 45 55 47 91 65 13 50 28 18 8 8 12 26 36 16 23 14 28 28 2 21 21 17 7 18 19 10 8 20 19 34 30 33 12 12 32 24 4 13 10 14 27 25 7 24 8 13 31 7 11 2 20 16 43 24 8 4 17 16 6 18 14 38 24 29 34 12 4 21 28 3 34 48 49 50 5 5 9 11 32 107 0 208 125 119 83 54 52 32 11 7 25 29 13 26 24 18 18 22 26 4 5 17 21 12 25 30 35 25 23 15 10 2 19 13 21 0 
0 47 30 18 31 30 7 17 9 12 24 3 17 29 18 24 17 10 15 10 0 15 22 36 32 48 64 36 34 76 79 73 80 68 43 28 17 14 11 16 53 251 238 127 224 84 27 36 30 57 98 51 21 33 42 48 31 59 45 32 138 123 97 145 61 21 9 25 12 39 39 10 15 41 79 27 45 69 8 45 24 53 33 13 14 49 237 141 203 9 9 77 67 137 138 195 70 106 210 73 44 190 62 54 74 49 95 38 120 123 36 127 153 120 60 145 136 53 46 82 139 211 168 75 99 193 206 56 111 77 69 81 62 82 13 193 245 155 171 64 134 63 25 99 95 190 41 27 17 13 11 5 5 10 11 18 25 21 11 7 13 8 14 23 17 12 28 18 37 20 16 8 7 5 23 11 27 8 14 12 6 5 7 9 8 10 15 16 28 11 45 16 17 4 17 10 25 20 25 37 33 26 12 0 21 32 8 38 41 24 15 8 23 40 47 7 47 25 13 35 61 32 13 18 37 69 43 16 36 18 7 88 55 32 31 12 41 62 34 31 34 25 37 34 13 34 48 16 22 21 15 20 10 13 17 3 28 11 14 5 13 16 14 29 30 23 9 4 11 34 1 27 17 25 30 48 44 43 26 32 37 45 47 34 30 5 18 25 52 59 71 70 62 54 61 60 48 48 39 33 14 16 21 21 11 32 28 11 10 40 38 38 36 41 47 46 38 156 6 144 14 41 94 10 83 45 11 13 21 2 20 8 14 9 13 10 11 17 16 21 45 22 22 14 10 18 15 22 18 31 44 29 41 9 40 13 27 17 28 105 143 38 139 22 24 28 17 66 14 30 12 13 14 12 2 60 4 42 40 18 35 48 63 31 39 20 41 10 186 39 239 75 62 76 46 48 60 52 106 69 16 53 17 10 11 18 5 16 22 13 25 29 11 21 29 31 21 18 20 22 14 11 12 16 10 33 11 28 24 24 24 24 15 15 19 18 28 52 28 29 17 25 31 11 13 8 13 5 35 20 9 12 11 21 1 24 33 43 25 16 13 24 12 34 24 30 22 20 55 41 16 18 8 27 17 116 15 223 104 118 92 41 38 31 10 19 25 18 15 21 13 29 32 21 15 13 26 35 29 26 25 11 7 10 10 7 7 11 25 16 12 0 
0 52 27 14 7 21 35 10 11 15 11 20 13 35 17 27 18 16 16 16 11 20 24 52 33 17 73 51 39 70 59 67 98 87 24 40 39 10 7 21 50 193 223 91 186 72 18 15 29 93 72 12 12 17 23 39 31 72 66 32 100 102 93 112 33 8 8 23 56 59 26 9 17 43 72 24 52 67 14 51 30 36 63 39 7 81 173 107 2 250 13 66 73 111 247 134 217 44 12 76 5 104 163 68 54 34 76 35 157 61 136 212 127 31 42 85 172 80 57 155 97 238 211 106 20 154 236 71 150 64 90 34 41 133 128 146 174 139 174 36 99 24 161 57 222 109 61 17 11 21 15 10 12 28 30 29 21 25 17 12 22 20 10 12 19 13 22 29 29 36 30 12 15 12 12 29 38 22 28 15 7 7 7 2 3 4 14 24 9 12 39 16 11 10 11 25 12 1 15 7 16 6 8 7 25 17 8 25 28 21 11 12 22 18 53 20 50 32 20 29 86 50 21 43 33 64 59 38 8 21 7 73 77 62 17 15 12 31 25 8 11 10 20 55 11 11 52 5 7 10 2 25 13 12 18 22 44 23 24 8 21 28 24 7 15 30 21 13 26 30 32 35 23 28 38 52 46 45 35 38 34 20 13 2 25 8 21 57 45 13 13 4 19 30 18 19 37 49 36 29 28 9 25 21 3 8 25 18 13 55 37 28 10 9 24 44 66 214 224 53 13 23 80 39 79 43 0 9 9 21 19 6 18 5 17 8 18 15 5 20 30 7 37 8 28 16 2 16 11 40 35 40 45 2 23 17 20 11 50 136 125 49 143 39 35 28 24 67 19 28 19 14 4 24 18 57 34 5 41 49 24 13 52 19 42 13 48 16 171 47 254 42 68 59 32 60 72 80 132 37 36 43 10 21 33 18 25 14 18 24 11 14 30 29 20 16 36 53 24 18 4 14 15 21 15 14 28 18 23 20 42 36 15 6 24 32 45 25 56 20 20 22 20 17 12 11 15 11 31 25 14 19 15 13 14 4 5 31 16 31 22 14 5 16 16 23 39 48 49 14 13 21 23 18 20 136 250 218 124 107 84 38 24 33 19 26 34 27 9 34 40 37 33 17 11 11 25 12 10 16 13 4 2 5 7 9 13 9 17 27 10 0 
0 64 39 21 26 19 28 23 16 11 13 27 12 27 17 19 11 3 8 14 21 22 17 59 30 12 61 59 58 74 37 69 115 72 9 41 50 26 35 32 41 138 186 67 118 85 44 18 19 78 41 31 25 29 32 39 60 64 52 52 54 65 70 75 5 4 13 25 21 3 18 19 17 58 75 19 70 67 8 44 47 7 42 54 20 68 148 114 59 4 225 70 91 155 82 254 125 221 251 144 107 63 187 120 74 43 45 69 95 95 167 163 19 62 84 60 62 161 63 158 133 231 197 134 105 129 220 22 189 134 184 24 62 200 103 21 97 141 142 36 146 138 140 238 166 84 38 14 12 23 8 9 12 44 27 5 25 35 12 17 22 27 8 7 17 11 16 25 46 22 30 31 13 17 20 12 20 8 34 18 6 2 8 12 23 20 25 2 12 4 27 25 10 11 3 22 12 7 28 40 35 30 14 4 23 31 17 16 15 17 14 13 27 13 50 44 32 43 34 22 85 47 3 30 26 50 39 78 68 24 2 26 39 22 27 28 10 11 35 16 10 12 15 55 17 12 47 14 8 8 9 15 7 12 14 28 56 24 29 5 24 14 16 29 39 49 38 31 29 24 28 36 34 38 39 44 25 17 22 45 60 49 17 12 26 27 54 66 26 2 14 11 15 28 15 2 28 52 26 46 31 26 18 29 27 12 26 24 12 48 34 29 11 16 24 64 134 239 166 17 10 19 59 24 78 35 15 5 4 18 14 15 12 5 14 7 13 12 16 23 4 25 17 34 19 25 3 13 12 35 18 39 30 14 13 16 16 16 52 151 116 54 147 48 45 20 37 60 30 19 21 27 12 27 8 32 14 39 34 59 26 27 53 28 36 12 61 6 163 36 16 37 72 43 22 63 74 93 141 14 46 32 7 12 27 37 11 16 20 24 28 27 18 5 15 39 26 31 19 7 11 28 38 43 25 21 28 24 12 41 18 10 17 7 19 8 51 16 32 13 11 20 23 17 20 38 45 42 10 29 36 16 31 40 13 24 33 42 27 20 10 10 22 20 18 16 16 18 20 16 21 29 11 9 25 145 233 206 137 97 80 48 27 33 25 17 21 5 32 50 37 28 31 21 17 4 18 22 13 5 7 11 13 14 12 15 17 27 27 30 13 0 
0 55 42 28 9 7 10 12 5 5 4 20 9 14 13 8 11 11 10 10 22 24 16 50 47 26 53 46 66 79 32 74 113 49 10 43 32 38 18 5 31 85 142 90 37 71 59 43 44 77 50 26 29 39 43 24 72 60 34 42 41 27 74 58 19 4 9 16 12 7 17 7 17 78 77 20 87 71 13 33 52 34 33 32 23 17 79 108 38 252 205 148 94 99 104 20 192 84 213 82 17 231 88 130 96 40 60 74 33 83 87 91 65 46 100 22 75 137 73 60 117 122 121 237 53 18 206 92 9 103 25 69 139 232 204 16 152 176 111 217 143 176 66 153 29 21 8 7 7 22 11 7 10 39 13 29 41 34 23 12 18 24 9 8 15 13 12 5 11 23 34 24 13 15 19 21 27 21 32 14 10 13 23 31 25 25 34 2 13 6 12 24 26 16 10 17 22 29 26 7 9 4 27 11 14 21 7 11 9 16 16 14 29 6 36 50 18 40 33 12 81 46 10 24 31 15 43 59 72 47 31 16 37 57 57 62 44 28 44 36 31 24 28 43 7 11 35 34 24 19 5 2 8 19 6 9 26 24 14 7 11 4 7 2 26 25 14 14 21 2 8 21 20 19 18 34 20 4 14 41 24 48 39 25 31 37 44 24 14 31 45 37 16 26 13 4 14 28 42 53 38 25 22 10 21 24 24 20 8 37 26 23 4 11 30 98 201 224 98 1 12 34 50 10 73 17 27 2 10 0 14 13 1 7 4 12 15 17 41 30 22 16 21 41 13 33 10 1 27 45 27 40 18 5 6 17 15 25 51 137 112 46 142 50 50 24 38 55 42 13 3 40 21 9 20 22 13 57 15 79 31 34 36 46 20 5 59 8 169 28 29 49 90 38 23 51 71 81 143 8 61 31 6 13 19 33 14 18 21 18 7 7 21 31 35 12 27 29 21 26 19 12 32 24 33 20 32 19 39 20 38 20 18 10 21 39 24 31 34 21 29 27 15 15 33 6 11 17 24 12 25 33 21 7 20 24 9 25 6 5 5 12 18 13 6 25 24 8 8 31 30 23 10 6 41 161 237 202 135 106 93 59 32 19 19 18 28 22 23 28 18 14 22 12 13 18 12 12 11 8 4 10 16 15 14 25 12 16 16 20 8 0 
0 34 30 34 21 2 6 7 17 20 13 12 10 5 4 5 6 27 30 22 30 38 32 22 50 59 40 26 61 84 49 63 103 68 31 41 17 28 24 34 50 64 108 95 27 41 42 23 28 69 55 44 62 55 48 16 81 38 23 32 48 24 91 35 21 7 11 18 16 4 16 21 35 97 73 28 100 73 9 21 48 44 28 9 27 47 18 91 37 237 221 117 112 73 48 100 79 103 116 107 94 247 96 127 136 36 74 39 82 72 12 56 90 34 60 87 66 95 184 55 89 77 67 140 196 196 81 119 37 32 9 145 142 67 203 105 173 23 147 154 186 49 163 24 53 34 12 8 16 6 20 4 12 34 34 32 25 16 14 5 20 19 7 12 12 17 5 17 7 22 15 4 12 6 14 8 22 17 29 13 11 10 17 25 9 30 38 4 16 11 3 7 20 15 3 4 18 30 41 27 27 24 24 24 28 30 11 12 10 17 17 7 28 7 26 46 4 36 34 13 71 55 27 13 18 25 41 35 59 47 51 31 13 35 46 51 45 32 37 47 33 30 37 41 34 24 20 20 29 28 4 10 11 23 10 17 36 49 31 8 7 9 14 8 30 11 5 13 22 4 10 14 21 7 7 33 22 8 31 37 15 27 48 47 38 27 18 39 16 23 15 23 11 23 53 69 64 25 25 45 46 33 10 1 13 30 23 18 26 29 10 18 14 17 43 133 253 190 35 4 10 57 50 38 71 12 24 12 13 16 8 8 12 5 6 11 5 17 41 3 37 11 23 27 16 44 21 24 43 40 29 59 23 8 8 23 9 20 46 129 114 48 141 50 42 22 41 65 59 27 17 39 18 21 17 13 5 53 16 100 37 69 12 51 21 37 46 13 175 42 29 44 99 44 20 44 61 73 135 31 71 14 18 18 23 29 11 6 5 8 17 26 29 23 13 24 10 13 18 26 15 10 15 8 18 21 39 43 22 19 13 22 26 34 32 12 3 29 35 42 2 11 14 14 31 4 17 16 7 40 39 8 34 46 24 11 24 25 16 17 14 8 24 12 4 23 31 13 8 39 30 17 12 3 56 177 235 190 128 98 89 49 5 0 13 16 27 11 11 23 25 22 20 10 3 8 21 22 13 2 11 22 27 29 21 25 4 9 8 17 7 0 
0 28 28 37 24 5 4 9 11 19 11 5 10 8 12 12 23 22 4 30 45 32 10 7 44 63 40 32 63 72 49 60 87 61 31 51 29 36 30 18 37 56 93 80 44 84 110 83 26 76 74 35 33 10 34 52 72 15 15 27 29 28 84 38 28 15 7 21 22 13 5 2 45 108 67 37 101 71 4 7 37 44 6 27 38 69 21 61 68 209 21 32 17 75 149 92 42 69 62 91 38 162 203 48 142 110 15 55 53 95 23 16 70 88 50 53 29 39 245 118 209 84 68 130 117 88 73 127 1 74 171 147 46 103 138 161 0 32 134 15 42 73 24 54 24 25 15 8 9 17 19 3 5 10 12 4 14 28 22 13 21 11 4 17 8 20 3 19 13 27 8 18 5 23 20 13 32 15 32 18 5 8 17 32 19 29 36 6 18 8 7 11 9 27 20 22 33 12 29 17 14 29 7 44 36 10 24 7 13 29 34 25 32 20 28 50 18 26 36 25 48 57 34 24 13 32 42 17 53 39 43 67 9 31 36 34 18 17 11 15 31 32 32 36 42 36 25 14 27 32 13 17 15 23 15 12 21 20 26 17 8 10 1 10 22 11 5 13 20 15 20 12 25 16 20 39 32 21 49 48 43 31 38 55 39 13 10 33 28 31 33 31 22 20 54 41 54 40 13 19 19 33 34 16 20 32 19 22 38 23 10 4 18 47 77 162 4 136 26 24 10 78 45 54 65 15 8 16 5 21 10 10 15 1 11 5 8 28 43 18 37 13 19 27 8 53 22 19 60 46 32 63 16 16 10 24 12 4 30 137 128 48 148 60 37 19 48 74 78 53 24 29 9 29 22 14 32 62 20 103 6 84 29 49 62 28 17 11 166 66 26 49 82 55 26 28 54 58 127 16 50 39 17 15 42 32 26 5 20 24 14 15 21 23 20 17 4 16 20 32 18 7 22 22 23 12 15 22 13 22 24 15 5 17 20 47 33 7 7 14 36 31 13 10 21 15 25 15 25 27 11 21 19 14 30 15 8 10 5 12 21 7 25 10 11 11 31 8 6 38 19 17 21 7 73 194 233 177 121 81 82 61 4 7 11 14 31 21 23 27 34 32 17 1 9 10 8 2 6 11 15 15 11 12 14 17 10 17 14 23 10 0 
0 41 36 33 13 11 7 15 20 22 10 7 12 16 26 20 31 43 50 29 30 48 34 25 45 34 36 62 77 50 33 73 106 59 34 61 51 49 29 7 46 51 66 91 75 86 77 49 47 85 92 31 8 24 36 26 44 29 14 18 12 38 60 24 13 5 17 25 18 3 10 7 42 108 61 39 91 65 11 4 27 39 18 32 16 61 47 2 69 177 8 64 63 101 50 132 152 71 26 101 151 39 158 162 13 133 97 56 33 105 110 69 57 71 115 55 44 20 207 230 114 125 119 197 228 12 107 174 15 89 119 115 58 47 56 144 29 44 222 85 193 23 31 53 4 40 13 4 13 11 7 7 6 10 13 13 10 12 12 16 17 2 0 23 7 23 8 18 16 28 18 20 33 27 34 5 39 15 32 17 5 8 14 21 13 18 33 2 16 8 8 12 10 30 15 8 35 11 15 3 6 18 32 31 61 24 31 14 23 18 23 14 28 27 31 23 26 20 31 34 23 50 42 13 7 15 61 22 46 41 36 82 74 39 36 45 48 57 44 29 28 45 31 10 29 38 26 27 29 29 18 17 21 15 18 18 12 17 5 23 10 7 20 11 8 14 12 21 24 22 25 17 29 25 25 40 27 6 51 51 38 27 23 41 35 28 21 22 12 25 17 19 15 3 48 53 38 27 10 10 11 31 48 28 37 34 11 33 39 16 24 7 27 60 98 173 228 93 29 13 4 85 33 69 52 6 9 11 4 15 9 11 10 3 11 8 12 27 53 26 45 24 15 20 4 50 27 14 58 43 46 52 7 16 10 19 14 7 19 140 146 32 139 65 38 29 45 82 86 68 33 27 5 38 27 38 19 67 10 93 20 82 40 42 81 34 22 24 136 83 42 60 75 56 24 13 52 38 115 16 31 28 16 27 32 15 27 16 11 14 19 22 23 27 29 24 17 31 23 7 21 18 23 7 27 10 27 17 19 21 12 14 23 33 21 36 47 21 12 17 41 24 21 2 15 24 16 14 28 12 13 12 8 18 28 14 24 23 15 12 12 4 28 6 6 24 29 10 7 34 30 16 12 15 88 208 231 164 112 72 81 73 22 22 4 21 46 38 29 28 39 36 22 16 4 15 11 10 14 15 11 9 7 8 7 8 16 19 6 22 19 0 
0 43 31 27 23 15 7 4 22 34 25 14 18 23 35 19 18 6 5 10 11 34 44 48 41 17 34 87 73 27 33 75 117 64 26 45 54 33 43 25 42 30 32 71 34 59 41 81 64 92 108 45 5 31 10 21 39 56 53 40 18 55 66 39 31 15 11 27 27 14 7 9 39 103 57 35 77 59 18 10 16 22 40 52 32 22 58 177 2 164 194 104 49 141 26 46 117 177 180 103 67 168 101 69 153 21 135 75 21 19 82 94 60 67 132 101 16 26 139 66 53 4 144 101 250 122 89 198 78 125 118 91 85 125 86 130 77 46 46 101 182 42 32 74 60 73 29 24 17 13 9 3 7 18 14 8 14 26 20 3 10 4 3 27 3 24 12 25 21 38 34 25 30 27 31 8 36 14 32 17 7 5 11 17 13 8 32 7 11 16 22 6 5 27 27 24 28 3 10 8 7 17 51 20 50 41 19 17 10 4 16 7 13 8 20 7 2 18 29 42 5 57 66 14 7 9 66 41 26 37 29 45 81 61 34 29 52 58 55 33 7 39 41 28 42 50 11 23 24 23 16 12 32 5 24 32 34 7 11 26 10 27 44 35 21 23 19 23 13 12 14 13 28 25 7 28 17 24 59 65 22 6 15 22 20 36 20 20 35 35 10 25 11 21 16 28 19 14 17 18 29 41 54 40 47 38 7 47 35 8 27 8 56 82 112 174 183 61 14 18 18 79 24 84 42 12 19 5 11 4 9 9 1 7 10 13 20 21 76 6 50 7 17 22 39 43 16 12 52 33 57 44 25 8 10 17 18 10 8 123 144 24 124 54 25 35 39 84 89 63 47 40 20 55 17 47 30 56 24 85 16 79 56 52 90 12 4 26 105 89 84 72 91 70 24 11 46 31 99 39 15 14 37 24 14 32 20 13 29 34 20 8 0 5 12 22 32 25 41 35 13 17 16 21 16 5 5 13 13 24 28 21 14 8 18 10 15 17 16 10 44 33 6 9 15 15 7 16 10 11 3 8 14 13 10 9 23 18 18 13 13 17 34 7 10 26 18 11 14 23 33 20 7 5 95 216 227 152 103 67 83 80 10 26 13 27 51 25 9 17 38 29 14 24 7 14 8 8 13 13 10 8 4 7 14 13 13 23 9 8 18 0 
0 34 31 29 25 15 22 15 28 7 18 7 13 27 29 20 18 5 8 8 29 42 42 28 31 21 33 79 66 28 46 73 106 78 21 29 37 18 34 20 38 34 37 80 45 74 58 103 73 97 126 68 33 46 13 36 44 55 82 89 58 100 88 24 22 11 5 12 18 17 11 6 39 89 61 32 73 51 18 11 14 5 14 41 50 24 19 133 180 130 152 135 34 164 76 49 48 70 145 247 236 70 119 154 59 122 26 132 104 19 44 33 48 29 90 138 94 46 93 122 161 79 234 65 237 176 52 143 56 235 57 73 37 153 63 143 164 9 113 31 175 47 94 60 81 84 6 36 4 12 17 20 15 27 22 27 18 4 8 10 17 5 4 27 10 26 10 31 15 41 29 5 15 12 8 12 31 22 42 29 11 4 4 16 30 14 30 27 8 6 24 8 1 9 25 43 25 8 13 21 9 38 32 69 39 42 8 31 20 14 22 28 27 24 32 25 10 25 18 53 24 61 85 23 13 13 54 48 12 24 25 23 36 64 56 42 29 25 67 42 6 15 57 54 46 62 40 34 27 23 28 24 45 8 29 13 30 27 12 22 32 26 24 18 8 20 26 28 17 29 42 27 32 41 28 35 22 23 48 69 24 12 6 23 11 18 22 32 23 17 19 28 5 18 24 19 4 18 27 17 17 24 60 38 45 51 23 54 25 14 26 18 83 102 134 173 143 31 9 9 30 63 36 77 11 7 15 15 14 5 5 7 13 15 12 22 32 11 82 27 45 11 11 14 10 13 9 19 30 38 37 40 12 18 18 20 24 8 26 112 134 19 133 54 37 33 42 80 89 56 48 40 31 56 10 42 10 33 25 83 33 98 73 83 89 20 17 32 96 92 100 62 101 69 16 12 48 31 107 45 14 26 38 14 14 6 24 26 7 7 11 20 22 29 50 49 18 27 14 21 22 27 12 25 18 11 13 24 13 7 11 19 39 50 26 55 52 39 34 29 22 25 23 6 28 25 34 28 17 8 11 13 15 7 11 15 28 16 15 11 16 22 24 33 35 15 15 34 36 25 8 23 25 17 125 222 220 149 97 59 71 84 27 13 17 32 53 22 12 23 42 27 12 19 13 17 2 15 17 13 12 13 14 15 10 19 7 18 7 3 15 0 
0 26 24 16 14 21 29 14 22 16 20 9 15 35 21 29 23 30 20 25 20 20 31 24 36 37 21 60 75 48 46 77 98 68 27 33 33 16 34 25 31 39 31 51 31 72 59 79 125 123 134 58 13 55 8 56 41 18 121 143 60 147 86 5 17 11 13 10 16 3 17 21 35 68 64 29 82 47 18 17 33 26 17 14 57 49 7 153 170 164 162 121 55 179 69 49 28 15 44 85 192 233 151 28 116 48 89 18 112 115 97 85 65 46 55 110 116 102 48 105 218 253 247 102 152 184 40 65 246 108 165 17 68 203 19 231 213 8 197 138 107 110 126 50 119 34 16 27 5 13 25 21 42 10 4 10 21 43 36 17 24 14 7 25 29 23 36 23 25 38 43 14 23 12 34 44 13 28 46 25 12 10 17 21 7 40 11 36 20 5 15 3 10 5 31 25 28 4 3 31 9 42 19 27 25 17 29 11 19 4 7 11 15 14 9 21 23 15 5 50 45 36 71 34 10 5 34 60 14 4 6 10 13 35 61 58 36 35 47 55 58 42 53 65 33 42 58 29 36 24 4 19 45 13 20 5 12 24 24 14 11 19 39 19 7 16 28 29 21 29 24 18 29 45 24 33 32 38 49 78 57 14 29 31 25 22 22 38 24 21 24 25 21 7 19 11 16 9 15 22 28 41 41 17 44 63 24 43 12 28 6 71 89 100 138 154 114 8 8 19 39 41 50 41 15 8 8 23 20 14 12 11 10 10 11 26 38 24 65 43 7 33 30 8 8 17 5 14 22 46 27 22 26 11 10 21 17 19 29 115 125 44 147 37 45 37 49 80 84 64 37 24 24 45 23 48 17 29 9 74 40 125 62 100 65 33 29 37 117 104 74 23 98 62 15 11 46 17 124 38 31 25 15 36 34 22 15 19 15 8 19 5 8 18 32 18 9 18 21 4 19 10 33 13 15 7 5 10 17 17 8 27 11 72 31 22 7 8 15 31 13 19 23 14 34 17 14 21 16 5 18 24 28 23 15 2 11 21 29 16 16 23 35 52 27 41 32 51 13 6 30 32 34 30 165 216 198 146 89 66 62 51 39 27 26 33 39 24 14 28 32 22 5 9 8 7 24 23 4 17 28 22 13 17 12 24 10 24 15 14 17 0 
0 26 25 14 6 14 24 26 5 8 9 18 14 21 17 26 6 20 4 16 9 12 28 24 38 35 16 52 78 54 40 79 102 69 33 29 31 30 22 3 23 39 55 42 37 22 54 25 76 110 68 38 40 43 23 57 18 8 140 166 68 159 80 15 21 27 31 7 24 4 6 7 18 61 65 27 82 41 11 27 38 14 16 17 60 77 5 186 184 188 191 78 8 148 76 24 49 28 29 37 61 125 221 230 98 14 42 65 108 166 56 172 21 61 83 110 112 124 70 234 30 184 98 171 179 141 26 134 156 156 227 189 13 212 133 192 75 183 250 168 8 158 21 146 64 4 3 16 6 14 32 20 29 21 17 24 23 18 32 32 14 16 12 21 33 10 32 14 14 33 30 19 8 32 92 75 81 26 37 10 17 11 25 11 23 33 13 28 24 5 11 1 12 10 35 10 37 8 9 22 16 16 33 53 58 40 52 18 20 22 20 21 20 26 29 25 33 2 11 30 39 22 51 34 15 17 15 63 35 14 7 21 5 11 23 37 49 52 39 24 49 22 19 74 25 25 72 19 30 32 11 10 38 52 52 34 14 22 47 19 31 24 27 24 29 35 24 30 11 32 10 8 7 36 4 14 25 30 22 68 61 37 28 17 4 18 29 10 28 21 48 58 28 9 26 15 20 16 25 27 24 18 7 23 55 48 35 41 8 32 19 99 87 87 112 138 112 4 17 22 48 29 64 23 21 9 4 19 3 11 6 15 30 30 13 17 32 12 44 10 36 22 45 20 10 13 5 14 27 15 39 13 25 19 26 36 33 19 27 133 113 68 139 27 38 39 58 72 86 66 20 5 17 38 31 39 26 46 36 84 59 126 45 84 34 16 37 37 127 108 63 3 98 43 22 4 36 22 114 44 36 37 25 53 83 77 40 25 47 41 22 8 18 1 24 33 13 5 8 12 13 19 16 42 26 22 33 23 0 14 12 24 28 50 36 52 36 24 26 15 16 27 4 16 22 19 22 24 20 17 9 12 13 26 21 5 8 20 37 29 26 7 36 46 47 21 5 32 15 28 20 18 26 55 191 222 176 142 83 72 62 26 13 22 28 21 15 38 36 14 18 22 11 4 12 21 18 2 20 21 25 24 8 18 17 34 14 34 25 21 7 0 
0 26 22 10 4 4 7 25 10 11 6 16 17 15 9 19 19 19 9 16 8 14 32 25 29 31 25 63 82 51 38 66 100 87 43 29 19 13 4 13 7 42 58 13 11 61 91 114 79 23 20 26 31 43 30 53 19 17 156 168 80 147 88 31 2 9 47 16 28 14 8 23 22 64 61 21 67 40 14 16 35 26 11 22 37 93 42 198 203 147 193 102 107 171 120 27 44 35 23 12 27 28 36 149 181 162 106 11 65 102 66 115 89 30 38 77 95 79 95 74 167 95 63 120 94 73 81 215 20 247 30 210 201 106 118 127 175 61 11 18 71 100 110 129 17 2 1 12 5 12 24 29 32 33 27 15 13 31 42 24 12 28 22 14 20 21 11 7 16 23 11 4 24 8 147 59 107 60 28 23 12 26 25 24 9 3 13 7 23 12 11 1 3 2 25 9 33 12 2 10 10 1 3 20 26 11 43 33 12 2 24 37 21 15 35 10 37 10 10 21 30 23 54 38 16 31 15 36 39 42 14 28 30 33 34 41 54 67 66 41 50 8 14 61 18 20 69 59 53 25 30 27 19 10 12 26 26 35 56 50 42 30 32 25 8 42 12 23 15 18 12 13 11 38 11 5 4 12 31 56 36 35 32 17 18 33 34 21 26 45 24 62 40 22 29 10 15 17 7 3 8 18 32 51 57 31 33 41 13 21 43 97 80 65 75 133 129 12 28 19 42 13 65 27 16 6 4 11 27 21 5 9 11 7 11 24 42 88 78 50 42 24 49 29 11 7 6 17 23 14 27 13 16 12 11 23 17 4 27 124 106 58 118 41 33 37 42 57 78 49 19 3 14 34 28 30 10 37 15 81 67 122 42 75 33 8 40 33 120 101 72 13 105 32 32 18 15 15 104 59 31 60 84 80 58 65 81 44 29 41 27 37 58 69 69 65 45 25 2 19 27 20 42 28 39 26 6 17 18 11 28 33 18 16 19 29 21 5 15 4 13 23 19 4 13 15 15 31 26 26 35 29 17 18 17 13 20 37 38 19 22 47 28 8 38 18 5 23 29 37 8 8 7 89 204 232 159 128 76 72 66 5 5 9 13 17 24 50 45 21 20 14 15 18 11 14 24 16 15 17 27 26 12 22 4 32 41 38 15 2 10 0 
0 32 26 12 7 8 10 16 18 22 21 16 4 5 3 13 22 19 17 17 14 21 38 28 24 26 26 73 88 53 43 74 102 77 38 34 16 15 21 14 8 47 49 10 59 116 74 131 121 54 26 17 7 42 31 56 19 25 164 152 91 111 93 51 5 10 55 26 26 20 12 10 26 65 46 18 53 40 17 15 27 8 16 29 8 66 82 187 195 79 160 104 95 211 158 51 34 78 43 54 7 86 89 41 63 80 160 136 38 71 105 140 114 29 34 48 110 73 7 44 60 40 35 151 136 115 28 255 243 64 241 93 143 53 141 75 201 103 5 47 62 42 117 36 17 4 7 9 7 9 13 19 25 20 22 21 12 21 10 12 22 29 20 8 4 17 12 12 35 18 4 8 19 15 157 37 99 35 52 10 24 7 16 30 5 20 13 10 15 18 8 5 7 9 21 10 23 17 6 11 14 4 19 36 50 36 23 21 26 22 4 32 33 11 23 10 29 23 21 27 36 17 55 46 13 21 18 22 55 86 49 8 11 3 8 11 18 36 45 59 77 63 60 77 51 34 50 79 92 73 82 72 55 43 47 50 36 34 21 14 8 21 9 27 30 48 47 44 34 8 13 33 24 22 18 17 11 7 18 39 44 42 47 47 44 32 30 8 31 21 32 28 20 41 21 11 37 45 35 21 28 45 49 37 25 23 34 31 13 28 69 69 54 65 57 138 145 23 25 41 40 9 58 25 13 7 11 13 15 13 7 11 22 21 12 19 23 45 29 26 48 20 65 30 20 5 5 16 16 11 12 4 7 9 9 11 21 32 24 89 102 21 101 50 34 32 5 39 42 43 11 8 8 34 32 38 14 40 21 69 50 127 52 90 57 28 36 23 119 94 70 5 119 41 55 19 20 37 115 68 36 53 67 57 28 18 46 63 54 60 54 51 48 44 37 39 26 27 21 14 18 28 36 42 43 24 18 5 22 25 11 19 15 14 18 24 18 13 15 24 14 5 14 14 4 17 27 11 19 27 34 27 16 8 7 24 32 22 67 51 21 21 24 55 48 28 16 27 27 39 12 18 20 129 214 221 150 104 63 75 64 11 8 15 20 25 29 44 39 17 19 10 8 11 8 16 21 21 6 4 14 25 43 39 20 27 40 28 12 10 24 0 
0 36 28 12 4 0 5 12 19 17 15 13 9 4 8 11 11 3 15 10 12 19 39 33 26 26 31 72 81 52 53 92 95 43 30 45 39 7 12 16 21 25 53 34 82 69 97 185 139 54 43 6 19 20 25 43 16 34 147 108 89 49 77 78 11 15 54 12 29 21 27 25 21 60 33 26 38 38 20 12 38 21 7 15 26 39 138 193 148 51 118 94 9 208 184 67 46 67 41 75 56 124 79 86 44 69 26 120 158 92 54 87 67 64 59 49 120 73 83 91 54 55 73 85 76 106 121 88 109 96 23 175 173 119 186 157 139 117 48 59 24 69 49 18 7 8 13 8 8 7 4 8 8 15 23 27 14 31 23 21 7 24 19 2 5 11 27 27 34 17 19 15 2 13 125 56 81 6 54 31 10 14 13 22 7 24 7 15 8 15 7 8 7 9 17 17 9 21 7 15 24 5 24 12 17 20 10 4 7 24 19 22 21 9 17 4 27 22 10 17 39 32 44 51 9 18 9 24 33 84 72 28 17 22 29 27 12 14 30 49 74 59 33 56 52 34 19 43 75 76 82 96 104 91 58 35 36 49 10 18 29 18 24 26 25 36 50 62 58 51 48 19 17 11 12 10 12 21 17 2 19 16 24 44 58 24 17 20 18 32 42 43 32 49 45 49 47 41 51 43 39 40 10 5 19 48 45 14 17 46 52 19 41 70 50 147 141 23 18 43 34 25 45 16 12 7 8 21 40 31 7 7 3 12 18 14 25 59 77 49 69 16 81 15 32 9 5 14 8 7 2 19 19 3 8 6 21 36 18 80 105 8 96 47 31 28 7 33 23 32 24 23 18 27 31 33 20 45 11 61 36 120 57 93 76 8 29 20 125 90 54 10 123 39 53 11 22 33 108 59 21 38 27 16 27 19 19 37 46 52 49 27 2 45 27 18 16 23 35 31 36 32 10 23 21 15 16 25 10 16 32 28 3 32 31 35 16 8 9 17 16 13 9 17 15 14 28 10 13 20 9 13 2 4 10 15 28 63 43 31 35 26 27 5 3 12 10 29 11 30 31 24 44 163 217 199 149 83 58 74 44 18 13 17 23 34 35 43 32 6 3 7 17 22 14 10 5 16 21 34 38 36 35 28 24 25 13 14 26 34 29 0 
0 30 20 7 1 2 3 5 13 19 18 21 25 19 20 14 5 10 17 7 8 12 39 44 38 31 38 63 59 46 65 100 92 43 23 52 53 14 14 22 15 36 64 83 72 53 184 135 54 39 34 31 22 13 8 41 34 68 129 28 58 15 67 93 14 26 40 9 16 43 40 38 24 55 7 21 24 33 17 7 38 15 36 37 37 29 150 245 155 78 105 60 32 137 191 113 15 45 92 32 107 85 119 67 19 108 66 111 98 127 86 145 163 76 59 111 168 165 189 142 149 97 79 114 8 25 112 222 197 201 15 70 89 55 61 71 33 110 147 36 49 55 11 13 5 13 20 9 8 7 7 5 8 7 2 26 18 21 4 2 9 18 27 13 6 19 34 32 45 29 37 20 18 7 80 85 27 5 44 33 11 14 35 30 24 8 8 7 6 7 4 5 5 7 5 24 2 25 2 9 32 15 15 25 17 12 4 5 2 12 19 15 7 6 5 10 13 24 25 14 27 24 21 56 52 24 20 43 58 56 65 29 19 26 15 12 20 22 29 32 42 42 27 44 69 75 67 71 87 78 61 61 74 88 95 86 81 111 145 158 163 167 156 133 125 123 125 137 131 118 125 127 93 60 43 30 35 43 19 16 6 6 22 31 61 25 8 7 25 27 29 44 48 56 56 30 17 16 33 31 26 27 12 4 47 69 44 30 44 79 38 11 60 82 62 161 118 8 19 30 21 28 28 6 7 5 6 14 20 29 17 8 15 13 2 14 13 17 13 52 71 37 67 15 32 8 15 11 7 9 13 28 22 18 11 18 36 23 1 94 113 21 106 36 34 39 9 39 28 22 18 17 11 19 28 17 33 45 49 59 31 90 71 80 63 12 35 20 143 102 38 18 130 34 60 25 46 58 100 67 26 38 29 15 28 47 41 21 16 17 29 21 21 49 23 25 26 32 34 25 18 14 35 36 26 28 15 12 24 15 4 13 22 31 9 17 24 9 19 34 34 24 15 16 19 26 27 13 12 24 14 4 13 7 21 26 47 49 15 4 4 5 13 5 13 31 25 20 5 19 15 2 60 191 214 180 144 70 59 67 22 10 30 44 47 39 22 30 18 11 2 11 24 27 17 7 7 13 22 21 14 12 21 15 13 21 9 5 21 29 28 0 
0 19 15 5 3 11 21 20 13 10 15 16 19 8 13 8 20 16 20 14 17 10 40 43 40 37 38 51 40 39 80 89 82 71 55 59 41 18 22 27 29 13 116 131 25 135 168 46 16 55 29 26 21 21 25 15 49 102 104 54 52 59 65 95 21 42 34 6 15 20 38 44 36 46 15 20 15 30 16 11 36 15 32 15 14 16 81 41 243 90 151 58 54 68 159 140 43 22 94 44 100 18 116 77 49 130 95 190 74 178 52 66 155 220 190 81 55 98 72 77 132 95 62 92 53 61 106 234 107 107 162 146 53 104 120 110 120 142 185 132 54 10 17 25 7 18 28 11 9 5 11 15 21 17 22 15 24 17 12 13 10 8 21 21 9 13 27 27 38 20 36 18 19 33 22 65 25 21 38 12 19 25 14 17 22 18 5 6 6 3 5 5 12 17 8 29 7 32 10 18 22 32 13 15 8 10 3 10 14 12 7 14 21 15 26 30 17 4 23 15 33 16 2 16 58 48 33 21 69 33 47 34 39 37 20 24 26 4 13 10 15 38 45 54 58 62 66 85 98 104 104 97 95 118 157 184 184 197 188 146 119 113 94 60 50 38 21 41 55 16 20 60 71 54 44 38 64 86 62 14 29 37 36 39 74 67 44 30 26 12 5 25 16 51 37 11 23 30 35 32 44 64 79 87 90 85 57 51 84 103 57 41 81 98 79 173 92 35 10 21 17 27 14 2 3 9 16 33 42 30 10 7 3 4 3 8 10 21 22 40 58 32 43 16 21 10 24 8 7 12 18 22 31 24 6 12 32 17 27 80 116 13 122 29 49 53 6 44 18 15 31 28 17 20 31 25 56 37 72 48 29 50 51 51 46 27 50 26 173 130 31 66 163 27 94 65 84 59 91 66 38 53 48 52 62 52 40 45 46 35 23 47 58 83 89 51 19 16 34 48 34 14 29 44 33 31 54 56 35 11 5 11 24 41 52 40 19 2 18 19 10 17 10 17 23 9 16 23 3 30 23 13 16 13 23 15 26 21 20 27 29 18 14 8 28 37 23 2 5 37 24 26 99 203 199 171 123 64 61 50 13 19 25 28 25 21 15 22 17 5 18 21 11 2 14 23 23 16 12 9 12 18 27 27 19 21 25 12 21 26 20 0 
0 26 24 12 7 11 11 12 9 13 16 13 20 11 11 4 11 15 20 16 4 18 32 36 35 41 48 52 40 47 87 82 76 81 57 39 16 12 12 19 11 84 169 85 99 161 101 26 14 49 19 10 21 11 29 36 70 100 38 109 52 100 38 100 14 32 19 15 14 39 15 46 29 31 31 24 6 21 25 16 22 24 9 33 23 14 15 14 81 52 196 24 86 55 153 134 41 10 62 54 59 27 39 76 64 105 170 86 103 145 11 119 38 132 252 247 91 65 151 201 126 33 107 81 59 120 44 145 10 235 111 231 40 60 221 137 72 111 175 233 49 39 50 17 7 17 29 12 8 7 12 11 24 14 27 12 15 8 8 23 25 32 16 27 11 7 30 32 49 32 20 10 7 33 23 65 20 28 38 11 15 36 37 24 10 23 7 7 7 5 12 5 3 13 25 18 23 24 26 14 12 19 23 25 14 18 8 11 21 18 19 11 21 39 29 8 27 2 28 11 39 12 17 25 47 63 30 35 48 10 43 39 20 4 18 8 44 37 33 39 34 9 7 6 26 30 12 30 40 42 42 51 53 28 5 35 36 39 28 61 21 12 56 55 88 114 106 102 115 93 91 84 48 38 31 23 8 65 71 12 48 31 22 13 34 68 69 48 18 17 32 37 46 47 18 13 22 14 32 17 44 58 55 80 98 88 55 56 86 41 62 61 82 117 87 171 73 44 9 16 13 27 7 4 8 7 12 15 27 28 19 10 5 15 24 23 15 8 11 37 62 30 44 5 16 11 29 17 2 16 18 24 23 19 12 8 25 43 14 35 113 36 127 46 65 41 16 44 16 17 30 34 9 12 14 14 73 44 74 51 26 35 41 15 49 30 60 33 190 139 31 100 181 61 103 65 110 64 102 54 18 57 55 63 57 51 43 48 58 57 31 30 27 26 41 58 37 29 31 34 41 46 61 59 61 48 49 51 52 43 44 30 22 35 25 16 12 15 36 48 39 37 37 23 15 14 17 13 21 27 8 31 18 14 29 14 15 29 16 14 14 31 21 24 20 49 8 11 5 36 23 37 136 216 185 157 105 65 58 34 10 12 22 26 17 12 28 32 10 10 14 3 12 25 31 13 5 12 7 21 27 39 42 31 22 26 27 41 31 34 34 0 
0 27 29 22 15 7 7 11 5 5 8 8 8 6 10 8 10 18 23 22 28 16 19 37 34 26 49 59 52 58 75 69 75 85 59 39 24 13 29 30 86 243 247 118 158 103 84 123 174 163 83 18 13 9 22 74 82 63 32 100 26 106 38 78 41 11 39 9 26 32 34 17 30 3 36 24 18 7 23 15 1 21 28 11 30 19 16 215 115 36 197 108 114 92 207 142 42 16 53 47 26 52 32 25 40 89 138 45 85 57 48 102 83 42 69 239 160 135 197 122 45 91 57 85 60 153 48 66 165 167 178 127 212 221 241 8 165 137 163 73 205 24 38 13 10 14 25 12 7 11 11 7 11 13 10 9 5 5 8 27 35 22 8 44 22 7 50 44 85 8 15 11 8 17 26 46 20 28 51 6 24 22 9 15 12 4 11 6 10 2 16 3 5 8 33 11 38 21 40 15 13 4 16 9 28 24 9 10 22 14 28 23 32 28 3 11 12 22 27 9 36 22 15 24 35 69 18 37 21 28 17 46 28 20 9 41 39 45 26 27 22 22 6 14 38 50 36 38 24 22 59 68 78 118 146 153 159 168 150 109 54 37 47 60 77 64 71 81 108 102 84 39 18 11 29 32 25 68 55 13 44 49 61 71 70 46 26 32 36 35 12 35 41 68 90 78 69 65 64 46 62 72 60 44 52 24 16 20 28 74 63 28 104 134 91 149 65 37 13 5 15 4 29 28 18 18 21 26 28 16 3 14 14 8 8 12 5 8 19 44 64 21 52 12 24 15 9 23 12 25 1 15 8 27 26 22 5 48 29 20 96 45 117 68 55 17 20 33 19 23 25 35 6 29 26 25 70 35 50 75 43 57 34 13 18 47 51 28 192 123 34 86 179 62 74 98 111 68 138 67 75 63 38 18 18 39 5 15 43 59 39 26 19 5 13 45 63 52 37 29 32 43 46 46 59 46 28 23 37 38 38 38 46 38 38 11 22 38 10 23 17 16 17 24 14 6 24 28 25 29 22 15 23 24 33 7 11 28 16 8 7 18 34 17 22 35 22 18 19 11 24 39 182 240 171 125 103 68 44 29 17 22 37 43 32 23 40 28 35 7 22 17 23 43 18 29 7 8 10 35 10 2 17 18 19 18 18 32 39 36 47 0 
0 31 38 32 17 10 11 3 4 5 5 4 4 2 11 18 28 12 7 9 42 11 16 41 37 25 54 62 58 64 70 53 67 98 59 33 46 43 21 147 135 233 62 26 208 59 92 37 29 1 132 18 24 11 15 84 87 40 43 78 56 64 74 30 41 42 31 3 37 12 42 39 10 41 29 7 10 8 17 6 11 8 37 8 39 12 5 178 121 98 135 54 82 69 253 207 95 58 77 76 50 58 61 36 34 85 87 111 45 82 66 96 107 43 27 174 154 135 166 32 107 74 67 7 40 152 45 141 39 64 45 19 117 193 133 45 23 162 133 248 72 126 31 9 19 12 13 11 29 18 28 18 13 2 2 5 7 7 4 25 34 20 11 55 21 15 59 11 89 35 4 3 1 13 22 48 39 28 60 11 8 20 22 17 12 10 5 15 9 5 15 6 8 8 31 17 35 30 35 22 7 3 17 7 25 28 11 7 26 8 22 18 14 29 12 4 7 30 27 24 29 36 14 13 38 78 63 4 17 37 34 72 85 73 46 32 21 32 15 19 23 88 136 147 152 157 159 181 209 231 242 243 244 237 216 199 197 219 218 177 157 166 156 111 83 77 92 96 77 38 22 83 55 71 65 57 87 92 50 28 50 69 54 38 46 65 60 30 33 21 29 21 24 49 68 86 95 108 104 82 89 106 121 146 180 191 172 165 194 205 176 133 120 132 116 148 52 39 13 26 19 29 3 25 23 7 13 8 2 12 5 10 17 19 23 23 25 20 17 44 55 28 55 17 21 25 31 35 14 29 10 21 12 31 43 10 21 24 32 52 103 31 103 73 37 4 22 30 46 5 21 27 8 32 18 27 24 39 32 83 33 78 21 38 50 27 36 35 186 112 8 93 152 58 34 94 101 66 132 71 92 9 55 50 29 53 21 16 31 50 56 47 41 34 35 24 34 32 37 49 42 13 15 11 26 37 35 40 48 41 25 24 51 51 62 48 42 58 59 53 35 26 14 18 22 5 3 17 20 25 21 37 39 13 23 8 20 17 20 10 16 14 24 19 8 25 32 12 25 18 23 78 224 234 147 97 95 65 39 14 23 36 42 37 21 28 40 5 31 11 21 21 14 46 22 23 21 17 13 36 6 10 18 13 28 12 22 11 13 22 47 0 
0 36 40 28 10 11 15 5 9 21 19 17 13 11 12 10 25 13 11 8 36 17 24 39 35 25 54 59 56 65 73 57 66 88 66 41 47 57 24 11 67 41 207 93 208 32 219 59 162 67 164 8 13 19 17 75 75 62 54 38 65 14 33 31 7 28 13 11 36 3 22 39 3 57 18 23 8 13 11 3 9 7 30 7 33 13 5 143 92 159 112 89 102 97 179 249 175 109 105 80 40 44 70 44 32 80 88 146 121 59 88 111 191 66 63 125 117 82 112 12 110 80 80 61 63 98 41 107 103 44 48 49 58 249 212 54 137 43 56 126 75 249 67 4 2 18 14 11 34 16 38 15 22 4 5 7 7 4 2 14 33 6 28 45 13 19 44 7 76 45 2 2 4 17 12 68 59 40 65 9 23 26 14 9 10 8 7 15 12 3 11 13 11 5 19 11 16 18 22 5 9 8 11 13 10 28 18 9 24 37 38 39 31 37 42 32 10 29 26 29 26 23 20 31 34 49 72 29 22 48 53 48 63 59 24 7 4 44 87 117 157 205 220 235 239 221 206 227 254 248 216 181 158 141 123 110 106 132 155 161 160 172 164 146 119 103 98 123 144 155 131 109 62 27 38 38 75 54 17 10 23 15 19 27 34 31 29 34 45 32 17 6 28 41 39 18 1 27 28 21 28 57 83 118 162 201 222 238 248 232 244 43 100 120 101 38 156 64 18 48 29 42 27 32 17 10 26 18 20 14 4 7 7 1 4 2 11 11 1 39 40 25 48 5 11 7 10 13 13 33 12 17 7 20 55 15 24 9 28 74 100 41 94 62 28 26 48 8 60 21 35 29 5 27 32 27 37 27 12 73 34 58 26 49 16 43 50 33 178 123 223 124 122 82 28 104 115 56 105 75 71 59 39 101 27 56 19 8 11 15 29 25 27 12 9 4 14 10 12 21 39 25 24 21 18 21 42 53 58 58 58 47 39 38 50 23 24 50 69 52 25 17 17 12 21 5 7 4 3 25 35 28 15 17 16 24 12 36 21 41 45 25 7 24 7 12 26 17 9 14 14 104 219 212 142 88 78 60 36 16 26 30 38 42 31 27 24 25 24 12 7 2 16 24 8 18 5 8 8 39 22 40 59 55 24 18 24 14 12 21 45 0 
0 29 31 24 20 12 8 11 13 23 3 21 19 11 28 21 26 13 15 8 26 23 32 31 33 29 55 58 52 66 77 60 62 80 67 47 62 72 52 0 170 8 202 80 106 23 20 229 246 83 142 26 11 24 6 56 56 10 1 21 50 31 32 48 33 20 14 17 33 15 43 42 21 60 24 28 28 3 15 5 4 7 21 3 27 16 8 112 28 178 82 88 69 164 16 180 189 95 37 17 48 48 53 62 8 41 63 132 182 55 81 97 254 115 49 101 93 57 120 127 5 135 199 148 28 11 69 18 128 109 67 145 202 73 179 159 16 103 82 91 251 52 250 169 55 23 6 20 14 13 13 28 15 7 9 5 3 2 4 1 25 29 32 37 17 3 28 14 69 49 7 5 9 16 15 70 52 50 64 7 8 7 6 23 10 7 8 12 15 7 4 21 13 12 6 9 3 12 9 10 10 18 2 18 12 19 26 7 5 7 11 10 12 9 5 20 15 27 15 15 12 15 17 14 21 14 55 56 25 37 72 79 59 30 63 101 137 136 122 125 121 89 14 12 11 7 26 74 60 42 18 18 7 27 11 27 43 64 14 46 13 15 23 42 7 36 55 65 43 30 29 23 52 59 38 26 56 68 61 43 44 44 22 15 26 53 56 46 52 65 26 22 40 50 53 50 74 82 75 74 60 36 20 17 25 38 61 83 82 67 93 145 191 18 166 26 20 195 107 1 104 10 49 34 30 14 31 11 16 12 17 15 8 2 2 4 2 2 13 32 24 20 38 4 7 18 16 15 22 33 13 13 10 4 51 39 20 15 26 70 90 29 90 68 20 29 62 47 49 16 26 40 10 27 35 33 16 10 13 68 9 33 20 47 47 11 65 34 205 156 182 171 87 108 28 108 135 62 83 65 51 76 58 69 104 22 26 23 14 38 32 43 36 26 26 20 23 16 26 16 33 30 51 47 48 55 70 62 42 34 29 34 27 25 41 50 48 36 33 47 50 47 43 42 32 38 38 31 22 19 12 27 8 4 26 31 18 29 24 60 1 45 24 33 8 8 22 24 3 18 22 106 202 212 156 80 58 50 30 15 14 24 41 44 28 16 4 30 24 26 14 23 15 3 19 20 5 2 9 38 21 28 21 19 12 24 28 18 15 20 43 0 
0 13 19 21 18 11 4 14 9 26 11 15 16 15 26 5 20 12 18 8 14 26 38 22 33 36 56 56 49 67 83 67 75 73 43 104 131 120 231 47 105 10 136 141 45 60 30 192 22 22 95 29 9 17 14 36 62 40 34 49 45 24 13 39 25 12 22 24 31 25 44 4 32 38 39 18 30 13 25 15 10 5 11 5 19 20 13 93 222 162 81 72 56 161 141 69 195 143 82 102 55 52 27 45 50 13 40 97 176 168 87 96 226 157 28 75 115 183 186 231 197 91 182 43 175 25 38 36 96 135 92 125 156 172 227 17 25 255 209 41 161 244 230 20 231 84 12 29 18 3 4 18 5 9 8 3 1 4 4 4 16 32 48 33 28 7 31 24 72 43 1 5 11 7 25 48 30 47 53 10 12 13 24 26 25 9 7 8 12 12 8 23 17 11 7 7 15 6 9 17 7 22 10 17 21 8 32 15 1 4 13 18 14 7 11 7 15 25 20 17 4 15 21 16 15 16 38 65 55 58 63 53 24 53 56 58 62 32 24 54 38 78 90 64 29 8 55 62 14 28 15 20 1 24 11 17 36 60 81 93 82 85 75 41 4 16 19 39 35 43 36 22 24 24 27 30 10 30 31 9 8 16 18 15 33 30 22 11 6 50 63 52 41 28 39 42 36 56 44 34 38 37 38 25 38 50 15 33 34 15 36 35 21 18 116 15 132 200 18 66 247 77 178 44 31 28 15 12 8 8 13 14 13 11 11 13 11 3 24 25 8 14 24 9 3 17 8 8 24 37 10 5 9 20 30 47 6 17 27 61 103 66 111 101 2 16 29 49 30 19 6 50 19 39 26 35 55 34 24 69 7 18 15 13 18 26 73 10 247 177 122 198 51 115 4 120 152 66 52 64 21 21 87 23 87 66 24 49 24 28 6 30 29 11 15 22 41 38 36 25 28 30 58 38 42 50 47 42 39 32 30 43 53 57 59 65 66 34 22 31 46 60 51 48 55 51 39 39 41 37 44 41 19 10 19 21 8 28 32 41 26 34 44 32 16 11 17 22 13 21 36 127 207 201 159 72 41 50 28 8 13 40 47 34 17 7 18 11 33 29 31 37 14 25 15 12 21 21 12 23 22 40 48 31 20 30 36 29 28 29 48 0 
0 5 8 12 14 13 8 11 17 23 10 10 12 4 25 30 13 3 18 10 5 24 40 18 36 42 58 53 47 69 88 86 90 32 141 165 125 219 66 172 20 133 147 45 55 41 84 144 36 236 68 27 10 5 23 22 67 59 5 65 53 61 50 22 29 20 19 22 27 28 26 28 28 9 26 18 20 6 30 8 17 4 3 10 10 23 17 102 200 90 43 44 57 83 201 14 202 198 83 65 49 34 11 21 52 25 32 56 132 219 191 174 186 139 18 92 180 245 132 151 248 231 50 204 248 114 42 46 77 120 111 209 235 37 45 78 149 239 77 23 24 189 186 15 124 51 154 38 30 10 13 26 19 11 4 2 5 7 5 8 15 41 45 22 35 22 29 40 71 31 10 5 7 7 37 47 25 45 45 15 15 16 29 21 26 12 8 4 7 14 15 19 23 7 9 10 15 8 15 16 5 18 18 8 22 3 32 14 17 21 17 7 19 14 18 14 36 40 8 20 28 16 11 5 16 16 28 59 44 21 60 73 50 5 50 75 84 43 41 70 47 47 65 90 70 59 65 23 38 53 50 41 31 35 34 31 34 49 63 56 24 8 12 2 20 24 17 30 42 33 13 31 25 13 43 34 14 10 28 23 7 12 23 12 28 15 22 19 22 20 49 50 34 40 55 54 25 36 18 9 12 27 35 21 41 48 26 35 52 36 23 24 13 2 51 24 57 79 149 46 228 76 70 198 253 84 21 23 14 17 13 6 8 9 11 8 11 1 32 15 13 13 8 8 11 18 21 21 15 40 8 11 3 22 9 48 25 25 21 37 113 95 110 123 12 10 3 44 13 17 3 50 24 34 29 43 55 53 47 63 12 26 9 35 27 12 59 24 0 175 86 186 10 89 46 135 153 44 14 64 47 57 40 70 48 125 36 52 18 11 17 15 24 15 24 26 37 39 39 25 24 26 41 18 37 39 17 28 30 34 25 26 45 65 59 29 45 48 49 39 28 34 35 28 37 29 19 25 39 39 53 36 22 13 11 18 34 20 19 16 10 28 39 19 7 15 14 15 18 9 35 169 226 177 152 59 28 52 36 13 27 59 48 18 6 1 21 21 14 36 29 36 19 29 25 30 25 12 19 24 22 17 22 34 45 32 43 42 47 52 65 0 
0 6 11 17 15 7 7 10 1 14 12 2 12 12 8 15 17 4 14 9 7 21 40 19 42 45 61 52 45 71 92 81 71 194 184 46 108 97 239 46 104 76 46 10 37 153 176 99 109 210 39 25 11 17 18 11 52 82 46 56 38 29 56 24 33 3 19 7 21 30 11 32 17 8 7 24 13 16 17 5 14 3 7 12 5 25 23 140 231 88 76 5 49 32 208 134 128 235 186 71 21 18 26 32 76 32 44 3 51 151 163 82 100 80 93 193 235 172 66 177 200 159 138 38 225 200 131 95 76 133 29 117 33 206 58 13 59 118 234 124 1 113 212 4 81 123 80 188 24 17 2 10 7 10 6 5 7 5 3 10 18 45 35 7 27 44 27 52 65 18 14 13 9 14 53 57 15 62 49 19 13 24 35 20 14 12 7 4 5 14 19 12 27 11 12 19 8 11 14 10 7 12 21 5 17 7 27 18 19 8 17 17 35 41 26 36 38 53 35 16 2 12 11 12 5 7 19 47 81 66 56 10 34 35 20 53 74 93 120 87 50 60 90 74 40 36 32 10 17 3 25 42 49 52 37 31 26 18 10 17 39 34 15 22 26 29 24 18 11 27 31 6 18 25 32 33 7 21 6 28 10 12 19 24 8 35 18 33 31 36 10 14 6 32 59 44 18 19 27 22 28 35 41 35 36 24 11 45 79 45 38 29 26 33 17 33 30 21 41 11 100 255 163 31 65 231 46 112 6 32 21 8 12 8 3 11 15 7 38 10 26 20 9 7 12 8 7 27 17 47 18 18 11 8 11 52 45 26 11 15 109 108 111 130 14 10 4 41 11 14 18 36 19 17 13 8 78 39 60 46 33 45 45 47 15 12 49 5 18 168 52 188 34 84 70 125 135 19 23 64 73 53 39 82 43 124 93 40 9 24 29 16 16 5 27 8 27 7 11 8 11 14 16 8 17 9 26 19 17 43 34 14 36 7 46 8 27 34 44 57 44 27 37 42 36 35 37 36 45 54 49 41 28 50 68 76 39 39 5 7 4 7 17 18 18 25 10 13 25 14 18 185 234 168 159 57 20 54 38 11 50 65 39 9 8 15 18 34 26 37 31 21 17 21 10 14 4 8 4 16 18 15 22 34 44 32 47 42 44 53 70 0 
0 22 16 18 13 3 3 8 7 10 19 13 10 22 33 33 43 31 12 5 18 24 40 38 54 38 62 54 42 65 89 74 210 215 40 31 142 216 35 87 88 70 44 52 31 180 120 13 116 162 18 19 23 9 2 4 18 91 82 45 42 13 37 21 11 25 22 22 28 22 46 36 20 16 29 69 85 61 12 13 13 3 6 19 15 31 20 167 233 42 105 24 33 84 124 236 43 160 217 203 93 38 23 63 73 5 41 47 35 55 120 94 110 102 149 231 182 36 118 190 211 139 34 75 137 148 114 200 72 152 84 59 121 66 58 192 71 20 84 24 210 218 44 52 132 204 57 110 217 26 42 18 26 16 21 10 10 15 13 20 15 32 37 15 14 53 23 62 59 6 7 16 19 7 64 72 23 74 58 13 11 16 17 5 9 12 9 1 8 3 18 6 22 22 9 17 14 3 12 16 20 15 15 10 10 11 13 31 8 16 17 29 5 18 17 42 56 26 25 43 27 15 18 14 11 7 26 51 88 48 35 49 32 32 45 80 75 73 53 12 17 40 57 33 26 24 9 13 16 31 14 23 7 34 19 24 24 8 1 8 34 3 23 28 7 18 15 15 9 24 18 32 24 9 14 33 25 9 10 12 25 31 26 33 38 24 41 15 20 15 10 8 14 18 21 51 27 13 48 32 32 37 37 48 38 29 58 64 51 38 24 15 28 25 12 30 18 33 15 36 46 37 37 162 92 247 61 31 116 156 24 27 22 7 14 12 24 2 34 8 17 5 21 17 3 8 18 35 12 41 21 17 13 14 5 43 50 12 34 19 103 107 92 142 9 7 8 25 14 14 20 25 7 9 25 21 80 28 64 46 26 60 44 40 13 18 38 28 57 158 11 196 4 67 57 111 117 28 25 24 75 43 87 39 74 51 130 87 48 70 61 56 40 41 58 43 24 21 23 28 27 17 5 21 31 9 2 11 34 33 48 38 31 5 38 8 2 21 53 47 51 42 50 41 50 66 72 74 79 70 50 61 68 66 50 74 83 52 18 11 15 22 30 28 21 22 11 15 15 16 14 175 236 180 154 61 23 51 28 20 53 60 7 24 11 24 19 21 32 29 8 7 4 18 27 20 22 17 5 24 21 19 28 30 38 34 44 43 51 60 55 0 
0 32 20 22 11 9 12 17 19 15 9 24 11 28 49 7 26 13 18 8 15 29 29 48 52 27 60 60 58 58 69 198 138 175 157 221 207 1 103 90 52 31 42 67 54 133 13 12 213 83 8 18 13 14 5 1 27 94 81 41 68 28 22 16 20 10 28 49 35 23 63 29 18 13 47 102 58 106 19 8 19 8 10 18 1 21 5 171 199 89 44 79 40 120 66 182 170 11 109 210 218 43 40 65 59 3 18 37 29 62 168 165 132 115 118 207 101 80 175 132 98 49 34 27 125 92 44 167 212 118 160 155 220 41 192 249 171 113 31 98 129 130 6 250 212 86 96 33 122 187 35 23 31 14 29 15 15 28 14 4 13 21 22 11 27 58 12 75 40 3 1 8 26 10 68 81 21 83 64 16 21 35 24 12 7 2 10 14 7 12 13 16 22 35 32 8 16 21 25 22 18 17 8 9 5 14 9 25 25 5 17 22 16 28 31 18 34 39 26 33 28 18 26 18 25 19 23 24 66 57 14 25 35 34 40 66 70 65 49 19 27 54 28 33 27 21 31 15 30 24 9 21 23 26 13 12 19 8 2 9 29 36 47 31 17 19 15 15 20 21 14 15 29 4 6 16 21 14 7 12 19 22 9 14 22 29 32 23 31 22 7 23 26 13 24 24 14 12 48 39 11 25 26 50 4 15 69 26 11 29 6 30 36 24 30 26 15 30 29 12 18 26 34 49 24 129 8 195 66 29 145 235 92 5 26 19 15 17 18 3 22 29 7 22 27 29 43 26 26 25 17 10 8 18 19 18 47 49 23 16 91 117 44 153 26 20 12 12 4 7 20 30 17 28 16 5 75 22 69 47 20 48 24 23 4 17 40 48 78 129 50 166 4 40 54 117 98 51 29 28 62 35 80 52 45 55 60 97 35 51 33 45 30 28 29 27 10 12 34 11 17 10 13 21 35 54 42 8 25 22 12 25 28 23 42 59 55 72 67 56 38 41 46 28 41 22 18 14 37 40 24 17 31 11 21 4 23 27 37 56 66 70 61 40 39 50 56 58 47 32 30 176 250 191 122 63 36 41 24 26 43 65 22 24 55 36 10 13 38 37 14 9 20 24 25 34 12 16 18 14 17 30 27 21 36 39 39 54 51 35 24 0 
0 36 36 18 0 4 13 8 10 15 4 23 22 14 45 43 34 7 19 22 12 34 23 36 40 29 46 38 66 50 173 89 86 64 78 4 243 85 107 55 44 38 55 56 30 110 135 91 94 37 10 7 12 22 15 14 48 91 63 38 75 30 2 8 10 21 37 33 8 41 55 18 24 24 25 118 5 112 63 7 31 17 14 2 26 31 18 144 151 163 102 66 11 43 147 27 193 130 9 102 215 178 56 70 46 17 18 15 72 81 166 175 103 140 104 207 63 149 229 134 44 111 100 34 117 65 82 88 140 101 135 120 168 60 184 124 125 117 82 35 189 7 193 132 194 214 126 78 96 180 179 19 8 14 32 12 18 18 17 15 18 13 8 24 64 45 44 72 32 4 5 5 21 15 63 68 37 82 60 19 19 18 22 2 21 23 10 18 11 12 22 18 4 7 23 12 15 23 18 18 14 11 4 9 7 8 18 5 17 18 18 7 11 18 13 27 18 19 52 54 29 50 31 35 31 7 20 20 55 68 39 34 40 26 11 30 53 54 35 14 40 32 34 56 63 56 19 11 38 43 32 20 7 13 14 12 17 28 11 6 10 10 25 5 31 21 19 28 24 6 12 13 22 4 8 11 12 13 13 9 26 17 2 14 11 11 18 35 20 46 10 36 13 29 27 12 12 1 37 45 33 37 32 43 12 12 76 19 12 44 38 31 31 5 19 16 7 4 20 34 31 24 15 20 37 21 14 38 204 155 9 19 197 29 109 20 15 25 18 20 9 36 14 34 12 12 43 15 29 15 8 15 15 15 27 15 11 76 17 39 82 127 14 151 36 14 21 21 1 14 29 29 19 33 31 17 80 17 63 41 15 18 20 12 11 17 49 69 100 84 77 139 20 34 54 121 68 42 46 41 75 43 47 50 27 60 18 103 85 47 24 32 26 22 25 43 40 38 50 42 47 32 4 21 41 20 35 5 11 15 15 28 24 23 46 58 60 57 29 61 63 67 60 46 23 22 35 32 24 40 36 24 31 48 55 50 44 35 59 71 54 36 31 23 19 35 33 15 19 6 36 186 252 173 109 81 50 44 26 13 34 73 32 51 56 28 23 15 26 39 12 25 16 25 27 24 8 2 18 31 28 14 16 34 51 37 30 59 56 19 33 0 
0 28 44 20 12 27 36 43 26 4 12 14 11 24 34 22 7 19 5 7 15 36 14 32 48 44 51 31 41 172 34 242 57 103 213 178 44 93 69 74 27 52 35 48 56 241 198 187 145 32 10 5 13 14 7 10 52 93 63 8 64 68 42 32 30 4 42 60 49 36 31 17 17 14 8 94 71 96 126 38 33 6 5 9 23 9 34 88 90 157 203 70 16 22 93 122 82 230 152 33 104 198 219 134 41 46 22 7 80 68 126 184 69 67 134 159 36 209 233 103 134 103 75 89 63 108 89 82 90 40 38 174 171 88 217 131 93 109 112 38 124 205 188 88 120 153 254 193 135 169 180 124 27 15 11 26 10 7 12 13 15 17 18 33 56 30 45 69 37 22 22 22 11 11 52 52 24 56 51 17 3 7 9 16 15 23 20 11 9 8 28 8 15 9 15 12 4 15 18 15 9 4 3 9 7 2 9 11 9 29 18 5 15 8 7 18 20 23 17 16 28 56 14 24 13 10 19 20 52 65 45 34 9 14 40 83 90 54 17 19 47 26 23 30 24 33 9 29 24 15 7 14 27 39 39 28 24 33 13 4 17 30 52 54 29 10 23 16 8 20 10 15 14 8 12 13 8 5 12 13 14 27 21 26 22 15 31 37 12 39 27 17 35 26 45 21 32 28 26 35 51 44 2 35 21 36 60 29 10 47 26 10 27 22 10 12 13 6 18 14 18 14 22 21 11 21 32 12 12 53 176 89 249 80 17 90 167 25 37 25 48 30 15 10 16 21 37 10 24 8 24 15 21 36 38 3 8 85 28 65 66 139 4 142 49 20 24 43 3 19 17 17 30 24 42 2 88 25 56 43 29 12 27 16 24 42 56 114 128 42 103 119 20 27 50 117 54 63 80 63 82 21 39 28 37 36 61 55 85 44 28 23 26 22 23 33 37 34 44 30 42 39 32 5 22 35 27 16 23 24 33 17 31 18 45 24 5 24 24 17 24 11 26 40 44 48 46 63 54 57 72 79 78 70 49 45 69 71 43 19 16 18 38 53 59 51 21 20 9 27 51 198 241 145 110 95 49 41 35 27 38 61 22 14 29 24 39 14 13 33 5 23 9 17 19 25 26 19 1 11 11 5 14 38 57 38 45 77 75 54 63 0 
0 28 32 11 10 31 40 31 21 27 35 32 21 22 27 33 19 18 18 23 29 35 13 20 54 43 53 105 222 30 181 98 116 186 87 200 48 75 87 17 73 16 33 32 220 76 112 24 162 24 12 6 8 8 10 10 21 79 84 32 28 55 48 26 31 46 33 34 15 14 22 12 12 9 31 81 146 45 152 81 20 14 11 14 36 34 29 51 19 46 151 184 68 14 28 140 145 130 246 160 41 79 235 5 162 114 84 74 103 73 62 135 80 92 161 55 146 0 190 57 57 163 121 77 121 55 75 96 103 87 83 96 250 202 44 125 86 92 0 222 102 48 157 149 128 51 137 107 23 155 232 114 58 21 3 19 4 5 18 28 24 10 25 15 52 66 49 68 38 24 14 25 8 13 44 51 31 46 49 11 10 7 4 17 11 23 20 10 4 11 30 19 8 13 17 25 19 8 6 9 9 8 6 4 7 10 7 8 7 20 24 15 4 14 10 8 16 13 33 37 33 14 25 11 11 16 32 46 49 38 31 53 31 19 37 62 48 34 37 23 42 39 11 26 28 18 4 23 29 37 30 21 10 1 25 5 21 36 14 6 20 28 31 40 39 25 24 11 16 9 27 27 10 11 14 11 2 7 13 20 28 38 20 27 23 24 49 22 15 19 35 13 38 15 55 25 19 15 26 42 63 43 22 39 44 7 42 21 20 46 43 12 7 20 27 20 2 14 15 7 20 23 7 21 16 20 17 11 7 23 21 44 141 42 226 56 24 118 139 30 25 17 32 21 17 16 33 4 22 23 15 17 21 34 39 7 10 71 21 66 35 152 31 124 58 33 8 55 11 17 23 31 24 18 35 7 76 36 46 30 36 17 22 14 23 48 42 145 123 7 120 89 10 3 39 103 39 48 38 43 67 22 36 23 25 21 53 16 47 48 32 27 31 26 17 8 24 38 51 19 16 24 36 10 2 7 19 35 29 16 32 2 38 28 44 15 27 34 33 18 18 4 23 50 62 64 58 52 34 28 41 41 31 38 19 23 15 36 31 20 26 21 21 53 84 72 55 57 74 93 98 227 249 130 112 105 48 32 33 27 32 28 28 39 40 28 35 12 15 27 7 25 5 8 11 21 7 11 9 12 21 26 26 24 43 56 66 86 75 64 91 0 
0 40 25 21 17 7 25 27 18 20 10 10 17 25 30 36 11 20 21 19 22 29 6 22 52 19 86 222 15 119 156 111 145 24 150 40 47 76 45 36 52 29 50 106 177 53 242 53 120 17 7 4 3 1 4 11 10 37 96 57 11 35 90 58 53 27 34 59 30 28 25 8 11 4 29 60 185 53 146 101 42 36 15 39 34 43 4 50 29 34 83 213 214 41 34 57 200 134 95 217 188 81 108 198 20 53 40 32 4 204 152 169 169 141 65 125 229 229 95 17 55 12 152 148 128 194 49 58 67 132 148 61 89 216 140 42 97 223 168 61 235 53 95 202 80 72 129 252 17 1 30 15 74 30 30 7 22 7 14 34 8 11 20 3 13 36 11 60 41 22 12 25 9 14 46 59 38 47 53 14 24 16 13 15 20 21 10 15 6 22 19 31 17 16 10 10 19 15 14 8 7 8 6 4 7 10 7 4 7 3 17 20 15 13 13 15 7 18 22 8 22 31 22 13 10 6 16 22 30 37 37 66 63 10 14 56 78 43 24 21 26 38 58 68 58 41 19 14 36 14 8 13 28 38 21 12 23 11 10 16 31 36 14 4 17 17 10 8 18 4 41 16 15 11 12 11 11 14 16 16 17 21 4 25 16 22 46 25 20 24 21 28 7 39 30 21 21 30 32 33 48 30 29 16 45 30 42 17 26 40 61 21 23 8 9 13 20 20 8 6 20 20 24 23 27 0 16 11 4 15 29 17 43 29 90 12 218 95 63 179 240 53 49 3 17 2 27 26 18 7 28 7 24 42 24 6 31 33 44 42 5 139 48 106 62 34 7 52 12 9 24 45 10 11 17 10 46 28 42 16 21 21 28 16 15 47 32 149 103 250 117 66 9 24 33 87 43 56 12 22 46 4 26 20 11 15 31 29 31 58 34 1 2 17 28 26 30 30 50 7 22 31 38 24 13 17 24 37 46 28 42 30 12 42 3 49 19 31 22 30 17 17 28 18 26 22 15 18 15 12 17 18 27 59 75 64 32 19 31 27 4 21 27 53 40 14 7 37 66 49 69 220 254 139 120 110 47 22 22 17 15 13 15 25 23 6 33 16 20 20 8 24 13 0 6 14 16 3 19 39 46 43 33 28 43 63 76 88 69 76 131 0 
0 41 19 24 17 30 41 40 27 27 35 33 19 5 19 34 28 32 18 3 16 40 21 26 65 64 125 169 58 254 148 107 218 84 43 25 22 53 28 51 49 57 19 10 168 18 132 14 60 17 5 5 7 7 15 23 4 11 89 71 34 16 96 68 12 14 49 36 21 42 11 22 31 25 31 58 180 63 115 109 58 55 25 47 17 52 15 50 17 47 42 102 1 189 48 62 108 199 86 102 185 178 118 29 48 80 136 177 165 134 124 154 137 32 104 243 220 123 42 63 81 123 34 201 93 152 143 53 8 84 126 105 86 113 168 120 33 188 50 81 50 163 10 64 102 107 251 154 135 62 149 123 24 247 26 11 15 27 4 30 23 25 34 27 20 15 32 51 32 19 19 24 10 10 54 63 31 61 66 23 18 6 13 4 9 4 2 19 6 29 4 25 8 10 12 12 25 9 24 17 4 4 3 9 7 2 9 10 3 7 5 20 22 5 14 16 11 16 32 17 37 13 10 24 16 17 15 25 26 25 29 43 62 41 7 26 96 73 20 13 35 17 23 30 15 37 36 32 4 42 24 8 8 14 31 6 35 33 32 22 43 42 10 19 32 23 17 27 28 25 43 20 14 8 10 10 14 17 16 10 2 17 9 19 13 18 40 35 32 35 13 19 45 21 30 34 50 36 29 19 39 48 4 34 41 45 48 25 31 28 51 28 9 20 8 18 23 10 5 17 29 47 35 22 33 34 29 36 39 23 6 2 21 39 15 23 91 39 212 53 50 127 132 43 49 33 22 16 34 43 20 5 17 32 22 9 45 3 10 14 33 109 64 102 75 32 17 56 9 8 13 46 6 3 12 24 46 18 36 14 7 5 15 21 10 41 28 160 94 226 100 59 8 21 27 79 47 70 36 43 41 26 25 22 10 3 24 41 8 49 48 21 16 21 29 8 14 19 52 31 29 25 38 49 64 50 29 21 47 8 26 49 28 36 59 44 50 14 26 30 16 17 23 13 29 10 10 9 24 24 24 14 26 28 43 42 30 20 21 36 47 34 18 37 57 50 39 37 42 12 68 183 253 174 135 112 49 21 7 12 5 24 27 37 50 41 42 13 14 8 9 19 16 10 9 10 12 14 16 22 25 37 55 69 75 79 88 102 94 113 170 0 
0 37 30 18 10 14 17 20 4 9 4 15 23 19 7 19 4 19 18 25 39 72 96 109 104 77 68 137 24 100 27 141 76 63 47 30 9 46 45 19 60 42 180 116 195 18 126 167 21 4 15 5 22 22 34 19 14 15 52 66 50 22 53 82 51 1 46 43 36 40 17 25 9 14 22 51 153 93 69 87 49 51 15 37 21 49 23 74 57 44 14 7 177 51 141 83 87 139 162 70 72 188 221 223 219 200 182 155 142 97 42 101 65 64 189 224 141 38 28 45 71 58 122 44 183 106 58 146 103 29 70 81 61 60 66 126 154 174 161 254 199 6 173 101 64 33 211 10 23 220 42 142 149 225 139 24 16 15 17 24 7 32 28 48 49 39 47 45 22 5 4 9 17 13 63 71 30 78 77 9 8 29 35 29 24 8 4 19 1 26 15 28 13 11 14 11 27 8 33 11 20 11 4 9 7 8 18 8 4 6 14 11 15 17 5 11 19 3 24 8 39 34 5 31 11 33 15 15 15 29 46 37 41 47 6 30 76 68 22 6 23 31 12 48 52 46 16 20 36 20 43 23 17 42 22 33 12 11 1 31 56 34 18 49 33 22 5 20 4 23 27 17 5 4 5 8 13 14 12 15 7 14 5 16 24 15 16 20 25 11 29 32 44 30 8 10 43 25 36 33 25 31 33 48 39 36 41 30 37 36 12 42 21 10 7 8 27 34 23 27 17 17 13 22 7 28 38 45 42 34 8 15 31 25 10 23 60 44 43 216 208 104 62 100 115 18 27 49 18 36 14 3 19 18 27 17 45 4 5 25 19 82 83 100 81 18 24 54 7 12 27 38 12 10 25 52 48 43 49 22 4 8 3 13 15 40 31 186 104 185 104 67 18 8 38 82 34 88 38 46 52 21 41 13 31 37 14 49 4 26 50 31 20 23 35 31 12 12 44 42 29 24 22 25 28 34 14 20 60 21 44 69 33 55 29 17 35 38 31 16 13 8 24 5 18 34 40 25 29 11 27 14 26 5 21 27 35 32 39 56 44 36 22 17 13 43 82 39 14 22 44 153 13 216 149 109 51 20 7 7 1 35 13 19 21 72 47 4 5 3 11 18 22 21 16 15 17 8 9 24 37 46 57 71 86 97 111 125 118 136 187 0 
0 36 44 12 11 20 39 44 33 9 19 21 5 2 12 10 17 7 22 50 54 61 95 92 85 86 89 156 206 165 100 80 68 53 55 46 35 8 66 65 103 151 49 215 136 50 218 56 13 14 9 5 24 20 22 7 13 8 29 36 65 61 33 82 81 26 43 39 35 39 20 37 32 17 18 41 129 99 44 60 49 60 14 23 31 39 36 61 82 62 22 17 70 10 78 55 124 74 107 132 103 46 116 187 217 205 227 213 210 218 216 151 92 184 15 171 31 42 16 17 74 18 86 65 25 124 142 53 143 81 31 31 47 17 45 21 75 89 48 187 199 69 62 170 235 220 150 161 137 83 188 24 130 184 126 11 37 19 32 42 41 36 55 53 51 29 82 58 7 11 8 15 15 3 59 87 33 87 82 12 13 17 20 11 20 7 4 17 7 20 14 19 6 9 6 8 23 12 32 16 27 10 14 15 10 12 18 12 4 13 3 10 18 20 16 9 14 4 19 26 13 39 10 25 24 32 8 13 20 32 51 39 47 65 36 24 53 49 50 37 30 35 20 57 35 12 32 58 53 29 52 19 20 37 13 18 24 37 34 31 45 27 35 42 17 36 21 22 34 21 11 14 18 22 17 4 12 17 18 29 14 25 23 19 17 12 11 7 15 17 8 26 29 19 0 4 25 33 56 34 28 34 40 61 23 5 40 35 15 38 10 31 8 12 11 14 18 21 24 26 32 4 36 10 26 2 1 8 15 27 41 30 16 24 16 12 27 36 39 7 88 4 255 120 239 8 73 63 59 28 20 7 16 11 22 22 39 13 15 36 36 52 99 76 72 13 11 42 12 21 18 46 43 28 27 53 53 50 41 17 8 4 14 27 27 39 50 218 116 152 93 71 20 14 44 82 11 96 8 15 23 34 40 21 31 47 13 39 18 20 55 47 15 20 33 49 2 26 10 22 32 39 24 14 14 42 36 20 56 49 21 53 54 56 54 33 34 41 34 29 24 18 28 29 21 33 21 28 16 22 26 24 27 19 20 15 29 56 61 34 4 2 27 39 15 61 88 26 7 16 36 147 34 237 153 108 58 17 11 7 8 33 29 39 42 87 50 25 20 14 24 27 18 15 8 19 17 19 31 48 72 79 73 74 78 91 145 174 167 180 190 0 
0 26 43 35 20 12 13 15 32 5 21 5 18 18 9 10 24 17 28 31 48 51 19 71 141 143 103 92 82 78 78 75 78 66 57 31 31 15 129 82 151 91 11 85 32 213 102 22 3 16 8 10 4 21 6 8 7 21 38 31 37 88 55 34 92 110 113 65 68 45 8 19 47 50 54 4 123 124 45 50 57 83 26 22 38 33 66 36 86 52 10 7 2 102 58 12 41 97 18 69 159 163 137 50 74 61 89 103 118 144 234 200 86 240 250 100 106 137 122 13 72 25 42 42 70 52 115 172 14 124 70 48 36 63 84 43 32 41 82 79 111 108 184 134 175 174 156 71 48 104 29 88 235 79 214 14 26 11 25 47 31 22 39 20 61 31 84 57 12 10 4 10 5 5 44 95 39 84 78 12 8 8 25 11 11 11 8 15 4 19 18 15 14 14 12 16 14 13 15 22 19 3 8 10 9 12 18 12 23 15 17 7 5 23 13 5 16 31 44 23 8 36 8 16 16 15 15 12 30 31 40 40 29 75 38 16 59 12 21 37 21 10 37 40 51 41 38 36 22 29 41 35 5 7 25 14 29 16 17 9 41 78 65 18 10 7 45 24 22 9 9 13 10 10 22 13 15 22 8 29 11 31 16 11 24 20 7 8 6 17 17 10 22 10 8 30 47 46 41 29 18 20 27 60 18 22 45 41 28 31 42 41 21 6 20 24 19 21 26 19 39 20 37 14 19 15 13 14 21 10 12 23 32 8 22 11 19 24 23 33 28 21 95 75 35 67 143 150 17 44 17 8 8 15 20 18 48 15 11 54 38 31 85 47 75 21 20 40 19 18 14 58 20 41 15 28 44 25 22 10 7 26 13 52 21 27 49 255 108 116 75 48 18 39 32 71 16 89 20 2 5 33 18 21 13 31 11 27 49 37 36 54 4 22 36 40 8 26 7 4 10 39 32 27 38 36 50 4 29 56 37 32 24 4 24 31 30 38 46 51 40 21 16 10 18 32 31 13 13 24 9 22 29 38 38 29 46 83 62 43 44 15 11 33 36 80 83 41 27 29 27 198 41 226 143 106 64 10 17 27 26 26 18 25 57 72 36 13 14 24 30 13 12 21 30 21 12 21 32 62 89 93 93 107 123 144 188 174 167 180 149 0 
0 17 25 23 5 9 15 13 18 9 20 8 11 20 5 20 6 9 16 20 47 47 73 139 131 81 47 43 39 50 78 80 71 74 68 32 14 90 128 30 43 75 224 65 230 92 47 2 13 21 19 14 17 8 9 12 19 32 13 6 29 61 80 41 78 137 114 93 99 27 8 17 57 22 41 41 116 160 34 53 40 76 11 17 38 54 111 70 100 46 26 4 14 5 137 69 222 26 99 88 96 153 222 200 104 86 112 77 79 14 180 200 68 239 162 44 194 132 150 128 42 21 24 19 57 77 66 164 206 16 120 130 49 91 3 65 15 60 77 173 202 130 41 62 174 155 82 24 46 20 135 120 249 178 171 17 200 38 23 24 28 20 32 16 44 11 65 51 15 9 7 15 5 9 50 93 24 77 68 8 7 12 25 13 11 13 13 12 2 20 16 8 17 26 11 14 12 18 17 15 7 11 11 8 9 10 9 11 32 8 22 13 10 27 14 7 2 20 27 17 20 32 8 23 23 13 14 23 32 29 19 33 37 74 31 7 68 13 17 38 8 31 22 32 54 49 17 29 36 43 36 21 15 14 14 42 32 29 28 28 62 64 52 47 46 48 50 22 16 12 14 17 26 29 15 13 9 18 38 38 18 34 21 15 25 16 4 0 11 15 18 4 30 10 9 30 20 22 24 17 14 21 25 55 38 29 45 46 13 11 49 31 14 21 27 23 20 26 27 8 30 46 47 38 31 13 17 11 15 16 17 11 10 17 18 16 30 12 7 16 25 26 17 27 193 204 107 32 24 41 21 12 14 7 31 13 55 6 34 78 41 50 86 58 98 28 7 21 21 14 21 61 21 45 16 20 35 13 13 13 10 36 8 53 16 34 24 39 95 52 88 46 27 41 26 61 39 82 29 14 15 34 11 11 13 21 10 7 33 41 24 45 23 11 24 36 28 16 8 10 19 28 45 52 31 10 56 27 36 36 34 21 30 15 8 4 12 21 20 26 42 39 25 7 19 19 31 19 15 18 25 38 25 23 53 50 62 91 48 50 74 78 36 15 8 79 80 68 38 10 73 232 11 195 130 92 67 21 5 18 19 35 13 26 42 25 9 17 10 15 35 28 11 15 40 22 11 22 38 70 87 91 106 117 140 178 178 137 144 123 69 0 
0 31 33 29 9 6 15 19 18 10 13 5 8 12 3 17 35 29 17 14 38 61 83 74 54 41 34 64 66 58 74 81 84 79 57 12 92 188 80 134 5 133 214 74 97 31 32 24 7 17 17 2 21 15 21 30 27 8 8 4 31 61 86 91 83 86 104 179 99 18 13 4 47 68 46 33 87 185 49 97 80 58 8 16 23 79 125 106 132 56 17 24 31 35 11 147 27 230 72 127 116 117 217 46 204 91 94 79 115 64 202 169 82 216 104 31 138 255 65 139 154 43 18 14 76 35 151 75 222 239 98 198 180 22 79 36 60 108 67 195 83 7 9 95 62 165 154 57 74 70 131 88 154 128 118 145 211 49 51 4 17 11 24 36 32 8 51 51 18 6 13 14 15 14 75 89 8 72 57 10 7 2 19 5 6 10 14 8 2 20 10 7 8 32 24 30 25 25 16 13 12 13 14 12 12 11 10 7 23 17 15 10 9 25 20 2 6 20 33 13 31 48 26 40 35 31 16 29 36 18 22 43 34 68 37 12 49 25 20 39 14 22 22 20 21 40 25 16 43 29 20 17 15 27 24 23 25 32 27 23 31 54 94 63 18 20 24 5 7 22 27 21 31 25 20 12 17 22 20 13 7 27 18 14 21 13 5 11 14 17 18 8 30 16 14 26 17 27 32 28 28 31 30 40 29 29 32 31 17 17 14 36 18 28 29 10 22 39 39 26 19 8 15 11 34 12 22 7 20 17 9 10 6 8 22 34 34 24 26 21 17 15 4 19 12 92 51 28 94 139 116 19 13 10 30 13 54 29 66 49 82 82 58 70 113 16 15 1 3 4 23 48 11 38 16 41 58 37 27 19 15 34 29 41 17 47 13 94 84 31 77 28 26 33 47 35 89 93 58 22 24 40 36 15 16 35 30 46 37 13 5 38 49 22 23 40 33 8 16 9 24 10 7 2 8 2 37 18 11 39 16 15 52 55 40 41 38 27 22 21 35 53 48 44 54 64 77 65 41 20 25 35 55 53 75 58 79 106 47 39 27 59 72 26 20 85 81 73 17 15 87 253 253 176 130 75 53 29 7 25 7 52 8 45 22 13 21 12 7 8 26 30 21 18 24 31 9 15 58 92 94 105 129 134 164 190 165 138 151 102 59 0 
0 29 35 29 13 12 11 5 12 6 4 0 4 4 3 8 10 35 28 7 44 68 40 28 58 49 18 32 74 79 70 71 83 74 51 58 174 99 145 79 2 37 253 218 24 25 20 30 30 28 28 9 21 4 10 16 15 12 13 10 36 38 85 90 144 116 108 224 88 37 1 19 8 20 25 29 60 212 123 123 134 43 5 20 19 127 119 155 170 43 15 41 26 29 52 44 84 14 47 152 81 60 86 191 2 125 29 57 83 175 253 157 157 235 46 70 40 164 250 139 83 138 42 30 35 52 101 208 10 35 11 65 241 197 46 44 70 79 14 96 46 57 169 87 171 15 38 155 86 50 147 172 141 62 247 62 33 213 61 28 9 11 23 42 27 8 46 37 23 3 19 6 27 16 95 91 33 68 45 6 1 2 13 9 4 4 16 4 0 20 2 13 7 33 8 23 14 1 12 5 5 10 11 10 8 5 4 2 14 19 7 12 11 20 24 23 13 2 38 19 16 46 39 43 23 36 11 10 20 9 27 40 29 75 44 12 21 27 50 41 16 15 17 12 17 24 43 42 53 11 17 2 13 28 8 18 34 17 41 33 19 68 43 22 22 6 15 9 14 22 23 1 31 6 31 22 21 30 14 21 17 20 10 11 21 18 16 20 17 17 20 15 31 18 14 24 20 36 38 31 29 30 29 35 37 33 32 29 42 41 37 10 19 27 17 17 36 38 24 10 20 28 34 20 39 25 12 15 1 5 2 3 5 8 12 18 12 17 26 38 31 18 13 13 16 31 26 173 182 101 235 185 22 17 18 5 42 3 57 14 92 93 52 84 100 2 17 9 17 18 8 37 12 46 28 48 36 32 32 17 15 22 18 25 22 50 55 134 46 67 38 54 61 39 62 7 127 67 74 17 16 36 29 20 18 31 43 33 18 26 35 19 38 28 29 10 40 12 18 14 21 18 10 15 16 14 18 12 8 38 20 38 44 50 33 26 25 19 5 1 27 60 59 57 54 48 43 42 53 61 75 66 48 21 65 50 66 86 20 25 24 7 74 56 44 62 65 84 43 33 111 23 250 170 141 84 67 57 36 20 10 50 14 42 3 28 21 22 27 19 24 39 23 20 29 44 24 21 76 105 102 125 152 162 181 182 141 119 115 49 36 0 
0 21 25 21 10 7 5 8 7 1 5 7 2 7 9 13 15 42 15 30 31 8 14 14 58 56 29 49 58 64 91 80 71 65 30 169 210 125 158 253 85 235 173 170 35 25 13 24 24 18 29 12 21 13 13 24 19 22 7 11 28 41 46 52 159 166 114 211 76 28 10 18 4 16 23 18 58 225 154 118 161 67 20 41 48 113 65 191 149 20 14 28 38 29 15 34 67 50 205 19 36 49 55 161 125 150 39 25 123 237 127 36 186 253 25 57 116 54 141 30 176 96 154 36 15 41 27 161 154 97 70 23 45 7 119 62 28 24 8 93 59 66 87 151 103 110 73 126 113 11 36 189 118 136 231 87 75 176 85 43 13 10 21 37 23 29 45 17 22 5 15 11 25 12 100 100 42 72 45 29 15 12 10 3 7 4 20 5 5 18 5 10 16 38 22 31 26 22 21 18 7 6 5 4 3 1 4 5 2 19 12 21 15 8 25 35 19 36 49 49 38 55 71 11 24 31 10 10 26 16 28 35 21 73 74 33 20 38 56 35 21 25 45 32 16 12 18 52 26 22 24 10 17 31 25 12 17 43 41 12 51 37 32 31 18 10 24 16 11 8 33 19 38 13 25 24 14 21 29 28 21 12 3 12 22 19 15 17 12 15 19 17 33 18 11 25 23 34 30 20 17 21 26 34 43 31 20 29 53 35 38 29 30 25 9 18 22 18 39 49 32 17 26 38 38 39 9 20 26 17 10 20 21 10 6 20 22 24 3 22 15 9 24 20 1 18 7 38 63 65 85 41 3 31 39 29 36 12 35 12 68 82 57 74 63 14 9 15 23 7 4 23 13 39 7 29 25 43 32 6 8 22 29 33 15 39 95 147 249 96 34 22 102 42 57 27 128 35 68 10 6 40 8 6 4 11 20 11 26 28 23 7 21 33 38 17 36 20 21 11 20 24 27 26 21 9 19 20 18 35 37 36 21 35 15 16 27 30 18 5 17 29 20 13 14 13 27 24 18 47 45 42 47 16 58 50 57 86 35 24 13 10 51 82 65 29 40 75 31 39 166 25 221 158 129 73 53 28 21 4 11 48 13 41 5 29 6 22 29 31 17 40 35 31 40 35 11 18 87 117 121 152 173 165 132 107 60 38 46 16 40 0 
0 26 28 26 16 11 11 17 9 5 14 13 8 17 13 27 21 42 38 42 2 34 26 15 41 54 56 55 37 49 102 74 73 90 91 47 151 69 38 24 144 235 48 94 12 18 9 38 44 49 36 17 24 6 12 22 21 24 6 50 142 176 125 61 98 133 104 162 64 11 14 17 14 24 30 29 116 240 125 129 173 98 28 66 71 44 112 178 78 15 19 10 23 35 44 72 103 131 53 63 122 178 25 43 201 111 41 93 175 62 173 19 243 178 9 91 17 113 66 106 6 152 118 72 38 39 27 26 169 111 146 25 168 125 211 50 50 54 32 98 124 104 59 110 91 41 42 165 134 104 34 114 207 120 62 85 101 196 83 17 38 5 17 40 14 47 36 8 16 5 6 18 10 12 89 106 31 67 29 29 10 9 7 13 8 11 23 7 12 13 10 0 10 27 4 18 8 7 8 10 8 5 4 4 4 5 7 4 2 24 21 23 17 5 31 36 34 25 38 61 54 36 70 35 31 10 17 27 14 16 44 55 30 26 60 33 38 55 44 33 3 4 36 8 32 6 40 21 3 12 17 7 14 23 13 2 32 43 25 56 63 32 21 51 32 10 33 17 15 11 28 2 29 18 12 14 12 2 17 1 11 4 2 15 20 16 14 10 7 17 21 17 31 13 7 26 22 25 23 24 32 37 38 39 44 26 8 16 48 51 48 30 25 18 15 24 19 27 47 52 49 49 40 25 18 46 20 13 18 25 23 13 6 12 14 14 21 29 17 11 8 8 25 5 18 17 28 41 27 28 252 39 66 55 42 69 28 37 21 10 44 64 25 40 34 11 20 28 31 27 25 21 17 35 30 38 26 39 19 9 4 12 48 40 13 32 124 150 184 103 82 40 128 37 33 29 99 43 44 22 18 40 3 4 8 15 10 10 18 35 29 13 4 21 19 16 23 19 29 17 24 15 17 18 32 36 33 18 7 11 12 9 15 29 14 17 27 45 36 22 7 23 12 23 26 40 57 54 23 7 32 31 32 44 53 34 45 83 50 26 7 17 43 80 69 48 39 58 43 94 230 7 192 154 108 70 50 5 29 11 10 50 12 37 7 28 24 8 13 19 24 50 44 34 31 10 10 45 102 125 139 171 169 140 103 69 40 41 15 22 18 0 
0 29 37 28 10 20 26 28 14 5 20 12 9 21 10 35 19 24 28 8 31 9 21 25 43 39 44 62 51 50 85 52 124 181 240 41 133 89 40 171 163 195 211 30 5 11 15 42 18 26 15 15 26 4 13 5 5 13 3 120 204 220 19 12 191 103 84 121 76 27 27 22 17 27 39 154 233 214 17 189 180 80 41 79 80 45 121 92 21 12 27 8 24 14 94 161 118 80 97 79 60 29 64 154 141 49 71 112 69 155 12 202 154 63 16 47 61 29 116 42 135 4 119 74 44 41 63 3 51 126 168 175 143 72 139 131 43 54 100 30 203 158 126 107 120 246 147 35 149 65 40 63 107 170 83 172 142 147 25 145 61 18 24 58 12 50 20 4 7 7 15 19 13 16 70 96 39 69 26 37 16 12 13 24 14 17 23 4 15 9 13 1 22 20 6 9 3 15 8 7 4 4 5 5 7 8 7 8 11 29 28 24 17 10 36 36 37 11 43 51 49 21 41 39 59 11 31 6 20 19 62 78 10 11 60 47 33 48 29 15 20 14 37 5 26 25 27 22 40 45 17 4 19 26 27 19 53 5 52 45 36 30 47 52 18 15 42 18 24 15 26 31 8 15 15 7 11 10 13 21 12 4 5 14 14 15 20 17 0 20 23 14 26 8 5 23 20 21 21 18 16 16 14 31 48 36 17 14 24 28 6 10 6 8 15 25 13 15 29 21 14 39 42 18 21 31 35 8 19 15 24 34 31 14 10 19 18 19 4 6 7 15 34 39 25 17 21 48 38 32 27 222 3 86 105 62 38 24 15 19 39 63 21 38 34 22 27 6 28 19 17 11 10 28 16 25 19 44 21 20 11 12 57 36 14 32 150 159 138 96 88 39 131 26 10 37 71 8 18 31 15 49 22 11 20 5 13 10 10 14 22 12 6 13 11 13 15 4 27 25 20 24 36 41 18 22 13 32 15 10 14 14 18 28 15 12 5 29 24 4 16 33 15 25 5 14 29 60 40 37 53 7 7 37 62 60 75 61 29 52 22 13 47 65 41 47 47 42 31 97 247 224 162 134 68 60 52 21 34 26 9 38 38 24 9 9 26 26 11 7 22 40 32 29 35 23 37 76 110 119 144 173 141 129 111 67 47 36 26 23 8 0 
0 27 29 32 13 8 8 17 7 4 18 15 8 27 7 25 10 8 13 17 19 27 34 31 44 34 33 62 62 55 62 101 129 159 42 172 71 226 94 206 222 85 145 18 19 14 26 22 27 28 18 7 17 15 11 12 24 26 7 122 214 149 80 187 222 192 203 253 26 246 164 127 138 194 253 21 168 34 160 217 135 11 74 54 52 100 75 52 73 37 27 7 27 89 187 148 16 99 80 51 36 38 24 97 144 119 72 37 152 191 138 66 13 42 32 17 39 50 72 101 8 125 198 49 51 51 8 53 15 49 183 145 34 96 62 79 124 79 65 116 104 0 73 243 229 171 124 127 79 197 250 16 10 96 114 61 117 254 223 157 30 12 21 54 16 36 16 8 11 7 20 15 21 17 59 83 36 58 17 34 13 15 1 19 8 11 17 3 15 8 15 5 21 21 17 7 3 16 8 8 5 7 7 2 8 11 18 12 6 17 33 10 34 11 42 33 28 31 33 33 52 39 76 93 82 14 24 12 21 4 71 82 4 13 64 61 32 37 38 21 25 7 34 24 26 46 29 28 50 15 26 25 57 58 37 65 5 61 46 30 41 13 20 38 16 17 44 14 19 6 3 5 17 9 17 7 19 18 14 10 1 15 16 7 10 15 19 15 3 24 24 4 21 8 2 25 13 10 21 15 14 16 18 17 32 46 22 19 24 27 20 13 10 14 18 26 23 3 32 11 13 24 44 31 30 12 35 17 16 6 22 34 28 13 7 8 14 13 7 18 7 15 8 25 14 15 11 20 20 31 13 35 209 240 88 126 80 19 2 15 22 74 44 35 62 64 42 40 34 20 33 8 6 38 16 7 6 39 11 41 14 2 62 48 25 27 171 178 104 93 86 41 127 42 10 50 67 12 31 41 33 21 26 5 5 18 8 25 1 28 11 13 27 25 5 6 20 7 13 21 10 34 17 11 25 35 21 28 11 8 19 10 24 42 12 22 21 20 17 12 7 27 32 19 10 22 19 28 32 35 68 24 4 41 36 39 54 16 4 54 34 25 45 46 32 46 40 31 37 112 3 207 144 106 43 58 40 24 17 20 21 4 17 9 11 8 10 25 12 8 27 42 36 37 52 36 46 73 86 111 155 176 135 135 100 30 19 7 44 34 64 0 
0 24 15 33 21 11 4 17 12 15 4 25 13 33 12 8 9 5 4 6 15 33 38 23 46 47 36 52 59 71 34 182 106 143 20 131 195 160 140 51 120 176 102 2 11 8 12 5 7 6 21 5 12 10 10 18 24 12 15 41 181 36 33 201 89 9 123 241 64 101 89 78 76 74 12 119 80 191 204 134 37 50 37 53 89 81 20 68 60 67 39 26 74 182 178 33 108 127 91 58 12 21 51 182 168 52 72 197 213 127 22 77 25 24 37 38 21 58 8 88 77 32 153 152 26 18 62 41 88 50 142 56 92 54 99 46 63 134 50 112 35 8 228 50 74 39 130 137 45 34 232 192 21 77 129 66 220 227 109 59 178 41 35 29 11 26 35 15 15 11 12 18 11 16 59 87 19 62 28 32 12 21 16 23 17 3 7 8 13 5 13 11 6 10 3 10 13 18 11 10 6 14 6 16 15 17 17 20 15 16 28 44 58 34 57 36 23 11 12 35 62 58 35 125 94 15 8 5 17 4 77 77 13 29 62 97 49 26 48 34 21 22 21 57 42 39 42 12 50 9 16 15 32 77 113 29 100 85 58 57 38 7 6 22 17 12 41 13 17 7 16 21 18 10 18 11 20 3 7 15 21 19 16 15 17 28 19 18 17 23 21 5 25 18 18 32 10 11 16 28 14 8 18 14 13 39 11 13 23 16 20 27 7 7 13 16 24 9 39 15 22 19 18 27 5 28 22 9 21 19 15 11 32 20 2 10 17 7 12 21 22 13 27 7 11 8 5 8 11 12 3 18 16 169 182 80 124 76 34 5 1 65 63 20 65 87 28 52 32 32 33 5 3 39 18 16 15 52 9 48 25 30 54 62 43 16 191 192 62 97 84 37 115 55 16 59 65 18 48 26 46 25 27 32 31 7 24 18 27 31 20 33 26 36 17 14 15 11 4 8 19 38 41 29 34 24 13 26 33 20 2 39 32 57 65 33 13 7 15 28 18 25 45 43 34 16 15 23 15 15 43 50 30 44 34 30 43 8 10 34 36 12 52 27 34 62 45 46 80 147 237 196 141 94 57 71 26 24 22 20 10 19 21 18 7 14 4 16 9 7 45 60 38 32 60 42 62 82 76 126 184 183 136 106 74 18 4 2 35 41 37 0 
0 22 10 33 27 10 29 36 25 18 19 27 8 25 12 8 4 9 7 4 16 26 36 26 41 52 40 34 55 77 76 25 246 13 126 72 199 95 165 62 88 145 104 25 15 5 7 8 10 5 22 7 9 12 13 9 8 12 10 32 14 112 185 2 50 40 3 199 127 73 44 101 111 63 42 145 182 142 72 14 80 73 34 38 31 9 59 29 110 79 6 77 179 192 68 100 144 97 41 19 20 10 114 215 43 119 154 166 92 70 54 66 19 21 5 54 57 49 30 9 77 62 83 181 125 20 35 78 50 54 81 133 66 95 39 99 57 89 118 85 130 215 109 175 17 14 12 73 159 122 192 24 225 27 86 61 83 189 71 214 191 14 59 45 40 23 52 14 8 15 5 19 3 4 53 108 13 81 42 22 7 24 11 21 17 8 0 8 8 5 13 2 10 14 14 12 10 8 7 8 1 13 8 23 8 2 8 31 25 4 15 55 39 13 38 24 21 38 23 80 63 46 31 114 107 30 19 22 14 15 75 92 21 34 18 83 78 41 42 25 41 22 16 72 43 10 20 21 31 16 23 63 120 130 20 100 98 26 27 22 15 17 13 8 23 24 43 14 3 5 18 15 20 31 26 15 29 27 24 21 22 25 4 10 18 21 6 19 7 6 20 8 35 15 11 23 4 13 21 24 10 18 24 25 22 38 25 24 28 18 12 22 23 10 7 21 31 7 28 27 38 9 7 12 34 24 9 12 14 9 4 10 29 29 9 8 18 5 20 26 26 8 17 8 12 15 14 10 5 4 3 13 28 14 152 220 128 127 50 37 13 32 54 32 53 56 39 11 34 17 14 11 12 35 11 18 21 40 19 25 48 26 26 75 25 4 234 193 52 124 65 40 106 53 32 60 45 39 27 23 32 34 37 38 18 33 27 15 17 13 19 20 49 29 39 22 17 25 17 14 14 21 29 8 27 11 2 9 20 27 26 36 11 8 24 49 39 40 25 16 10 17 5 20 26 18 11 2 8 10 16 31 26 25 22 27 36 22 4 21 43 12 53 35 31 66 58 14 68 142 192 172 144 96 58 46 13 18 19 17 18 21 10 8 11 10 11 13 8 27 59 46 13 31 74 56 66 91 102 140 173 158 121 78 50 21 13 18 34 72 50 0 
0 20 19 36 33 25 34 17 13 9 32 20 21 11 2 18 10 7 5 4 8 27 33 38 27 30 55 36 55 65 226 120 36 180 222 179 49 46 70 99 73 118 92 64 30 15 14 6 5 7 18 3 5 15 5 16 26 8 19 24 4 49 40 31 96 196 50 109 107 74 50 34 6 247 239 214 154 65 16 55 41 28 63 37 1 20 57 54 48 107 186 220 230 107 94 174 136 61 15 26 7 37 204 171 131 195 120 86 39 41 62 31 52 8 31 25 60 63 38 61 67 127 73 87 158 80 54 99 72 21 44 53 43 64 69 28 131 45 156 29 201 110 100 39 73 16 12 55 158 186 145 20 25 124 68 58 26 224 44 121 96 176 33 19 46 35 45 8 2 19 2 20 0 5 48 116 15 90 34 20 24 11 11 21 12 4 4 7 3 8 13 7 11 8 13 13 13 14 13 7 5 14 7 20 9 7 8 29 23 9 5 43 14 15 27 31 11 28 27 110 49 34 49 85 120 73 21 32 15 29 41 81 46 22 27 67 102 60 28 8 20 13 10 64 49 21 8 17 7 45 92 106 65 56 141 82 29 27 16 15 31 14 24 5 22 20 33 2 5 5 14 21 14 26 38 9 18 5 11 9 21 19 5 9 15 17 14 17 4 5 18 15 31 11 5 20 11 18 30 22 12 8 17 21 12 27 18 12 24 14 5 1 29 23 36 35 46 27 3 34 16 13 11 18 41 18 24 4 15 2 9 9 26 28 3 8 15 5 18 34 18 16 8 11 21 8 13 13 8 6 8 10 6 38 44 161 247 134 123 53 41 2 54 48 67 45 20 15 9 10 4 4 1 34 15 2 25 11 24 21 21 32 10 54 10 10 28 181 19 155 45 37 78 47 44 45 18 39 19 23 38 34 46 47 19 22 8 14 16 12 27 4 54 12 47 19 19 17 17 6 16 21 18 21 25 14 10 4 10 13 13 18 23 14 13 26 31 49 43 27 13 6 12 13 16 13 11 8 18 24 25 14 14 15 27 34 25 32 6 18 44 13 32 34 11 38 71 28 117 175 169 153 144 97 52 23 19 9 28 25 29 17 5 0 13 8 17 6 6 33 52 31 7 43 90 62 53 86 100 123 116 126 148 92 34 9 18 34 63 91 80 0 
0 21 23 30 24 18 22 29 31 18 25 14 34 17 1 21 11 5 5 5 1 24 30 47 29 28 50 44 61 39 18 56 149 181 171 181 194 86 44 72 96 89 28 49 39 32 23 11 4 1 14 10 13 21 20 21 13 25 16 21 23 55 37 8 51 40 51 118 161 169 158 180 221 222 181 132 81 43 43 57 89 90 61 18 19 25 54 94 157 198 174 126 65 88 188 153 71 26 22 32 18 123 20 134 241 212 66 37 14 4 67 45 68 52 6 31 25 74 82 43 30 89 106 50 85 78 83 99 124 111 17 54 44 10 74 40 130 120 153 90 231 104 9 109 181 22 28 169 212 160 239 201 142 114 10 94 67 12 3 5 28 74 38 26 8 38 17 12 5 21 2 20 3 7 45 111 12 81 20 2 14 8 14 31 12 7 7 5 2 8 11 2 10 9 12 13 11 11 10 10 18 25 18 21 18 11 2 24 22 3 1 48 28 41 8 29 14 19 24 97 70 27 31 48 115 121 49 37 10 30 21 82 70 10 24 70 108 48 19 8 21 29 43 55 38 4 14 6 18 91 94 32 83 144 103 26 13 11 6 11 30 38 35 18 11 13 19 14 14 18 20 4 22 26 32 12 24 12 12 8 20 6 1 7 15 21 17 10 13 28 35 29 20 15 27 22 5 19 20 10 11 15 24 21 2 27 18 5 23 8 11 12 41 32 51 11 48 32 25 31 18 14 11 14 41 25 16 10 17 8 3 18 27 12 13 12 15 14 14 42 14 17 14 5 21 5 4 9 9 13 21 28 21 39 13 24 150 244 137 83 18 20 50 58 56 89 27 13 12 11 4 18 14 40 20 24 27 40 2 31 31 33 41 39 6 21 68 163 40 161 16 22 44 49 26 36 14 34 0 44 31 17 23 33 38 16 21 28 8 17 22 20 55 18 52 20 28 23 34 32 16 2 14 17 19 20 22 15 15 18 1 17 19 12 15 24 17 31 47 32 13 8 4 5 13 17 17 25 31 32 37 16 25 25 41 34 19 36 11 8 36 24 22 29 12 25 65 34 143 176 146 147 132 77 43 11 15 17 17 23 26 17 4 4 17 9 21 15 6 29 47 36 31 71 97 64 58 94 115 125 115 121 148 97 19 6 19 31 48 60 44 0 
0 28 33 25 16 14 14 17 9 8 12 15 25 26 15 29 4 4 3 5 12 22 24 43 41 34 36 44 56 92 32 23 98 47 227 67 99 76 45 35 54 76 64 43 12 32 39 18 17 19 26 25 24 17 12 4 16 22 15 45 73 78 35 11 43 44 27 26 8 57 58 40 22 24 15 8 10 4 21 45 71 71 41 24 39 63 125 118 51 48 115 159 190 204 164 83 35 27 16 19 69 227 26 67 51 203 59 82 57 38 34 74 11 90 52 51 26 49 109 94 38 82 100 55 33 34 51 78 58 78 116 54 43 28 50 45 92 175 72 203 131 7 96 82 29 53 32 37 252 177 146 203 206 149 209 157 74 151 68 246 34 231 60 28 20 12 8 20 5 21 4 19 2 7 45 104 7 72 12 9 22 14 36 36 36 11 8 2 5 7 7 6 10 8 7 10 11 12 14 25 24 36 32 11 13 17 10 15 17 37 34 67 24 64 11 44 16 17 10 71 94 16 21 5 76 130 78 16 23 33 20 87 84 29 27 90 102 32 40 25 25 20 25 33 30 9 32 64 78 103 13 128 138 80 14 21 11 26 32 33 0 14 5 31 5 11 5 11 12 14 19 23 15 0 21 23 21 18 12 16 7 7 15 32 36 19 8 15 17 17 25 19 6 16 19 21 20 30 21 17 11 8 13 12 23 35 31 15 25 25 33 31 34 25 48 24 40 30 34 27 32 23 10 12 36 39 10 8 11 6 7 20 16 11 22 18 7 14 15 44 7 7 11 14 11 13 3 5 5 14 22 35 7 31 11 8 12 152 14 113 7 10 60 87 25 98 13 34 4 1 15 24 20 44 18 25 33 40 25 18 19 17 76 14 21 25 92 135 83 142 11 17 28 36 18 27 31 25 29 42 17 30 25 16 24 17 28 7 28 17 19 32 44 15 50 21 20 43 38 24 17 12 10 13 14 16 21 14 12 21 28 30 11 14 33 35 8 18 23 33 19 15 21 21 23 26 25 27 26 26 28 44 47 37 29 16 17 40 23 18 20 21 21 11 5 29 46 53 150 171 150 155 107 49 38 9 9 15 10 8 18 22 16 1 22 13 16 23 13 18 41 53 60 85 89 70 79 98 119 154 150 133 112 70 13 20 24 39 44 37 39 0 
0 38 46 26 23 24 9 7 15 9 7 16 18 29 8 30 7 4 1 7 22 19 17 30 47 51 35 50 65 144 20 252 63 123 195 162 229 14 239 153 68 61 61 56 41 0 40 8 19 33 47 50 53 51 50 40 32 39 64 64 57 52 42 48 46 20 7 22 16 90 81 67 80 62 36 20 18 18 16 36 31 19 29 40 34 62 126 124 154 177 190 172 137 101 47 30 36 18 20 39 112 244 203 62 32 192 26 33 30 80 69 31 53 48 50 37 40 4 59 137 136 12 95 110 34 31 32 65 73 32 121 108 4 62 56 33 45 149 85 192 123 22 177 180 55 215 48 20 90 81 105 157 34 145 235 136 57 176 113 65 93 60 251 41 15 20 18 25 4 18 3 17 2 5 51 94 16 65 4 22 41 12 42 25 40 13 8 3 7 4 4 8 7 4 4 10 14 16 20 22 12 39 36 6 5 17 13 15 17 13 24 82 50 84 26 51 55 26 45 75 86 1 11 17 46 109 101 15 24 13 27 68 80 18 15 123 102 24 39 67 59 31 31 43 45 11 58 69 72 14 103 141 69 8 21 13 8 24 13 35 8 17 23 27 32 24 17 31 27 26 28 21 13 15 19 16 12 25 15 13 10 4 26 31 15 14 4 19 30 10 8 30 18 22 8 21 4 22 18 24 21 16 11 12 7 28 41 32 29 18 13 18 51 69 51 27 20 27 27 28 23 23 25 25 31 39 27 18 4 2 24 13 4 18 28 15 7 9 13 36 17 12 12 18 2 16 7 5 2 14 23 20 34 18 25 31 15 10 191 64 68 222 8 80 31 70 27 24 17 23 17 13 39 42 3 8 42 18 29 12 31 18 83 2 20 37 112 92 112 114 10 10 21 19 18 28 38 19 27 36 10 20 11 17 20 32 32 46 15 8 2 26 26 17 40 13 21 31 27 17 14 18 11 20 2 4 21 4 8 22 33 32 26 31 32 15 20 2 15 12 12 17 25 27 25 24 23 15 13 29 16 42 32 36 5 15 36 47 31 33 20 20 21 11 4 25 28 72 150 170 166 151 70 33 42 13 5 7 28 8 17 20 22 4 22 12 24 33 21 21 39 61 77 87 80 73 84 98 127 163 137 75 59 44 7 32 38 59 61 41 31 0 
0 26 46 17 14 34 26 35 22 16 16 31 20 8 22 32 12 7 5 8 29 17 12 25 31 42 35 51 43 162 23 231 31 191 128 15 114 171 65 147 1 78 15 16 50 32 48 22 24 18 32 9 18 17 24 32 55 62 56 25 8 26 5 46 67 26 15 21 28 108 74 41 42 20 28 31 27 20 14 21 25 23 5 40 48 58 104 128 110 65 34 31 18 25 30 21 31 19 17 41 100 208 187 122 169 211 73 98 99 42 36 4 50 29 21 4 19 40 43 40 154 146 16 130 68 10 36 33 99 84 95 106 76 14 71 44 29 84 178 92 239 122 21 89 162 16 1 174 76 249 13 96 172 30 34 154 26 131 67 222 170 179 207 28 43 31 37 10 5 16 1 16 6 5 58 94 34 75 14 14 29 12 24 18 26 13 5 8 8 0 8 4 8 14 13 15 18 17 15 10 10 32 27 17 19 9 8 7 19 41 35 72 68 82 14 45 70 13 93 101 72 34 27 12 28 91 128 50 26 17 25 34 68 19 29 133 89 25 24 101 33 60 57 33 37 43 80 62 39 111 123 53 27 28 38 15 19 30 44 37 14 15 19 21 48 4 17 34 20 30 33 30 31 16 21 12 14 18 12 7 25 25 20 41 28 10 14 29 27 14 20 36 8 18 4 21 25 21 8 3 25 18 10 10 15 23 43 11 10 16 5 2 12 30 29 40 43 17 21 28 17 11 27 24 34 33 22 41 25 13 24 5 12 12 34 15 7 5 10 27 26 22 29 13 8 19 9 9 7 14 27 13 39 24 20 15 4 11 8 7 92 32 189 67 18 60 11 10 24 30 17 7 59 36 22 9 44 10 38 16 26 32 73 5 7 74 136 42 120 93 9 9 17 10 42 41 17 31 16 26 13 18 14 13 8 41 49 20 11 12 20 20 8 9 26 6 5 10 18 28 28 13 11 21 12 9 28 8 23 21 42 38 19 52 37 39 24 39 18 3 13 20 12 15 25 13 4 7 32 26 50 37 21 26 7 11 50 60 27 34 27 25 27 31 18 26 30 66 147 177 172 130 39 36 51 25 8 16 28 15 21 18 22 5 16 10 41 33 17 34 43 48 74 95 85 83 102 113 119 135 116 64 45 33 31 43 37 51 40 8 13 0 
0 29 48 11 22 48 26 19 35 19 22 35 21 19 17 13 4 10 6 7 29 15 17 29 30 26 42 68 51 161 67 16 123 245 86 138 199 231 224 151 159 83 11 16 29 24 31 13 10 22 49 34 20 21 26 21 21 7 15 7 5 26 9 24 58 54 4 2 31 81 72 66 70 60 58 50 40 27 11 10 7 17 37 32 17 20 7 6 14 13 11 20 16 20 16 4 20 10 15 39 86 183 206 194 125 129 175 53 82 105 94 50 12 26 23 11 24 20 38 55 41 159 115 66 115 44 31 43 26 95 100 95 74 34 58 21 35 77 95 82 205 72 194 114 51 71 169 204 223 117 177 213 218 117 48 4 100 96 70 27 78 136 91 161 24 37 7 18 15 11 4 10 8 3 60 105 29 98 16 28 16 20 20 11 18 8 10 4 8 4 9 6 10 4 3 9 18 18 18 12 8 33 11 6 11 7 13 6 24 8 12 53 89 60 20 42 61 31 119 111 47 35 52 56 43 76 139 79 23 16 18 22 62 24 22 121 107 9 37 92 32 24 36 34 68 108 93 13 120 116 49 16 19 14 13 25 22 9 17 7 16 15 17 23 39 11 13 26 5 16 8 5 14 24 18 6 9 11 11 16 8 36 18 34 24 16 17 8 20 12 8 24 20 25 21 7 11 21 15 7 31 8 8 10 11 32 41 40 30 21 27 30 18 29 13 12 1 19 6 16 27 15 24 16 24 31 25 43 48 2 15 32 27 18 43 16 33 27 17 18 32 24 39 8 5 14 19 10 8 9 26 24 11 15 13 6 4 16 17 34 64 115 213 45 52 50 9 8 24 14 24 9 57 24 32 11 36 17 40 6 10 49 61 15 10 123 157 245 127 88 16 17 19 5 46 21 39 46 33 21 18 11 18 4 16 7 42 38 23 21 25 19 10 19 27 29 24 17 12 14 29 40 39 30 22 17 34 40 32 10 21 24 11 39 47 45 5 39 30 25 31 18 16 36 32 16 9 3 34 34 45 28 11 18 33 39 57 65 10 15 27 30 28 41 21 2 16 58 165 195 168 98 43 55 38 26 20 18 33 7 21 24 12 4 4 27 39 12 2 39 36 36 73 103 108 101 116 106 92 129 123 65 25 14 22 33 13 41 40 8 14 0 
0 43 57 18 25 38 25 8 31 24 27 31 21 8 5 12 13 3 32 23 25 4 17 25 45 29 31 65 79 65 43 110 123 5 98 143 212 152 61 145 180 94 7 6 18 4 14 19 1 18 37 41 22 25 29 33 49 61 56 30 19 15 12 9 23 73 42 28 24 42 88 85 46 27 27 16 22 37 34 40 46 30 18 22 21 17 4 10 12 17 20 27 14 12 65 65 52 17 4 11 36 106 125 131 113 34 169 158 24 21 13 67 17 25 49 65 42 21 8 57 9 84 170 68 114 94 34 50 21 66 110 121 60 21 38 22 14 70 39 29 131 101 139 76 22 12 93 55 59 114 52 94 223 113 107 79 87 78 19 96 117 4 125 102 20 34 6 22 13 1 5 8 11 8 59 116 28 108 5 24 11 26 5 7 20 10 12 7 9 8 13 14 7 9 5 8 17 14 24 30 26 45 14 15 14 12 13 10 22 28 20 29 65 19 7 30 43 15 114 121 35 50 69 69 35 60 133 108 11 10 17 29 63 38 23 86 114 19 28 67 40 21 44 86 76 24 56 117 96 29 26 39 27 22 21 22 8 7 18 27 14 11 18 19 20 18 15 23 15 19 14 12 14 14 5 13 8 13 20 4 21 20 12 33 31 15 8 8 13 4 8 16 8 20 18 10 27 28 21 21 27 19 17 17 15 26 8 22 31 4 40 27 48 49 50 40 35 21 27 15 28 11 19 12 5 27 12 40 44 32 9 4 3 6 38 36 29 26 24 14 24 22 27 13 7 18 27 18 13 18 15 18 17 8 12 20 25 23 16 7 55 163 154 71 32 21 21 14 19 21 18 15 49 43 24 22 15 19 22 24 14 50 46 11 10 179 167 200 142 96 10 18 24 22 48 24 26 18 48 11 27 16 18 17 2 18 13 10 8 5 19 31 32 27 27 3 15 31 0 27 18 5 12 27 16 10 20 28 19 24 31 26 18 12 26 22 26 5 21 7 15 18 34 28 10 3 1 11 14 7 19 16 9 5 9 21 51 45 10 7 22 12 9 31 50 20 10 73 196 201 139 71 73 52 11 13 33 13 26 25 11 14 7 5 16 30 15 7 2 43 49 47 88 108 127 122 132 109 113 155 100 26 7 3 21 30 18 37 48 13 40 0 
0 54 69 28 33 20 21 21 23 13 13 12 26 15 16 10 4 26 38 47 25 7 17 12 44 45 44 58 67 21 202 72 209 196 114 122 47 118 139 117 92 95 11 15 7 10 4 16 18 26 21 34 14 18 18 20 26 28 36 37 38 50 47 47 50 44 59 23 18 35 47 55 38 12 25 21 10 53 67 81 95 64 44 58 29 11 7 17 13 17 17 18 8 38 115 95 121 61 22 9 10 56 35 43 139 86 80 165 124 16 19 40 39 35 28 47 55 56 23 68 13 27 105 171 15 120 77 65 60 53 142 139 57 49 29 11 30 22 36 64 123 124 102 92 87 100 192 164 191 100 44 131 96 30 240 111 144 8 27 37 44 54 230 66 76 21 17 21 5 5 3 13 13 8 57 123 30 108 24 21 18 25 28 20 24 7 19 11 18 18 14 5 8 14 11 10 18 12 31 43 30 61 8 10 7 17 17 7 12 4 12 35 60 17 24 40 22 27 105 130 60 59 38 70 33 50 119 141 41 4 11 24 57 57 16 63 106 35 42 77 33 38 40 51 36 136 183 130 38 9 30 29 22 40 27 4 7 6 12 4 19 12 21 14 13 22 20 18 25 25 20 14 7 4 3 6 3 15 22 6 14 32 45 27 12 28 18 15 8 4 4 10 18 21 16 13 15 24 15 20 21 14 14 31 14 8 19 17 37 14 37 15 15 23 19 16 15 23 26 11 21 33 25 7 22 18 26 15 36 41 25 17 17 7 18 15 33 17 18 21 12 25 7 19 0 26 20 28 11 5 9 8 5 19 4 8 11 18 21 26 32 153 41 84 206 5 22 9 25 27 21 21 30 35 6 18 11 6 24 31 8 48 47 5 24 218 155 165 147 103 21 22 6 11 38 30 17 24 15 32 13 12 5 15 21 12 18 21 3 9 23 6 63 25 45 21 18 17 28 27 6 34 42 28 8 9 12 16 31 25 18 26 23 21 29 27 19 17 5 17 24 16 21 36 40 31 21 15 2 17 20 16 5 5 6 35 57 26 16 12 29 16 17 10 38 38 19 102 213 181 95 70 88 28 14 35 52 31 43 19 17 20 13 2 23 27 6 10 7 53 66 51 86 101 128 128 133 117 114 116 48 15 7 21 32 31 42 54 24 34 56 0 
0 68 43 25 28 7 16 27 24 21 21 12 38 14 12 14 21 31 8 57 9 16 31 25 36 57 52 44 45 45 150 146 9 115 1 125 87 160 60 65 244 61 25 31 25 29 24 14 19 13 15 31 12 16 19 13 3 30 35 14 17 22 27 48 56 28 35 28 20 15 16 8 38 29 25 24 10 69 100 90 62 98 84 35 29 14 23 14 12 5 3 4 7 42 165 64 139 81 39 2 9 39 36 31 114 94 29 68 151 106 11 51 55 21 33 60 33 58 44 67 17 29 20 137 161 35 111 111 117 43 165 141 83 82 94 51 23 36 32 77 106 190 79 121 115 75 5 250 64 224 80 206 117 241 189 232 173 31 85 18 170 208 236 221 238 11 24 24 10 7 4 10 10 1 56 125 27 105 24 5 16 7 18 25 28 15 24 15 28 19 11 12 15 14 14 10 20 15 36 35 31 61 14 14 12 16 20 27 32 27 11 45 65 32 45 26 30 70 118 129 50 28 19 58 32 22 82 142 68 23 12 10 63 65 13 49 93 25 34 85 52 85 45 31 115 124 74 11 36 20 33 25 25 41 27 11 12 14 17 18 18 10 18 20 30 27 15 5 13 8 7 14 11 8 9 12 15 19 21 11 4 35 23 21 17 18 34 19 3 7 7 10 16 21 18 11 16 27 25 14 14 6 8 26 21 20 18 19 31 19 10 28 21 34 19 22 26 19 7 18 26 27 45 31 40 32 12 5 38 32 26 23 18 3 21 36 32 12 14 28 14 17 16 25 22 8 30 16 13 22 20 12 15 15 7 15 10 11 17 31 14 19 242 96 251 103 14 31 24 13 23 16 30 35 14 20 14 19 11 39 20 49 52 10 47 241 127 116 145 90 32 8 28 32 16 33 43 20 10 10 29 33 27 5 22 18 28 7 18 15 23 8 68 12 55 24 11 9 16 5 25 24 11 20 7 7 10 7 17 28 24 32 23 7 2 8 15 20 15 24 14 20 26 25 16 21 30 10 25 32 14 13 22 15 17 41 52 14 14 8 21 13 13 28 20 34 20 121 206 146 86 77 75 21 40 35 71 53 10 16 24 18 7 8 21 21 4 11 13 59 65 38 79 106 134 132 141 121 77 63 39 18 25 32 7 21 52 33 27 53 23 0 
0 47 13 15 23 13 26 23 30 19 29 7 38 18 12 25 29 20 18 47 21 17 57 23 16 52 50 52 57 67 162 43 221 229 72 104 110 11 95 127 84 23 20 25 13 12 19 20 10 12 14 27 16 13 24 16 7 25 39 19 16 18 31 34 30 37 8 21 41 16 4 20 19 7 17 11 21 82 111 73 30 90 96 46 53 39 46 28 24 16 7 4 7 33 179 93 114 128 46 28 31 8 42 46 91 60 25 39 38 143 149 25 46 58 48 44 48 15 48 45 20 48 38 17 190 134 41 90 136 32 169 110 121 43 124 92 58 62 59 129 22 166 36 126 119 18 198 31 211 1 114 231 118 101 136 102 50 190 47 15 83 253 51 227 150 4 31 17 8 3 10 4 4 4 54 119 38 100 34 14 29 24 6 34 24 16 19 2 28 19 17 7 7 12 18 14 23 18 37 30 47 50 14 28 31 17 24 33 8 29 17 54 75 18 42 11 35 77 104 97 10 25 32 36 46 30 61 123 65 22 27 17 76 69 19 43 89 42 56 85 96 58 65 97 76 39 64 48 17 7 29 27 24 25 20 32 30 22 16 9 9 8 6 15 29 24 18 16 19 13 17 17 7 1 2 1 7 12 12 15 8 37 25 22 20 13 35 18 6 5 7 11 14 20 19 16 34 16 29 14 14 8 5 19 20 18 8 21 18 25 31 22 1 26 18 33 43 20 31 18 17 21 37 41 8 24 14 31 51 24 6 8 13 18 17 4 25 30 18 22 17 18 11 19 12 18 14 14 16 8 27 22 8 13 10 17 4 5 16 22 21 12 60 134 165 87 28 24 32 32 33 20 12 26 16 32 28 12 12 44 11 57 45 18 39 5 101 41 124 43 43 15 44 13 17 13 11 24 20 12 30 14 35 12 25 8 21 20 8 15 17 11 60 32 51 23 7 16 34 32 31 23 10 24 14 8 12 25 38 46 32 25 22 18 11 14 15 16 29 32 12 13 17 23 30 36 30 17 36 12 15 31 24 25 38 28 38 22 11 17 24 20 25 35 24 32 49 140 191 132 105 72 51 17 44 34 69 49 17 22 10 14 15 19 22 20 14 20 21 53 63 38 83 121 146 153 149 130 80 43 13 25 34 26 17 35 59 18 48 52 14 0 
0 37 20 43 36 25 45 27 43 23 18 31 34 5 32 31 14 18 27 36 28 16 57 25 17 36 29 60 88 71 214 42 84 173 49 105 144 22 40 67 18 10 13 16 28 13 37 14 13 6 4 21 24 11 27 8 7 23 58 50 27 60 42 11 29 29 30 17 58 17 20 18 14 23 5 18 48 93 118 58 34 85 99 18 59 45 67 48 31 7 12 1 7 7 130 150 39 141 71 18 21 6 39 53 101 43 56 77 71 30 174 137 41 46 77 44 44 36 32 28 31 39 38 75 113 181 60 70 107 50 175 45 105 209 181 80 50 44 56 131 72 134 28 124 136 75 168 191 159 66 171 204 114 25 76 252 63 32 23 156 14 248 207 157 242 59 41 13 9 4 12 3 4 8 47 104 41 86 32 24 21 28 20 32 20 17 30 22 23 14 12 5 5 12 18 14 21 11 31 17 51 21 46 25 47 12 15 18 36 28 4 51 71 24 37 22 44 112 94 81 15 32 39 40 59 29 47 109 65 27 33 9 69 73 13 35 72 30 66 93 32 73 141 82 12 12 44 38 14 5 17 23 22 10 17 25 31 25 19 11 9 12 8 18 17 8 5 8 15 3 10 4 8 13 17 16 15 16 23 24 14 28 32 19 4 18 20 15 9 7 8 13 15 18 16 17 39 39 42 31 28 21 18 24 28 12 6 15 7 6 13 19 22 26 41 33 50 18 12 16 34 21 8 33 43 1 17 29 42 29 22 13 17 21 24 25 9 11 28 15 15 21 10 11 5 13 14 14 2 7 11 36 12 4 8 17 4 11 24 15 40 29 34 110 62 55 164 31 4 2 22 5 12 24 19 35 19 10 22 36 12 65 31 29 33 47 93 61 84 7 75 39 65 20 5 22 38 27 10 15 20 27 19 15 15 15 5 15 14 7 14 14 49 10 45 4 24 26 3 13 13 17 2 20 14 28 24 44 34 17 29 26 31 22 18 24 16 10 34 27 21 19 13 12 17 16 21 25 29 6 18 38 32 24 35 26 43 38 23 43 51 57 67 66 50 27 70 152 165 137 92 49 53 31 24 23 55 25 8 5 10 11 21 22 18 15 15 25 26 42 61 50 101 141 155 167 141 124 69 19 7 2 27 23 43 64 38 18 47 26 37 0 
0 49 40 36 3 15 27 13 24 32 14 27 16 35 25 12 7 26 24 29 17 27 31 33 42 31 11 38 90 62 236 49 129 124 106 110 202 27 9 106 44 43 29 20 21 6 30 12 22 12 6 12 24 8 27 4 18 31 59 40 63 82 43 11 21 38 50 34 47 13 32 2 22 30 9 29 43 90 124 34 45 93 114 16 71 25 54 62 45 11 12 11 16 27 59 133 48 113 99 11 16 5 19 47 123 19 67 47 61 104 85 151 64 13 84 80 26 20 17 22 36 22 43 31 84 125 40 82 118 78 165 26 103 111 89 20 54 7 58 107 37 78 61 132 168 67 164 82 51 91 156 166 114 8 44 7 45 198 49 79 201 173 72 14 16 153 10 21 15 13 12 5 5 7 37 89 23 71 24 20 17 13 2 13 26 12 12 15 9 13 5 13 18 16 14 10 17 17 35 27 33 25 51 23 48 7 2 18 13 18 34 47 51 29 24 14 63 141 76 69 43 33 19 53 56 31 56 102 66 44 19 11 59 73 18 40 66 18 12 94 46 75 76 11 11 38 73 30 36 10 7 15 24 27 36 19 18 8 18 15 8 2 18 11 16 25 19 13 15 7 11 5 6 7 3 7 10 9 15 12 5 7 11 14 14 11 6 9 7 7 6 8 14 17 14 11 17 27 24 23 25 19 22 25 36 31 19 22 20 14 19 14 12 17 31 26 43 8 18 26 10 20 14 13 46 22 40 39 38 16 10 15 22 26 23 32 41 37 31 15 11 11 28 38 13 15 11 7 5 7 3 39 17 14 14 21 8 11 32 15 25 12 23 40 54 119 139 81 5 23 31 19 17 16 13 33 18 9 26 33 25 66 17 32 60 99 70 118 74 5 109 36 75 17 28 25 23 21 19 11 16 12 20 23 7 7 23 12 17 30 32 31 58 27 56 23 26 41 30 22 16 17 14 21 13 18 22 32 37 31 52 18 36 13 13 40 29 32 27 12 27 24 22 25 22 16 11 15 32 37 18 15 20 4 30 40 36 34 48 74 65 53 59 63 75 47 87 134 122 127 70 30 72 35 8 23 33 9 3 8 8 1 21 26 15 11 18 26 13 33 72 74 123 145 139 155 112 107 69 26 15 14 25 19 27 36 17 35 35 42 49 0 
0 48 46 37 49 60 44 38 23 14 38 43 20 46 7 25 9 21 28 7 24 43 17 25 65 48 8 17 61 12 203 43 77 179 87 40 209 212 110 113 30 252 96 29 26 10 14 29 34 30 26 11 24 13 28 12 18 40 67 43 42 72 45 11 11 12 18 15 20 27 5 25 11 15 24 18 37 100 146 32 35 109 148 30 49 72 71 56 32 47 44 25 7 2 17 108 89 88 111 43 44 41 42 83 81 75 85 52 55 69 91 156 63 37 121 104 50 36 11 10 58 100 90 89 82 68 36 136 114 102 167 68 63 79 62 53 90 38 106 113 18 72 74 153 148 70 98 85 67 125 149 150 70 87 97 117 45 126 233 143 242 19 22 224 233 97 101 50 7 23 10 5 5 4 29 87 9 62 29 28 28 19 10 26 46 51 23 21 19 25 14 8 12 18 11 9 14 18 28 29 11 46 25 43 37 7 10 18 4 39 13 21 52 52 22 10 68 150 56 52 47 47 36 25 59 53 80 85 59 73 20 5 51 61 49 72 89 8 24 120 46 31 70 18 18 39 53 33 45 25 29 25 21 5 27 17 9 3 17 8 16 18 29 18 19 19 14 3 10 4 10 14 21 26 21 20 20 16 15 11 18 20 22 17 12 8 6 7 1 5 4 4 10 16 14 4 14 10 13 26 24 14 12 18 19 28 7 18 39 34 15 21 15 20 21 32 24 33 47 27 16 23 13 10 39 49 34 44 45 38 31 35 34 24 10 12 10 24 34 16 22 19 23 31 25 16 5 8 15 21 15 31 20 23 21 27 5 8 40 8 28 3 20 19 74 230 68 245 99 44 26 18 24 21 25 12 23 20 26 47 17 63 16 21 102 125 13 121 64 33 119 48 62 16 29 44 7 22 10 7 17 3 31 19 24 28 7 17 6 18 19 22 41 30 42 13 38 36 10 11 29 26 18 18 5 22 43 30 18 5 24 38 24 20 24 41 25 39 20 11 9 7 18 31 29 18 21 24 19 17 13 5 19 25 18 25 47 55 69 88 53 21 23 35 76 102 74 112 100 117 100 38 45 57 14 27 31 17 10 11 5 10 22 29 17 17 29 26 20 42 91 93 128 125 105 150 84 83 93 20 18 17 17 18 35 37 10 33 25 4 13 0 
0 30 46 28 14 29 25 8 26 15 20 40 20 27 30 30 30 28 14 16 18 45 25 10 47 60 24 17 48 41 144 101 201 218 34 76 106 173 108 42 214 252 138 16 22 4 1 10 21 21 16 18 31 8 26 18 17 71 82 16 74 86 38 4 12 17 2 10 6 21 29 27 27 37 30 14 22 79 137 76 43 99 146 45 42 65 61 26 21 25 27 13 17 12 15 83 134 34 93 101 91 70 50 62 51 100 55 111 17 74 105 102 31 126 143 51 53 39 8 67 92 71 57 44 20 25 108 103 32 55 128 73 15 26 60 94 45 152 159 44 95 96 94 163 135 91 35 81 150 99 147 178 31 38 135 235 21 217 140 46 232 123 189 97 95 193 118 130 42 18 11 2 1 8 30 85 15 45 14 21 22 10 31 35 20 29 17 16 4 17 13 13 11 21 15 7 8 10 18 50 48 16 32 50 23 10 17 2 18 22 20 17 24 14 22 8 58 144 72 45 32 28 24 7 38 67 73 83 56 64 33 14 48 44 15 69 92 29 71 112 18 19 71 36 24 31 18 36 42 27 17 14 23 14 19 10 1 4 16 16 20 4 13 13 5 15 12 4 7 8 21 25 15 15 12 13 14 16 9 22 16 9 13 4 11 18 8 7 9 5 4 4 11 16 15 25 25 25 24 24 9 21 21 39 34 20 17 13 21 35 15 9 21 17 9 23 16 28 48 42 22 7 7 28 34 10 12 19 37 32 20 34 38 16 18 29 40 22 22 15 28 3 26 45 27 2 12 8 31 18 24 16 11 10 17 36 22 27 27 14 12 26 24 13 17 229 23 31 28 105 31 14 27 14 14 21 7 39 1 38 25 47 14 9 155 125 193 68 54 47 87 27 37 21 52 38 14 14 3 12 13 19 32 24 14 33 12 12 11 22 28 36 29 31 41 33 27 26 30 29 23 11 25 41 21 44 10 20 14 7 11 21 19 27 26 19 11 31 19 7 11 8 19 24 13 26 30 22 14 11 8 5 9 9 16 48 70 76 87 87 60 73 102 79 61 77 84 120 93 94 130 22 17 59 21 17 30 21 5 8 2 8 24 23 6 10 29 27 23 69 129 117 126 110 115 162 98 80 60 30 34 33 34 40 52 21 17 31 37 29 26 0 
0 17 33 32 15 35 32 19 13 17 19 24 1 11 27 17 7 16 25 22 2 31 29 12 48 60 21 22 59 72 103 143 102 191 93 23 201 147 172 66 59 60 90 21 7 11 19 29 32 24 13 32 10 38 29 11 72 99 23 70 85 37 2 7 12 16 10 7 7 7 18 15 50 24 37 19 58 99 94 95 46 136 153 69 22 27 54 44 5 48 46 19 8 4 8 17 106 78 19 77 85 56 41 65 71 46 136 46 99 76 35 26 121 121 42 69 69 17 62 82 8 29 22 33 41 103 116 39 1 41 102 67 38 86 93 51 193 188 31 137 148 48 82 138 86 11 94 54 189 94 101 156 73 58 100 62 157 76 142 216 50 16 230 249 62 187 62 140 43 4 12 14 4 15 34 75 28 40 31 28 17 36 48 32 56 26 5 3 14 18 10 6 4 21 7 13 17 12 41 67 14 48 57 30 7 8 8 27 16 12 17 12 21 25 20 41 99 112 81 44 35 50 34 15 72 67 23 104 89 40 39 27 53 51 52 113 87 47 74 41 22 58 69 10 15 50 21 40 14 7 30 28 21 14 18 10 1 2 10 11 3 34 25 9 18 1 10 7 8 8 25 10 22 23 15 14 12 31 4 39 17 11 20 15 17 22 17 7 12 15 21 17 11 17 21 25 4 8 11 12 15 8 33 32 12 24 13 16 23 30 13 18 26 10 7 5 10 8 60 34 19 17 19 19 32 45 25 7 14 40 45 28 30 8 8 17 1 44 41 27 8 10 22 22 2 7 17 20 21 17 4 19 10 13 21 38 18 19 1 9 31 15 49 18 26 73 242 37 139 144 97 6 13 26 19 12 5 30 12 16 11 22 8 19 211 96 122 11 41 114 81 41 26 30 37 8 26 7 8 13 11 27 25 11 12 22 2 10 8 3 34 5 31 24 33 5 47 61 43 23 5 15 24 47 48 39 20 14 15 9 3 15 14 8 5 12 15 18 15 11 8 8 27 24 10 12 4 21 13 10 7 5 7 7 24 71 94 102 110 90 96 133 138 114 74 54 61 102 75 80 112 35 42 62 12 12 27 20 6 6 4 14 24 21 21 28 28 40 63 125 145 100 131 130 158 156 77 52 10 24 40 38 17 35 45 27 36 36 31 3 22 0 
0 17 25 32 28 21 17 4 3 7 16 17 8 7 16 15 38 38 25 8 14 28 32 18 37 46 29 39 52 80 74 190 76 112 82 143 249 156 193 31 38 56 25 12 13 7 14 15 17 13 9 29 21 41 5 65 81 21 72 87 38 10 7 8 5 5 13 14 11 8 16 26 24 23 42 9 91 77 58 79 27 154 121 36 8 48 51 23 29 37 24 11 4 15 17 13 32 70 93 69 65 63 79 93 54 103 50 66 95 33 12 63 113 73 41 68 30 30 108 40 29 48 57 37 34 99 65 21 14 75 93 29 43 82 27 165 180 50 93 165 47 105 114 88 79 53 50 155 190 92 73 84 133 69 7 16 172 43 158 107 107 164 47 255 26 146 171 160 31 13 3 21 5 15 43 61 15 40 25 2 26 58 11 68 32 19 11 8 17 13 5 8 24 27 17 18 26 16 44 39 43 59 27 8 4 10 12 19 8 20 18 24 13 8 7 87 113 81 83 48 17 32 44 33 51 61 14 95 106 42 41 21 54 59 65 98 41 27 60 29 12 78 52 27 19 65 32 44 0 5 35 20 11 14 15 17 6 7 11 8 16 40 18 17 16 23 18 8 11 13 32 26 35 23 16 17 20 29 14 36 12 16 18 25 20 44 33 14 25 10 6 8 7 21 29 25 35 31 21 11 8 4 30 29 32 20 10 23 5 21 2 8 13 1 7 4 8 20 52 25 8 15 29 4 38 25 21 9 28 31 28 33 50 43 28 5 17 46 18 11 2 8 34 6 4 23 14 5 13 16 25 11 14 21 9 23 34 29 10 14 22 24 35 29 22 19 45 176 192 237 145 10 12 22 22 13 13 14 7 10 13 17 12 13 239 69 96 47 13 152 73 51 39 35 17 4 23 7 17 1 7 21 30 13 11 24 15 21 26 19 21 31 42 36 51 8 37 11 32 36 9 14 11 31 45 12 24 4 1 14 22 36 41 26 20 27 37 13 12 11 27 26 24 13 21 2 28 29 11 8 8 2 20 48 67 97 109 102 98 86 114 117 55 63 98 92 66 49 59 86 109 61 55 30 29 18 26 12 7 14 10 15 22 23 29 35 38 50 76 114 115 84 136 130 139 128 50 26 1 27 43 15 20 44 27 41 42 17 10 46 48 0 
0 24 34 40 29 11 15 19 12 2 17 16 5 6 8 9 18 11 13 16 22 27 25 16 24 39 54 41 35 86 75 117 157 83 0 102 91 195 6 85 131 30 17 25 11 26 25 21 15 10 5 15 14 15 32 75 32 65 72 33 12 13 4 3 6 8 11 9 1 4 7 4 20 13 32 40 84 79 108 119 108 160 85 19 10 46 57 22 16 44 53 9 19 18 13 36 31 38 77 145 22 75 99 133 29 124 44 73 54 6 22 51 114 90 43 75 29 32 120 48 32 54 71 92 103 156 157 84 10 78 75 39 26 66 19 197 157 26 120 108 124 195 76 20 95 98 34 196 155 98 72 54 127 84 17 25 75 165 209 53 154 125 46 204 241 113 2 124 5 12 4 22 4 8 52 58 25 47 27 16 15 44 14 70 15 17 9 9 19 14 5 21 22 10 22 19 29 20 45 19 52 40 12 10 4 13 15 18 7 11 12 30 17 5 18 108 89 34 60 34 79 89 69 31 9 56 42 78 105 53 32 21 49 56 74 76 36 46 53 31 34 51 49 10 16 46 42 35 12 18 37 31 28 29 13 15 8 8 4 2 22 37 5 29 15 14 23 10 13 4 19 8 17 8 8 9 22 18 7 24 6 26 11 26 21 20 1 2 24 32 41 26 8 19 13 14 8 10 22 14 5 10 23 31 31 10 11 23 8 18 13 6 7 4 5 7 8 17 41 35 41 30 4 16 15 27 16 27 28 24 8 22 25 32 42 21 16 26 17 24 14 2 22 9 8 17 14 9 3 9 29 3 6 18 10 9 16 12 33 13 18 7 25 24 26 14 38 29 210 113 137 36 38 21 31 19 31 35 26 8 26 33 19 23 239 32 102 68 2 140 87 37 56 34 3 7 17 11 13 31 38 52 35 26 8 37 20 15 7 8 14 32 32 31 50 8 21 24 46 23 34 36 30 18 6 45 20 31 30 24 32 43 19 18 18 41 41 16 15 9 17 35 18 18 9 32 32 8 9 3 7 13 34 63 78 97 96 83 85 91 108 79 53 63 70 82 99 91 65 116 101 31 31 13 35 17 27 13 7 9 9 14 28 33 27 26 36 72 76 105 142 94 123 129 105 106 37 6 17 4 48 11 12 24 53 45 28 18 59 67 43 0 
0 27 34 32 19 5 4 19 17 7 16 14 4 2 1 5 12 17 17 17 15 17 17 26 24 20 48 41 24 67 103 53 126 98 237 197 145 94 184 153 61 34 15 10 43 4 32 14 2 12 4 6 8 15 41 34 46 77 32 14 16 14 7 8 7 13 4 8 14 15 19 16 21 39 18 8 67 114 158 70 167 161 74 23 8 26 126 122 84 9 72 26 32 12 25 6 22 21 41 125 125 20 82 150 111 61 103 68 92 1 19 30 76 111 81 38 55 50 57 149 53 10 35 23 28 24 106 128 42 65 61 51 5 79 19 165 195 42 120 137 188 100 122 85 122 82 50 166 167 113 141 94 55 113 33 15 66 72 176 210 93 140 30 182 51 130 194 77 39 8 4 20 4 2 61 68 27 64 38 28 14 45 13 76 15 16 8 10 19 13 4 19 28 26 22 10 36 22 40 7 60 34 7 9 3 9 4 10 14 14 15 31 15 9 31 99 74 44 48 44 45 28 58 8 62 56 22 78 124 59 33 17 34 72 89 51 3 67 66 47 37 23 55 31 25 7 21 15 12 11 28 21 21 29 11 2 13 22 10 8 23 26 11 25 23 18 31 20 22 18 18 17 20 17 17 10 18 10 7 20 28 21 3 12 38 41 28 19 13 16 9 28 42 39 30 23 32 25 5 24 27 13 6 7 32 17 4 25 17 20 31 7 3 7 5 7 4 12 26 23 20 17 28 41 49 38 27 30 12 17 1 26 18 35 52 20 11 12 4 19 21 2 10 21 10 5 13 8 13 16 16 1 8 7 19 4 17 10 27 17 6 11 29 14 14 24 5 147 194 199 168 82 63 40 14 14 28 6 30 15 29 37 6 77 252 216 87 93 20 118 101 23 77 36 19 15 13 17 8 26 7 25 34 12 5 31 27 27 33 31 21 19 26 35 47 12 38 40 43 42 31 6 23 22 36 38 24 54 17 48 17 34 29 22 18 10 11 13 11 15 25 20 18 24 37 28 20 41 27 11 7 22 53 80 86 101 104 104 114 107 84 47 48 66 41 33 75 86 80 125 61 17 38 13 24 17 34 26 5 2 7 28 40 27 13 33 56 90 64 95 162 110 111 103 82 76 53 28 23 28 42 35 29 21 36 34 2 15 69 48 31 0 
0 17 25 31 24 16 17 21 5 12 10 10 11 5 3 9 15 16 13 12 12 14 12 36 31 15 36 42 40 49 75 114 118 143 159 2 94 55 20 14 25 12 30 25 31 41 29 12 8 15 9 8 8 32 30 16 46 34 8 21 14 22 9 11 8 11 5 14 14 7 15 7 11 24 43 38 74 152 175 2 209 163 61 13 17 17 200 55 168 22 62 27 29 10 19 22 27 26 24 59 117 134 34 96 200 144 130 55 132 74 14 44 52 27 73 70 102 141 129 123 137 42 28 45 39 44 42 140 73 56 48 46 22 91 31 117 195 131 52 127 126 67 151 46 117 37 51 74 235 183 100 130 82 66 99 62 33 58 185 19 68 10 49 79 177 65 135 77 43 5 4 16 4 7 71 59 26 87 39 55 26 48 24 87 17 18 10 9 17 12 4 9 9 9 8 4 36 10 35 26 55 23 2 10 5 8 11 13 14 11 12 23 9 5 49 99 74 42 35 37 78 86 13 63 30 7 13 72 132 44 21 37 20 104 98 23 18 76 80 41 25 12 53 32 18 27 22 19 25 20 29 21 21 29 11 14 21 26 18 14 19 10 17 10 17 19 29 17 17 17 21 14 18 10 12 14 18 17 24 8 29 41 47 42 13 4 25 19 14 26 33 37 33 15 10 5 9 10 12 5 12 16 12 7 37 11 25 25 11 10 40 13 13 14 7 7 4 9 11 19 10 14 50 50 31 36 20 7 22 37 26 16 19 27 44 34 6 12 11 25 27 13 13 20 7 4 13 11 11 24 13 7 8 7 16 20 25 15 9 28 17 4 26 39 26 10 10 82 93 29 26 72 77 32 22 5 12 65 61 18 27 23 20 139 33 144 50 97 31 96 113 19 99 30 20 12 9 16 7 11 27 25 13 38 22 9 14 22 34 25 31 10 26 35 38 27 24 33 11 4 18 28 11 10 25 14 31 45 19 24 29 14 4 8 4 22 8 19 21 20 18 20 37 28 36 26 14 21 8 7 10 34 73 106 110 120 133 143 129 84 45 28 34 28 40 13 70 30 46 94 17 2 48 4 22 13 32 32 7 13 11 43 46 18 6 36 87 102 63 107 162 132 110 94 86 54 25 24 19 25 33 23 26 26 34 42 34 33 54 43 31 0 
0 21 26 31 28 25 16 9 4 12 5 11 16 13 3 17 19 20 20 19 18 19 16 32 28 21 31 47 60 37 56 110 171 162 104 75 152 139 97 50 23 13 30 25 27 27 26 11 13 8 5 15 11 38 12 25 22 19 17 2 24 15 24 5 12 7 10 8 10 16 12 7 8 7 11 22 94 185 161 43 208 152 43 6 15 13 223 36 208 34 25 27 4 24 20 18 20 39 7 32 41 121 144 82 66 139 97 40 88 110 50 65 59 42 38 145 103 38 163 40 186 10 59 17 16 58 67 86 87 45 42 30 19 76 9 87 166 170 67 44 26 87 83 113 98 43 65 70 13 12 59 37 101 51 67 67 41 32 252 11 61 70 45 76 8 209 112 126 17 7 4 12 5 12 80 34 32 74 31 80 52 76 66 112 15 19 11 7 15 11 5 6 5 11 11 8 38 7 22 15 46 31 18 10 8 8 12 7 7 16 11 13 5 28 73 114 89 67 64 36 2 38 76 56 27 17 27 79 134 66 28 37 23 108 82 47 35 86 88 22 42 43 42 22 3 17 24 16 22 26 34 28 26 31 16 13 16 22 16 18 17 11 11 7 9 8 25 21 17 10 20 2 29 18 17 20 22 21 12 19 16 14 10 28 26 11 28 15 31 14 8 8 32 48 38 21 14 16 22 18 26 21 4 4 39 14 36 29 15 10 33 17 18 19 9 7 9 8 8 16 22 26 50 42 45 45 24 9 21 27 30 16 28 15 27 44 31 10 4 24 22 3 8 10 8 13 21 20 12 31 25 2 4 8 13 25 21 20 13 19 20 14 6 18 13 4 14 42 153 0 234 127 92 38 12 25 47 56 30 54 15 6 29 178 49 87 40 82 16 77 104 18 97 30 12 7 19 6 5 17 18 45 13 58 10 16 24 32 36 11 41 12 15 21 26 25 8 33 19 17 29 4 21 4 25 12 49 22 4 18 21 22 26 28 24 11 20 29 28 35 45 39 41 45 32 17 7 17 18 10 17 53 101 140 142 136 141 131 95 62 41 25 18 8 35 41 52 9 28 60 13 23 43 15 28 22 27 27 13 4 20 41 50 19 25 49 106 107 84 121 154 130 107 97 79 27 4 8 30 19 31 14 35 17 20 51 60 59 33 29 29 0 
0 19 30 36 31 26 22 17 12 12 7 13 21 21 2 20 17 7 2 11 21 25 22 28 19 18 29 47 62 31 68 104 165 62 95 3 209 52 31 123 24 6 17 10 13 3 25 4 14 12 11 9 19 43 14 30 13 2 9 14 20 14 18 8 13 7 8 6 20 28 26 14 3 21 9 61 131 217 140 105 198 132 57 9 22 27 239 35 217 51 5 18 29 13 14 6 31 36 15 20 12 42 118 166 167 85 37 34 74 103 58 58 82 53 68 100 171 78 92 62 142 98 40 31 60 61 49 32 60 24 35 15 18 51 20 67 134 169 83 53 73 60 24 36 26 21 74 54 250 77 96 17 45 110 41 73 72 37 94 27 114 106 207 159 24 168 79 115 22 5 4 9 7 15 86 20 21 69 67 67 85 96 89 154 19 21 12 5 12 9 5 11 11 4 11 12 47 16 32 18 46 20 3 1 10 13 28 18 14 24 30 5 5 58 88 99 62 24 20 33 63 64 24 33 47 35 28 56 115 114 76 28 40 83 58 37 17 85 82 33 48 69 39 13 5 17 25 7 4 7 24 13 8 20 8 7 17 21 13 24 15 27 8 11 17 16 28 32 29 21 30 4 32 18 18 29 24 32 25 32 11 30 29 19 27 17 19 4 11 31 25 15 6 11 20 11 7 8 16 5 29 25 29 36 51 28 29 51 32 31 15 16 16 22 8 4 14 8 15 4 32 33 29 31 36 23 24 9 21 10 14 14 39 12 6 29 42 34 16 26 25 23 25 19 5 17 27 17 18 33 19 13 14 8 18 12 21 25 4 25 21 8 7 15 23 13 36 31 22 82 75 17 78 41 11 3 26 53 54 50 14 19 15 182 43 87 46 64 18 51 80 40 66 26 13 15 31 26 19 12 29 28 17 47 25 21 21 16 37 28 38 5 12 16 22 15 8 23 8 18 40 29 20 15 24 31 67 46 41 20 12 16 15 11 10 5 10 27 30 33 12 23 32 14 4 8 26 21 13 24 36 75 128 161 153 135 124 93 60 77 88 69 36 24 21 47 8 5 32 42 30 12 25 24 18 28 28 32 10 21 26 20 54 43 39 67 104 111 96 119 138 126 90 56 49 20 8 31 8 25 45 38 37 30 29 39 58 26 32 30 33 0 
0 26 32 36 39 37 24 12 21 28 14 31 21 14 28 29 13 10 4 17 20 21 22 24 19 21 35 51 52 32 84 110 124 85 50 165 40 150 109 149 18 12 2 11 16 11 17 18 18 7 14 8 17 28 25 31 2 10 1 12 12 1 5 7 7 11 12 25 17 4 8 11 17 20 18 92 193 244 86 155 193 132 65 15 4 27 192 163 146 55 8 23 20 19 21 52 52 32 1 12 10 7 41 90 157 174 138 122 99 69 54 39 129 36 132 22 133 97 49 102 17 127 60 54 74 28 23 22 41 35 77 51 30 9 29 34 135 171 52 33 17 36 30 159 193 156 106 18 171 73 174 20 29 80 78 56 43 32 97 101 110 89 111 178 251 198 93 57 18 3 7 8 12 21 82 32 33 57 75 41 84 120 58 171 38 26 18 7 15 7 4 15 11 12 11 8 40 30 38 12 56 11 3 1 5 4 21 10 32 39 43 13 11 67 87 77 40 31 33 54 76 30 45 77 98 64 14 54 81 140 88 6 43 86 54 50 48 65 62 33 63 57 41 12 21 22 11 9 18 24 36 17 7 12 15 10 17 18 14 38 10 30 10 7 21 8 14 21 14 12 27 15 19 19 7 38 21 32 24 15 12 37 14 3 17 22 8 2 8 19 13 9 5 10 19 12 8 1 15 14 29 10 26 17 42 30 13 47 25 28 10 9 8 21 2 6 15 15 8 11 24 28 20 25 17 15 15 25 19 33 26 22 46 25 21 10 28 29 3 18 17 10 14 27 7 10 28 11 22 25 0 8 28 15 24 12 12 17 21 12 21 36 30 5 25 20 34 33 14 146 15 1 103 16 51 19 15 32 13 26 28 9 16 182 25 103 48 54 49 48 21 64 20 30 8 18 17 27 19 8 31 29 21 31 15 12 16 28 7 7 26 14 26 14 13 13 27 18 11 30 33 41 32 15 23 46 39 15 25 21 26 22 29 13 4 23 16 12 8 34 44 34 17 18 12 8 13 21 12 24 45 105 168 182 161 130 106 85 72 66 57 69 54 55 26 17 24 32 31 33 29 20 24 10 9 19 32 40 20 32 28 17 44 66 48 68 100 106 98 132 141 121 60 27 53 26 12 41 16 23 25 44 35 27 28 34 41 24 34 48 44 0 
0 40 38 39 43 29 9 25 19 22 40 14 19 5 9 10 10 14 6 20 14 20 29 26 31 26 42 54 46 41 76 85 130 173 73 217 221 14 101 100 12 7 19 16 8 21 10 31 16 21 11 17 8 14 31 16 5 5 7 17 15 10 5 13 10 18 24 31 7 24 19 16 43 16 39 93 248 204 53 173 163 140 59 22 19 17 68 64 27 89 78 28 10 13 51 78 78 76 6 18 10 3 8 18 32 55 72 86 68 25 41 11 130 65 106 62 106 115 22 52 74 30 121 29 113 21 46 5 42 54 69 57 68 25 14 5 131 170 73 56 60 63 148 194 88 35 86 141 162 216 221 64 17 38 34 40 19 41 36 217 95 80 86 165 190 5 60 37 24 11 17 5 17 37 73 57 27 94 71 53 59 103 62 151 37 27 26 16 24 12 12 15 10 9 14 19 21 30 46 26 54 4 2 12 19 24 33 29 18 27 23 26 26 69 87 66 27 28 37 57 57 34 94 98 44 62 50 53 80 135 65 6 41 112 61 31 22 41 63 75 66 40 38 4 16 15 27 26 26 24 41 23 8 13 18 10 11 15 40 19 29 16 20 12 19 25 24 13 7 13 18 18 17 18 15 38 17 21 10 24 17 17 22 11 1 14 2 5 14 14 7 11 16 14 21 17 14 8 13 13 32 5 25 20 34 37 17 8 33 20 36 31 16 19 4 4 7 12 15 12 8 29 12 8 31 21 3 32 24 3 5 11 42 26 10 9 49 44 26 18 23 17 10 23 22 17 22 2 3 10 2 8 25 22 22 12 10 8 4 10 11 17 24 25 10 8 16 17 12 43 115 139 20 36 27 16 31 8 27 15 30 22 20 218 36 92 32 54 72 52 80 43 47 49 8 22 13 28 24 24 14 13 8 25 15 12 29 17 11 19 33 39 8 15 4 15 36 15 4 36 32 37 38 25 34 17 25 51 29 26 33 7 23 12 17 18 11 24 23 11 14 7 21 7 21 18 22 11 24 42 60 140 200 182 148 106 77 74 63 36 29 38 39 51 37 22 26 29 32 35 29 17 8 8 4 14 40 28 5 23 27 33 39 67 67 68 94 101 110 149 142 86 38 36 34 17 12 28 24 29 22 50 34 33 42 58 14 22 4 41 47 0 
0 41 25 29 44 33 12 8 4 32 17 28 28 13 30 40 36 35 11 14 11 14 27 25 40 27 39 52 45 47 69 67 215 26 229 149 159 68 245 48 6 19 38 22 12 26 7 39 1 32 8 27 7 17 14 5 10 5 5 12 9 5 14 13 10 16 22 26 13 23 3 10 27 30 41 116 13 144 123 153 126 132 53 15 5 4 34 77 69 50 110 55 2 14 69 67 53 80 9 19 5 10 20 33 71 48 30 23 33 18 24 15 87 115 38 100 44 148 92 6 68 30 103 43 96 111 19 77 83 29 112 58 82 23 63 51 82 149 39 39 60 157 159 36 175 26 19 15 220 83 172 188 24 36 8 17 45 57 20 235 123 129 200 71 100 229 21 12 10 9 25 7 16 57 78 50 4 118 53 69 44 75 50 112 22 29 25 27 30 9 11 2 11 20 28 20 21 33 28 41 44 7 7 12 10 4 13 16 25 39 33 18 49 106 105 56 9 16 31 22 47 111 112 45 21 37 56 71 100 130 56 9 53 114 48 28 30 39 57 96 62 17 29 9 16 25 11 15 38 65 52 17 11 18 20 19 17 18 39 19 30 5 8 3 13 30 35 28 9 18 23 10 24 33 21 27 26 27 19 14 22 4 20 19 8 16 10 14 17 11 25 31 5 23 24 7 13 5 8 5 25 16 10 17 31 22 12 12 4 34 51 24 28 22 10 13 13 16 11 29 28 32 17 14 46 21 23 27 30 16 17 18 42 35 7 9 49 24 17 13 26 16 27 31 27 11 7 14 14 14 12 13 8 24 23 31 4 21 14 8 12 19 17 26 13 15 8 9 16 19 189 77 215 62 47 26 23 4 25 15 24 26 17 18 37 20 34 68 64 68 103 26 67 40 29 13 4 21 12 15 16 4 20 14 11 15 21 30 14 23 10 39 33 5 33 34 14 34 25 38 10 36 23 6 39 32 31 36 31 31 6 25 7 9 30 3 16 28 8 5 14 3 15 12 2 32 17 7 29 44 77 157 192 158 125 80 54 53 30 35 43 39 38 41 24 15 24 22 27 33 30 10 7 6 7 15 26 27 24 31 41 29 51 72 69 70 100 117 126 142 114 47 30 44 29 20 15 35 22 20 4 35 29 42 59 38 29 13 22 21 40 0 
0 26 12 14 34 33 10 38 40 41 7 12 21 18 20 12 5 31 10 8 8 15 32 34 42 18 30 46 42 47 71 112 241 0 14 55 74 225 121 9 15 21 16 24 20 20 26 46 21 28 28 21 11 26 7 8 5 3 4 11 8 4 14 6 7 8 10 15 10 12 11 9 19 27 34 175 4 65 143 122 97 120 56 10 7 20 38 88 95 33 99 68 12 15 53 49 40 54 14 10 13 5 27 46 34 49 38 20 40 6 21 18 43 133 40 118 85 96 155 14 75 11 51 82 42 136 81 86 39 94 37 34 72 20 101 41 94 193 122 66 39 141 71 100 203 181 35 27 178 115 81 247 110 31 36 21 20 21 45 199 110 146 33 47 188 75 56 26 9 14 13 9 17 72 81 21 10 107 54 68 32 50 44 85 15 23 17 27 24 27 34 28 5 31 4 9 15 17 28 41 15 11 10 14 19 22 22 23 34 36 28 13 68 116 67 21 12 30 24 35 77 101 51 22 30 13 44 88 93 120 63 29 56 116 46 39 69 74 50 73 74 32 24 15 15 27 21 5 25 23 17 10 15 7 8 15 12 20 13 21 14 17 0 7 17 20 13 27 21 9 27 1 19 17 6 19 31 26 18 14 17 5 16 16 11 17 8 27 17 26 20 28 26 27 13 15 17 20 21 20 11 20 17 17 14 15 15 5 15 24 43 37 27 14 9 25 17 23 9 40 24 12 8 5 37 30 28 29 31 13 14 17 36 33 11 13 31 27 26 27 39 17 3 10 15 14 4 11 11 6 20 14 4 8 8 44 17 23 22 11 15 22 19 28 20 9 8 17 7 28 70 202 88 204 4 25 18 14 17 7 21 30 42 46 9 29 27 80 40 80 65 42 59 23 38 12 27 19 22 10 3 15 11 6 1 10 18 15 15 21 27 31 28 28 41 47 38 53 15 25 43 38 8 24 17 2 4 32 9 1 30 19 29 32 33 16 17 18 8 10 12 10 21 27 34 29 4 14 12 74 107 164 175 144 116 80 56 45 22 25 35 41 47 50 22 11 7 5 12 30 35 19 5 6 6 7 9 14 14 27 48 45 46 64 71 84 116 124 121 125 89 51 38 21 37 37 14 43 11 13 1 8 21 40 49 13 13 29 35 24 15 0 
0 23 8 12 32 30 20 54 35 44 7 29 30 3 23 9 7 24 7 15 17 19 27 28 38 15 27 45 44 49 72 136 239 232 34 41 94 204 77 10 14 26 10 36 24 8 44 36 35 27 32 20 27 20 20 11 9 8 8 15 10 5 14 10 2 3 2 7 11 3 18 8 18 14 65 204 203 35 141 102 80 106 54 15 17 20 24 45 89 75 62 57 23 14 54 38 30 39 15 7 22 23 23 21 43 61 27 1 48 18 35 7 29 109 93 63 127 32 160 53 79 40 55 59 55 58 85 31 55 46 32 12 58 20 96 81 128 223 95 114 86 125 28 134 170 107 83 178 191 186 211 96 61 135 38 31 46 24 83 144 70 210 65 12 22 215 245 159 19 12 7 9 20 81 83 4 9 92 52 70 22 17 26 63 18 22 14 27 14 29 13 34 13 35 21 5 7 15 34 23 12 10 11 8 4 4 7 17 16 34 16 14 72 89 56 51 42 43 51 52 73 70 24 44 24 16 54 96 75 103 58 17 57 124 43 31 63 40 3 57 89 49 25 24 18 31 34 26 5 36 40 30 29 33 23 4 14 15 15 15 0 17 10 17 14 33 37 22 10 25 22 4 17 14 4 20 29 22 24 28 6 7 12 12 11 15 5 32 21 23 31 1 33 40 16 17 16 20 11 7 11 27 17 2 4 9 22 20 7 13 38 32 3 11 5 30 27 17 21 22 21 35 21 16 27 29 18 45 31 4 5 8 25 32 22 10 17 25 25 26 43 30 4 8 17 29 11 8 10 8 12 17 22 4 2 41 13 12 15 14 25 12 8 18 16 13 17 8 4 31 12 50 131 88 28 26 23 24 25 19 12 17 61 43 236 39 26 83 29 80 35 71 41 56 38 11 45 12 16 14 7 14 20 20 14 8 8 1 12 10 7 8 24 31 36 27 14 27 23 25 20 20 31 25 17 22 17 46 32 20 25 15 5 23 9 10 15 8 10 27 11 12 22 20 18 17 20 19 23 80 142 187 179 145 108 71 57 35 6 4 14 51 59 40 26 41 38 40 41 42 42 29 10 16 11 13 13 18 27 32 41 43 55 80 88 100 119 103 112 127 80 55 29 16 37 39 21 37 30 23 16 9 24 25 29 11 35 38 43 11 5 0 
0 22 21 21 22 20 15 36 36 15 15 38 33 8 42 16 23 16 2 14 8 9 22 24 37 17 30 47 47 51 72 110 208 221 40 80 95 194 55 13 12 35 20 34 7 4 49 43 21 12 8 18 30 18 18 16 3 5 7 18 14 3 10 11 5 2 7 2 10 6 18 12 15 55 166 161 110 72 100 112 86 93 51 15 13 7 14 13 31 56 56 37 27 23 76 39 43 34 18 17 9 31 8 2 26 16 16 10 46 25 41 20 13 74 127 41 86 48 124 16 72 66 99 69 44 29 93 56 53 48 28 39 46 5 66 69 180 10 7 173 86 70 91 158 117 52 187 3 189 152 208 242 133 47 218 154 110 114 164 66 64 6 46 130 55 245 182 113 62 14 6 8 12 88 80 14 14 74 44 74 15 24 17 41 28 23 5 32 10 38 11 31 21 16 31 22 14 25 15 6 2 7 8 7 5 4 7 21 30 19 14 43 83 56 42 83 86 60 58 39 40 56 10 37 17 13 62 81 80 108 71 14 76 111 33 37 70 44 5 53 96 52 17 28 12 24 32 8 17 3 17 7 10 22 38 16 25 17 7 4 4 19 34 8 26 11 7 14 27 28 12 5 10 7 10 20 28 13 9 24 12 8 10 11 8 12 8 25 24 7 35 30 20 38 24 16 10 22 16 12 5 27 17 10 19 19 21 25 9 18 8 24 23 11 14 27 34 1 15 18 12 24 32 7 17 15 11 53 25 5 2 7 12 24 28 17 4 2 2 15 42 39 7 7 7 28 15 16 15 8 11 16 25 12 17 27 17 4 4 17 12 26 26 14 14 21 17 7 11 27 19 166 82 234 90 25 32 15 12 12 10 7 98 29 196 12 15 50 19 65 28 99 20 67 13 17 36 24 21 15 6 26 34 28 13 13 22 21 18 10 11 5 17 31 31 30 17 18 4 25 45 49 19 38 18 28 18 45 15 13 13 35 44 35 28 19 9 2 20 25 18 17 14 18 22 24 12 14 26 69 164 210 183 133 79 42 52 32 13 14 18 68 64 20 8 12 5 4 10 19 23 13 12 18 13 10 15 27 35 46 49 35 53 105 113 97 99 95 117 122 68 39 14 32 20 21 22 12 11 6 14 7 32 3 8 37 16 48 48 18 10 0 
0 45 32 17 24 30 30 18 10 21 14 33 29 11 45 36 22 18 11 20 18 15 27 23 33 19 32 48 46 49 70 67 144 160 19 59 102 154 28 12 16 49 26 38 21 20 27 64 14 40 38 25 9 19 4 15 17 8 9 15 14 5 11 17 6 13 8 9 3 12 12 14 8 178 9 134 30 55 78 122 75 84 56 14 4 5 14 14 7 12 17 20 14 32 81 21 59 30 12 27 13 17 14 8 19 21 16 1 42 9 38 25 19 10 95 48 62 18 113 21 98 70 152 98 107 96 98 97 43 60 57 52 25 14 35 50 203 3 40 155 59 91 121 140 79 43 213 242 224 73 119 172 183 173 157 253 58 91 161 183 143 12 230 144 29 193 154 255 143 21 5 4 4 90 71 34 30 57 36 79 4 53 25 23 37 27 1 36 7 51 27 37 28 7 31 30 7 26 21 22 22 21 14 13 16 15 12 6 27 22 8 87 91 68 104 107 53 13 27 39 27 39 13 31 32 26 44 69 82 127 76 20 75 87 26 27 69 59 54 73 75 48 10 17 13 19 19 14 7 16 25 36 34 29 24 28 13 6 17 5 5 9 22 17 18 25 15 25 24 3 17 11 14 14 12 13 34 17 17 19 8 9 12 14 5 11 17 12 15 27 16 37 26 33 10 4 10 15 8 8 23 36 20 23 10 25 15 22 14 15 21 26 13 10 16 20 33 14 14 11 30 2 27 18 31 19 12 43 22 7 12 15 13 16 29 29 14 11 11 16 39 42 8 11 15 14 13 17 15 8 19 22 22 16 23 17 11 8 1 12 11 19 21 15 10 21 13 20 15 12 12 56 209 98 228 7 12 23 28 20 12 8 141 20 136 19 23 22 26 67 44 112 55 64 30 36 14 18 12 6 14 24 17 15 8 14 27 7 12 9 22 33 41 31 8 24 16 14 15 32 17 25 23 23 25 35 26 47 29 10 22 20 25 30 28 22 14 7 19 11 22 5 28 34 27 19 8 19 2 61 184 224 173 107 46 24 54 34 24 19 29 77 55 7 8 15 24 23 20 18 12 14 18 11 10 12 15 25 28 45 44 38 64 122 127 92 87 110 117 89 48 25 34 23 13 25 31 24 22 13 16 4 29 20 10 35 44 57 20 29 20 0 
0 29 26 29 38 26 12 18 6 17 17 15 12 18 4 29 22 33 29 32 27 29 49 33 27 21 32 47 40 41 65 34 106 121 241 127 94 83 14 7 25 47 30 29 17 33 23 51 26 54 28 27 17 14 8 4 12 14 9 9 8 12 20 24 14 27 10 19 8 21 7 12 79 16 203 78 25 50 98 112 55 77 58 21 4 8 18 7 8 5 5 16 5 48 64 28 67 24 24 33 40 4 17 19 16 11 14 10 33 11 29 12 14 8 65 38 38 21 123 91 121 87 206 166 35 117 130 153 88 40 31 13 10 26 30 82 224 189 52 89 30 6 49 70 33 45 235 91 136 163 66 183 130 204 162 131 47 246 231 21 122 239 212 77 215 165 141 8 177 26 15 8 14 85 61 51 38 44 31 85 5 72 36 8 46 42 25 43 7 54 10 36 26 4 19 39 30 2 12 3 3 15 8 5 8 4 10 13 38 23 29 103 69 60 119 61 15 25 49 59 58 14 27 34 31 12 29 76 97 135 49 32 51 75 27 36 65 68 65 36 42 42 22 11 29 13 5 23 8 7 10 4 7 35 39 10 26 14 34 14 11 10 8 19 22 12 4 13 19 21 15 9 13 4 2 7 40 15 17 11 7 5 15 17 4 9 21 12 11 39 12 24 43 35 21 10 13 11 9 9 34 21 7 20 36 37 26 22 16 15 35 22 27 21 7 14 21 17 28 21 29 5 30 23 24 20 12 29 31 38 36 24 7 13 31 29 12 18 18 15 36 44 19 23 34 15 10 11 12 14 15 10 9 21 28 25 14 29 31 25 29 34 24 25 18 25 14 27 13 10 11 12 25 123 129 42 5 18 13 11 22 17 173 15 83 41 63 42 40 68 48 107 78 56 82 32 48 5 21 28 22 17 14 7 15 16 13 17 5 5 14 17 24 10 32 3 23 12 5 25 24 30 15 10 25 21 18 31 29 35 32 50 38 29 11 19 23 3 22 21 15 13 27 6 14 14 5 17 9 79 213 225 151 94 41 18 59 38 33 20 30 75 37 23 13 19 7 24 33 25 11 13 15 11 6 18 24 26 22 44 52 38 76 127 121 87 92 115 88 54 39 23 34 31 17 31 58 31 13 24 34 44 30 8 33 40 45 46 4 31 26 0 
0 27 28 34 37 24 7 18 13 10 11 1 8 12 29 3 18 26 34 20 17 38 50 27 22 24 32 44 38 31 62 13 97 71 222 193 89 18 17 2 26 38 34 19 24 16 17 19 40 34 4 15 12 22 13 5 12 15 4 6 5 7 14 13 18 24 7 18 24 8 18 59 188 5 52 160 93 82 109 111 57 77 57 20 5 7 14 9 7 15 10 30 29 56 30 33 48 5 34 2 48 22 17 3 6 26 7 16 33 17 32 12 5 23 55 54 28 47 42 77 102 60 181 220 147 22 133 203 161 27 34 21 18 39 18 109 228 125 67 57 23 4 61 34 58 66 130 60 83 93 4 8 97 25 159 9 12 2 117 103 114 158 61 1 200 241 184 153 141 36 10 27 37 75 34 32 24 38 24 78 17 69 33 18 18 14 22 33 7 47 20 47 7 18 15 12 24 15 19 22 24 13 7 5 14 14 25 44 33 8 43 105 70 82 113 16 41 41 60 4 35 33 27 22 14 12 33 82 111 112 33 24 62 76 29 44 51 63 81 17 31 51 27 20 42 30 16 24 18 3 9 11 10 11 7 38 34 9 27 32 25 9 13 10 6 8 15 9 6 16 14 6 8 23 24 26 37 5 13 7 2 5 16 13 5 6 22 19 31 24 10 9 43 11 29 8 13 4 5 5 44 18 17 8 9 6 31 17 18 9 24 14 10 10 10 18 26 17 25 13 22 13 42 17 12 22 20 14 23 26 35 26 5 12 29 22 18 13 21 15 25 38 30 13 35 25 19 4 8 11 5 9 6 17 6 32 14 13 20 10 17 8 27 20 17 23 13 22 11 28 30 17 133 35 18 130 10 15 7 19 24 13 207 9 39 32 39 54 36 54 37 82 90 46 91 24 41 14 22 2 1 10 11 5 2 4 11 9 17 13 10 2 25 18 24 28 14 4 18 22 9 15 12 17 5 22 24 10 6 55 17 29 11 8 22 15 21 7 7 14 17 16 17 32 22 27 10 15 17 121 225 205 128 87 46 17 45 43 54 42 36 61 26 27 17 27 8 32 39 21 5 21 20 18 5 18 27 27 23 43 55 65 94 124 119 89 90 97 63 41 33 14 10 27 7 15 44 45 39 37 32 16 22 24 33 25 34 48 32 21 27 0 
0 24 35 42 39 18 7 3 20 19 15 12 16 15 26 10 21 15 29 28 11 29 33 34 33 36 37 40 44 24 63 61 111 11 229 240 89 7 15 11 13 25 10 22 21 11 7 8 32 21 20 7 12 16 14 10 19 12 7 12 5 6 10 12 8 12 20 15 19 22 44 144 239 128 97 186 106 130 124 128 56 65 40 10 5 2 10 5 2 19 18 15 25 56 19 47 27 12 22 14 44 23 21 15 21 33 52 70 70 49 54 23 35 5 65 63 17 49 11 5 41 31 93 165 208 148 59 150 183 103 29 44 71 81 87 82 210 107 42 31 24 44 83 38 48 77 60 117 20 32 83 56 111 21 186 176 67 236 23 119 179 234 221 84 141 176 123 250 72 28 8 23 63 72 15 18 22 49 23 60 29 47 18 21 7 11 41 16 12 37 12 46 23 24 32 23 18 6 18 15 12 11 8 21 3 40 44 43 17 12 62 110 94 91 78 19 48 38 30 51 45 29 13 3 15 20 32 75 103 90 49 13 88 59 10 41 42 73 90 3 11 51 13 19 26 31 14 4 27 8 7 25 14 7 13 8 12 21 13 30 33 10 17 21 21 21 13 12 12 4 7 4 7 10 4 14 18 6 4 11 18 22 12 2 9 14 28 19 28 10 7 2 29 28 20 16 14 8 11 4 38 20 14 10 20 22 21 8 12 12 16 17 21 13 13 17 29 38 39 19 14 14 43 8 19 11 14 17 7 33 37 22 10 16 20 14 6 7 23 19 10 21 13 11 25 34 12 29 29 21 21 19 5 17 29 39 27 28 29 30 29 24 9 13 17 15 20 10 21 25 21 39 66 138 105 0 21 10 7 17 20 11 248 245 3 18 72 67 20 34 36 47 73 38 54 29 7 19 12 22 34 37 19 21 28 27 17 7 25 5 13 20 17 17 4 12 27 31 41 20 22 13 26 23 26 26 4 8 18 48 44 25 14 19 11 19 23 42 35 26 13 12 13 14 7 41 18 15 19 146 209 181 115 85 62 18 18 25 53 46 39 49 38 36 33 18 9 33 39 24 11 20 23 10 14 25 33 38 42 56 52 92 117 112 111 78 77 76 51 34 28 18 10 27 26 19 20 29 31 14 24 21 14 23 24 20 31 31 35 26 25 0 
0 25 41 46 31 9 17 18 7 25 18 10 18 14 13 18 28 51 35 26 10 32 31 24 10 42 51 36 47 34 62 82 96 77 213 253 96 23 17 16 26 27 12 10 17 16 24 11 23 26 65 43 11 2 1 21 24 21 10 6 18 19 8 8 10 13 8 25 44 77 160 206 133 87 210 178 102 120 124 116 51 52 24 6 9 4 17 8 5 24 15 12 30 40 15 52 25 17 21 7 32 24 14 16 21 36 65 32 32 21 70 11 32 18 69 77 22 58 18 17 16 10 55 83 115 152 135 87 143 148 68 63 73 47 52 65 174 102 42 28 22 81 61 19 12 66 86 62 79 249 10 203 84 170 210 170 188 225 121 140 226 249 220 33 95 49 197 113 22 37 39 43 43 75 5 43 44 51 12 47 15 31 11 25 31 35 47 5 12 40 24 48 15 15 18 21 10 17 8 5 8 8 19 14 14 43 45 8 13 40 81 102 97 72 46 21 30 38 26 26 14 21 12 5 12 20 37 80 101 86 58 13 90 78 45 42 22 72 89 27 15 30 16 5 39 44 22 25 25 32 40 56 33 4 8 31 22 18 32 10 28 7 13 16 3 5 11 11 5 14 17 17 8 19 26 19 14 4 13 14 20 6 15 12 5 5 10 40 10 21 12 7 8 19 21 29 25 23 14 9 30 29 11 10 11 14 15 5 1 23 5 6 31 11 21 25 7 20 43 48 15 17 21 31 16 18 21 24 36 27 27 21 14 15 21 29 15 17 12 19 12 11 23 10 22 49 27 17 20 6 14 32 4 12 30 26 15 17 19 17 38 18 18 27 10 12 29 27 17 7 42 19 34 21 108 123 24 10 8 19 24 15 29 221 30 63 58 26 9 22 14 2 52 18 53 24 12 20 19 35 28 25 21 19 19 24 19 20 10 21 13 10 12 18 23 15 35 27 28 18 15 15 20 23 37 21 12 12 18 24 28 15 14 18 11 18 23 61 3 21 20 17 7 23 4 39 41 24 24 152 207 173 98 72 82 29 2 11 44 28 27 48 48 29 25 8 16 34 39 27 13 7 17 22 28 28 37 44 47 48 51 120 125 91 91 74 81 60 31 33 37 29 18 26 36 27 27 28 9 10 24 16 18 24 8 23 37 35 32 4 36 0 
0 21 29 44 46 22 7 21 3 20 15 5 17 9 11 17 15 24 7 7 17 36 29 11 10 39 63 29 48 53 57 73 44 69 208 240 81 7 16 34 27 9 12 9 15 7 37 32 15 72 74 84 29 19 24 39 27 22 8 25 21 8 20 3 4 8 21 12 74 209 231 80 106 206 199 82 144 92 119 94 28 22 10 8 14 4 21 17 8 23 10 26 37 11 18 35 40 14 26 13 19 27 6 10 22 38 78 58 51 32 57 4 34 26 56 104 18 83 34 1 7 22 132 196 167 72 14 12 83 174 170 91 47 62 35 42 159 84 37 27 47 83 25 123 215 32 255 115 13 46 170 5 195 181 18 150 208 119 189 10 31 147 18 19 30 31 27 24 61 128 114 77 28 74 15 57 30 24 23 53 22 31 18 21 20 24 43 15 10 37 23 37 4 10 4 29 20 26 5 8 7 4 24 3 12 36 43 9 17 62 80 82 85 69 35 13 14 3 18 28 36 15 16 12 5 12 55 98 110 85 36 22 89 100 41 4 17 60 80 55 31 11 7 27 37 26 11 37 9 12 18 36 23 10 18 8 15 4 23 14 7 16 23 8 3 7 8 4 7 5 5 11 13 22 19 17 15 16 26 7 24 20 13 12 13 4 13 34 15 32 23 18 5 28 15 24 19 24 8 2 17 27 13 8 7 8 18 5 4 23 8 10 15 32 14 18 26 32 30 43 34 4 7 18 31 38 21 25 56 18 18 23 19 11 4 29 32 18 13 23 18 15 21 5 10 34 36 15 19 17 16 32 2 8 25 23 12 15 16 15 27 17 26 17 26 15 17 36 5 20 25 30 14 191 51 243 105 31 7 21 31 32 60 208 39 65 20 47 38 1 11 32 51 78 58 56 3 28 7 14 36 25 25 13 18 13 13 19 8 17 18 17 12 7 12 25 14 20 6 15 20 11 7 12 15 19 14 26 36 34 15 13 27 15 15 25 41 31 30 22 18 27 25 18 31 27 22 16 67 162 203 165 95 75 82 20 20 26 53 31 21 39 34 17 27 5 19 37 39 26 10 13 22 22 26 27 36 49 54 55 75 134 116 81 88 86 85 47 16 9 14 19 25 25 18 2 7 19 11 15 12 7 6 28 43 47 49 50 23 43 42 0 
0 24 24 25 33 24 5 17 5 17 17 4 19 8 9 13 30 29 16 11 12 29 31 17 13 34 59 21 52 74 57 61 7 43 167 196 56 42 41 37 21 18 21 13 21 17 43 18 18 70 65 88 24 30 35 14 7 3 3 15 25 21 10 13 13 7 8 25 156 219 53 160 196 157 85 58 207 71 145 70 41 40 14 7 20 19 6 13 14 8 16 59 57 49 14 27 47 10 25 25 6 24 14 4 13 24 33 14 40 22 37 26 47 17 31 115 57 79 74 19 16 13 144 161 18 73 8 45 45 90 142 182 143 97 75 70 156 49 39 15 78 69 70 166 227 247 22 38 102 58 132 136 60 43 192 205 39 172 8 43 207 26 31 42 32 11 6 11 124 135 96 95 44 54 26 50 33 7 34 43 8 28 12 23 38 30 22 17 4 21 20 24 6 8 19 33 30 28 4 7 2 8 17 6 9 46 30 5 35 73 60 51 69 67 36 22 25 14 40 32 27 21 45 49 21 14 74 103 103 74 12 41 95 68 55 65 48 63 94 63 20 22 29 32 19 16 16 21 26 34 42 48 14 7 17 21 9 17 12 10 10 30 32 29 7 8 2 11 7 12 35 41 20 18 16 16 15 12 15 6 12 10 8 5 13 20 14 25 21 38 28 36 8 32 13 18 11 21 14 6 8 22 24 11 15 4 15 7 10 23 14 20 21 31 45 32 5 11 0 21 43 31 8 27 20 42 28 53 36 2 14 28 25 13 15 6 23 24 31 30 15 10 11 8 8 37 25 21 27 5 5 19 5 4 20 20 10 12 12 11 23 17 28 13 23 28 7 26 19 21 5 39 27 91 191 82 233 33 16 14 34 55 73 189 27 41 24 15 30 29 16 51 12 108 23 80 10 13 13 11 23 31 38 21 23 10 19 10 14 31 29 23 20 14 19 13 21 19 10 11 24 5 9 14 28 46 29 15 7 18 18 5 30 11 4 10 23 13 29 44 47 24 37 13 13 20 46 44 73 138 170 151 106 73 49 20 4 24 54 27 17 39 39 29 36 10 21 37 35 20 12 11 18 26 26 25 32 54 60 60 89 128 113 87 89 87 67 38 17 12 14 32 36 28 18 19 24 15 12 8 11 13 17 6 25 18 32 53 21 58 26 0 
0 41 28 21 28 19 10 20 8 15 18 4 21 7 9 17 13 7 3 8 12 20 27 28 16 37 42 5 45 75 55 61 52 46 121 165 53 29 24 11 12 24 26 5 13 7 35 10 13 32 60 57 21 27 27 29 27 18 10 17 18 13 7 7 10 5 15 57 165 158 193 234 116 50 9 126 221 34 183 35 18 58 23 11 13 29 25 10 31 15 15 86 80 50 49 26 36 12 20 29 7 23 17 5 12 2 18 9 44 38 18 47 54 4 5 103 105 46 102 41 3 25 115 246 228 172 111 107 67 35 31 79 127 127 135 103 102 23 51 31 121 50 117 176 169 124 42 249 202 25 50 161 190 132 178 233 248 4 178 214 119 49 150 79 55 23 31 115 154 32 185 58 59 34 14 52 35 8 50 29 26 32 14 12 10 20 9 28 12 13 4 5 6 4 28 30 33 19 8 6 8 12 2 12 37 63 22 13 61 80 57 43 58 58 25 23 28 24 30 12 21 29 36 48 50 42 97 104 93 68 2 49 89 36 10 60 70 90 94 43 16 16 25 13 7 14 21 14 13 11 9 13 32 36 25 15 31 30 14 11 13 37 11 52 7 2 11 12 4 29 44 36 47 11 10 23 26 29 24 17 32 31 10 2 3 5 20 15 7 27 18 51 2 29 22 18 19 19 20 11 11 15 26 11 15 4 11 8 7 21 11 18 8 15 9 20 25 27 20 10 21 41 32 20 17 25 70 37 11 21 22 34 32 14 7 5 11 13 33 35 20 16 14 14 15 36 1 36 39 24 4 10 6 2 16 17 5 7 7 5 19 8 23 27 6 24 12 5 26 2 18 18 30 20 48 109 121 18 19 2 31 83 60 169 20 27 18 42 32 21 56 19 30 80 23 86 39 5 31 5 35 22 26 13 18 27 31 18 5 28 15 11 16 5 17 2 21 10 23 32 31 19 16 24 39 25 8 31 41 26 21 14 24 16 11 3 24 31 4 20 29 19 29 13 31 51 60 30 46 120 167 163 115 63 33 29 31 32 66 40 17 38 34 36 46 7 22 35 30 14 4 2 12 34 30 25 34 62 70 59 96 128 114 84 71 74 51 26 4 7 13 35 35 19 4 16 14 12 14 27 25 19 27 27 39 34 26 35 23 33 25 0 
0 49 19 18 34 26 10 10 14 23 25 16 28 20 23 28 22 21 22 33 39 36 35 31 19 43 38 27 56 61 42 58 88 50 82 143 47 5 34 22 26 19 28 13 11 9 23 9 3 7 8 20 11 32 34 24 12 19 16 15 17 14 8 14 21 29 47 70 77 149 210 120 21 28 30 158 195 72 182 9 16 74 32 19 15 14 27 13 22 4 32 91 52 70 43 21 41 14 15 24 14 23 10 7 11 12 34 25 29 49 22 58 39 13 11 82 130 25 100 82 10 26 24 95 160 137 117 154 147 98 99 72 31 63 109 62 29 32 33 49 144 20 127 139 117 180 165 98 215 110 43 98 135 108 33 147 228 113 109 6 124 231 175 59 233 153 239 41 140 199 116 64 66 20 39 56 27 19 62 19 42 25 7 15 24 36 31 47 18 15 10 8 15 5 26 20 29 4 10 19 10 16 10 6 58 67 25 17 74 55 49 42 48 48 31 21 35 28 13 29 35 24 34 21 18 56 122 106 84 68 7 58 83 39 41 82 60 84 67 13 26 21 7 11 8 13 7 15 12 19 30 11 37 15 31 14 43 17 15 7 31 40 15 55 7 12 14 4 15 31 34 10 35 22 25 24 24 16 21 13 13 23 15 1 5 8 17 14 4 16 11 53 22 17 18 10 19 9 22 16 4 4 23 21 21 15 17 8 2 19 2 13 14 30 37 35 7 8 22 12 7 10 25 21 12 27 63 32 28 16 18 29 34 27 16 12 10 4 22 28 22 18 18 20 20 34 11 35 39 34 10 8 2 4 12 13 5 1 1 8 11 17 13 27 15 22 12 12 28 18 19 9 13 21 175 60 243 100 8 7 18 115 29 141 17 17 2 41 33 69 19 26 20 24 58 50 78 31 39 24 19 30 25 4 3 15 9 28 14 30 14 20 24 15 26 1 24 19 25 16 8 9 6 18 21 24 20 10 37 24 20 20 29 24 25 29 4 33 31 53 48 22 21 35 32 16 39 28 37 111 182 179 101 45 38 41 25 31 68 42 17 33 32 34 39 15 28 35 29 13 5 5 10 39 33 27 39 69 79 55 102 132 104 68 53 74 44 9 10 7 15 34 34 22 8 19 12 19 17 5 15 17 4 31 35 20 13 5 27 27 26 0 
0 55 15 4 27 30 18 25 34 41 44 39 43 37 39 48 51 53 52 57 52 43 37 18 16 58 41 42 69 46 27 52 99 44 84 169 90 29 40 15 35 22 30 27 23 24 15 6 16 12 23 11 8 2 12 17 20 6 13 9 2 19 51 87 98 93 77 28 57 104 63 7 11 27 50 165 138 119 124 34 34 75 40 8 25 22 5 20 15 31 41 53 23 66 18 5 48 13 9 13 14 18 4 1 3 10 42 5 13 35 36 33 27 12 9 67 126 49 78 108 24 14 40 28 25 38 40 81 145 133 107 52 47 83 32 62 36 24 29 53 145 70 103 91 41 82 175 75 114 192 174 133 134 79 75 149 98 180 151 93 57 133 13 65 97 102 153 235 42 192 86 110 80 24 58 39 31 36 71 15 53 25 15 21 22 53 57 82 49 31 8 7 14 8 17 10 21 18 15 27 7 13 12 13 60 59 22 33 74 29 48 51 40 37 37 7 33 41 21 14 24 23 7 23 23 78 146 105 70 66 10 66 87 61 43 53 40 66 59 5 12 28 24 20 31 25 26 18 13 8 29 23 22 50 43 11 32 24 19 12 36 32 9 41 16 15 8 8 19 18 28 40 21 10 13 13 17 16 12 3 10 13 14 10 8 10 5 21 22 21 45 42 38 6 11 4 12 6 23 25 4 9 19 25 23 19 24 8 1 23 13 17 12 40 37 2 24 24 16 4 17 23 16 25 30 14 28 32 8 20 22 18 16 17 15 13 25 26 26 25 11 7 15 19 31 52 29 19 31 25 17 7 6 7 9 9 7 3 3 12 24 13 14 15 19 31 21 11 27 28 13 23 5 35 86 218 57 187 27 6 4 147 254 106 45 15 23 54 43 49 24 39 28 61 100 42 64 37 7 32 12 11 8 6 11 26 21 23 14 28 7 20 20 8 32 19 34 18 31 32 21 23 11 27 39 34 12 15 55 26 24 10 14 21 39 27 5 41 29 14 18 16 8 27 11 23 38 49 61 145 196 155 71 39 51 42 17 30 67 40 17 28 25 23 32 24 37 41 33 17 12 8 17 42 36 30 41 75 86 53 101 124 98 71 57 77 27 15 10 5 19 28 29 22 12 20 16 18 31 30 54 49 47 32 5 11 3 21 16 8 4 0 
0 62 26 2 24 28 13 8 14 21 16 24 31 20 23 36 36 48 45 22 8 8 16 8 25 61 26 28 56 32 48 53 75 37 99 209 168 62 33 17 36 43 27 16 4 7 14 29 33 48 24 16 10 5 10 20 8 8 12 15 17 38 80 90 88 80 37 53 76 43 8 16 22 6 60 135 82 142 58 43 34 64 69 29 3 10 13 27 1 53 31 32 51 49 31 19 35 17 2 8 7 15 22 14 2 12 33 10 16 26 49 20 27 46 15 62 110 66 56 84 50 24 24 34 18 12 21 20 32 120 150 66 32 78 22 53 58 52 61 55 127 52 83 43 56 71 49 154 37 125 205 31 123 113 26 205 143 46 106 91 75 27 3 171 24 134 126 111 25 68 130 102 56 13 222 148 82 51 68 14 64 12 38 59 68 56 22 63 11 21 30 8 18 18 20 15 7 23 15 22 12 13 18 33 59 38 8 60 67 23 53 68 53 47 48 27 39 27 42 12 10 22 31 17 27 61 143 87 61 73 24 86 99 82 30 39 59 42 61 25 18 9 7 13 37 21 29 15 13 6 11 21 15 38 13 19 28 31 16 10 27 21 21 25 7 18 8 18 27 17 13 10 12 17 12 29 30 18 11 8 12 10 10 14 15 11 14 17 24 28 43 26 43 2 6 4 7 9 17 22 10 5 11 5 13 8 27 19 21 18 7 20 5 21 32 32 11 18 11 4 24 7 29 11 38 19 14 18 17 20 15 11 14 21 25 15 17 15 33 37 19 14 2 14 21 38 41 20 25 18 17 15 14 13 8 14 14 7 10 8 12 4 16 10 9 18 5 8 22 22 15 24 11 31 18 91 94 51 49 4 7 172 247 73 48 34 46 36 61 52 25 32 24 19 45 76 34 57 11 43 44 39 28 18 10 26 12 24 25 15 9 23 14 17 31 19 21 15 17 39 13 21 14 12 22 18 11 9 38 27 46 31 21 18 35 24 14 46 16 18 15 7 19 13 3 17 42 50 76 160 167 114 63 48 56 50 22 35 71 42 16 32 30 25 36 33 39 38 40 21 14 16 32 42 36 31 41 79 97 64 115 123 90 84 63 58 6 12 12 19 21 21 23 23 17 15 36 27 12 43 44 11 53 37 22 21 10 18 29 36 32 0 
0 51 36 5 22 39 28 32 27 34 8 14 13 8 12 21 26 14 21 27 29 27 31 24 24 31 40 58 59 43 58 30 50 30 78 176 226 72 14 40 19 15 11 25 32 27 18 44 32 41 24 21 3 9 19 21 24 16 14 3 18 17 112 92 33 69 116 87 36 18 37 30 18 26 50 102 30 82 25 39 21 46 79 54 17 4 17 20 11 48 15 30 40 31 28 18 21 26 5 8 1 21 12 26 7 23 43 21 17 38 69 15 60 28 53 78 96 25 63 62 33 20 10 33 17 16 34 25 25 93 178 84 57 98 65 65 115 70 24 72 91 68 67 17 117 103 124 132 154 70 75 78 182 31 28 130 113 164 65 124 162 160 148 105 38 166 218 177 46 130 176 185 181 216 238 225 22 146 162 71 214 171 205 179 103 44 74 65 16 15 32 14 14 9 11 10 13 10 10 14 21 18 21 35 52 18 24 72 40 24 72 80 46 19 27 9 51 36 40 22 3 9 13 34 12 42 140 88 77 90 55 101 83 61 20 47 88 32 51 50 24 14 10 18 14 29 13 17 11 6 7 12 19 26 19 2 8 17 4 7 20 12 31 11 22 14 18 16 26 10 8 18 11 15 24 36 21 9 12 24 10 24 9 8 24 17 10 13 8 21 6 16 38 5 8 9 3 14 16 6 14 12 16 6 12 20 27 16 9 7 28 23 14 12 6 26 36 15 14 17 14 25 13 13 25 41 33 28 29 31 27 21 16 18 24 40 24 28 26 36 12 10 5 18 29 26 17 15 21 16 17 7 8 18 2 7 15 3 12 7 10 5 10 8 15 27 28 21 7 14 13 14 3 21 15 192 79 222 75 17 12 197 5 42 34 65 64 8 57 50 7 28 15 34 18 55 21 58 18 43 17 28 30 29 21 31 20 12 20 14 14 27 26 35 20 17 29 14 8 13 30 15 18 10 28 25 5 21 34 23 24 25 15 16 27 14 1 41 32 31 33 20 12 18 20 27 28 33 91 153 149 108 72 59 62 58 15 35 62 43 27 38 20 25 48 51 32 22 45 27 16 36 34 27 36 37 49 87 109 74 128 125 77 78 53 35 9 8 15 10 10 15 19 19 18 19 16 36 24 31 8 34 29 23 18 31 31 13 20 17 50 0 
0 44 40 15 21 44 8 13 20 27 20 28 17 13 12 19 37 52 56 39 22 11 27 41 26 12 14 45 44 32 69 43 72 58 57 187 239 53 35 56 52 20 17 7 7 14 16 24 42 47 29 10 14 23 22 24 21 39 17 16 19 29 74 89 97 108 103 24 30 37 40 47 28 10 52 107 4 57 35 22 8 28 69 46 21 19 4 5 27 29 13 18 13 11 26 39 25 41 6 4 6 24 17 19 19 31 25 31 29 62 81 65 55 51 21 90 102 47 111 89 53 15 44 39 14 3 13 49 5 46 143 125 118 98 11 121 144 42 110 92 48 127 41 103 188 113 166 20 229 60 21 8 17 12 116 131 84 152 18 77 145 203 199 178 38 209 42 77 83 70 31 228 184 149 125 32 233 149 182 226 160 37 177 104 97 124 94 48 35 29 36 18 3 15 18 15 5 3 5 10 7 7 23 28 39 22 53 64 25 49 82 65 21 5 21 23 12 21 29 10 23 19 24 9 28 71 141 86 85 83 67 92 74 60 31 61 122 42 46 45 17 13 7 11 3 3 23 10 14 10 9 10 13 10 5 10 6 15 14 9 12 7 20 4 24 5 20 7 15 26 35 19 16 19 17 38 37 34 27 18 4 23 26 18 21 18 14 13 31 25 25 14 27 10 15 20 9 7 1 8 11 20 30 22 5 26 20 10 29 37 26 18 31 27 18 21 39 28 16 18 11 25 4 17 8 18 26 37 37 31 23 16 13 14 17 38 33 11 13 22 27 13 13 24 20 15 1 14 26 27 20 12 7 23 13 15 14 5 18 10 15 6 5 6 28 10 3 5 19 20 4 12 19 19 19 68 238 100 159 12 16 227 249 17 36 71 47 19 40 51 16 34 18 7 41 48 50 52 57 7 42 46 29 8 10 11 17 34 21 7 11 16 9 19 7 21 6 21 15 33 28 29 7 17 12 5 9 5 16 8 17 30 7 21 46 14 24 16 17 26 3 32 16 37 15 10 20 39 103 130 134 110 80 61 66 75 45 40 43 33 38 41 3 23 39 56 21 17 43 27 20 41 29 24 45 53 67 98 108 80 132 110 55 65 37 14 14 27 24 23 21 23 19 8 15 10 41 50 24 23 31 21 1 21 7 3 29 39 26 44 51 0 
0 31 32 1 13 41 15 10 15 22 35 47 40 35 40 38 26 29 38 32 28 20 29 52 49 24 22 51 48 29 45 72 113 87 58 185 206 40 58 45 72 25 28 28 27 25 21 20 22 15 2 6 8 9 13 25 8 41 22 19 17 17 19 55 70 65 43 11 53 26 4 17 30 35 45 118 42 40 16 32 48 64 60 13 25 38 27 43 49 27 25 14 9 11 23 59 18 56 13 19 16 5 4 5 11 25 21 39 45 83 38 84 18 53 57 94 85 73 158 59 72 44 72 60 29 22 14 28 54 45 62 127 162 88 152 180 79 95 118 74 196 161 210 126 199 12 22 133 173 209 40 13 5 7 62 169 4 182 58 33 49 39 36 102 139 162 208 170 211 235 239 227 243 6 248 231 76 147 245 207 193 106 87 80 154 126 26 74 28 26 43 23 14 11 11 8 15 18 17 21 13 3 46 24 26 47 68 49 19 53 64 50 21 34 36 8 12 7 11 14 3 20 32 32 24 130 122 72 79 49 74 75 64 50 15 74 143 55 30 22 15 11 5 10 5 7 12 6 13 16 15 14 6 10 14 13 11 8 16 20 2 17 16 2 20 9 13 7 20 22 17 7 8 21 3 17 20 18 18 8 8 2 7 15 13 3 29 16 22 16 21 18 12 12 4 19 10 19 16 12 7 7 14 9 20 39 28 21 29 19 12 14 4 18 10 17 36 25 19 15 17 21 7 15 29 27 17 3 26 36 33 22 12 11 14 25 25 9 9 21 25 23 12 29 31 29 24 21 29 32 26 4 12 22 13 4 7 6 21 5 12 18 13 14 22 23 17 15 17 17 14 7 7 8 10 11 92 137 49 16 13 248 212 39 73 74 31 16 24 41 26 39 18 31 20 50 52 37 76 4 28 25 21 20 16 10 30 48 55 43 33 10 20 19 24 7 26 10 23 23 28 6 25 30 36 35 14 27 19 5 15 27 9 24 41 10 17 17 12 17 18 15 34 29 7 14 3 37 100 121 136 127 96 61 48 55 45 53 47 28 44 45 17 21 30 56 31 25 37 20 20 36 26 32 55 66 78 96 94 89 134 95 59 65 26 7 17 46 12 4 13 22 23 18 16 20 53 33 29 22 32 4 14 34 25 29 5 43 44 44 38 0 
0 26 31 1 6 34 18 7 8 20 28 41 38 28 25 28 14 18 21 14 20 11 17 40 62 55 48 49 35 22 44 84 42 184 155 171 139 28 56 53 80 9 8 4 1 5 5 3 6 7 8 6 1 13 25 37 32 29 17 10 21 9 17 17 16 10 16 29 46 7 20 20 32 26 32 99 43 36 18 23 36 45 28 17 8 32 8 41 34 29 43 13 7 13 15 75 14 57 18 15 18 15 3 3 10 28 28 17 29 72 48 50 34 37 96 109 57 102 161 45 44 84 33 122 32 31 12 18 57 74 34 83 171 62 184 180 151 151 92 106 198 92 203 41 71 229 210 113 70 4 206 27 2 32 21 159 60 191 68 31 14 29 68 117 32 110 55 58 44 72 76 62 100 132 127 149 23 209 3 219 163 65 187 119 255 46 171 67 3 35 27 25 25 20 16 8 8 3 5 5 12 26 63 20 32 76 52 35 22 45 55 56 39 9 26 28 5 3 8 7 26 36 41 18 40 151 87 75 91 16 82 76 73 50 31 86 142 50 10 8 8 8 4 10 10 11 5 16 15 14 14 14 7 7 12 15 29 34 27 28 14 20 1 7 17 27 32 29 21 14 2 7 4 8 17 24 28 34 36 25 8 3 12 28 19 16 35 12 26 24 13 21 4 3 14 9 16 19 18 11 3 5 7 18 31 26 22 23 27 30 28 11 8 26 16 13 26 20 14 14 22 30 28 18 10 8 18 9 21 38 38 24 11 8 14 32 34 1 15 13 31 27 17 24 25 7 7 22 34 34 25 8 11 14 7 18 16 16 14 15 36 39 37 35 13 18 16 16 23 16 8 14 12 8 8 8 213 112 198 35 26 2 182 28 96 94 38 19 32 47 17 49 15 39 8 24 46 40 59 17 10 4 4 11 15 31 44 25 5 31 47 1 27 3 8 27 6 22 18 18 10 18 19 46 12 34 35 17 5 16 24 20 27 31 16 10 8 4 10 15 16 26 19 7 5 13 15 31 91 98 125 137 120 85 66 60 37 46 47 33 34 47 14 32 36 55 40 30 29 10 22 32 29 42 57 68 84 91 80 91 126 77 57 59 24 30 34 38 22 36 32 31 18 10 25 10 58 47 14 15 40 20 14 34 42 10 17 21 49 41 49 0 
0 27 39 13 14 27 12 7 5 8 13 26 26 10 7 25 7 25 10 9 16 11 17 13 33 47 59 50 37 28 37 68 90 215 125 81 77 15 37 60 51 22 24 24 23 21 19 13 1 8 7 1 7 11 10 15 23 15 5 6 17 20 13 7 15 15 49 55 35 15 31 28 28 6 39 69 37 41 29 27 31 32 13 25 8 30 6 39 25 34 47 10 5 12 13 64 21 51 28 13 12 21 11 10 10 12 30 27 31 19 41 25 31 28 115 111 37 109 157 42 22 89 82 102 129 49 37 43 48 101 7 38 166 53 127 128 50 194 110 52 202 233 52 205 17 70 231 133 174 88 40 113 20 34 18 136 101 182 99 21 21 21 83 61 122 67 25 37 21 68 61 25 51 44 16 19 27 86 160 204 158 76 175 0 71 179 52 221 61 38 17 11 7 17 12 13 12 1 8 14 7 62 55 25 52 89 19 34 31 32 67 66 12 42 39 24 13 15 13 10 41 34 44 19 85 139 51 82 103 19 102 76 55 27 13 91 121 39 15 8 7 4 4 13 20 17 18 15 14 15 17 15 11 12 18 17 6 26 8 17 18 25 13 22 27 17 8 27 30 18 3 18 12 9 7 4 10 14 17 23 18 9 11 21 9 25 31 28 19 7 22 19 18 13 10 24 7 5 3 8 8 2 9 30 28 27 42 29 6 18 7 8 17 32 19 11 15 13 8 14 20 30 35 30 18 15 8 8 24 36 36 22 9 12 15 37 47 16 11 11 28 26 9 15 24 17 26 30 25 17 20 23 14 3 19 22 20 19 3 1 27 18 22 26 9 27 19 15 20 18 8 12 17 15 14 26 116 61 47 96 65 8 162 45 91 98 46 6 45 75 9 53 26 22 34 15 42 55 20 27 4 9 8 19 18 3 22 34 25 18 53 21 26 5 12 17 25 29 16 7 2 12 28 24 20 21 21 23 14 1 4 11 30 10 20 3 14 15 12 9 10 7 9 10 26 23 38 19 76 74 106 135 135 112 93 85 53 51 46 47 29 41 8 35 47 53 47 34 19 7 28 32 37 53 52 58 86 97 82 94 125 81 61 52 22 22 24 29 33 31 34 29 18 8 14 20 66 33 19 22 18 20 17 10 27 31 25 34 42 31 36 0 
0 33 55 20 12 18 12 2 12 21 26 24 19 5 14 19 16 19 7 6 15 24 15 31 50 49 56 42 47 44 24 53 91 197 94 66 97 57 60 46 22 12 11 7 5 8 8 11 4 7 10 10 8 8 9 14 10 2 6 15 6 18 1 12 8 36 56 13 27 32 18 8 15 11 43 43 24 21 15 11 28 18 16 21 17 15 16 15 29 35 35 1 11 11 18 48 18 47 11 19 23 14 6 9 3 22 44 47 31 30 29 22 15 17 113 117 38 91 163 71 5 40 126 83 123 148 47 50 36 75 15 17 117 75 42 152 125 101 131 140 14 185 236 101 129 229 15 211 121 47 243 225 12 44 32 125 149 155 158 21 22 37 53 51 98 29 29 13 41 76 39 15 55 33 16 8 47 74 60 35 13 39 50 211 49 0 9 1 160 43 5 12 12 22 16 22 25 21 21 16 29 74 31 21 70 79 20 43 38 18 73 61 30 28 34 56 26 21 13 13 31 47 34 57 104 104 37 91 99 40 103 59 36 23 31 105 90 25 13 4 11 3 6 16 26 17 27 4 10 18 26 25 8 11 24 27 36 34 27 37 36 27 21 18 16 24 23 22 16 3 21 25 15 18 5 6 8 12 6 10 7 15 4 20 20 25 16 44 4 18 16 15 34 10 30 23 16 8 6 10 8 2 10 27 35 11 7 14 21 24 10 8 23 22 6 8 10 12 1 13 28 33 33 19 9 18 12 11 17 33 32 19 10 8 5 22 40 31 14 23 13 20 16 21 13 9 14 18 23 28 32 37 43 10 36 12 28 5 16 17 31 42 40 26 12 29 3 12 10 19 15 1 9 8 12 36 32 205 134 220 102 1 138 16 85 63 40 37 37 96 24 60 36 21 41 39 46 37 24 32 17 11 7 10 23 20 7 21 52 32 38 16 17 7 12 4 12 4 15 18 14 14 15 22 36 33 25 13 19 27 14 26 16 12 17 7 9 7 4 13 17 13 12 22 20 12 43 51 31 60 87 124 140 128 112 108 97 74 62 74 76 52 24 41 55 52 53 37 9 18 31 30 44 61 46 43 80 110 98 103 129 91 54 29 26 16 16 43 15 36 37 27 18 24 46 53 51 4 15 15 7 7 43 20 18 29 52 65 68 52 35 0 
0 43 72 32 5 12 19 13 5 5 12 5 14 4 21 17 31 14 15 5 11 35 15 28 41 31 49 33 46 51 14 44 92 179 75 71 133 40 29 25 11 15 16 5 5 12 12 4 12 11 1 7 10 8 4 25 26 22 11 13 17 17 4 9 19 34 49 15 67 38 15 8 21 14 47 46 42 4 15 26 20 25 37 8 25 22 21 22 21 11 19 5 6 8 16 54 36 72 31 5 11 15 21 12 6 24 39 58 9 44 50 26 3 5 102 108 85 88 90 133 67 16 80 200 77 182 120 38 44 53 39 37 55 105 37 47 110 79 48 138 179 99 80 142 108 130 154 27 130 111 161 56 166 5 13 111 186 92 191 19 12 42 30 65 39 16 10 19 59 55 2 38 47 7 19 24 68 60 59 58 23 39 27 17 99 26 52 189 158 66 18 3 9 17 3 17 18 4 19 13 51 56 13 7 79 61 25 59 50 34 50 46 8 26 40 24 29 13 17 7 27 52 30 62 114 91 51 101 82 56 94 72 47 31 64 117 58 6 3 4 11 6 4 17 32 14 32 8 9 16 27 30 7 10 26 5 17 7 11 2 8 20 29 21 31 13 11 15 14 2 21 21 27 17 10 24 24 27 10 10 24 31 21 10 12 8 13 29 32 21 5 1 34 25 14 29 10 12 8 13 15 18 24 16 26 24 27 20 5 8 15 8 12 21 8 15 12 19 9 11 7 9 17 10 26 25 31 15 9 32 30 19 8 7 8 26 33 27 29 14 21 7 27 17 2 2 8 14 13 9 10 2 45 24 44 19 40 24 19 11 17 24 22 17 30 35 19 18 23 22 10 7 12 6 8 21 21 30 151 154 86 236 127 46 89 32 49 41 53 82 19 59 12 8 18 37 44 19 46 12 35 10 19 14 4 13 16 39 46 55 19 28 26 20 20 14 6 14 13 15 12 9 13 25 1 8 14 27 32 18 19 26 21 4 26 27 19 11 14 6 31 42 24 11 23 21 8 29 8 31 43 84 122 136 135 130 129 100 71 87 101 81 49 58 62 50 59 39 0 28 31 26 50 65 38 28 74 127 121 89 109 92 32 14 39 19 23 38 18 30 21 16 17 29 44 26 36 35 22 29 6 11 44 29 22 19 40 34 54 21 29 0 
0 45 60 35 20 11 12 7 6 1 11 5 13 12 22 13 29 13 29 26 11 33 6 30 44 35 55 38 52 55 33 77 114 198 90 80 148 38 29 33 26 18 7 17 4 19 18 8 10 10 17 34 51 44 20 38 5 40 18 17 14 23 12 15 37 38 32 25 68 3 24 21 28 19 35 51 67 44 31 31 7 19 40 39 21 7 19 35 26 14 12 5 9 5 11 63 47 46 67 24 11 27 7 20 10 9 51 63 11 48 50 21 22 38 70 60 89 83 60 125 158 59 2 155 207 23 185 65 40 76 92 51 15 120 88 63 42 107 138 5 77 119 176 128 29 64 51 126 78 33 78 254 81 125 11 94 191 71 182 2 6 31 21 55 19 12 7 28 60 46 38 36 21 8 19 32 75 63 48 47 39 29 12 34 38 48 177 171 109 26 41 20 4 13 8 9 18 18 26 10 48 42 5 26 90 49 28 78 46 4 28 37 33 17 9 28 27 17 26 12 23 24 23 63 123 100 73 89 40 70 103 94 36 19 77 99 32 1 3 3 16 6 2 15 29 21 30 11 18 32 32 16 18 22 36 42 23 14 25 4 28 19 26 31 21 6 11 16 12 3 8 20 13 12 39 68 28 32 20 4 17 25 22 13 10 4 1 12 9 18 11 14 16 18 34 23 13 7 11 29 35 13 13 9 27 22 7 8 10 11 12 13 15 19 2 13 6 23 16 6 11 17 25 27 11 15 32 11 15 39 37 14 21 16 11 24 18 27 37 18 7 11 21 37 17 10 9 5 15 22 23 25 27 27 30 30 30 30 7 18 22 21 28 35 25 12 29 19 12 14 14 20 16 8 10 4 30 115 40 47 66 226 130 74 75 17 59 26 20 68 30 49 42 28 36 37 9 17 36 24 35 13 2 14 14 5 18 50 43 58 8 22 38 29 21 15 22 6 19 23 32 24 25 12 21 11 22 20 18 30 14 5 25 5 35 17 36 8 6 28 39 9 15 5 29 23 8 13 31 19 11 42 80 115 125 94 88 106 96 105 99 88 55 64 60 51 64 37 1 36 35 24 55 64 27 26 77 131 132 69 82 104 36 21 52 23 34 22 11 24 15 10 14 43 53 33 38 40 16 21 37 8 25 42 8 54 36 15 55 33 15 0 
0 57 33 20 15 15 29 8 9 15 1 8 11 19 9 15 17 7 23 28 10 31 9 21 25 34 59 40 68 55 76 99 100 208 85 65 168 56 34 14 13 16 24 29 22 24 23 3 14 14 17 30 14 29 25 31 19 36 14 12 7 34 1 13 37 8 16 43 44 9 10 1 13 17 19 26 36 21 15 34 36 46 13 24 30 33 38 17 17 15 8 8 6 7 8 36 77 19 82 44 19 8 25 18 2 17 68 43 34 60 28 17 54 112 91 48 51 55 148 50 170 138 90 41 167 192 44 200 133 34 148 51 107 157 204 172 164 42 190 85 27 40 73 109 188 147 68 72 113 85 48 45 38 35 77 70 159 62 150 7 13 20 38 21 18 18 18 29 34 30 31 28 11 10 21 25 77 52 51 15 2 9 26 28 13 18 33 40 57 49 26 52 8 8 15 11 9 17 19 8 47 41 4 59 92 40 36 63 7 34 44 47 39 16 11 8 13 9 14 16 1 7 38 73 113 109 79 62 5 68 110 76 15 34 97 77 40 8 10 12 22 10 11 15 12 35 22 30 38 21 22 8 11 21 11 31 2 7 33 11 30 7 8 11 10 15 18 8 10 14 9 10 13 21 67 34 64 32 22 6 8 28 21 2 1 18 26 19 16 17 17 20 22 26 14 25 11 12 19 17 41 33 7 3 25 18 19 17 10 11 14 12 25 14 1 10 1 16 21 8 7 11 5 5 23 35 17 5 14 34 49 20 32 33 15 19 26 41 48 43 36 17 13 41 36 14 8 7 20 21 18 21 21 11 1 26 8 8 12 11 18 27 17 4 15 34 27 5 10 13 21 10 15 7 2 5 6 23 143 115 143 235 140 68 61 33 50 8 39 103 77 57 43 37 41 26 33 34 20 44 7 33 39 18 12 14 10 44 64 30 18 27 13 34 36 26 3 29 22 37 22 35 6 14 18 4 24 36 28 10 16 28 10 17 10 21 14 18 24 31 12 29 10 24 27 12 14 22 3 15 8 11 28 67 107 96 91 100 87 80 76 113 73 62 59 59 67 29 8 41 45 18 52 59 26 40 86 117 133 75 83 111 58 46 39 4 5 8 16 35 29 27 24 39 47 23 52 33 23 44 46 31 13 29 48 60 31 18 34 38 2 0 
0 51 31 23 8 12 46 11 14 17 21 20 13 15 11 17 7 11 10 29 17 21 14 26 14 27 78 70 61 25 107 68 126 194 70 75 195 87 25 4 10 28 31 24 30 23 24 8 10 12 20 42 57 36 9 5 23 10 16 20 10 39 32 41 20 16 28 33 20 3 18 20 19 7 20 43 40 19 8 33 6 35 11 15 18 18 27 23 26 13 7 12 11 3 7 14 60 55 68 69 17 25 13 7 11 22 61 32 51 43 20 28 122 221 153 167 51 14 109 141 39 150 113 67 43 185 202 111 18 173 127 139 48 61 37 144 213 109 120 146 70 52 104 103 62 189 252 217 157 137 145 144 72 67 213 42 108 48 118 8 19 30 35 32 8 13 19 34 33 22 15 17 5 13 12 21 60 33 44 8 18 25 11 17 9 12 7 12 13 53 28 55 15 8 8 21 8 17 17 22 42 30 33 66 59 34 42 28 29 10 56 41 30 10 10 13 4 5 10 8 15 13 35 57 115 109 78 40 31 63 91 71 22 47 109 64 43 16 16 21 13 5 20 31 31 37 18 40 40 17 14 7 11 22 27 28 11 5 25 32 14 4 15 10 8 12 15 12 13 24 12 18 23 17 71 57 38 21 12 16 11 15 27 17 14 17 10 17 9 20 11 5 21 33 41 32 20 17 28 25 38 37 10 9 8 22 17 5 3 9 12 23 24 5 12 9 1 8 11 14 12 7 8 10 34 28 15 16 16 12 42 20 18 43 18 5 4 18 40 36 40 8 10 27 36 28 14 9 20 21 28 26 34 2 11 22 11 8 6 12 19 0 28 17 25 18 19 13 6 4 21 25 19 16 1 15 16 5 18 102 248 209 138 58 57 12 68 58 90 109 77 63 28 35 34 15 46 49 19 42 29 32 28 29 5 22 23 21 14 28 27 27 42 21 21 39 27 23 14 42 44 35 26 33 28 24 24 31 26 17 11 36 30 13 9 27 35 25 24 27 22 29 28 36 24 18 21 8 20 10 3 10 22 37 76 102 115 110 83 64 90 131 74 74 73 67 70 27 14 43 49 23 47 55 41 58 93 120 126 92 97 94 37 19 20 17 14 5 11 31 29 24 30 42 44 15 32 43 23 55 65 36 25 34 47 19 12 8 20 28 15 0 
0 51 35 29 10 7 31 15 10 6 18 10 7 11 17 3 22 14 9 20 22 19 19 34 15 27 82 54 27 8 93 38 123 153 89 104 222 113 10 20 13 35 27 22 24 21 22 5 13 19 5 10 7 22 14 20 19 11 20 2 47 102 125 105 62 21 26 26 16 13 14 13 29 22 28 45 14 14 5 27 15 26 6 21 24 23 10 13 18 11 1 7 8 8 7 7 34 76 20 95 24 8 12 7 4 23 37 20 16 36 43 24 167 223 70 172 73 12 45 122 106 48 124 115 52 67 242 23 107 113 229 182 233 10 215 167 124 147 99 78 91 90 110 111 63 41 62 158 176 126 96 149 130 168 14 98 116 63 111 7 89 136 131 16 27 14 22 36 36 24 29 23 5 19 26 20 41 10 21 7 22 16 7 23 6 19 5 5 4 22 27 31 19 5 4 21 4 17 17 22 33 32 62 49 21 45 69 16 39 52 55 18 20 7 12 19 10 11 20 11 20 20 28 92 143 93 64 17 66 79 63 48 15 77 111 52 33 13 8 7 2 11 20 18 2 18 18 24 38 5 24 17 21 10 21 23 5 18 14 15 14 4 20 15 11 20 8 15 16 17 9 12 27 14 15 12 2 8 5 5 10 25 23 23 15 9 31 21 24 26 25 29 27 17 14 12 30 16 17 20 30 27 7 1 10 8 23 7 5 13 7 37 12 10 13 11 10 4 6 15 17 7 4 13 31 27 5 7 14 15 16 34 14 51 32 16 11 12 27 25 32 7 5 14 21 23 5 1 15 8 14 12 47 7 14 22 10 10 7 17 18 14 20 14 15 21 30 11 17 10 23 26 20 18 4 20 21 12 163 30 111 128 152 60 55 25 79 26 84 93 75 80 84 91 82 70 76 71 50 44 48 63 68 52 30 33 15 24 28 22 20 36 27 41 50 46 32 12 24 18 17 38 24 11 7 11 17 28 38 34 39 21 14 18 5 12 10 14 18 19 13 25 28 33 23 18 11 15 15 26 18 22 11 10 26 47 66 82 100 81 115 147 112 110 75 64 64 17 5 43 46 30 44 50 68 75 104 136 114 93 101 71 24 14 12 9 24 18 7 35 30 18 36 41 45 29 22 8 36 15 28 5 44 26 10 13 41 67 66 32 6 0 
0 68 30 24 25 13 15 10 1 6 11 14 8 18 22 18 19 10 1 18 17 35 30 11 12 29 66 61 49 21 88 75 64 128 76 104 236 132 11 45 35 54 27 17 11 24 21 17 29 19 20 11 7 27 24 26 7 14 28 77 122 115 57 54 72 22 23 20 13 9 23 31 6 31 33 46 5 31 23 18 12 17 16 21 15 5 13 22 13 22 5 7 18 14 18 5 21 87 57 111 75 23 21 14 9 26 18 41 27 21 47 40 132 154 191 150 54 11 28 53 141 82 154 185 56 21 107 78 32 148 178 167 226 158 111 9 187 98 201 74 48 17 128 123 79 115 85 38 118 125 76 34 155 48 20 169 165 175 189 97 32 56 58 148 18 21 37 27 36 31 31 17 11 12 3 56 26 27 8 11 29 5 17 25 17 17 24 19 11 11 10 17 10 11 9 23 7 20 19 26 42 39 56 38 22 38 63 29 17 40 22 15 24 9 18 31 17 8 11 4 27 37 47 129 148 77 49 7 93 79 41 39 48 103 101 35 21 7 13 3 8 10 20 21 13 15 8 11 28 17 24 6 28 24 38 29 5 19 4 5 17 12 35 17 25 24 2 11 8 10 4 11 22 14 14 13 20 18 18 15 5 19 24 17 11 7 25 24 4 7 4 1 5 7 17 19 15 19 8 5 18 19 16 14 2 14 19 8 7 12 16 31 10 16 8 14 15 5 12 14 19 8 7 14 28 32 27 14 16 24 7 44 22 46 25 34 14 35 35 22 14 5 6 16 19 19 6 11 18 11 11 6 41 16 20 25 4 17 15 8 5 8 17 12 5 14 7 11 13 17 35 32 25 10 5 21 19 23 86 189 220 69 163 64 43 35 66 6 116 95 61 65 78 80 80 74 69 59 62 50 48 40 35 40 58 69 55 52 51 37 29 26 1 25 29 29 28 33 18 7 14 18 34 32 13 11 19 2 34 58 31 14 12 14 10 12 14 18 19 14 11 17 20 23 14 10 7 10 12 26 21 38 23 17 26 15 46 29 35 61 118 152 161 104 39 55 52 8 12 46 46 43 49 55 89 84 104 136 97 75 92 62 27 31 27 17 17 15 25 45 34 19 22 19 27 66 39 42 30 30 41 38 18 32 17 18 34 38 4 32 24 0 
0 71 36 30 32 6 10 16 11 10 7 21 14 34 14 18 2 18 21 17 16 54 1 22 27 47 36 36 68 42 49 87 23 101 94 165 232 114 24 83 41 68 23 7 11 22 19 4 18 24 27 11 15 17 2 10 40 71 103 100 44 49 111 127 84 41 29 14 9 11 11 32 26 12 45 41 24 41 22 17 10 11 4 12 14 8 24 30 3 26 9 5 21 14 16 8 23 77 115 90 113 22 7 16 61 50 49 27 57 7 50 74 48 71 96 32 25 46 31 8 122 163 90 245 106 20 8 137 130 105 140 220 1 10 60 230 171 24 94 125 110 119 89 85 20 52 76 36 77 172 122 123 12 235 184 41 106 77 236 240 154 196 74 193 32 24 48 5 23 31 25 8 5 22 15 69 6 39 17 12 28 9 15 16 20 7 38 17 12 10 8 14 4 10 8 23 7 23 21 30 57 48 52 35 16 21 41 48 22 14 8 3 31 20 28 49 14 10 8 23 26 30 73 134 115 73 37 26 105 68 14 41 74 110 76 15 11 5 17 19 17 19 12 12 13 2 16 16 10 14 22 12 34 15 28 14 13 17 18 10 28 9 45 7 24 17 9 21 13 15 5 13 8 18 37 39 26 26 39 18 22 7 12 8 8 20 15 21 13 16 21 20 18 15 13 7 2 15 12 8 14 17 15 11 22 17 8 7 7 13 10 12 18 16 6 12 17 11 12 12 17 9 8 10 20 29 30 33 22 17 12 30 34 38 52 38 7 34 50 45 25 14 12 14 20 17 19 23 29 26 2 7 24 14 22 31 2 19 8 22 34 20 9 11 12 23 22 6 8 34 28 37 45 28 23 18 14 46 36 59 251 197 145 87 14 39 56 27 136 111 59 48 36 25 38 51 45 41 60 63 60 46 33 34 40 55 33 28 36 46 55 43 34 39 39 25 14 27 37 36 11 37 30 10 8 8 27 34 8 24 31 14 12 24 35 12 31 39 31 22 18 14 13 14 13 10 17 19 32 14 10 36 15 14 36 13 43 16 28 79 128 138 153 112 33 45 42 12 16 48 47 41 49 60 99 83 92 126 87 69 81 52 36 36 26 30 25 37 40 35 21 18 3 16 27 64 15 48 21 14 8 20 23 25 39 21 17 44 44 36 23 0 
0 54 42 46 24 6 21 24 17 19 4 24 12 43 5 16 8 6 15 19 18 65 27 32 52 52 16 23 72 49 36 90 51 77 175 212 186 68 64 87 32 78 17 1 21 14 11 8 10 5 15 11 15 33 37 71 108 117 100 34 76 106 78 43 20 12 10 5 8 20 27 6 17 23 48 17 33 40 13 20 6 24 18 2 20 22 13 29 13 24 22 12 18 20 11 8 12 49 127 41 120 12 7 38 71 41 73 19 61 55 94 88 51 60 24 41 31 31 25 36 101 185 84 173 184 87 48 21 165 147 0 148 63 24 87 231 129 217 78 132 138 129 127 103 86 93 53 15 24 151 192 14 103 188 136 13 180 54 134 117 47 253 133 151 17 30 38 9 14 24 22 7 13 34 33 67 24 34 19 15 15 4 9 11 24 8 36 18 4 4 13 13 5 7 3 23 4 25 25 43 67 41 39 32 28 32 42 57 20 7 24 34 42 24 33 43 26 30 33 18 35 27 93 122 93 70 14 48 102 54 13 62 94 100 47 8 10 11 12 33 6 13 12 14 17 7 23 3 8 4 24 4 31 34 36 27 11 31 40 5 29 21 39 16 26 21 5 29 11 7 24 35 17 18 43 8 27 31 31 22 26 18 11 5 5 5 5 19 12 15 6 12 7 10 21 0 9 4 5 4 6 8 3 1 28 14 8 7 8 23 17 14 24 10 4 4 11 13 7 13 11 7 10 6 2 12 25 36 23 5 11 11 28 27 43 35 13 14 38 53 32 25 12 12 25 18 12 5 23 28 8 11 20 6 23 34 2 21 6 25 24 32 4 12 11 21 20 17 1 27 39 48 32 33 36 5 14 51 30 176 193 74 79 120 25 62 67 67 139 120 61 50 42 11 44 47 43 28 47 63 65 67 66 49 34 44 21 19 29 39 51 36 11 12 12 12 25 36 24 12 39 28 39 38 20 12 19 5 20 21 19 11 20 26 38 32 35 55 16 26 21 18 18 16 21 18 25 28 16 26 4 28 20 21 27 23 56 43 30 65 146 138 115 110 56 38 34 5 11 48 43 28 54 78 100 88 94 116 96 93 89 51 37 38 27 30 36 49 38 12 9 21 14 15 10 42 33 9 28 38 43 26 48 53 59 44 43 15 12 14 29 0 
0 52 38 43 22 7 19 32 9 34 12 33 9 38 20 18 21 32 17 10 7 46 20 14 58 46 27 34 68 50 19 87 109 48 234 235 142 60 70 71 56 84 11 3 25 10 6 5 17 14 5 42 75 86 87 107 75 8 74 122 105 33 3 14 8 9 14 23 24 18 17 12 17 43 28 31 43 8 44 43 36 34 26 28 22 31 20 22 24 22 28 22 17 22 21 11 13 26 110 58 93 29 31 40 32 68 39 16 49 94 90 66 104 60 12 28 47 55 52 54 82 133 146 43 143 75 68 72 19 120 54 218 218 40 181 197 196 127 39 112 104 229 46 38 43 51 52 76 50 103 164 198 15 34 2 69 28 5 16 89 15 173 66 60 35 27 22 12 29 17 39 12 14 27 50 51 37 22 16 20 7 7 22 20 32 7 22 24 17 7 7 13 5 11 8 25 10 30 29 68 55 8 65 48 22 41 59 38 12 21 38 15 10 38 40 31 48 32 46 15 14 30 129 134 100 58 27 81 104 53 38 77 94 90 25 12 16 15 10 30 14 18 10 7 12 25 31 25 13 9 22 11 11 3 3 12 39 25 54 10 30 17 26 20 15 25 11 36 22 20 24 37 45 38 17 8 31 17 12 45 35 14 6 5 7 15 11 26 9 14 11 17 10 8 28 22 2 6 5 7 4 5 5 10 10 22 17 8 9 22 30 22 23 1 5 4 7 12 10 15 5 4 15 12 7 11 37 18 19 26 4 17 24 20 13 28 17 1 23 47 21 27 13 6 17 17 12 24 36 32 13 14 28 13 22 32 3 19 13 38 32 34 6 17 19 30 15 13 13 10 21 10 30 48 19 26 28 25 32 74 102 171 47 118 66 89 76 65 122 108 49 52 66 22 73 46 58 5 26 32 38 28 25 36 59 68 60 58 46 42 46 46 26 33 46 45 39 46 62 53 12 41 36 14 21 7 32 36 11 19 26 11 27 30 35 40 28 67 37 13 20 20 18 14 25 22 28 31 21 41 22 34 40 16 31 26 71 44 31 67 173 153 115 108 57 34 27 8 11 48 41 22 69 101 103 102 106 112 115 106 63 16 16 31 12 25 54 54 24 15 20 20 11 13 10 11 28 17 21 26 30 70 50 47 46 36 34 42 22 25 59 0 
0 48 16 31 39 11 4 28 29 31 12 27 17 19 11 2 28 19 15 10 10 28 12 10 48 36 29 39 61 61 35 76 153 8 240 244 145 62 62 61 64 92 20 18 27 17 19 25 7 5 23 68 58 14 6 43 74 124 121 95 30 29 3 12 4 16 10 18 6 16 15 2 27 38 9 38 15 49 49 40 51 35 29 25 22 13 7 20 17 15 7 18 28 34 41 41 15 7 61 59 57 27 52 12 59 53 29 10 34 130 94 77 128 55 15 5 16 32 28 18 38 97 116 48 121 69 31 93 89 19 10 36 60 80 166 217 181 109 80 115 53 227 206 89 31 52 30 36 20 48 93 239 242 59 110 31 43 234 21 93 15 147 199 14 51 33 15 15 41 28 47 10 9 11 71 28 52 7 8 12 12 18 10 17 23 8 8 8 16 6 8 3 17 15 6 20 7 42 49 71 31 20 74 61 17 41 36 8 5 20 33 27 11 19 29 17 37 20 36 15 11 66 152 134 85 21 50 91 85 31 38 86 78 67 26 9 21 16 24 18 5 19 7 17 17 26 10 36 27 14 7 14 12 10 7 24 24 15 38 27 19 8 20 17 4 15 19 34 15 13 6 2 17 43 25 28 26 39 22 23 25 12 10 9 14 28 40 37 22 22 11 6 18 19 18 29 8 4 7 7 3 11 17 20 9 9 18 8 4 12 11 24 14 24 12 7 15 7 20 21 1 7 19 20 8 8 29 18 8 26 24 31 33 15 12 22 28 35 38 38 5 21 22 13 18 22 20 25 27 6 9 10 32 18 16 24 1 13 7 10 17 4 8 13 6 15 14 0 20 11 23 16 12 24 3 28 13 16 15 4 242 214 146 84 77 106 97 81 97 89 28 57 90 62 76 39 83 91 75 47 45 38 26 30 52 63 65 48 38 45 40 52 44 48 56 52 34 50 49 58 50 39 35 45 34 15 13 16 28 14 18 33 36 11 18 37 43 43 42 24 14 24 31 36 29 14 20 14 10 42 10 26 23 8 35 27 67 52 22 106 184 142 104 86 37 34 30 20 25 57 46 38 86 114 111 115 111 103 103 82 23 16 22 39 18 14 47 21 17 24 42 45 39 29 26 14 36 21 40 34 43 50 40 13 28 24 37 55 5 11 64 0 
0 50 21 21 45 31 10 10 19 5 23 5 25 5 26 24 18 30 9 14 15 23 23 16 28 43 44 26 55 82 42 69 168 56 204 247 178 64 71 58 57 104 33 37 29 20 14 14 17 8 31 53 57 84 98 108 101 72 28 2 19 21 5 9 14 15 15 15 20 11 25 30 29 29 18 32 31 65 14 57 15 23 21 6 18 17 18 26 10 29 34 13 11 12 28 41 41 33 65 22 41 12 25 55 53 5 22 13 28 155 88 91 115 57 21 15 7 33 21 57 70 126 112 66 100 102 39 72 145 86 28 33 71 44 17 70 116 174 178 175 161 108 28 189 68 47 21 25 23 18 33 46 6 178 96 30 234 72 110 30 151 21 96 23 34 62 44 53 29 47 38 8 1 20 64 2 52 1 7 9 14 13 24 23 5 11 11 18 16 4 15 17 11 20 18 15 9 54 55 41 22 12 53 73 39 46 22 10 39 35 8 31 17 39 53 25 30 27 24 7 29 86 142 131 59 14 52 91 78 37 62 102 59 34 34 7 26 17 16 7 2 16 2 5 16 9 38 7 31 10 5 14 10 9 17 33 18 21 11 21 18 9 8 11 18 4 14 14 15 8 10 19 28 28 2 10 39 24 7 21 22 15 17 10 8 15 13 15 10 15 2 2 18 11 25 32 7 2 15 18 20 14 5 32 4 21 15 13 7 9 26 5 25 30 31 15 28 29 31 25 7 9 18 26 3 7 19 29 11 13 26 36 47 26 18 32 32 13 15 24 11 15 16 10 18 21 28 43 21 24 22 34 24 8 5 13 9 13 10 12 28 27 22 3 15 6 13 13 21 8 30 5 24 38 19 22 20 1 12 27 125 201 2 41 97 127 77 61 58 80 38 49 72 43 45 20 58 77 57 42 46 55 47 45 53 59 61 46 48 58 53 59 60 52 45 55 50 64 48 44 60 50 27 21 31 35 20 15 14 29 8 17 17 15 14 34 50 42 21 48 37 24 17 17 11 8 34 48 59 29 23 29 30 28 26 18 44 32 32 151 177 117 89 76 36 36 25 16 51 72 55 65 99 112 111 106 93 85 76 64 20 13 49 65 37 31 46 24 35 41 51 37 27 37 38 21 17 19 45 46 20 1 56 32 17 13 45 32 18 40 61 0 
0 43 26 25 43 33 6 16 12 9 22 14 21 10 35 18 41 27 19 26 11 32 19 10 24 40 42 32 60 101 55 27 154 125 147 19 207 46 80 47 45 75 34 18 28 22 1 4 5 9 23 33 28 33 30 33 28 17 6 4 14 19 19 18 27 13 29 13 24 24 38 20 11 13 23 22 46 37 45 31 5 18 20 8 19 32 28 12 34 27 31 32 23 22 23 3 27 24 44 17 33 25 45 60 22 12 25 19 48 147 50 90 74 59 10 19 19 27 25 41 97 131 95 72 132 197 76 156 47 185 44 52 37 41 15 32 32 72 182 230 55 205 206 33 139 40 7 28 48 75 93 106 65 206 156 217 71 167 245 90 55 127 19 27 33 58 23 7 25 42 28 9 12 32 42 18 38 0 8 8 22 7 37 1 14 9 13 12 6 4 14 16 10 14 29 10 11 53 53 39 42 45 59 68 42 22 2 6 39 15 12 29 20 24 18 29 19 27 15 43 64 106 138 127 31 49 68 89 70 50 83 94 41 34 27 8 29 4 6 10 21 30 21 14 7 40 29 39 28 8 6 14 10 11 19 30 4 4 6 15 10 7 5 12 20 8 15 5 2 7 12 15 25 24 20 27 23 20 2 16 17 16 18 4 13 33 40 34 32 24 12 3 15 8 21 19 17 20 26 19 12 12 8 22 12 7 25 20 19 24 12 11 12 23 30 23 3 15 17 4 14 4 25 19 8 10 13 30 7 8 4 11 30 25 22 27 32 32 24 27 7 16 16 12 14 22 11 36 34 21 18 43 24 8 5 8 12 14 14 15 29 17 22 2 16 5 8 0 17 4 31 4 20 20 28 12 15 18 10 36 48 142 112 60 104 125 58 41 57 79 34 34 72 21 46 40 26 19 31 31 40 50 61 58 53 57 60 50 26 21 39 62 79 79 64 69 77 64 62 56 48 33 25 44 72 82 67 23 20 49 43 29 28 12 29 17 27 30 60 88 48 24 5 16 13 27 47 52 55 73 68 55 57 49 20 19 52 68 98 169 180 101 75 67 35 37 17 45 64 66 58 73 90 98 109 101 92 91 76 49 34 35 56 42 29 38 53 61 67 58 34 10 35 61 39 14 14 47 55 44 25 50 67 26 27 28 33 11 26 74 50 0 
0 35 39 37 35 24 11 19 21 29 19 8 20 14 31 24 28 38 14 36 12 47 16 13 32 29 23 15 49 97 73 42 93 168 97 44 210 27 80 18 80 63 33 18 21 10 8 7 13 18 21 24 5 16 28 22 11 9 6 7 4 12 12 4 17 20 43 31 26 46 14 8 15 11 21 15 46 7 36 15 14 17 11 11 29 39 30 15 47 27 24 30 28 28 26 31 2 30 24 20 31 22 41 34 11 8 18 7 70 98 64 113 77 46 3 1 12 20 11 68 134 100 44 12 30 157 234 75 142 87 165 24 66 29 8 17 36 35 21 78 254 98 20 64 7 52 29 38 72 83 67 121 135 54 75 162 71 197 186 237 156 45 34 16 11 46 53 30 35 18 24 9 20 30 15 24 22 1 6 7 16 10 29 2 13 4 12 8 5 5 7 16 16 17 19 15 18 54 56 62 50 38 43 27 36 31 30 23 28 23 15 20 22 39 28 21 8 17 28 55 75 113 132 104 17 72 67 60 50 62 100 81 38 28 12 8 28 12 8 2 23 7 37 14 21 33 10 14 12 6 2 8 14 14 22 23 13 3 5 17 12 6 4 15 13 11 17 2 3 9 17 20 11 7 10 21 17 18 13 17 16 4 17 10 22 19 24 22 6 10 15 2 15 7 14 17 5 11 26 34 29 15 17 11 4 17 14 11 12 13 13 10 7 12 14 31 29 11 14 22 10 15 23 7 12 4 28 21 8 16 16 20 21 26 31 22 21 26 24 23 19 29 32 22 26 32 4 20 37 22 22 41 22 7 9 10 10 6 7 16 34 34 26 16 21 16 21 18 24 19 31 17 28 14 12 16 14 23 2 25 27 34 185 178 86 116 67 47 53 51 11 32 77 37 84 63 48 42 40 58 55 48 56 47 31 37 34 38 65 67 55 50 53 57 58 53 42 31 41 43 59 48 50 56 51 39 65 59 63 58 51 39 36 33 39 12 25 27 53 40 12 19 28 19 11 33 36 31 39 53 84 72 41 28 21 41 61 87 111 155 174 77 56 59 36 34 15 51 49 56 73 69 68 96 113 106 96 91 71 42 46 43 36 38 36 49 53 48 34 22 26 14 37 54 8 13 13 42 11 23 42 48 29 12 21 26 19 1 49 70 16 0 
0 27 45 42 24 20 23 20 8 18 5 8 16 11 21 14 17 38 1 46 30 49 10 10 36 27 19 15 38 79 80 60 34 147 69 33 202 22 82 11 78 14 17 18 18 14 11 6 17 13 17 21 14 7 6 30 19 19 12 14 13 1 7 8 10 8 36 10 17 29 22 15 33 42 19 52 25 41 32 22 16 4 6 17 47 43 22 32 47 29 11 22 20 27 21 37 31 25 13 19 28 15 22 7 20 19 5 20 97 34 104 89 41 46 63 34 24 25 18 43 175 121 29 44 76 63 43 192 141 117 97 119 23 52 50 41 24 18 15 34 135 67 52 193 28 120 24 51 107 144 77 127 199 214 126 19 205 42 122 16 85 32 33 10 26 25 55 12 30 5 28 15 30 31 10 24 9 4 1 7 8 7 19 6 13 8 9 4 4 7 5 20 21 28 16 8 36 68 69 55 23 34 31 5 26 14 13 24 26 20 16 18 17 24 5 6 17 12 37 67 85 105 105 76 17 87 68 40 48 94 128 72 21 16 7 0 22 12 10 13 13 25 21 37 13 7 21 11 11 3 2 6 12 11 14 11 21 1 3 17 15 5 3 12 19 24 26 19 20 21 29 17 7 18 9 19 15 11 18 7 8 11 7 8 12 17 17 18 13 8 11 16 9 12 33 35 25 25 9 10 3 11 28 5 11 28 37 28 24 29 19 1 14 10 8 8 32 21 23 10 15 6 26 16 8 15 24 13 7 24 14 28 7 18 33 23 26 42 32 22 18 15 23 12 32 37 16 18 28 27 24 39 22 9 15 16 12 7 2 9 15 23 9 7 19 10 14 2 14 18 24 16 25 18 2 23 13 31 5 28 37 164 198 53 92 104 48 32 27 38 16 25 77 42 75 17 40 45 25 12 32 7 6 26 30 51 51 65 91 95 64 32 17 21 34 41 10 21 48 60 78 74 71 43 16 12 44 47 37 39 37 34 37 43 57 52 40 52 56 38 27 17 35 39 38 46 25 23 65 89 21 22 25 36 15 52 77 90 100 134 150 52 42 60 51 30 38 58 38 53 88 85 94 120 122 96 76 74 63 47 44 45 31 55 52 37 27 27 34 17 18 32 41 35 19 21 12 51 19 27 48 26 15 24 10 36 18 12 76 69 27 0 
0 25 42 38 19 12 17 12 2 18 8 8 2 14 19 18 24 33 4 50 40 46 18 12 37 36 26 22 32 57 79 62 12 111 42 252 200 40 84 9 84 13 5 13 28 23 19 22 25 17 12 11 17 15 27 31 6 21 11 11 17 11 8 13 13 15 40 32 21 14 38 37 7 49 5 60 7 56 22 13 3 9 10 13 58 46 6 42 42 28 11 11 6 11 20 26 32 23 11 23 20 5 12 21 19 15 13 36 103 28 116 44 57 65 31 65 8 46 41 29 139 204 67 69 24 170 142 126 73 145 98 27 90 79 8 22 15 14 3 12 55 170 49 34 165 137 54 24 50 199 102 25 21 116 152 149 72 20 44 23 86 31 22 17 27 38 42 15 26 12 31 11 30 29 17 20 10 8 5 8 2 7 8 9 14 10 6 2 5 6 8 16 17 14 31 41 65 70 60 33 8 40 38 18 32 25 29 28 28 16 13 23 19 12 0 3 10 4 43 82 104 111 93 44 44 89 69 35 60 124 132 37 12 16 3 10 12 20 15 13 25 25 22 34 27 16 20 13 10 2 2 7 5 11 11 6 23 1 3 18 13 5 2 8 18 16 19 2 4 11 23 2 15 1 19 21 8 4 20 15 6 5 8 7 9 24 26 9 14 4 10 18 17 26 31 6 28 24 9 14 7 14 42 38 12 14 29 26 13 18 19 26 30 25 24 12 26 26 32 13 15 12 21 29 11 8 8 16 22 36 21 24 4 7 22 15 12 28 46 50 17 31 10 19 33 37 24 13 23 26 31 33 21 13 19 17 9 4 7 12 13 24 9 7 20 8 12 4 2 2 14 18 10 25 10 25 22 29 9 39 39 91 171 162 147 95 35 52 1 37 42 18 57 10 56 15 54 34 31 20 28 20 27 31 20 31 53 54 9 27 48 66 69 61 54 64 68 80 74 63 70 76 94 100 89 76 60 38 47 72 71 40 24 18 22 41 34 49 36 22 36 32 8 14 38 64 26 19 61 76 78 84 63 47 33 27 65 117 127 141 138 55 38 63 55 11 51 62 40 63 102 119 127 133 125 96 76 81 81 65 58 55 41 40 36 5 15 23 15 22 1 47 47 12 3 28 10 49 43 35 31 24 8 29 27 51 35 38 85 60 48 0 
0 30 32 30 25 14 4 11 18 26 14 2 7 5 10 6 25 20 4 48 39 35 17 10 31 45 34 26 22 41 83 72 29 79 58 209 188 60 71 26 79 20 10 25 22 17 14 11 25 12 5 5 16 8 22 11 11 9 9 7 8 8 2 17 12 29 15 20 10 26 67 21 51 35 23 44 17 50 22 9 9 10 2 21 42 43 22 35 39 25 18 10 6 19 14 10 11 25 8 19 7 14 8 7 0 15 14 41 84 53 92 18 38 67 31 69 118 74 52 56 16 170 178 24 101 137 136 54 33 5 100 96 20 98 132 65 26 28 35 36 18 21 52 122 124 74 49 24 18 159 149 85 179 159 25 101 103 163 76 244 93 14 21 24 14 14 11 11 24 26 21 13 29 13 15 14 10 10 8 10 8 9 4 10 11 8 8 11 8 2 11 8 23 24 23 40 59 48 39 36 40 56 49 37 34 21 15 10 31 27 19 24 21 19 19 20 19 19 68 115 137 128 92 29 58 71 66 49 88 143 118 15 19 16 2 11 4 31 19 13 25 15 36 9 41 32 44 21 0 5 3 13 1 11 11 11 19 4 5 18 13 4 4 19 23 31 32 27 28 27 32 21 10 14 34 17 9 8 9 12 6 6 15 5 22 18 15 9 22 16 19 17 20 41 40 36 31 3 26 22 22 20 7 38 12 26 25 29 14 18 37 18 22 34 24 10 16 27 22 25 17 19 13 30 17 11 8 8 16 36 29 15 10 6 11 30 24 13 22 65 28 17 42 31 48 22 19 4 26 21 31 30 15 21 26 25 18 8 2 17 12 27 25 25 32 24 22 14 4 8 13 27 5 32 7 16 15 8 8 21 37 46 104 244 233 89 26 50 26 30 46 19 62 23 54 6 41 53 70 54 51 37 21 24 18 19 28 19 15 14 38 48 45 43 50 71 79 56 27 30 38 31 56 81 75 67 75 48 41 50 68 74 75 59 42 48 58 56 38 33 53 25 29 28 22 74 41 5 43 95 116 117 119 106 80 51 18 117 151 143 137 72 41 63 38 26 56 59 54 88 117 113 95 93 98 79 73 80 77 58 59 46 36 16 28 27 31 37 20 17 14 59 44 7 8 15 45 43 50 31 24 18 16 41 43 53 39 44 60 42 53 0 
0 43 22 20 38 29 14 17 5 21 18 5 12 9 9 12 26 10 18 43 32 28 24 19 27 44 36 38 28 39 95 74 31 28 85 178 138 58 47 33 60 59 39 32 14 7 9 22 14 14 11 17 31 26 36 23 8 7 16 17 9 5 10 21 18 11 37 30 13 26 38 49 70 25 43 27 26 35 21 3 9 8 24 33 8 31 45 18 38 20 24 15 12 28 15 10 15 21 11 11 13 12 10 10 7 11 19 36 41 28 56 31 5 26 74 102 154 244 224 158 126 59 159 145 95 41 216 86 123 180 16 57 94 67 61 150 141 18 61 24 48 17 8 10 40 47 23 8 8 119 154 97 159 136 119 32 73 81 116 206 53 27 22 5 27 23 12 18 35 31 9 34 31 15 16 10 8 12 10 9 15 11 12 11 10 8 16 17 7 7 12 3 27 37 2 27 51 32 30 48 50 35 32 31 18 9 1 13 21 19 25 12 24 19 12 24 37 63 108 141 138 94 34 49 70 57 71 59 97 133 75 25 4 25 14 3 17 30 20 29 11 5 29 22 25 48 40 27 9 5 4 19 7 8 10 12 14 5 5 18 15 2 3 28 10 10 12 6 7 8 17 18 8 23 34 18 35 32 26 23 8 16 17 9 18 15 16 8 19 15 22 23 7 26 26 18 3 6 24 24 21 16 18 27 19 18 17 28 17 5 23 28 37 26 17 10 8 1 14 32 10 11 18 16 15 22 17 6 17 23 23 4 17 7 19 48 42 5 18 49 34 44 29 15 52 8 11 23 27 12 29 25 13 23 28 29 25 18 9 16 7 15 16 5 20 5 7 8 10 15 8 30 12 37 13 17 8 11 15 17 27 38 234 47 89 61 25 35 25 31 47 25 65 32 59 15 12 2 21 23 18 5 15 7 10 13 27 35 30 38 29 20 17 14 38 55 45 31 38 69 79 56 73 56 47 27 54 81 83 63 57 86 102 85 57 51 61 74 43 35 68 45 45 45 46 72 23 60 100 116 96 67 63 67 62 71 76 139 178 132 143 79 35 58 7 49 58 55 70 110 122 97 90 110 109 78 64 74 83 53 25 34 41 55 63 63 19 15 14 7 42 61 25 5 7 36 39 35 46 18 18 22 42 38 28 50 32 19 18 31 55 0 
0 56 22 15 46 46 5 29 20 7 25 19 5 15 7 12 31 12 15 34 18 11 11 20 27 37 27 33 33 47 93 62 54 41 61 122 85 55 10 37 11 30 65 63 18 23 20 9 8 25 18 19 21 13 36 14 3 14 13 18 21 7 16 13 5 7 35 18 45 36 16 52 36 8 41 25 27 31 19 4 9 21 29 40 27 19 65 13 44 27 31 23 22 19 19 24 15 5 18 7 20 4 21 13 14 20 38 29 53 38 34 28 54 81 3 160 168 101 167 166 161 133 36 195 50 127 154 158 79 107 125 18 30 101 135 31 166 133 11 68 22 71 6 19 42 11 26 49 75 205 175 192 150 72 83 79 114 26 202 160 3 29 8 9 18 14 8 26 27 10 31 34 1 25 15 4 7 6 10 4 13 10 15 8 1 11 18 12 13 5 21 15 25 42 33 65 62 38 44 55 29 33 51 43 14 20 32 37 27 21 33 1 26 27 7 5 22 77 126 128 101 45 20 62 80 61 64 84 114 105 33 21 20 5 35 23 24 20 14 30 5 2 12 20 1 32 32 28 8 5 4 15 18 20 25 18 1 8 8 18 10 9 6 25 11 10 12 7 9 17 22 21 18 15 43 24 34 11 27 22 21 21 3 19 5 26 25 7 11 27 21 10 18 15 3 14 12 7 12 13 19 10 16 8 25 23 15 18 22 22 24 13 15 18 22 18 15 20 27 17 7 8 13 18 13 8 27 6 15 19 13 14 25 3 18 10 49 24 21 44 18 18 19 35 36 5 3 36 14 12 35 16 5 5 17 25 25 20 11 5 13 11 16 7 15 4 11 18 10 8 13 24 10 28 7 7 11 12 3 10 8 51 106 38 217 78 12 25 6 34 29 52 43 43 39 30 37 30 30 40 31 6 17 27 24 11 30 31 28 16 5 7 27 35 39 22 26 38 54 58 85 71 62 31 47 38 57 82 89 97 80 62 73 82 76 73 58 78 65 44 73 77 37 23 43 31 46 108 104 71 63 30 15 20 18 24 70 145 165 106 130 68 18 39 42 58 41 40 80 124 117 99 112 124 107 69 59 77 82 46 35 56 63 52 60 41 36 14 7 20 42 26 19 14 27 52 30 21 31 7 13 20 50 44 26 50 48 16 28 52 65 0 
0 62 29 10 28 48 29 3 18 15 14 25 22 30 36 21 17 7 2 19 7 14 10 23 32 37 37 35 39 59 63 42 47 50 71 108 68 51 36 24 26 17 74 83 8 10 5 12 8 33 21 11 8 34 33 18 10 8 22 9 19 20 4 5 13 14 32 60 42 43 45 30 16 34 32 18 27 41 25 22 16 24 12 43 35 1 71 12 35 40 34 9 17 24 24 13 10 21 2 18 9 12 7 18 24 14 38 17 4 47 40 16 143 122 140 69 247 1 102 50 66 93 64 124 168 88 65 35 72 146 62 115 44 12 101 161 37 133 136 22 70 47 60 59 45 65 45 41 171 115 245 64 167 60 73 107 181 157 214 112 16 8 8 5 14 2 12 21 10 19 28 11 17 20 8 8 10 8 8 7 14 5 14 4 11 15 10 5 11 11 31 14 18 62 66 58 39 37 43 55 30 27 73 52 15 8 5 31 35 31 31 29 25 26 21 13 21 97 152 107 68 17 28 60 91 49 49 132 133 67 10 15 25 25 21 17 31 19 8 28 7 6 8 8 20 22 10 20 23 22 10 9 12 4 5 13 14 12 15 19 4 10 17 16 11 10 9 4 17 22 13 9 24 25 41 25 28 35 15 17 23 12 8 15 8 16 31 21 25 5 10 18 21 14 9 3 13 12 15 8 10 7 17 19 3 24 17 10 2 8 9 23 5 15 21 29 15 5 14 21 30 27 26 24 13 4 26 24 5 25 12 9 16 15 3 18 54 20 16 42 25 23 21 59 30 1 5 33 6 29 46 21 15 11 5 17 23 18 5 7 17 19 7 5 8 18 23 14 9 12 3 7 14 14 2 3 13 10 11 5 18 32 32 185 55 182 42 30 17 24 19 65 20 54 17 41 25 22 19 9 24 14 18 9 23 5 37 8 21 17 4 19 24 32 26 25 13 31 24 21 31 50 39 29 41 52 52 32 23 49 60 50 62 82 106 111 89 87 93 88 94 117 101 45 4 75 142 138 82 44 64 38 17 52 50 46 75 123 125 88 101 63 14 25 44 43 26 37 94 137 113 101 106 94 80 62 74 88 66 39 48 60 54 17 7 2 29 33 17 34 12 26 37 30 45 44 14 5 14 18 4 8 52 59 58 62 56 25 51 37 44 0 
0 66 40 21 28 32 23 25 5 24 19 29 24 7 23 17 3 7 13 19 12 7 17 36 43 36 36 29 36 46 38 54 70 60 81 91 60 50 45 15 36 24 70 81 27 34 22 17 14 36 30 24 14 21 21 10 10 12 13 17 27 11 22 28 19 15 25 65 41 62 47 17 17 44 35 25 31 55 25 23 20 8 9 42 33 15 52 37 47 38 17 30 36 20 15 22 18 9 15 11 10 10 18 14 27 21 29 27 43 12 48 141 140 60 160 44 84 235 244 85 90 68 43 29 158 15 134 20 42 202 187 18 100 91 31 84 147 89 79 134 25 43 106 120 74 76 35 45 229 34 139 123 168 45 52 80 149 172 135 31 24 14 4 16 20 14 7 23 8 23 17 6 9 8 8 10 5 17 4 18 18 14 21 4 14 13 9 7 6 17 28 11 36 79 45 15 31 32 27 57 45 70 66 18 21 13 13 33 6 12 18 10 9 19 16 26 67 151 171 87 42 10 46 72 85 42 88 165 96 12 7 22 5 24 27 20 15 24 29 28 1 22 18 9 28 29 11 20 16 27 15 2 5 10 24 25 13 7 16 21 14 15 21 5 8 10 22 13 27 16 16 13 17 23 23 37 10 28 16 18 2 14 15 1 10 4 27 12 24 13 15 25 5 8 13 16 10 15 19 11 6 3 6 4 18 25 14 4 6 4 11 27 18 18 10 20 26 36 37 29 20 17 14 24 25 21 27 35 35 28 4 7 7 13 16 16 59 8 24 31 33 19 27 64 19 10 10 25 15 42 44 10 8 9 5 18 24 16 4 8 9 18 10 13 16 7 8 23 14 6 10 8 3 2 4 8 13 1 12 8 26 25 13 39 73 79 14 46 19 17 52 62 30 56 61 55 51 32 65 55 47 23 45 54 35 11 22 21 11 11 21 25 15 18 17 35 19 26 21 38 44 45 41 48 58 55 40 28 25 30 39 57 67 72 84 101 105 99 96 90 77 89 122 80 79 151 148 109 88 88 100 86 69 62 20 67 100 124 108 79 76 59 20 13 20 34 31 56 109 141 110 102 103 86 82 83 96 89 55 49 44 37 41 14 14 15 33 34 32 32 13 23 19 31 41 20 7 10 10 32 45 60 61 69 45 30 20 25 56 50 29 0 
0 53 34 21 23 23 4 12 13 9 3 13 23 27 19 14 4 12 17 14 2 12 20 33 32 26 36 41 37 34 36 70 83 86 69 30 84 80 38 23 28 19 76 75 18 20 14 19 6 29 31 40 35 23 7 9 18 13 7 5 13 4 23 8 19 28 59 46 21 66 39 14 30 49 17 13 21 32 20 11 8 12 15 35 12 31 24 23 25 17 7 16 11 13 28 14 2 6 10 0 11 5 30 7 15 29 8 34 42 31 119 117 25 118 124 30 34 83 211 110 65 80 63 38 119 81 161 21 148 3 4 158 198 148 157 52 42 138 148 15 125 90 106 158 213 179 116 18 193 96 144 58 81 29 10 11 21 46 36 22 11 11 11 14 11 2 18 25 7 20 15 4 7 5 2 3 14 10 10 21 15 6 20 13 7 7 9 4 10 15 16 28 62 67 25 18 24 44 34 45 70 32 13 13 10 25 21 39 56 50 30 22 9 31 12 67 126 167 126 27 2 26 58 70 67 71 139 141 28 22 39 21 13 16 15 10 5 8 25 19 20 14 9 20 27 22 9 21 17 33 22 8 10 14 27 12 2 5 13 18 16 16 16 3 5 15 9 18 30 11 24 19 32 48 19 23 41 41 36 3 13 5 11 22 14 23 9 17 20 19 20 31 19 16 16 8 9 7 9 14 19 22 17 13 22 15 7 2 7 4 3 18 12 5 15 11 10 7 16 12 22 16 11 17 23 6 11 7 43 63 44 29 16 13 6 23 56 8 10 20 24 7 17 45 3 8 16 27 42 50 52 31 16 4 9 18 20 13 4 8 9 17 14 3 9 23 35 26 4 11 1 6 7 6 8 7 12 7 15 16 17 25 8 167 21 217 63 42 18 20 35 34 34 17 24 9 46 22 70 42 72 13 19 20 24 22 5 13 27 22 10 9 21 18 15 14 16 24 12 18 17 8 5 4 20 36 47 54 54 47 37 43 59 54 49 73 102 114 99 90 90 75 115 151 174 168 107 60 53 70 89 102 119 81 55 81 92 134 106 62 58 50 18 13 21 43 47 72 111 132 106 94 98 95 97 88 79 60 31 42 34 18 28 9 25 11 25 11 18 36 14 34 19 20 17 4 14 22 26 45 50 50 48 47 31 17 25 32 53 48 17 0 
0 40 34 33 39 32 6 11 17 15 18 13 3 3 7 13 14 7 14 17 14 11 14 27 35 28 34 53 45 26 38 69 116 135 48 82 129 147 26 48 36 19 86 72 19 13 4 15 4 25 19 51 25 13 19 19 15 13 10 7 14 7 11 30 35 57 48 20 59 53 16 17 38 55 29 52 53 38 24 16 16 19 28 34 14 37 7 30 28 31 10 15 18 11 33 41 23 4 10 10 4 18 21 17 25 18 31 17 5 29 76 143 147 115 73 5 26 39 130 169 38 106 51 48 130 133 48 188 132 213 203 21 43 190 229 183 56 29 73 148 49 67 82 161 94 191 183 66 109 185 172 91 13 13 11 8 8 31 20 41 18 4 5 13 10 16 24 13 13 19 10 4 12 12 12 18 17 12 21 13 8 15 1 17 13 3 2 11 16 17 12 34 77 66 40 29 37 66 44 24 71 37 19 9 7 23 14 12 20 22 13 24 7 27 42 131 160 121 52 23 23 31 73 81 77 109 144 84 22 17 44 29 18 29 12 11 20 26 36 29 22 3 9 17 15 4 9 8 4 28 13 11 15 8 29 15 2 5 8 8 10 10 5 2 3 13 27 28 17 8 10 24 18 21 34 20 19 10 53 18 29 25 20 34 8 40 7 13 4 17 10 24 17 22 25 27 25 22 24 34 22 13 13 9 15 15 12 4 6 11 8 13 14 8 21 19 25 17 27 21 14 14 25 25 28 15 13 13 26 30 21 17 12 14 14 30 34 2 14 9 12 26 22 47 14 12 5 2 28 40 38 25 16 10 14 17 17 12 5 3 2 11 22 25 21 15 13 10 11 11 8 5 6 2 3 4 14 14 19 25 4 24 16 66 180 58 187 43 31 9 27 24 34 27 41 15 32 10 60 10 80 28 20 11 26 43 22 23 31 38 28 25 30 29 30 15 13 22 15 17 18 13 11 8 15 11 20 31 38 40 34 33 40 45 35 44 72 94 92 76 65 90 185 230 203 127 53 22 14 28 60 83 110 90 60 61 83 137 101 51 46 42 11 12 28 51 64 82 103 121 103 99 119 129 120 91 69 55 37 36 18 8 23 10 24 11 27 20 20 38 16 37 21 15 7 5 32 40 31 39 36 10 26 18 19 21 36 26 33 33 17 0 
0 53 29 23 38 33 11 16 20 5 8 12 13 10 10 6 12 6 11 20 17 7 4 18 33 23 34 65 48 24 61 95 158 152 95 138 124 189 48 66 46 36 103 80 14 2 14 24 24 24 13 34 9 11 23 21 28 22 5 3 4 12 14 36 57 27 34 43 57 37 18 7 26 46 9 45 28 19 8 5 10 6 25 27 19 34 13 36 20 29 15 14 22 14 15 20 19 11 10 14 19 18 5 23 10 26 18 26 34 52 42 40 73 43 28 6 2 13 51 150 183 42 114 98 77 180 113 137 205 159 108 202 124 152 236 88 165 148 245 172 86 42 29 206 193 88 192 140 58 21 18 23 21 14 8 11 21 24 17 31 7 4 10 18 18 18 22 13 30 16 5 10 15 12 12 17 6 32 15 12 19 15 22 11 20 11 9 14 18 19 18 33 77 85 35 40 53 62 28 29 50 28 27 18 16 18 12 8 4 8 13 21 17 14 79 145 136 60 7 12 9 49 101 106 103 132 120 42 17 36 24 31 4 30 27 15 13 7 28 34 12 4 15 14 3 8 11 4 4 22 12 14 10 11 26 14 7 9 8 3 2 2 4 6 15 16 10 3 23 35 27 26 55 49 31 7 25 26 51 12 11 1 7 26 7 37 27 15 12 25 19 22 8 10 7 15 19 15 13 39 32 21 12 12 10 17 20 16 7 10 13 5 11 17 24 8 16 11 18 8 13 10 11 13 15 10 10 23 39 49 34 8 6 13 23 25 33 26 23 8 7 22 8 40 30 21 12 14 28 41 32 7 14 18 18 18 19 18 12 3 5 3 5 10 9 16 35 33 7 22 16 10 15 14 15 12 18 8 21 27 2 21 16 5 41 73 78 38 37 25 43 39 43 36 38 37 50 43 40 14 55 43 12 0 13 41 29 19 12 28 24 12 15 11 18 29 13 15 19 10 8 15 18 19 15 11 11 12 6 11 27 30 25 44 55 53 46 59 78 65 80 194 252 235 155 60 25 24 10 23 75 83 72 55 4 51 100 135 95 45 42 36 5 19 37 55 73 86 97 116 110 128 145 128 103 72 66 55 31 37 37 32 19 16 29 22 30 25 19 25 11 34 23 18 23 24 45 34 10 18 36 21 40 8 28 43 61 55 36 30 29 0 
0 65 45 30 30 26 8 15 26 26 24 15 7 7 17 21 12 13 8 8 14 7 2 17 38 20 21 61 50 39 93 136 185 109 141 136 104 165 67 49 50 22 103 88 10 10 18 25 17 6 28 20 15 18 19 6 32 11 12 12 10 10 38 61 26 43 42 39 24 20 25 17 30 49 42 72 65 28 23 18 15 19 39 39 23 36 19 29 29 23 14 22 24 7 14 13 4 18 17 9 28 17 7 25 6 32 19 32 13 49 41 49 13 13 11 11 28 36 26 23 130 201 57 133 92 93 173 58 142 200 45 219 231 121 92 68 77 172 29 63 144 43 99 30 190 168 74 142 167 101 40 10 23 21 10 26 32 14 4 25 7 15 12 16 15 8 10 15 23 2 7 15 14 4 5 8 10 29 14 22 16 10 29 4 13 15 17 13 16 24 28 42 69 78 36 31 36 32 14 31 9 28 24 2 7 18 20 9 4 13 17 26 18 59 106 124 105 30 12 11 22 88 119 104 103 130 77 12 16 7 8 18 17 14 10 11 17 29 26 14 19 7 10 10 5 5 6 8 20 15 3 11 7 11 26 34 20 13 8 5 3 4 11 17 13 19 16 9 22 1 29 22 21 35 14 25 23 29 32 28 2 11 8 13 27 18 15 17 18 17 17 22 18 22 7 9 16 29 26 36 28 25 4 14 5 8 17 23 14 1 9 2 4 12 28 17 10 11 14 17 13 9 26 32 33 18 9 34 25 30 27 13 5 15 28 20 18 18 17 14 14 25 21 23 38 46 29 31 33 32 24 20 16 21 19 20 23 24 21 3 5 8 19 26 24 17 17 21 34 14 4 17 22 7 10 15 17 11 24 23 2 14 16 26 147 7 212 67 44 6 43 18 24 8 33 30 23 28 3 23 30 34 18 12 26 25 30 11 7 18 19 5 13 7 7 24 30 37 41 36 19 12 4 11 15 10 2 11 14 9 12 13 8 22 43 43 36 35 47 86 183 248 244 186 105 42 47 62 48 49 101 91 70 56 23 80 134 126 82 37 40 31 5 38 45 51 74 89 102 123 131 147 134 95 78 56 49 37 19 38 27 14 3 29 31 8 15 14 11 6 15 29 23 8 13 14 34 42 11 14 17 26 35 11 28 18 36 21 20 18 29 0 
0 76 50 18 21 27 15 13 4 8 13 11 9 12 14 10 16 13 0 15 19 8 2 21 47 32 19 50 38 31 119 191 193 45 167 86 112 127 66 28 52 27 88 89 4 2 23 39 4 25 25 23 25 2 3 5 22 33 22 13 17 28 84 50 55 58 7 11 10 2 13 8 20 51 54 56 80 23 8 8 7 36 55 52 34 45 19 27 27 25 9 13 13 7 19 8 8 9 28 9 23 27 4 31 21 41 41 12 20 10 28 29 5 11 8 18 29 19 32 31 13 146 192 52 104 109 66 136 122 103 229 179 63 10 52 67 62 139 245 168 189 28 36 76 48 171 169 57 129 181 110 44 8 21 13 29 17 16 7 28 22 17 9 12 12 7 11 16 22 7 10 15 12 2 11 16 18 4 25 20 1 15 15 13 3 12 15 9 11 32 41 45 52 55 47 21 8 21 37 46 31 22 43 16 11 12 12 33 23 16 40 21 28 112 157 122 81 27 22 7 64 119 102 86 99 97 17 19 32 12 18 21 4 4 4 13 17 8 21 22 18 15 21 15 8 6 8 12 3 18 21 13 6 11 7 13 15 12 8 8 5 8 16 17 22 9 20 2 24 17 22 17 29 42 24 26 19 38 13 28 14 5 6 29 36 27 12 17 7 19 18 20 5 23 10 7 27 28 24 21 21 43 27 29 6 0 13 24 15 7 15 7 14 12 24 23 11 19 9 17 23 8 17 12 19 1 15 22 26 33 29 20 16 10 32 35 31 23 7 21 16 24 39 17 24 14 29 29 47 17 15 21 12 18 18 18 20 26 29 7 18 25 33 32 16 11 26 17 31 24 16 18 17 15 35 27 4 16 28 19 9 10 24 35 32 156 42 178 37 28 42 42 42 27 39 26 16 29 26 18 25 25 50 52 34 28 38 11 8 8 23 26 10 9 10 15 10 12 20 31 10 5 7 17 9 6 14 18 15 9 11 17 9 18 6 21 31 25 15 137 16 10 218 141 67 20 25 28 62 86 117 89 65 45 34 126 147 105 61 29 40 24 23 51 41 40 75 97 111 136 143 136 114 93 85 63 48 34 37 38 11 25 20 33 22 10 20 32 16 17 23 18 15 15 13 12 37 52 28 37 65 57 21 7 20 20 28 25 6 6 41 0 
0 58 37 22 25 31 15 8 2 9 10 11 17 5 19 6 7 5 7 20 20 10 16 29 46 25 22 45 26 39 143 221 162 21 164 57 108 109 55 18 34 36 70 79 11 19 18 35 24 31 7 22 5 16 4 5 2 10 5 14 15 43 82 25 90 25 24 5 15 4 7 7 8 43 75 55 77 33 11 6 11 41 45 25 26 44 10 33 28 28 18 20 24 19 21 12 13 16 25 27 5 24 27 35 18 17 33 34 14 19 22 22 15 5 10 17 29 22 43 38 19 50 133 187 111 29 61 21 168 206 88 28 43 85 221 58 70 194 82 195 104 79 67 34 126 73 164 194 69 109 119 66 33 8 22 15 25 17 42 73 50 23 3 14 11 13 8 21 16 4 11 9 8 15 14 11 7 19 7 10 14 8 3 5 16 19 10 7 18 31 62 57 46 43 33 25 12 43 43 55 16 22 38 20 9 8 21 7 36 14 43 22 65 160 147 62 29 8 18 29 110 144 103 102 96 45 26 25 48 5 26 24 14 13 13 21 23 15 8 14 20 13 31 16 18 14 14 23 31 26 16 16 13 5 8 4 10 13 11 11 10 13 17 18 18 5 18 20 15 7 8 13 16 17 31 14 20 26 8 31 9 9 14 34 9 32 13 18 13 4 13 18 21 10 17 21 24 25 21 8 15 34 12 38 18 2 13 25 7 11 15 15 20 5 17 29 12 17 23 4 29 21 31 21 8 7 19 15 14 19 39 25 13 25 42 36 14 20 32 21 13 24 52 18 38 46 42 18 48 11 11 15 16 15 4 10 17 25 29 23 31 21 21 32 28 17 2 8 8 21 27 21 1 7 22 20 22 18 17 5 8 5 20 18 25 27 63 40 15 22 29 14 7 39 54 17 19 9 15 15 17 41 35 60 4 14 28 31 24 7 10 33 35 33 17 25 22 22 15 33 12 5 15 12 11 17 9 5 5 6 4 7 1 14 4 12 21 27 26 191 59 253 184 109 56 42 31 21 62 133 143 101 61 2 89 146 130 80 41 24 42 14 48 51 39 44 91 122 135 161 171 147 104 87 80 62 46 22 17 19 16 25 19 25 10 12 14 22 7 21 22 21 17 6 10 21 45 48 27 51 58 39 29 19 29 38 32 25 24 25 28 0 
0 34 31 32 41 28 7 16 21 18 9 10 20 22 26 19 13 10 11 15 23 7 33 21 36 36 34 36 10 54 164 233 106 22 139 97 128 141 55 31 34 45 60 61 11 8 2 21 24 20 19 9 20 13 24 13 21 26 14 19 28 22 57 63 58 9 22 18 8 9 3 6 5 13 45 47 45 16 24 17 13 39 43 37 35 31 14 25 31 16 7 3 25 12 13 4 16 24 14 29 17 10 10 17 4 5 10 30 38 21 9 35 42 23 5 17 15 18 23 19 21 28 17 104 193 167 57 26 36 208 246 13 2 57 173 111 2 63 239 181 55 42 46 67 53 204 167 111 64 121 76 55 37 16 27 24 20 18 60 37 51 47 27 36 14 20 17 9 3 13 13 4 9 11 4 8 4 22 17 20 2 13 15 10 13 18 17 30 36 42 73 57 36 24 13 35 45 56 36 18 29 34 41 25 15 12 10 33 22 30 50 79 152 176 91 17 7 9 42 86 139 135 82 95 74 20 8 8 44 29 38 27 11 15 18 6 21 5 7 26 25 29 36 4 14 26 19 15 8 17 22 22 6 7 7 3 5 6 22 14 17 18 18 32 18 6 2 13 7 5 11 2 26 11 5 15 8 14 8 35 8 6 14 22 10 22 25 8 9 11 5 0 2 7 11 21 8 34 29 18 12 17 25 12 24 11 16 22 9 10 11 13 29 14 5 19 31 13 18 12 34 15 16 14 19 26 20 12 8 13 36 37 39 37 40 29 16 24 21 5 27 17 49 22 25 35 19 25 50 30 7 13 28 25 20 10 14 24 21 15 4 19 12 13 21 20 19 8 16 6 31 36 29 17 24 23 13 12 3 22 17 15 24 26 20 168 34 161 57 16 18 22 30 31 43 39 37 26 12 24 2 24 17 36 38 4 25 36 41 1 10 5 8 20 18 32 22 21 12 25 17 21 30 15 19 20 18 18 17 12 11 11 9 11 1 4 15 19 54 230 65 232 165 94 30 11 9 14 75 183 158 84 17 63 125 126 97 63 31 23 46 27 58 52 73 95 147 172 169 186 202 162 108 67 71 50 9 11 21 17 24 28 20 13 3 4 9 8 7 25 26 20 12 14 16 38 55 36 31 44 29 32 43 27 36 45 38 28 19 15 21 0 
0 33 31 35 43 25 10 13 37 22 19 28 23 5 26 27 41 22 14 4 27 10 36 24 24 30 54 44 22 80 194 216 59 28 143 152 144 195 76 5 24 32 28 39 10 11 3 9 22 14 19 25 15 24 19 22 12 36 33 21 15 14 33 32 17 18 20 30 17 21 4 10 17 12 15 12 26 30 4 14 22 52 23 6 17 24 2 6 23 20 12 18 40 18 29 7 16 26 8 18 7 10 20 23 24 21 10 8 22 26 27 37 52 41 5 26 20 27 26 25 23 12 11 4 77 180 198 110 22 78 224 200 95 141 7 203 106 148 55 222 109 88 42 85 75 126 17 86 59 203 51 44 39 8 41 25 36 18 45 65 78 36 23 14 8 25 18 25 16 19 9 10 12 7 11 11 7 13 6 7 10 8 11 5 12 18 27 42 41 55 59 37 34 18 24 46 41 45 6 19 16 2 21 7 17 25 9 13 23 52 76 134 169 116 31 13 12 34 79 136 144 92 53 83 44 20 3 17 38 30 10 3 7 14 18 13 17 8 8 20 12 15 22 5 19 31 12 22 22 17 18 6 14 11 5 17 19 7 27 14 17 14 12 29 20 24 11 14 2 11 8 11 18 14 30 31 17 9 1 23 27 31 26 16 2 14 17 9 5 15 20 14 20 5 19 17 11 10 4 8 21 14 24 17 7 21 22 18 16 5 8 6 17 27 7 7 15 25 9 5 25 15 19 5 23 28 7 21 11 2 18 27 31 36 41 46 38 18 17 17 41 10 41 10 36 52 36 27 49 41 19 23 42 22 13 20 4 21 21 12 19 11 4 7 18 24 26 5 11 26 35 24 34 17 13 2 8 12 11 18 11 13 5 5 17 82 206 253 135 16 6 26 39 24 32 18 22 27 10 18 9 18 21 25 68 43 15 22 37 28 12 12 17 11 13 29 37 17 24 12 7 10 27 14 11 12 8 3 3 12 16 3 2 9 18 15 2 4 82 237 47 223 166 90 39 54 40 25 109 188 140 47 31 86 118 88 66 53 33 28 48 41 59 59 95 110 164 174 156 166 174 122 80 72 60 37 11 17 13 11 28 15 17 15 8 5 17 28 22 37 28 10 31 40 30 47 47 24 27 25 24 37 40 25 43 47 17 16 17 16 17 0 
0 48 36 26 33 31 11 16 24 20 4 11 21 23 29 17 30 36 9 19 21 8 17 24 26 16 48 39 25 113 218 166 39 18 168 160 125 213 104 14 14 9 3 32 18 4 20 21 39 13 13 16 24 23 4 7 38 33 9 22 33 27 13 19 5 21 31 35 24 34 2 1 3 18 14 17 8 17 29 7 43 36 21 13 17 25 24 14 37 30 10 20 54 25 48 22 10 22 14 21 20 25 23 11 11 15 18 11 16 39 45 34 41 72 23 37 42 51 63 30 8 8 28 40 58 4 109 185 129 74 131 102 138 113 61 175 103 51 59 140 173 31 133 62 59 84 181 143 140 18 219 108 37 13 43 43 25 25 43 16 40 55 81 70 0 20 26 32 22 8 3 9 8 3 8 11 23 22 17 10 11 14 21 21 12 18 42 49 50 52 30 21 43 29 29 40 31 37 15 29 8 43 48 49 26 33 1 24 36 63 120 153 110 30 38 27 26 69 100 144 114 60 56 74 25 28 17 33 29 17 24 13 15 8 11 18 1 14 8 12 8 7 6 11 6 15 32 24 15 15 2 28 16 20 22 26 20 5 25 13 19 9 3 30 10 18 7 12 8 15 8 10 12 23 22 14 2 11 3 8 5 8 5 5 17 17 1 8 12 12 14 26 8 14 16 14 14 14 18 7 20 18 9 15 15 22 25 17 24 7 6 4 8 26 21 11 8 14 8 12 22 5 5 19 13 12 10 8 13 7 3 8 17 39 22 4 37 34 28 31 51 17 38 25 21 41 25 23 39 34 13 16 48 43 11 22 13 18 20 33 17 5 13 18 16 33 17 15 15 21 27 11 23 6 16 6 6 5 2 11 9 13 3 10 21 7 75 46 0 43 42 47 21 28 31 45 33 13 5 16 34 35 22 38 37 39 10 7 17 36 35 28 22 13 10 11 24 45 24 31 27 18 24 4 8 17 12 4 2 8 12 5 2 15 5 15 7 19 89 213 23 230 163 95 42 24 37 25 115 151 115 54 49 83 100 76 57 33 30 28 43 59 77 90 118 120 168 180 171 164 140 98 33 30 38 31 24 21 11 15 27 12 10 18 10 17 33 25 25 33 8 24 49 38 33 41 38 20 29 17 15 41 53 42 37 36 5 4 9 1 7 0 
0 62 39 20 26 35 23 17 14 17 11 10 5 22 27 32 26 17 29 23 22 16 14 20 26 5 44 35 37 137 213 117 50 7 191 141 117 197 115 30 19 7 16 21 18 13 29 28 53 36 16 12 11 30 45 59 44 21 28 42 36 15 12 25 12 20 38 37 25 42 2 1 2 12 10 18 28 5 34 12 50 28 35 17 13 24 40 24 35 17 17 5 43 14 34 36 5 15 14 21 21 22 20 20 21 4 18 26 8 34 56 65 25 59 61 10 87 70 80 58 1 14 30 16 43 60 15 105 150 157 186 84 49 130 164 38 86 64 60 110 151 90 79 104 18 109 211 150 54 55 212 202 58 11 18 30 25 27 25 49 23 96 15 87 11 5 32 1 36 7 12 13 7 4 7 8 9 10 20 10 9 8 18 8 15 36 80 74 46 33 14 27 47 20 27 37 39 32 5 23 6 45 19 32 17 25 13 37 52 107 161 135 43 12 6 15 47 81 84 134 99 24 36 50 10 19 9 45 25 16 18 2 15 4 10 18 15 15 8 11 15 23 20 17 17 23 14 14 14 24 11 35 28 18 28 23 23 10 25 14 21 14 11 32 13 17 5 5 13 16 15 15 17 28 3 28 20 21 14 14 25 25 21 10 15 2 24 16 19 11 10 15 31 17 19 8 29 21 11 18 28 49 45 31 15 16 21 11 20 11 1 8 4 8 19 16 15 6 10 12 28 10 5 19 22 26 7 10 8 8 12 11 32 47 8 21 18 27 14 22 50 20 24 38 26 55 37 32 21 29 24 27 17 49 20 21 7 13 14 21 21 14 20 8 26 22 2 2 17 26 35 34 31 32 38 25 6 7 12 21 23 21 12 10 15 30 189 38 126 39 39 72 37 54 8 35 31 23 23 28 21 27 19 26 26 26 36 31 15 25 25 22 21 18 16 11 23 37 14 33 29 36 31 35 22 21 17 8 4 7 11 10 8 11 13 11 18 25 73 182 5 235 158 105 47 37 28 35 88 122 124 115 104 92 76 78 62 5 25 31 52 84 106 135 159 157 201 213 190 159 117 69 17 4 22 20 20 27 2 20 21 10 15 5 18 31 28 10 13 7 23 29 52 32 29 36 21 29 21 7 37 55 57 39 23 29 11 4 11 3 5 0 
0 68 40 18 25 37 28 22 24 20 2 12 12 16 5 15 15 8 29 37 5 33 25 22 21 15 46 33 58 151 174 80 84 37 194 96 112 155 108 58 34 6 15 24 16 17 25 43 27 41 17 9 23 60 65 41 19 39 38 20 3 17 18 9 20 12 36 35 21 39 8 5 10 13 3 11 27 8 32 17 45 29 38 17 8 19 43 27 14 16 15 8 18 38 12 34 26 10 9 10 15 14 25 21 13 14 7 29 22 8 38 67 72 14 82 56 92 104 64 85 7 12 16 32 39 33 23 22 65 99 195 228 40 125 63 141 120 227 231 214 176 115 34 76 40 97 131 39 230 135 156 230 79 29 37 41 44 5 40 29 2 66 70 77 14 10 12 31 16 14 14 7 2 3 5 10 13 15 17 3 15 7 23 11 20 60 101 41 27 18 34 50 34 19 41 40 32 6 8 10 5 34 36 20 19 11 15 62 111 164 153 65 6 11 17 25 101 109 96 124 106 37 20 37 18 11 14 41 17 19 20 3 16 9 13 14 20 9 5 8 10 2 20 19 16 34 20 9 9 32 17 21 38 25 26 5 26 7 24 12 17 17 16 32 19 21 10 6 15 10 17 14 21 17 23 37 21 12 26 14 40 30 23 15 21 8 31 17 18 9 8 13 13 26 8 26 8 48 18 40 27 5 17 7 4 9 12 21 7 12 9 3 9 3 15 20 10 13 4 10 28 18 18 14 21 15 36 35 31 18 18 17 36 42 11 19 6 4 27 11 33 21 13 20 45 74 34 10 12 36 42 17 11 41 13 8 12 29 29 18 12 13 14 28 19 7 8 9 9 7 24 41 34 24 10 18 18 7 21 26 28 23 13 8 13 12 79 219 239 67 67 55 18 29 38 38 32 19 46 31 27 18 32 13 16 7 18 27 11 24 24 22 21 17 14 7 14 20 15 11 18 20 42 48 36 23 21 16 13 12 12 8 13 6 5 6 36 23 44 163 244 219 156 119 65 40 25 30 48 85 106 116 108 84 55 67 52 33 44 57 87 114 135 154 158 161 200 188 129 77 52 36 25 17 15 17 28 26 14 12 21 11 4 15 26 23 5 7 7 25 39 27 44 35 38 37 29 17 24 46 58 57 41 13 20 31 24 14 18 13 10 0 
0 65 40 20 28 38 24 26 18 18 10 0 18 8 12 1 11 1 25 34 14 27 44 19 17 25 38 25 83 161 117 47 93 10 164 65 113 122 72 53 52 15 19 32 16 10 4 34 26 10 39 36 41 60 10 53 54 38 22 10 19 16 7 20 21 5 24 32 20 23 18 12 6 15 8 10 13 22 24 11 43 12 34 17 10 4 44 13 21 15 4 8 14 26 18 26 42 4 7 3 13 17 33 22 11 23 7 17 28 20 0 20 61 81 33 96 39 116 42 77 15 7 17 22 26 26 16 9 33 29 70 245 242 62 135 125 148 89 72 192 210 200 19 50 67 49 95 243 237 116 133 228 87 12 9 21 18 31 26 12 11 17 22 15 24 3 13 11 13 11 7 7 12 10 7 4 11 13 14 3 14 15 45 53 66 73 72 24 37 11 67 48 9 42 56 27 12 30 19 21 32 8 25 12 7 14 39 116 167 149 67 16 19 20 63 123 149 130 118 127 104 45 30 16 25 15 10 26 31 21 20 22 5 12 14 8 16 4 5 10 23 28 31 32 31 25 6 12 2 30 28 21 23 4 14 15 20 4 25 14 13 21 14 27 16 15 10 17 16 1 15 2 15 4 21 19 5 9 22 10 17 17 11 11 30 22 17 3 17 12 10 9 18 6 30 30 13 59 21 34 23 16 21 11 4 10 14 28 9 13 8 8 5 9 22 14 5 10 16 4 17 26 22 13 28 17 48 22 16 12 12 1 21 34 41 29 7 5 37 8 32 38 31 20 46 67 37 32 37 50 72 38 4 25 15 16 22 30 15 11 16 7 7 27 32 2 8 5 24 27 34 22 29 29 14 17 14 9 30 30 32 22 3 18 14 2 20 86 40 240 34 47 42 42 26 37 35 20 21 29 21 47 30 28 23 16 21 27 9 31 31 18 10 2 11 26 45 51 26 11 14 6 22 13 35 21 21 20 18 15 16 7 12 21 27 23 45 15 20 149 227 208 168 143 67 26 21 15 21 35 48 54 49 34 16 38 51 85 85 93 125 138 155 168 177 187 195 147 79 44 34 26 21 19 8 16 25 23 15 12 12 14 17 25 21 1 14 16 20 42 35 24 41 36 43 36 25 16 42 57 51 36 22 2 22 24 26 10 15 11 8 0 
0 58 39 24 33 37 16 23 25 32 12 7 20 12 19 12 20 19 36 37 7 27 31 29 35 29 22 20 114 174 69 40 104 30 118 30 80 104 43 40 68 20 21 17 33 26 29 14 16 31 30 34 8 53 69 66 33 19 10 5 10 4 8 19 14 14 8 22 22 3 27 12 12 4 15 20 31 33 14 48 52 28 38 23 12 23 46 18 36 7 10 11 77 95 59 29 41 6 8 8 11 13 32 16 25 20 15 2 20 30 26 21 25 86 46 75 51 62 54 49 13 23 23 17 11 5 15 23 54 48 44 90 30 24 106 38 124 189 171 104 99 236 182 58 101 59 122 66 38 47 170 202 83 11 11 14 20 22 7 12 7 13 12 21 15 14 18 6 17 9 8 17 20 18 18 2 11 11 12 0 10 15 46 38 38 51 38 18 34 41 59 38 4 50 52 2 12 15 25 24 22 4 12 6 13 23 125 196 155 52 23 15 20 35 101 131 113 79 72 75 48 7 23 4 14 16 18 2 13 17 6 8 20 12 12 15 7 18 11 11 11 11 13 14 18 11 4 7 20 18 15 15 7 5 2 5 15 12 30 20 16 31 18 21 11 9 4 23 19 7 21 10 8 12 17 14 26 19 14 9 26 38 32 25 20 27 9 5 20 4 10 7 17 30 17 17 31 40 9 24 5 12 2 12 4 15 22 23 13 9 4 3 10 5 26 15 11 11 17 10 20 32 36 28 23 3 37 43 23 28 18 17 13 1 8 13 17 16 36 19 44 34 31 11 37 38 46 35 18 20 43 46 27 11 32 38 48 38 20 17 11 4 13 31 24 7 8 14 16 12 26 14 14 32 22 26 22 15 37 39 39 26 8 13 16 13 22 187 15 133 48 7 22 31 18 41 23 15 5 29 52 19 34 35 31 11 8 26 14 28 35 40 42 34 22 18 16 30 37 20 21 29 4 24 18 16 15 15 16 17 17 3 14 31 41 35 34 3 17 116 209 232 183 149 68 27 32 25 25 33 36 34 28 19 13 18 57 105 92 93 129 124 137 169 187 181 158 105 64 45 32 12 9 3 15 21 21 19 13 17 10 13 27 20 3 15 14 21 23 33 24 17 49 33 29 40 24 43 44 29 14 15 18 12 19 9 29 12 17 12 14 0 
0 60 32 25 47 33 17 31 22 24 19 10 11 11 12 16 25 20 41 34 26 27 4 24 50 40 14 9 137 184 54 51 89 48 87 9 73 107 17 23 76 29 25 18 38 20 24 5 13 27 29 36 36 42 38 14 4 14 10 5 13 5 15 17 11 16 5 7 31 16 40 8 14 14 1 6 13 5 31 54 24 36 40 23 1 30 50 19 53 24 25 23 65 45 74 16 36 26 18 8 15 12 30 15 22 11 21 19 21 39 41 16 9 53 102 25 53 25 17 8 7 3 20 18 18 40 52 37 28 33 25 21 57 194 30 228 166 179 224 233 138 69 24 243 46 58 85 153 242 17 255 148 38 18 22 9 14 1 5 4 14 9 17 4 6 23 7 16 27 16 10 13 7 6 15 8 5 12 13 10 14 24 46 32 44 41 13 30 43 43 38 43 15 29 48 30 38 49 17 22 34 24 5 17 52 122 212 175 61 15 14 20 5 101 143 98 50 52 64 42 23 12 16 5 27 25 5 5 17 27 18 1 28 11 7 12 7 13 12 10 19 18 18 18 5 15 8 21 14 3 18 17 22 23 21 7 8 10 16 18 17 30 24 21 16 13 3 23 20 10 20 6 7 8 13 17 4 3 7 12 12 25 13 24 17 21 5 3 16 10 7 12 12 10 13 16 19 6 9 9 29 33 31 27 22 12 18 16 12 10 16 21 9 10 20 21 1 12 20 23 7 4 15 36 16 4 11 36 12 21 18 31 20 25 20 7 11 15 15 19 55 33 28 14 36 43 44 27 8 15 18 45 34 25 16 13 40 38 12 15 8 12 22 17 17 17 18 14 8 10 26 22 25 25 27 32 14 15 40 44 33 32 8 4 13 16 27 65 201 228 97 18 21 39 10 35 28 15 20 22 35 22 43 7 28 8 16 20 20 22 25 15 12 13 8 7 8 22 36 17 13 7 24 15 7 9 5 10 18 28 31 30 34 28 22 33 34 20 14 82 195 1 191 142 71 41 31 17 31 33 40 45 36 29 15 47 99 121 102 112 136 131 151 183 173 121 77 33 9 21 21 3 5 7 5 12 16 20 23 13 16 28 18 5 7 6 6 32 24 23 33 41 46 13 21 30 16 36 48 20 4 18 24 12 13 2 25 8 8 12 11 0 
0 71 22 9 60 24 17 29 12 9 27 15 12 19 12 19 11 30 26 16 8 9 5 28 36 58 13 8 143 189 86 63 49 51 84 13 106 107 16 7 70 41 17 18 16 34 24 28 32 36 36 35 24 7 7 7 4 7 15 5 16 3 24 6 21 8 6 18 38 9 48 11 19 8 9 10 14 13 12 51 69 58 25 13 22 26 63 36 66 46 40 26 68 110 66 22 28 33 23 30 9 21 28 16 24 9 15 19 45 20 45 16 23 13 64 56 23 31 43 47 37 34 36 11 7 30 30 36 30 63 61 12 59 72 36 189 255 237 193 214 25 227 74 11 219 154 69 126 161 147 73 7 10 7 5 9 9 2 3 10 11 13 14 16 4 20 15 28 22 12 13 14 12 12 10 7 7 7 7 3 18 43 58 48 61 50 18 31 30 14 37 34 8 33 37 50 29 27 22 30 9 34 14 79 148 194 175 69 10 24 41 37 86 155 126 48 47 75 55 12 16 11 15 9 46 13 24 22 19 15 12 13 22 15 11 9 10 9 6 19 5 18 10 9 21 13 24 18 19 25 37 21 15 19 24 20 13 9 12 23 39 17 28 22 11 13 4 19 11 20 15 9 12 5 6 7 8 4 7 7 11 21 24 12 5 12 11 11 17 15 6 10 8 18 9 8 4 18 15 14 19 7 8 11 10 9 9 19 9 11 12 17 24 10 14 12 13 17 11 13 24 30 26 10 11 13 19 13 28 11 12 25 24 13 19 14 17 17 4 31 40 36 28 34 24 21 31 29 30 27 16 41 19 5 14 24 19 29 30 13 10 13 26 34 30 23 8 4 5 13 21 15 7 6 13 9 6 11 40 34 16 25 17 7 3 19 23 41 107 38 200 10 15 14 29 37 42 46 55 39 46 14 35 31 31 27 18 25 22 15 27 17 11 12 11 18 16 14 29 30 14 2 14 19 22 19 7 4 2 12 26 33 35 22 20 28 30 29 34 91 201 235 185 144 75 55 54 39 29 7 24 47 33 45 31 91 127 103 96 110 135 154 159 152 123 53 29 19 11 29 31 4 11 7 10 21 24 18 13 21 11 20 18 8 10 13 7 38 34 11 40 51 40 26 24 8 25 24 54 30 18 25 24 11 7 5 13 13 7 10 4 0 
0 68 25 17 62 20 22 31 4 5 23 10 12 18 13 10 10 36 20 13 14 9 18 29 17 62 27 6 137 192 132 55 11 68 92 28 136 93 11 14 68 45 15 12 5 23 11 26 1 12 7 8 7 4 11 5 10 11 13 5 14 11 26 8 20 10 1 25 27 12 43 11 16 3 2 4 3 1 4 4 24 43 36 17 14 39 48 22 69 46 29 34 47 5 32 34 14 8 15 42 13 25 14 10 32 18 10 9 51 31 31 54 102 76 10 56 62 36 49 26 81 36 15 0 28 50 48 48 114 99 15 54 63 59 144 92 25 110 27 85 202 57 239 56 167 220 195 222 73 29 56 36 21 8 8 8 8 8 8 7 4 11 17 11 7 10 1 16 19 17 11 7 4 5 5 9 13 6 6 14 26 45 56 40 36 27 10 22 30 11 36 24 35 56 22 32 45 41 17 38 39 25 97 160 176 141 72 13 15 19 95 111 127 117 73 41 70 72 16 17 21 27 9 10 51 7 36 21 19 14 7 22 12 16 10 8 27 28 33 7 9 15 10 10 14 34 25 4 32 23 36 24 10 13 24 9 13 10 7 4 46 8 27 12 2 4 13 13 6 19 7 10 12 5 4 5 10 8 7 15 9 5 15 21 19 13 15 19 6 15 3 5 11 17 30 27 3 19 10 16 30 27 18 20 19 4 19 22 13 8 13 18 18 15 20 21 14 1 17 18 21 10 5 7 18 17 7 8 31 28 12 14 28 29 28 13 25 2 12 41 7 35 44 25 18 8 22 19 26 38 24 42 17 6 16 12 7 23 43 35 21 12 10 13 17 16 11 14 22 15 6 20 19 7 18 29 15 14 29 14 29 23 10 18 31 23 20 23 236 33 86 26 34 18 21 22 8 13 37 21 44 27 26 30 34 34 9 17 12 12 31 11 9 8 24 17 24 9 12 27 40 40 29 18 26 37 27 19 13 9 11 14 8 19 35 17 3 9 54 127 194 191 161 147 92 82 84 42 52 16 28 56 40 70 75 112 122 94 92 107 147 166 130 97 79 21 13 19 15 28 29 4 4 15 18 21 18 11 6 8 22 31 26 12 5 21 29 25 37 14 36 50 7 29 19 34 46 64 67 38 26 26 21 7 7 14 13 13 11 6 2 0 
0 51 40 38 51 19 24 8 14 26 11 5 5 10 16 12 24 27 10 17 20 12 18 30 12 44 35 31 126 200 185 35 64 90 85 69 147 69 21 32 74 37 13 4 11 17 10 24 5 8 5 4 4 4 7 4 4 5 4 5 7 2 19 18 15 18 12 32 12 22 30 4 8 3 4 4 0 3 5 9 23 14 33 21 13 38 68 78 45 28 14 7 22 19 25 21 22 34 41 49 19 14 15 7 32 17 11 23 55 9 50 96 58 81 54 42 31 25 60 30 90 69 44 34 34 30 47 122 136 226 121 38 83 105 39 152 122 149 106 172 17 156 213 211 121 83 232 62 172 36 28 18 16 0 4 4 2 3 3 6 7 17 15 8 9 2 4 6 17 16 8 0 6 7 5 10 10 8 9 8 38 58 51 19 7 24 17 24 32 36 33 47 62 34 18 7 27 24 39 24 85 141 205 186 117 46 9 17 43 91 128 107 73 59 73 72 59 41 3 19 11 26 10 7 44 11 28 32 21 8 13 11 14 10 9 2 40 37 32 17 4 17 13 15 10 30 5 17 19 16 27 23 7 18 29 28 11 7 6 12 39 25 12 20 8 8 21 4 13 11 7 5 7 7 4 14 12 12 21 10 13 13 12 11 17 23 22 18 24 28 27 28 29 24 14 29 14 25 20 5 11 20 17 17 12 27 13 8 15 4 17 2 6 11 11 11 12 10 8 8 24 32 24 18 22 24 20 23 24 34 12 18 13 12 21 21 16 10 25 40 11 14 11 13 26 12 22 16 17 31 28 52 38 26 25 16 3 4 25 20 15 14 11 12 15 18 14 18 11 10 8 2 6 17 28 30 14 26 9 21 21 10 2 18 18 27 36 18 118 227 213 99 20 24 42 13 23 23 31 14 23 44 23 21 35 25 19 11 16 31 38 18 15 2 17 11 25 17 11 9 7 20 27 10 19 17 12 22 28 21 15 14 11 34 36 39 10 24 69 130 162 155 138 148 105 88 71 29 40 24 40 71 60 96 118 138 139 128 132 160 178 150 104 78 50 15 14 23 13 21 14 13 27 34 32 25 13 2 12 11 1 14 14 16 27 37 38 30 45 66 52 25 17 23 27 45 32 41 23 10 14 16 17 10 14 4 8 10 5 4 7 0 
0 30 40 52 35 24 45 13 17 41 1 8 7 3 14 13 22 18 8 15 18 8 24 38 17 21 23 37 110 210 248 36 116 107 57 102 144 48 6 55 72 22 5 9 15 4 22 19 2 4 3 0 4 6 3 1 4 8 12 17 14 10 15 23 5 22 21 35 2 29 18 2 2 3 2 1 2 3 4 3 13 25 55 40 24 20 20 15 5 28 23 14 11 5 25 43 65 57 79 68 26 14 10 24 36 28 24 15 60 30 96 73 62 79 83 38 32 19 41 88 56 126 27 19 58 17 36 149 172 107 218 29 62 103 109 82 183 199 118 222 72 57 71 155 247 224 113 220 199 74 22 12 20 12 11 9 8 8 8 11 13 30 12 24 7 11 5 13 8 11 8 6 4 4 4 6 10 4 18 30 57 68 43 24 24 37 67 67 50 38 17 34 62 24 15 38 37 17 81 140 190 198 150 77 22 16 43 64 97 123 96 52 27 30 74 48 17 29 9 10 22 33 21 19 34 17 12 17 8 7 23 22 23 8 1 11 32 39 37 26 17 7 16 36 20 43 16 5 18 32 21 15 15 17 22 15 9 5 12 24 30 40 21 30 12 18 24 4 20 8 15 0 3 6 10 19 11 16 29 3 18 13 11 7 10 19 28 23 9 18 12 8 15 17 5 27 12 17 24 23 15 4 8 3 8 26 18 17 5 6 18 19 10 16 24 29 26 16 7 21 13 21 12 8 17 17 11 13 23 44 17 6 2 2 4 4 12 8 27 28 10 11 2 7 22 22 33 17 9 15 16 44 40 36 38 28 4 4 23 9 9 17 13 11 13 19 19 21 46 42 15 14 23 18 7 20 5 24 17 25 7 13 9 23 48 34 32 19 49 138 37 197 30 7 49 31 6 22 33 21 20 27 35 28 21 16 14 15 23 25 37 18 23 23 13 18 31 36 5 17 2 21 26 19 13 9 8 7 7 20 37 48 43 49 43 59 45 42 61 141 159 129 118 142 108 86 64 28 18 16 75 107 104 130 160 172 160 147 159 163 135 86 56 35 14 13 24 29 21 7 15 31 34 32 27 19 11 13 15 14 14 7 4 11 25 30 27 40 76 65 22 7 7 21 37 38 30 46 6 7 24 10 10 10 17 11 16 14 5 11 7 0 
0 31 46 66 33 32 69 37 28 44 3 11 8 5 5 16 21 26 23 28 32 30 44 35 5 12 3 21 85 214 46 41 166 110 14 127 127 45 40 80 65 23 10 21 24 18 22 8 8 4 1 3 5 6 5 4 4 10 16 17 16 12 10 15 6 18 22 33 4 28 15 5 4 5 4 3 4 5 6 14 11 29 41 34 57 56 46 63 55 42 4 23 8 16 60 65 34 8 84 85 22 12 14 24 19 9 25 23 60 51 79 55 94 131 98 6 21 21 48 135 73 154 62 60 14 51 7 89 210 95 191 106 59 38 125 134 92 171 139 16 104 51 57 71 198 70 43 177 143 115 11 17 33 12 11 9 8 8 8 1 21 24 16 27 1 16 2 17 10 7 9 7 4 4 5 4 11 21 32 56 83 84 53 22 6 44 78 42 13 24 21 22 61 56 26 21 75 129 167 193 178 107 34 10 15 41 92 120 131 113 68 41 56 61 58 31 21 31 14 8 27 28 18 15 22 5 21 25 12 7 36 20 18 21 11 10 12 27 36 25 24 27 14 45 7 41 13 18 30 31 25 2 10 13 18 22 4 12 9 33 18 34 22 20 17 22 22 8 22 8 17 5 5 11 20 18 2 18 25 9 17 4 10 13 6 8 24 22 18 19 16 14 14 12 8 20 14 3 13 23 21 14 5 17 10 7 17 23 15 14 18 26 30 10 15 12 3 8 19 21 4 25 10 9 22 17 13 21 23 40 21 17 27 29 35 27 17 15 27 15 7 18 12 4 20 19 32 26 23 18 8 26 11 20 37 31 14 10 22 8 7 23 16 8 7 16 22 16 17 26 28 22 15 24 35 27 8 14 23 10 20 12 20 8 16 12 16 32 22 13 46 28 16 35 35 32 24 17 10 26 20 34 56 28 22 17 26 18 26 20 32 15 20 22 8 24 18 50 11 15 5 16 12 31 49 53 48 41 34 39 47 50 38 30 27 36 27 15 31 156 180 114 104 134 104 78 56 17 25 54 110 123 120 140 173 180 156 149 148 109 55 28 18 6 15 21 17 12 20 21 18 14 17 10 8 4 12 17 18 4 12 10 8 25 41 45 43 63 63 16 28 4 17 20 24 33 42 46 19 14 27 10 6 8 8 18 24 22 5 6 18 0 
0 0 0 0 0 0 0 0 0 0 0 0 0 0 0 0 0 0 0 0 0 0 0 0 0 0 0 0 0 0 0 0 0 0 0 0 0 0 0 0 0 0 0 0 0 0 0 0 0 0 0 0 0 0 0 0 0 0 0 0 0 0 0 0 0 0 0 0 0 0 0 0 0 0 0 0 0 0 0 0 0 0 0 0 0 0 0 0 0 0 0 0 0 0 0 0 0 0 0 0 0 0 0 0 0 0 0 0 0 0 0 0 0 0 0 0 0 0 0 0 0 0 0 0 0 0 0 0 0 0 0 0 0 0 0 0 0 0 0 0 0 0 0 0 0 0 0 0 0 0 0 0 0 0 0 0 0 0 0 0 0 0 0 0 0 0 0 0 0 0 0 0 0 0 0 0 0 0 0 0 0 0 0 0 0 0 0 0 0 0 0 0 0 0 0 0 0 0 0 0 0 0 0 0 0 0 0 0 0 0 0 0 0 0 0 0 0 0 0 0 0 0 0 0 0 0 0 0 0 0 0 0 0 0 0 0 0 0 0 0 0 0 0 0 0 0 0 0 0 0 0 0 0 0 0 0 0 0 0 0 0 0 0 0 0 0 0 0 0 0 0 0 0 0 0 0 0 0 0 0 0 0 0 0 0 0 0 0 0 0 0 0 0 0 0 0 0 0 0 0 0 0 0 0 0 0 0 0 0 0 0 0 0 0 0 0 0 0 0 0 0 0 0 0 0 0 0 0 0 0 0 0 0 0 0 0 0 0 0 0 0 0 0 0 0 0 0 0 0 0 0 0 0 0 0 0 0 0 0 0 0 0 0 0 0 0 0 0 0 0 0 0 0 0 0 0 0 0 0 0 0 0 0 0 0 0 0 0 0 0 0 0 0 0 0 0 0 0 0 0 0 0 0 0 0 0 0 0 0 0 0 0 0 0 0 0 0 0 0 0 0 0 0 0 0 0 0 0 0 0 0 0 0 0 0 0 0 0 0 0 0 0 0 0 0 0 0 0 0 0 0 0 0 0 0 0 0 0 0 0 0 0 0 0 0 0 0 0 0 0 0 0 0 0 0 0 0 0 0 0 0 0 0 0 0 0 0 0 0 0 0 0 0 0 0 0 0 0 0 0 0 0 0 0 0 0 0 0 0 0 0 0 
