P2
512 512
255
114 114 114 114 114 114 114 114 114 114 114 114 114 114 114 114 114 114 114 114 114 114 114 114 76 76 76 76 76 76 76 76 76 40 40 40 76 76 76 76 76 76 76 76 76 76 76 76 76 76 76 76 76 76 76 76 76 76 76 76 76 76 76 76 76 76 76 76 76 76 76 76 76 76 76 76 76 76 76 114 76 76 76 76 76 76 114 114 114 114 114 114 114 114 114 114 114 114 114 114 114 114 76 114 114 114 114 114 114 114 114 114 114 114 114 114 114 114 114 114 114 114 114 114 114 114 114 114 114 114 114 114 114 114 114 114 114 114 114 114 114 114 114 114 114 114 114 114 114 114 114 114 114 114 114 114 114 114 114 114 114 114 114 114 114 114 114 114 114 114 114 114 114 114 114 114 114 114 114 114 114 114 114 114 114 114 114 114 114 114 114 114 114 114 114 114 114 114 114 114 114 114 114 114 114 114 114 114 114 114 114 114 114 114 114 114 114 114 114 114 114 114 114 114 114 114 114 114 114 114 114 114 114 114 114 114 114 114 114 114 114 114 114 114 114 114 114 114 114 114 114 114 114 114 114 114 114 114 114 114 114 114 114 114 114 114 114 114 114 114 114 114 114 114 114 114 114 114 114 114 114 114 114 114 114 114 114 114 114 114 114 114 114 114 114 114 114 114 114 114 114 114 114 114 114 114 114 114 114 114 114 114 76 114 76 76 76 76 76 76 76 76 76 76 76 76 76 76 76 76 76 76 76 76 114 114 114 114 114 114 114 114 114 114 114 114 114 114 114 114 114 114 114 114 114 114 114 114 114 114 114 114 114 114 114 114 114 114 114 114 114 114 114 114 114 114 114 114 114 114 114 114 114 114 114 114 114 114 114 114 114 114 114 114 114 114 114 114 114 114 114 114 114 114 114 114 114 114 114 114 114 114 114 114 114 114 114 114 114 114 114 114 114 114 114 114 114 167 167 167 167 167 167 167 167 167 167 167 167 167 167 167 167 167 167 167 167 167 114 114 114 76 76 76 76 76 76 76 76 76 76 76 76 76 76 76 76 76 76 76 76 76 76 76 76 76 76 114 76 76 114 114 76 76 76 114 114 76 76 76 114 114 76 76 76 76 114 76 76 76 76 114 114 76 114 114 114 114 114 114 114 114 
114 114 114 114 114 114 114 114 167 114 114 114 114 114 114 114 114 114 114 114 114 114 114 114 76 114 76 76 76 76 76 40 76 76 76 76 76 76 76 76 76 76 76 76 76 76 76 76 76 76 76 76 76 76 76 76 76 76 76 76 76 76 76 76 76 76 76 76 76 76 76 76 76 76 76 76 76 76 76 76 76 76 76 76 76 76 76 76 76 114 114 114 114 76 114 114 114 114 114 114 114 114 114 114 114 76 114 114 114 114 114 114 114 114 114 114 114 114 114 114 114 114 114 114 114 114 114 114 114 114 114 114 114 114 114 114 114 114 114 114 114 114 114 114 114 114 114 114 114 114 114 114 114 114 114 114 114 114 114 114 114 114 114 114 114 114 114 114 114 114 114 114 114 114 114 114 114 114 114 114 114 114 114 114 114 114 114 114 114 114 114 114 114 114 114 114 114 114 114 114 114 114 114 114 114 114 114 114 114 114 114 114 114 114 114 114 114 114 114 114 114 114 114 114 114 114 114 114 114 114 114 114 114 114 114 114 114 114 114 114 114 114 114 114 114 114 114 114 114 114 114 114 114 114 114 114 114 114 114 114 114 114 114 114 114 114 114 114 114 114 114 114 114 114 114 114 114 114 114 114 114 114 114 114 114 114 114 114 114 114 114 114 114 114 114 76 114 114 114 114 114 114 114 76 114 114 76 76 76 114 76 76 76 114 76 76 76 76 76 76 76 76 76 76 76 76 76 76 76 76 76 76 76 76 76 114 114 114 114 114 114 114 114 114 114 114 114 114 114 114 114 114 114 114 114 114 114 114 114 114 114 114 114 114 114 114 114 114 167 114 114 114 114 114 114 114 114 114 114 114 114 114 114 114 114 114 114 114 114 114 114 114 114 114 114 114 114 114 114 114 114 114 114 114 114 114 114 114 114 114 114 114 114 114 114 114 114 114 114 114 114 114 114 114 114 114 114 114 167 167 167 167 167 167 167 167 167 167 167 167 167 167 167 167 167 167 167 167 167 114 114 76 76 76 76 76 76 76 76 76 76 76 76 76 76 76 76 76 114 76 76 114 114 76 76 76 76 76 76 76 76 76 76 76 76 76 76 76 76 76 114 76 76 76 76 114 114 114 114 76 76 114 114 114 114 114 114 114 114 114 114 114 
114 114 114 114 114 114 114 114 114 114 114 114 114 114 114 114 114 114 114 114 114 114 114 76 76 76 76 76 76 76 76 40 40 40 40 76 40 76 76 76 76 76 76 76 76 76 76 76 76 76 76 76 76 76 76 76 76 76 76 76 76 76 76 76 76 76 76 76 76 76 76 76 76 76 76 76 76 76 76 76 76 76 76 114 76 114 114 114 76 114 114 114 76 114 114 114 114 114 114 114 114 114 114 114 114 114 114 114 114 114 114 114 114 114 114 114 114 114 114 114 114 114 114 114 114 114 114 114 114 114 114 114 114 114 114 114 114 114 114 114 114 114 114 114 114 114 114 114 114 114 114 114 114 114 114 114 114 114 114 114 114 114 114 114 114 114 114 114 114 114 114 114 114 114 114 114 114 114 114 114 114 114 114 114 114 114 114 114 114 114 114 114 114 114 114 114 114 114 114 114 114 114 114 114 114 114 114 114 114 114 114 114 114 114 114 114 114 114 114 114 114 114 114 114 114 114 114 114 114 114 114 114 114 114 114 114 114 114 114 114 114 114 114 114 114 114 114 114 114 114 114 114 114 114 114 114 114 114 114 114 114 114 114 114 114 114 114 114 114 114 114 114 114 114 114 114 114 114 114 114 114 114 114 114 114 114 114 114 114 114 114 114 114 114 114 114 76 76 114 114 114 114 114 114 114 76 76 114 114 76 76 114 76 114 76 114 114 76 76 76 76 76 76 76 76 76 76 76 76 76 76 76 76 76 114 114 114 114 114 114 114 114 114 114 114 114 114 114 114 114 114 114 114 114 114 114 114 114 114 167 114 114 114 114 114 114 114 114 114 114 114 114 114 114 114 114 114 114 114 114 114 114 114 114 114 114 114 114 114 114 114 114 114 114 114 114 114 114 114 114 114 114 114 114 114 114 114 114 114 114 114 114 114 114 114 114 114 114 114 114 114 114 114 114 114 114 114 114 167 167 167 167 167 167 167 167 167 167 167 167 167 167 167 167 167 167 167 167 167 167 114 76 76 76 76 76 76 76 76 76 76 76 76 76 76 76 76 76 76 76 76 76 76 76 76 76 76 114 114 76 76 76 76 76 76 76 76 76 76 76 76 76 76 76 76 76 114 76 76 114 114 114 114 76 114 114 114 114 114 114 114 114 
114 114 114 114 114 114 114 114 114 114 114 114 114 114 114 114 114 114 114 114 114 114 114 114 114 76 76 76 76 76 76 76 76 76 76 76 76 76 76 76 76 76 76 76 76 76 76 76 76 76 76 76 76 76 76 76 76 76 76 76 76 76 76 76 76 76 76 76 76 76 76 76 76 76 76 76 76 76 76 76 76 76 76 76 76 76 76 76 114 114 114 76 76 114 76 76 114 76 114 114 114 114 114 114 114 114 114 114 114 114 114 114 114 114 114 114 114 114 114 114 114 114 114 114 114 114 114 114 114 114 114 114 114 114 114 114 114 114 114 114 114 114 114 114 114 114 114 114 114 114 114 114 114 114 114 114 114 114 114 114 114 114 114 114 114 114 114 114 114 114 114 114 114 114 114 114 114 114 114 114 114 114 114 114 114 114 114 114 114 114 114 114 114 114 114 114 114 114 114 114 114 114 114 114 114 114 114 114 114 114 114 114 114 114 114 114 114 114 114 114 114 114 114 114 114 114 114 114 114 114 114 114 114 114 114 114 114 114 114 114 114 114 114 114 114 114 114 114 114 114 114 114 114 114 114 114 114 114 114 114 114 114 114 114 114 114 114 114 114 114 114 114 114 114 114 114 114 114 114 114 114 114 114 114 114 114 114 114 114 114 114 114 114 114 114 114 114 114 114 114 114 114 114 114 114 114 114 114 76 76 114 114 76 76 76 76 76 76 76 76 76 76 76 76 76 76 76 76 76 76 76 76 76 76 76 76 114 114 114 114 114 114 114 114 114 114 114 114 114 167 167 167 167 167 167 114 114 114 114 114 114 114 114 114 114 114 114 114 114 114 114 114 114 114 114 114 114 114 114 114 114 114 114 114 114 114 114 114 114 114 114 114 114 114 114 114 114 114 114 114 114 114 114 114 114 114 114 114 114 114 114 114 114 114 114 114 114 114 114 114 114 114 114 114 114 114 114 114 114 167 167 167 167 167 167 167 167 167 167 167 167 167 167 167 167 167 167 167 167 167 114 114 76 76 76 76 76 76 76 76 76 76 76 76 76 76 76 76 76 76 76 76 76 76 114 76 76 76 76 76 76 76 76 76 76 76 76 76 76 114 76 76 76 76 114 76 114 76 114 114 114 114 114 114 114 114 114 114 114 114 114 114 
114 114 114 114 114 114 114 114 114 114 114 114 114 114 114 114 114 114 114 114 114 114 114 114 114 76 76 76 76 76 76 76 40 40 76 76 76 76 76 76 76 76 76 76 76 76 76 76 76 76 76 76 76 76 76 76 76 76 76 76 76 76 76 76 76 76 76 76 76 76 76 76 76 76 76 76 76 76 76 76 76 76 76 76 114 114 114 114 76 76 76 76 114 114 114 114 76 114 114 114 114 114 114 114 114 114 114 114 114 114 114 114 114 114 114 114 114 114 114 114 114 114 114 114 114 114 114 114 114 114 114 114 114 114 114 114 114 114 114 114 114 114 114 114 114 114 114 114 114 114 114 114 114 114 114 114 114 114 114 114 114 114 114 114 114 114 114 114 114 114 114 114 114 114 114 114 114 114 114 114 114 114 114 114 114 114 114 114 114 114 114 114 114 114 114 114 114 114 114 114 114 114 114 114 114 114 114 114 114 114 114 114 114 114 114 114 114 114 114 114 114 114 114 114 114 114 114 114 114 114 114 114 114 114 114 114 114 114 114 114 114 114 114 114 114 114 114 114 114 114 114 114 114 114 114 114 114 114 114 114 114 114 114 114 114 114 114 114 114 114 114 114 114 114 114 114 114 114 114 76 114 114 114 114 114 114 114 114 114 114 114 114 114 114 114 114 114 114 76 114 114 114 114 114 114 114 114 76 76 114 114 114 76 114 76 76 76 76 76 76 114 76 76 76 76 76 76 76 76 76 76 76 76 76 76 76 114 114 114 114 114 114 114 114 114 114 114 114 114 114 114 114 114 114 114 114 114 114 114 114 114 114 114 114 114 114 114 114 114 114 114 114 114 114 114 114 114 114 114 114 114 114 114 114 114 114 114 114 114 114 114 114 114 114 114 114 114 114 114 114 114 114 114 114 114 114 114 114 114 114 114 114 114 114 114 114 114 114 114 114 114 114 114 114 114 114 114 114 114 114 167 167 167 167 167 167 167 167 167 167 167 167 167 167 167 167 167 167 167 167 167 114 114 76 76 76 76 76 76 76 76 76 76 76 76 76 76 76 76 76 76 76 76 76 76 76 76 76 76 76 76 76 76 76 76 114 76 76 76 114 76 76 114 114 114 76 76 76 114 114 76 76 114 76 114 114 114 114 114 114 114 114 
114 114 114 114 114 114 114 114 114 114 114 114 114 114 114 114 114 114 114 114 114 114 114 114 114 76 76 76 76 76 76 76 40 40 76 76 40 76 76 76 76 76 76 76 76 76 76 76 76 76 76 76 76 76 76 76 76 76 76 76 76 76 76 76 76 76 76 76 76 76 76 76 76 76 76 76 76 76 76 76 76 76 76 76 114 114 76 76 114 114 114 76 114 114 114 114 114 114 114 114 76 114 114 114 114 114 114 114 114 114 114 114 114 114 114 114 114 114 114 114 114 114 114 114 114 114 114 114 114 114 114 114 114 114 114 114 114 114 114 114 114 114 114 114 114 114 114 114 114 114 114 114 114 114 114 114 114 114 114 114 114 114 114 114 114 114 114 114 76 114 114 114 114 114 114 114 114 114 114 114 114 114 114 114 114 114 114 114 114 114 114 114 114 114 114 114 114 114 114 114 114 114 114 114 114 114 114 114 114 114 114 114 114 114 114 114 114 114 114 114 114 114 114 114 114 114 114 114 114 114 114 114 114 114 114 114 114 114 114 114 114 114 114 114 114 114 114 114 114 114 114 114 114 114 114 114 114 114 114 114 114 114 114 114 114 114 114 114 114 114 114 114 114 114 114 114 114 114 114 76 114 114 114 114 114 114 114 114 114 114 114 114 114 114 114 114 114 114 114 114 114 114 114 114 114 76 114 114 76 76 114 114 76 76 76 76 76 76 76 76 76 76 76 76 76 76 76 76 76 76 76 76 76 76 76 76 114 114 114 114 114 114 114 114 114 114 114 114 114 114 114 114 114 114 114 114 114 114 114 114 114 114 114 114 114 114 114 114 114 114 114 114 114 114 114 114 114 114 114 114 114 114 114 114 114 114 114 114 114 114 114 114 114 114 114 114 114 114 114 114 114 114 114 114 114 114 114 114 114 114 114 114 114 114 114 114 114 114 114 114 114 114 114 114 114 114 114 114 114 114 167 167 167 167 167 167 167 167 167 167 167 167 167 167 167 167 167 167 167 167 167 114 114 76 76 76 76 76 76 76 76 76 76 76 76 76 76 76 76 76 76 76 114 76 76 76 114 114 76 76 76 114 76 114 76 76 76 76 76 76 76 76 76 76 76 76 114 76 76 114 76 76 76 76 114 114 114 114 114 114 114 114 
114 114 114 114 114 114 114 114 114 114 114 114 114 114 114 114 114 114 114 114 114 114 114 114 76 76 76 76 76 76 76 76 76 76 76 76 76 76 76 76 76 76 76 76 76 76 76 76 76 76 76 76 76 76 76 76 76 76 76 76 76 76 76 76 76 76 76 76 76 76 76 76 76 76 76 76 76 76 76 76 76 76 76 76 76 76 76 76 76 114 114 114 114 114 114 114 114 114 114 114 114 114 114 114 114 114 114 114 114 114 114 114 114 114 114 114 114 114 114 114 114 114 114 114 114 114 114 114 114 114 114 114 114 114 114 114 114 114 114 114 114 114 114 114 114 114 114 114 114 114 114 114 114 114 114 114 114 114 114 114 114 114 114 114 114 114 114 114 114 114 114 114 114 114 114 114 114 114 114 114 114 114 114 114 114 114 114 114 114 114 114 114 114 114 114 114 114 114 114 114 114 114 114 114 114 114 114 114 114 114 114 114 114 114 114 114 114 114 114 114 114 114 114 114 114 114 114 114 114 114 114 114 114 114 114 114 114 114 114 114 114 114 114 114 114 114 114 114 114 114 114 114 114 114 114 114 114 114 114 114 114 114 114 114 114 114 114 114 114 114 114 114 114 114 114 114 114 114 114 114 114 114 114 114 114 114 114 114 114 114 114 114 114 114 114 114 114 114 114 114 114 114 114 114 114 114 114 114 114 76 76 114 76 76 76 76 76 76 76 76 76 76 76 76 76 76 76 76 76 76 76 76 76 76 76 76 76 114 114 114 114 114 114 114 114 114 114 114 114 114 114 114 114 114 114 114 114 114 114 114 114 114 114 114 114 114 114 114 114 114 114 114 114 114 114 114 114 114 114 114 114 114 114 114 114 114 114 114 114 114 114 114 114 114 114 114 114 114 114 114 114 114 114 114 114 114 114 114 114 114 114 114 114 114 114 114 114 114 114 114 114 114 114 114 114 114 114 114 114 114 114 167 167 167 167 167 167 167 167 167 167 167 167 167 167 167 167 167 167 167 167 167 114 114 76 76 76 76 76 76 76 76 76 76 76 76 76 76 76 76 76 76 114 76 76 76 114 76 76 114 76 76 76 76 114 114 76 76 76 76 76 76 76 76 76 114 114 76 76 114 114 114 114 114 114 114 114 114 114 114 114 114 
114 114 114 114 114 114 114 114 114 114 114 114 114 114 114 114 114 114 114 114 114 114 114 114 76 76 76 76 76 76 76 76 76 76 76 76 76 76 76 76 76 76 76 76 76 76 76 76 76 76 76 76 76 76 76 76 76 76 76 76 76 76 76 76 76 76 76 76 76 76 76 76 76 76 76 76 76 76 76 76 76 76 114 114 76 76 114 114 76 114 114 114 114 114 114 114 76 114 114 114 114 114 114 114 114 114 114 114 114 114 114 76 114 114 114 114 114 114 114 114 114 114 114 114 114 114 114 114 114 114 114 114 114 114 114 114 114 114 114 114 114 114 114 114 114 114 114 114 114 114 114 114 114 114 114 114 114 114 114 114 114 114 114 114 114 114 114 114 114 114 114 114 114 114 114 114 114 114 114 114 114 114 114 114 114 114 114 114 114 114 114 114 114 114 114 114 114 114 114 114 114 114 114 114 114 114 114 114 114 114 114 114 114 114 114 114 114 114 114 114 114 114 114 114 114 114 114 114 114 114 114 114 114 114 114 114 114 114 114 114 114 114 114 114 114 114 114 114 114 114 114 114 114 114 114 114 114 114 114 114 114 114 114 114 114 114 114 114 114 114 114 114 114 114 114 114 114 114 114 114 114 114 114 114 114 114 114 114 114 114 114 114 114 114 114 76 76 76 114 114 114 76 76 114 114 114 114 114 76 76 76 114 76 76 76 76 76 76 76 76 76 76 76 76 76 76 76 76 76 76 76 76 76 76 76 76 76 114 114 114 114 114 114 114 114 114 114 114 114 114 114 114 114 114 114 114 114 114 114 114 114 114 114 114 114 114 114 114 114 114 114 114 114 114 114 114 114 114 114 114 114 114 114 114 114 114 114 114 114 114 114 114 114 114 114 114 114 114 114 114 114 114 114 114 114 114 114 114 114 114 114 114 114 114 114 114 114 114 114 114 114 114 114 114 114 114 114 114 114 114 114 167 167 167 167 167 167 167 167 167 167 167 167 167 167 167 167 167 167 167 167 167 167 114 114 76 76 76 76 76 76 76 76 76 76 76 76 76 76 114 76 76 76 76 114 114 76 76 76 114 76 76 76 114 114 76 76 76 76 76 76 76 114 114 76 114 114 76 76 114 114 114 114 114 114 114 114 114 114 114 76 76 
114 114 114 114 114 114 114 114 114 114 114 114 114 114 114 114 114 114 114 114 114 114 114 114 114 76 76 76 76 76 76 76 76 40 76 40 76 76 76 76 76 76 76 76 76 76 76 76 76 76 76 76 76 76 76 76 76 76 76 76 76 76 76 76 76 76 76 76 76 76 76 76 76 76 76 76 76 76 76 76 76 76 76 76 76 76 76 76 76 76 76 76 76 114 114 114 76 114 114 114 114 114 114 114 114 114 114 114 114 114 114 114 114 114 114 114 114 114 114 114 114 114 114 114 114 114 114 114 114 114 114 114 114 114 114 114 114 114 114 114 114 114 114 114 114 114 114 114 114 114 114 114 114 114 114 114 114 114 114 114 114 114 114 114 114 114 114 114 114 114 114 114 114 114 114 114 114 114 114 114 114 114 114 114 114 114 114 114 114 114 114 114 114 114 114 114 114 114 114 114 114 114 114 114 114 114 114 114 114 114 114 114 114 114 114 114 114 114 114 114 114 114 114 114 114 114 114 114 114 114 114 114 114 114 114 114 114 114 114 114 114 114 114 114 114 114 114 114 114 114 114 114 114 114 114 114 114 114 114 114 114 114 114 114 114 114 114 114 114 114 114 114 114 114 114 114 114 114 114 114 114 114 114 114 114 114 114 114 114 114 114 114 114 114 114 114 76 114 114 114 114 114 114 114 114 114 114 76 76 76 76 76 114 76 114 114 76 76 76 76 76 76 76 76 76 76 76 76 76 76 76 76 76 76 76 76 114 114 114 114 114 114 114 114 114 114 114 114 114 114 114 114 114 114 114 114 114 114 114 114 114 114 114 114 114 114 114 114 114 114 114 114 114 114 114 114 114 114 114 114 114 114 114 114 114 114 114 114 114 114 114 114 114 114 114 114 114 114 114 114 114 114 114 114 114 114 114 114 114 114 114 114 114 114 114 114 114 114 114 114 114 114 114 114 114 114 114 114 114 114 114 114 167 167 167 167 167 167 167 167 167 167 167 167 167 167 167 167 167 167 167 167 167 167 114 76 76 76 76 76 76 76 76 76 76 76 76 76 76 114 76 76 76 76 76 114 76 76 76 76 76 76 76 76 76 76 76 76 114 76 76 76 76 76 76 76 76 76 76 76 76 76 114 114 114 114 114 114 114 114 76 76 
114 114 114 114 114 114 114 114 114 114 114 114 114 114 114 114 114 114 114 114 114 114 114 114 76 76 76 76 76 76 76 76 76 40 76 40 76 76 76 76 76 76 76 76 76 76 76 76 76 76 76 76 76 76 76 76 76 76 76 76 76 76 76 76 76 76 76 76 76 76 76 76 76 76 76 76 76 76 76 76 76 76 76 76 76 114 114 76 114 114 76 76 76 114 114 76 114 114 114 114 114 114 114 114 114 114 114 114 114 114 114 114 114 114 114 114 114 114 114 114 114 114 114 114 114 114 114 114 76 114 114 114 114 114 114 76 114 114 114 114 114 114 114 114 114 114 114 114 114 114 114 114 114 114 114 114 114 114 114 114 114 114 114 114 114 114 114 114 114 114 114 114 114 114 114 114 114 114 114 114 114 114 114 114 114 114 114 114 114 114 114 114 114 114 114 114 114 114 114 114 114 114 114 114 114 114 114 114 114 114 114 114 76 114 114 114 114 114 114 114 114 114 114 114 114 114 114 76 76 114 114 114 114 114 114 114 114 114 114 114 114 114 114 114 114 114 114 114 114 114 114 114 114 114 114 114 114 114 114 114 114 114 114 114 114 114 114 114 114 114 114 114 114 114 114 114 114 114 114 114 114 114 114 114 114 114 114 114 114 114 114 114 76 114 114 76 114 114 76 114 114 114 114 114 76 114 114 114 114 114 114 76 114 76 114 76 76 76 76 76 76 76 76 76 76 76 76 76 76 76 76 76 76 76 76 76 76 76 114 114 114 114 114 114 114 114 114 114 114 114 114 114 114 114 114 114 114 114 114 114 114 114 114 114 114 114 114 114 114 114 114 114 114 114 114 114 114 114 114 114 114 114 114 114 114 114 114 114 114 114 114 114 114 114 114 114 114 114 114 114 114 114 114 114 114 114 114 114 114 114 114 114 114 114 114 114 114 114 114 114 114 114 114 114 114 114 114 114 114 114 114 114 114 167 167 167 167 167 167 167 167 167 167 167 167 167 167 167 167 167 167 167 167 167 114 114 76 76 76 76 76 76 76 76 76 76 76 76 76 76 76 76 76 76 76 76 76 76 76 76 114 76 76 76 76 76 76 76 76 76 114 76 76 76 76 76 76 76 76 76 76 76 114 114 114 114 114 114 76 76 76 76 
114 114 114 114 114 114 114 114 114 114 114 114 114 114 114 114 114 114 114 114 114 114 114 114 76 76 76 76 76 76 40 40 76 76 76 76 76 76 76 76 76 76 76 76 76 76 76 76 76 76 76 76 76 76 76 76 76 76 76 76 76 76 76 76 76 76 76 76 76 76 76 76 76 76 76 76 76 76 76 76 76 76 76 76 76 76 76 76 114 76 114 114 76 114 114 76 114 114 114 114 114 114 114 76 114 114 76 114 114 114 114 114 114 114 114 114 114 114 114 114 114 114 76 114 114 114 114 114 114 114 114 114 114 114 114 114 114 114 114 114 114 114 114 114 114 114 114 114 114 114 114 114 114 114 114 114 114 114 114 114 114 114 114 114 114 114 114 114 114 114 114 114 114 114 114 114 114 114 114 114 114 114 114 114 114 114 114 114 114 114 114 76 114 76 76 114 114 114 114 114 114 114 114 114 114 114 114 114 114 114 114 114 114 114 114 114 76 114 114 114 76 114 114 114 114 114 114 114 114 76 114 114 114 114 114 114 114 114 114 114 114 114 114 114 114 114 114 114 114 114 114 114 114 114 114 114 114 114 114 114 114 76 114 114 114 114 114 114 114 114 114 114 114 114 114 114 114 114 114 114 114 114 114 114 114 76 76 114 76 114 114 114 114 76 114 114 76 76 114 114 76 114 114 114 114 76 76 114 114 76 76 114 76 76 76 76 76 76 76 76 76 76 76 76 76 76 76 76 76 76 76 76 76 76 76 76 76 76 114 114 114 114 114 114 114 114 114 114 114 114 114 114 114 114 114 114 114 114 114 114 114 114 114 114 114 114 114 114 114 114 114 114 114 114 114 114 114 114 114 114 114 114 114 114 114 114 114 114 114 114 114 114 114 114 114 114 114 114 114 114 114 114 114 114 114 114 114 114 114 114 114 114 114 114 114 114 114 114 114 114 114 114 114 114 114 114 114 114 114 114 114 114 114 167 167 167 167 167 167 167 167 167 167 167 167 167 167 167 167 167 167 167 167 167 167 114 114 76 76 76 76 76 76 76 76 76 76 76 76 76 76 76 76 76 76 76 114 114 76 76 76 114 76 76 76 76 114 76 76 76 76 76 114 76 76 76 76 76 114 76 76 114 114 114 114 114 76 76 76 76 76 76 
114 114 114 114 114 114 114 114 114 114 114 114 114 114 114 114 114 114 114 114 114 114 114 76 114 76 76 76 76 76 76 76 40 76 76 76 76 76 76 76 76 76 76 76 76 76 76 76 76 76 76 76 76 76 76 76 76 76 76 76 76 76 76 76 76 76 76 76 76 76 76 76 76 76 76 76 76 76 76 76 76 76 76 76 76 76 114 76 114 76 76 76 76 76 76 76 76 76 114 114 114 76 76 114 114 114 114 114 114 114 114 114 114 114 76 76 114 114 76 76 114 76 76 114 114 114 114 114 114 114 114 114 114 114 114 114 114 114 114 114 114 114 114 114 114 114 114 114 114 114 114 114 114 114 114 114 114 114 114 114 114 114 114 114 114 114 114 114 114 114 114 114 114 114 114 114 114 114 114 114 114 114 114 114 114 114 114 114 114 114 114 76 114 114 114 114 114 114 114 114 114 114 114 114 114 114 114 114 76 114 114 114 114 114 114 114 114 114 114 114 114 114 114 114 76 76 76 114 76 76 114 114 114 114 114 114 114 114 114 114 114 114 114 114 114 114 114 114 114 114 114 114 114 114 114 114 114 114 114 114 114 114 114 114 114 114 114 114 114 114 114 114 114 114 114 114 114 114 114 114 114 114 114 114 114 114 114 114 114 114 114 114 114 114 114 114 114 114 114 114 76 114 114 114 114 114 76 76 76 76 76 114 114 114 114 76 76 76 76 76 76 76 76 76 76 76 76 76 76 76 76 76 76 76 76 76 76 76 114 114 114 114 114 114 114 114 114 114 114 114 114 114 114 114 114 114 114 114 114 114 114 114 114 114 114 114 114 114 114 114 114 114 114 114 114 114 114 114 114 114 114 114 114 114 114 114 114 114 114 114 114 114 114 114 114 114 114 114 114 114 114 114 114 114 114 114 114 114 114 114 114 114 114 114 114 114 114 114 114 114 114 114 114 114 114 114 114 114 114 114 114 114 114 114 167 167 167 167 167 167 167 167 167 167 167 167 167 167 167 167 167 167 167 167 167 114 114 76 76 76 76 76 76 76 76 76 76 76 76 76 76 76 76 76 76 76 114 114 114 114 76 76 76 76 76 76 76 76 76 76 76 76 114 76 76 114 76 76 114 76 76 114 114 114 76 114 76 76 76 76 40 40 
114 114 114 114 114 114 114 114 114 114 114 114 114 114 114 114 114 114 114 114 114 114 114 114 114 76 76 76 76 76 76 76 40 76 76 76 76 76 76 76 76 76 76 76 76 76 76 76 76 76 76 76 76 76 76 76 76 76 76 76 76 76 76 76 76 76 76 76 76 76 76 76 76 76 76 76 76 76 76 76 76 76 76 76 76 76 76 76 76 76 76 76 114 114 76 76 76 114 114 114 76 114 114 114 114 114 114 114 114 114 114 114 114 114 114 114 114 114 114 114 114 114 114 114 114 76 114 114 114 114 114 114 114 114 114 114 114 114 114 114 114 114 114 114 114 114 114 114 114 114 114 114 114 114 114 114 114 114 114 114 114 114 114 114 114 114 114 114 114 114 114 114 114 114 114 114 114 114 114 114 114 114 114 114 114 114 114 114 114 114 114 114 76 114 114 76 114 76 114 114 76 76 76 76 114 114 114 114 114 114 114 114 114 114 114 76 114 76 76 76 114 114 114 114 114 114 114 114 76 76 114 76 114 114 114 114 114 114 114 114 114 114 114 114 114 114 114 114 114 114 114 114 114 114 114 114 114 76 114 114 114 114 114 114 114 114 114 114 114 114 114 114 114 76 114 114 114 114 114 114 114 114 76 76 114 114 76 114 114 114 76 114 114 114 114 76 114 114 114 114 114 114 114 114 114 114 76 76 76 76 76 114 114 114 76 76 76 76 76 76 76 76 76 76 76 76 76 76 76 76 76 76 76 76 76 76 76 76 114 114 114 114 114 114 114 114 114 114 114 114 114 114 114 114 114 114 114 114 114 114 114 114 114 114 114 114 114 114 114 114 114 114 114 114 114 114 114 114 114 114 114 114 114 114 114 114 114 114 114 114 114 114 114 114 114 114 114 114 114 114 114 114 114 114 114 114 114 114 114 114 114 114 114 114 114 114 114 114 114 114 114 114 114 114 114 114 114 114 114 114 114 114 114 114 114 167 167 167 167 167 167 167 167 167 167 167 167 167 167 167 167 167 167 167 167 167 114 114 76 76 76 76 76 76 76 76 76 76 76 76 76 76 76 76 76 76 76 76 114 114 76 76 76 76 76 76 76 76 76 76 76 76 76 76 76 114 76 76 76 76 76 114 114 76 114 114 76 76 76 40 40 40 
114 114 114 114 114 114 114 114 114 114 114 114 114 114 114 114 114 114 114 114 114 114 114 114 114 76 76 76 76 76 76 76 40 76 76 76 40 76 76 76 76 76 76 76 76 76 76 76 76 76 76 76 76 76 76 76 76 76 76 76 76 76 76 76 76 76 76 76 76 76 76 76 76 76 76 76 76 76 76 76 76 76 76 76 76 76 114 114 76 114 76 76 114 114 114 114 76 76 76 76 76 114 114 76 76 114 114 114 114 114 114 114 114 114 114 114 114 114 114 114 76 76 114 114 114 114 114 114 114 114 114 114 114 114 114 114 114 114 114 114 114 114 114 114 114 114 114 114 114 76 114 114 114 114 114 114 114 114 114 114 114 114 114 114 114 114 114 114 114 114 114 114 114 114 114 114 114 114 114 114 114 114 114 114 114 114 114 114 114 114 114 114 76 114 76 114 76 76 76 114 76 114 114 114 114 114 114 114 114 114 114 114 114 76 114 114 114 76 114 114 114 114 76 114 114 114 114 114 114 114 114 114 114 114 114 114 114 114 114 114 114 114 114 114 114 114 114 114 114 114 114 114 114 114 114 114 114 114 114 114 114 114 114 114 114 114 114 114 114 114 114 114 114 76 114 114 114 114 114 114 114 114 76 114 114 114 114 114 114 114 76 76 114 114 114 76 76 114 114 76 114 114 114 114 114 114 76 76 76 76 114 114 76 76 76 76 76 76 76 76 76 76 76 76 76 76 76 76 76 76 76 76 76 76 76 76 76 76 76 114 114 114 114 114 114 114 114 114 114 114 114 114 114 114 114 114 114 114 114 114 114 114 114 114 114 114 114 114 114 114 114 114 114 114 114 114 114 114 114 114 114 114 114 114 114 114 114 114 114 114 114 114 114 114 114 114 114 114 114 114 114 114 114 114 114 114 114 114 114 114 114 114 114 114 114 114 114 114 114 114 114 114 114 114 114 114 114 114 114 114 114 114 114 114 114 167 167 167 167 167 167 167 167 167 167 167 167 167 167 167 167 167 167 167 167 167 167 114 76 76 76 76 76 76 76 76 76 76 76 76 76 76 76 76 76 76 76 76 76 76 76 76 76 76 76 76 76 76 76 76 76 76 76 76 76 76 114 76 76 76 114 114 114 76 76 76 76 40 76 40 40 40 
114 114 114 114 114 114 114 114 114 114 114 114 114 114 114 114 114 114 114 114 114 114 114 114 76 76 76 76 76 76 76 76 76 76 76 76 40 40 76 76 76 76 76 76 76 76 76 76 76 76 76 76 76 76 76 76 76 76 76 76 76 76 76 76 76 76 76 76 76 76 76 76 76 76 76 76 76 76 76 76 76 76 76 76 76 76 76 76 76 76 76 76 76 76 76 114 114 76 76 114 114 114 114 114 114 114 76 76 114 114 114 114 76 114 76 114 114 114 114 114 114 76 76 114 76 114 114 114 114 114 114 114 114 114 114 114 114 114 114 114 114 114 114 114 114 114 114 114 114 76 114 114 76 114 114 114 114 114 114 114 114 114 114 114 114 114 114 114 76 114 114 114 114 114 114 114 114 114 114 114 114 114 114 114 114 114 114 114 76 76 114 114 114 114 76 114 76 76 76 114 76 114 114 114 114 114 114 114 114 76 114 76 114 76 114 114 114 114 114 114 114 76 76 114 114 76 76 114 114 114 114 114 76 114 114 76 114 114 114 114 114 114 114 114 114 114 114 114 114 114 114 114 114 114 114 114 114 114 114 114 114 114 114 114 114 114 114 114 114 114 114 114 114 76 114 114 114 114 114 114 114 114 114 114 114 114 114 114 114 114 76 76 76 76 76 114 76 114 114 76 114 114 76 114 114 114 114 114 114 114 76 76 76 76 76 76 76 76 76 76 76 76 76 76 76 76 76 76 76 76 76 76 76 76 76 76 76 76 114 114 114 114 114 114 114 114 114 114 114 114 114 114 114 114 114 114 114 114 114 114 114 114 114 114 114 114 114 114 114 114 114 114 114 114 114 114 114 114 114 114 114 114 114 114 114 114 114 114 114 114 114 114 114 114 114 114 114 114 114 114 114 114 114 114 114 114 114 114 114 114 114 114 114 114 114 114 114 114 114 114 114 114 114 114 114 114 114 114 114 114 114 114 114 114 114 114 167 167 167 167 167 167 167 167 167 167 167 167 167 167 167 167 167 167 167 167 167 167 114 76 76 76 76 76 76 76 76 76 76 76 76 76 76 76 76 76 76 76 114 76 114 76 76 76 76 76 76 76 76 76 76 76 76 76 76 76 114 76 76 114 114 114 114 76 76 76 76 40 40 40 40 40 
114 114 114 114 114 114 114 114 114 114 114 114 114 114 114 114 114 114 114 114 114 114 114 114 76 76 76 76 76 76 76 76 40 40 76 76 76 76 76 76 76 76 76 76 76 76 76 76 76 76 76 76 76 76 76 76 76 76 76 76 76 76 76 76 76 76 76 76 76 76 76 76 76 76 76 76 76 76 76 76 76 76 76 114 76 114 76 76 76 76 76 76 114 114 76 76 114 114 114 114 114 114 114 114 114 114 76 76 76 114 114 114 114 114 114 114 114 114 114 114 114 114 114 114 114 114 114 114 114 114 114 114 114 114 114 114 114 114 114 114 114 114 114 114 114 114 114 114 114 114 114 114 114 114 114 114 114 114 114 114 114 114 114 114 114 114 114 114 114 114 114 114 114 114 114 114 114 114 114 114 114 114 114 114 114 114 114 114 114 76 76 114 114 114 114 76 76 76 114 114 76 76 76 76 76 76 76 76 114 114 114 114 114 114 114 114 114 114 114 114 114 114 76 114 114 76 76 114 114 76 114 114 114 114 114 114 114 114 114 114 114 114 114 114 114 114 76 114 114 114 114 114 114 114 114 114 114 114 114 114 114 114 114 114 114 114 114 114 114 114 114 114 114 76 114 114 114 114 114 114 76 114 114 114 114 114 114 114 76 76 114 76 76 76 76 114 114 114 114 114 114 114 76 114 114 114 114 114 114 76 76 76 76 76 76 76 76 76 76 76 76 76 76 76 76 76 76 76 76 76 76 76 76 76 76 76 76 114 114 114 114 114 114 114 114 114 114 114 114 114 114 114 114 114 114 114 114 114 114 114 114 114 114 114 114 114 114 114 114 114 114 114 114 114 114 114 114 114 114 114 114 114 114 114 114 114 114 114 114 114 114 114 114 114 114 114 114 114 114 114 114 114 114 114 114 114 114 114 114 114 114 114 114 114 114 114 114 114 114 114 114 114 114 114 114 114 114 114 114 114 114 114 114 114 114 114 114 167 167 167 167 167 167 167 167 167 167 167 167 167 167 167 167 167 167 167 167 167 114 114 76 76 76 76 76 76 76 76 76 76 76 76 76 76 76 76 76 76 76 76 76 76 76 76 76 76 76 76 76 76 76 76 76 76 76 114 76 76 76 114 76 76 76 76 76 40 40 40 40 40 40 40 
114 114 114 114 114 114 114 114 114 114 114 114 114 114 114 114 114 114 114 114 114 114 114 114 114 76 76 76 76 76 76 76 76 40 40 76 76 76 76 76 76 76 76 76 76 76 76 76 76 76 76 76 76 76 76 76 76 76 76 76 76 76 76 76 76 76 76 76 76 76 76 76 76 76 76 76 76 76 76 76 76 76 76 76 76 76 76 76 114 76 76 76 76 114 114 114 76 114 114 76 76 114 114 76 114 114 76 114 76 76 114 114 114 114 114 76 76 114 114 114 114 114 114 114 114 114 114 114 114 114 114 114 114 114 114 114 114 114 114 114 114 114 114 114 114 114 114 114 114 114 114 114 114 114 114 76 114 114 114 114 114 114 114 114 114 114 114 114 114 114 114 114 114 114 114 114 114 114 114 114 114 114 114 114 114 114 114 114 114 76 114 114 114 76 114 76 114 76 114 76 114 76 114 114 76 76 114 114 114 114 114 114 114 114 114 114 114 76 114 76 76 114 76 76 114 114 114 114 114 76 76 76 114 76 114 114 114 114 76 114 76 114 114 76 114 114 114 114 114 114 114 114 114 114 114 114 114 114 114 114 114 114 114 114 114 114 114 114 114 114 114 114 114 114 114 114 114 114 76 114 76 114 114 114 114 114 114 114 76 76 114 114 76 76 114 114 114 76 114 114 114 114 114 114 114 114 114 76 76 114 76 76 76 76 76 76 76 76 76 76 76 76 76 76 76 76 76 76 76 76 76 76 76 76 76 76 114 114 114 114 114 114 114 114 114 114 114 114 114 114 114 114 114 114 114 114 114 114 114 114 114 114 114 114 114 114 114 114 114 114 114 114 114 114 114 114 114 114 114 114 114 114 114 114 114 114 114 114 114 114 114 114 114 114 114 114 114 114 114 114 114 114 114 114 114 114 114 114 114 114 114 114 114 114 114 114 114 114 114 114 114 114 114 114 114 114 114 114 114 114 114 114 114 114 114 114 114 167 167 167 167 167 167 167 167 167 167 167 167 167 167 167 167 167 167 167 167 167 167 114 76 76 76 76 76 76 76 76 76 76 76 76 76 76 76 76 76 76 76 76 76 76 76 76 76 76 76 76 76 76 76 76 76 76 114 114 76 76 76 114 76 76 76 76 76 40 40 40 40 40 40 40 
114 114 114 114 114 114 114 114 114 114 114 114 114 114 114 114 114 114 114 114 114 114 114 114 114 76 76 76 76 76 76 76 76 40 40 76 76 76 76 76 76 76 76 76 76 76 76 76 76 76 76 76 76 76 76 76 76 76 76 76 76 76 76 76 76 76 76 76 76 76 76 76 76 76 76 76 76 76 76 76 76 76 76 76 76 76 76 76 76 76 76 76 76 76 76 76 114 76 76 114 114 76 76 114 76 76 114 114 114 76 114 114 114 114 114 114 114 114 114 114 114 76 114 76 114 76 114 114 114 114 114 114 114 114 76 114 114 114 114 114 114 114 114 114 114 114 114 114 114 114 114 114 114 114 114 114 114 114 114 114 114 114 114 114 114 114 114 114 114 114 114 114 114 114 114 114 114 114 114 114 114 114 114 114 114 114 114 114 114 76 76 76 114 114 76 114 76 114 76 76 76 76 114 114 76 76 114 114 76 114 114 114 114 114 114 114 76 76 114 76 76 114 114 114 114 76 76 76 76 114 114 76 114 76 114 114 76 114 114 114 114 114 114 114 76 114 76 114 114 114 114 114 114 114 114 114 114 114 114 114 114 114 114 114 114 114 114 114 114 114 114 114 114 114 114 114 114 114 76 114 76 114 114 114 114 76 76 76 76 76 114 114 114 114 114 114 114 76 114 114 76 114 114 76 114 114 76 76 76 114 114 76 76 76 76 76 76 76 76 76 76 76 76 76 76 76 76 76 76 76 76 76 76 76 76 76 76 76 114 114 114 114 114 114 114 114 114 114 114 114 114 114 114 114 114 114 114 114 114 114 114 114 114 114 114 114 114 114 114 114 114 114 114 114 114 114 114 114 114 114 114 114 114 114 114 114 114 114 114 114 114 114 114 114 114 114 114 114 114 114 114 114 114 114 114 114 114 114 114 114 114 114 114 114 114 114 114 114 114 114 114 114 114 114 114 114 114 114 114 114 114 114 114 114 114 114 114 167 167 167 167 167 167 167 167 167 167 167 167 167 167 167 167 167 167 167 167 167 167 114 114 76 76 76 76 76 76 76 76 76 76 76 76 76 76 76 76 76 76 76 76 76 76 76 76 76 76 76 76 76 76 76 76 114 114 76 76 114 76 114 76 76 76 76 40 40 40 40 40 40 40 40 
114 114 114 114 114 114 114 114 114 114 114 114 114 114 114 114 114 114 114 114 114 114 114 114 114 76 76 76 76 76 76 76 40 76 76 40 76 76 40 40 40 76 76 76 76 76 76 76 76 76 76 76 76 76 76 76 76 76 76 76 76 76 76 76 76 76 76 76 76 76 76 76 76 76 76 76 76 76 76 76 76 76 76 76 114 76 76 76 76 76 76 76 76 76 76 76 76 114 76 114 114 76 114 114 114 76 114 114 76 76 114 114 114 114 114 114 114 114 114 76 76 114 114 76 76 114 114 114 114 114 114 114 114 114 114 114 114 114 114 114 114 114 114 114 114 114 114 114 114 114 114 114 114 114 114 114 114 114 114 114 114 114 114 114 114 114 114 76 114 114 114 114 114 114 76 114 114 114 114 114 114 114 114 76 114 114 114 114 114 114 114 114 76 76 76 114 76 76 76 76 76 76 76 114 114 76 76 76 114 76 76 114 76 114 114 114 114 76 76 76 76 76 114 114 76 114 76 114 76 76 114 114 76 114 114 114 114 114 114 114 76 114 114 114 114 76 114 114 114 114 114 114 114 114 114 114 114 114 114 114 114 114 114 114 114 114 76 76 114 114 114 114 114 114 114 114 114 114 114 114 114 76 114 76 76 114 114 76 76 76 76 76 114 76 76 114 76 114 114 114 114 114 76 76 114 76 114 114 76 76 76 114 76 76 76 76 76 76 76 76 76 76 76 76 76 76 76 76 76 76 76 76 76 114 76 76 114 76 114 114 114 114 114 114 114 114 114 114 114 114 114 114 114 114 114 114 114 114 114 114 114 114 114 114 114 114 114 114 114 114 114 114 114 114 114 114 114 114 114 114 114 114 114 114 114 114 114 114 114 114 114 114 114 114 114 114 114 114 114 114 114 114 114 114 114 114 114 114 114 114 114 114 114 114 114 114 114 114 114 114 114 114 114 114 114 114 114 114 114 114 114 114 114 114 114 114 114 114 167 167 167 167 167 167 167 167 167 167 167 167 167 167 167 167 167 167 167 167 167 167 114 114 76 76 76 76 76 76 76 76 76 76 76 76 76 76 76 76 76 76 76 76 76 76 76 76 76 76 76 76 76 114 76 76 76 114 114 114 76 76 76 76 76 40 40 40 40 40 40 40 40 40 
114 114 114 114 114 114 114 114 114 114 114 114 114 114 114 114 114 114 114 114 114 114 114 114 114 76 76 76 76 76 76 76 40 40 76 76 76 76 76 76 76 76 76 76 76 76 76 76 76 76 76 76 76 76 76 76 76 76 76 76 76 76 76 76 76 76 76 76 76 76 76 76 76 76 76 76 76 76 76 76 76 76 76 76 76 76 76 114 76 76 76 76 76 114 114 114 76 76 76 114 114 76 114 76 114 76 114 114 76 114 114 114 114 76 76 76 114 114 114 114 114 114 114 76 76 114 114 114 114 114 114 114 114 114 114 114 114 114 114 114 114 114 114 114 114 114 114 114 114 114 114 114 114 114 114 114 76 114 114 114 114 114 114 114 76 114 114 114 114 114 114 114 114 114 76 114 76 114 114 114 114 76 114 76 114 114 114 114 114 76 114 114 114 76 76 76 76 76 76 114 76 76 76 76 76 76 76 114 114 76 76 114 76 114 114 114 114 76 76 114 76 76 114 114 76 114 114 114 114 76 114 76 76 114 114 114 114 114 114 114 76 114 114 114 114 114 114 114 76 114 114 114 114 114 114 114 114 114 114 114 114 114 114 114 114 114 114 114 114 114 114 114 76 76 114 114 114 114 114 76 114 76 114 114 76 114 114 114 76 76 76 114 114 114 76 114 114 114 76 76 114 114 114 114 114 114 114 114 114 76 76 76 76 76 76 76 76 76 76 76 76 76 76 76 76 76 76 76 76 76 76 76 76 76 76 76 114 76 114 114 114 114 114 114 114 114 114 114 114 114 114 114 114 114 114 114 114 114 114 114 114 114 114 114 114 114 114 114 114 114 114 114 114 114 114 114 114 114 114 114 114 114 114 114 114 114 114 114 114 114 114 114 114 114 114 114 114 114 114 114 114 114 114 114 114 114 114 114 114 114 114 114 114 114 114 114 114 114 114 114 114 114 114 114 114 114 114 114 114 114 114 114 114 114 114 114 114 114 114 167 167 167 167 167 167 167 167 167 167 167 167 167 167 167 167 167 167 167 167 167 167 114 76 76 76 76 76 76 76 76 76 76 76 76 76 76 76 76 76 76 76 76 76 76 76 76 76 76 76 76 76 114 114 76 114 114 76 76 76 76 76 76 40 40 40 40 40 40 40 40 40 40 
114 114 114 114 114 114 114 114 114 114 114 114 114 114 114 114 114 114 114 114 114 114 114 114 114 76 76 76 76 76 40 76 76 76 76 76 76 76 76 76 76 76 76 76 76 76 76 76 76 76 76 76 76 76 76 76 76 76 76 76 76 76 76 76 76 76 76 76 76 76 76 76 76 76 76 76 76 76 76 76 76 76 76 76 76 76 76 76 76 76 76 76 114 114 114 76 114 76 76 114 114 76 114 76 114 114 76 114 114 114 114 114 114 114 114 114 114 114 114 114 114 114 114 114 114 114 114 76 114 114 114 114 114 114 114 114 114 114 114 114 114 114 114 114 114 114 114 114 114 114 114 114 114 114 114 114 76 114 114 114 76 114 114 114 114 114 114 114 76 76 114 114 114 114 114 114 114 114 114 114 114 114 114 114 114 114 114 114 114 76 76 76 114 114 114 114 114 76 76 76 76 76 76 76 76 76 114 114 76 76 76 76 76 114 114 76 114 114 114 114 114 76 76 76 114 114 114 114 114 114 114 114 76 76 114 76 114 114 114 114 114 114 114 114 114 114 114 114 114 114 114 114 114 114 114 114 114 114 114 114 76 114 114 114 114 114 114 114 114 114 114 76 114 114 114 114 114 114 114 76 114 76 114 114 76 76 76 114 114 114 76 76 76 76 114 114 114 114 76 76 114 114 114 114 114 76 76 76 114 114 114 76 76 76 76 76 76 76 76 76 76 76 76 76 76 76 76 76 76 76 76 76 76 76 76 76 114 76 114 114 114 114 114 114 114 114 114 114 114 114 114 114 114 114 114 114 114 114 114 114 114 114 114 114 114 114 114 114 114 114 114 114 114 114 114 114 114 114 114 114 114 114 114 114 114 114 114 114 114 114 114 114 114 114 114 114 114 114 114 114 114 114 114 114 114 114 114 114 114 114 114 114 114 114 114 114 114 114 114 114 114 114 114 114 114 114 114 114 114 114 114 114 114 114 114 114 114 114 114 114 167 167 167 167 167 167 167 167 167 167 167 167 167 167 167 167 167 167 167 167 167 114 114 76 76 76 76 76 76 76 76 76 76 76 76 76 76 76 76 76 76 76 76 76 76 76 76 76 114 76 76 114 114 76 76 76 76 76 76 76 76 40 40 40 40 40 40 40 40 40 40 40 
114 114 114 114 114 114 114 114 114 114 114 114 114 114 114 114 114 114 114 114 114 114 114 114 114 76 76 76 76 76 76 76 40 40 76 76 76 76 76 76 76 76 76 76 76 76 76 76 76 76 76 76 76 76 76 76 76 76 76 76 76 76 76 76 76 76 76 76 76 76 76 76 76 76 76 76 76 76 76 76 76 76 76 76 76 76 76 76 76 76 76 76 76 76 76 76 114 76 76 114 76 76 114 76 114 114 114 114 114 114 114 76 114 114 114 114 114 114 114 114 114 114 76 114 114 114 76 76 114 114 114 114 114 114 114 114 114 114 114 114 114 114 114 114 114 114 114 114 114 114 114 114 114 114 114 76 114 114 114 114 76 114 114 114 114 114 114 114 114 114 114 114 114 114 114 114 76 114 114 114 114 114 114 114 114 76 76 114 114 114 114 114 114 114 76 76 76 76 76 114 114 76 76 76 76 76 76 76 114 114 114 114 76 114 114 114 114 76 114 114 76 76 76 76 114 76 76 114 114 76 76 114 76 76 114 76 114 114 114 114 114 114 114 114 114 114 114 76 114 114 114 114 114 76 114 114 114 114 114 114 76 114 76 76 114 114 114 114 114 114 114 76 114 114 114 114 114 114 114 76 114 76 114 114 76 76 76 114 114 76 76 76 76 76 114 114 114 114 114 114 114 76 76 114 76 114 114 76 76 76 114 114 76 76 76 76 76 76 76 76 76 76 76 76 76 76 76 76 76 76 76 76 76 76 76 76 76 76 114 114 114 114 114 114 114 114 114 114 114 114 114 114 114 114 114 114 114 114 114 114 114 114 114 114 114 114 114 114 114 114 114 114 114 114 114 114 114 114 114 114 114 114 114 114 114 114 114 114 114 114 114 114 114 114 114 114 114 114 114 114 114 114 114 114 114 114 114 114 114 114 114 114 114 114 114 114 114 114 114 114 114 114 114 114 114 114 114 114 114 114 114 114 114 114 114 114 114 114 114 114 167 167 167 167 167 167 167 167 167 167 167 167 167 167 167 167 167 167 167 167 167 167 114 114 76 76 76 76 76 76 76 76 76 76 76 76 76 76 76 76 76 76 76 76 76 76 76 76 76 76 76 76 76 76 76 76 76 76 76 76 40 40 40 40 40 40 40 40 40 40 40 40 
114 114 114 114 114 114 114 114 114 114 114 114 114 114 114 114 114 114 114 114 114 114 114 114 114 76 76 76 76 76 76 76 40 40 76 76 76 40 76 76 76 76 76 76 76 76 76 76 76 76 76 76 76 76 76 76 76 76 76 76 76 76 76 76 76 76 76 76 76 76 76 76 76 76 76 76 76 76 76 76 76 76 76 76 76 76 76 114 76 76 76 76 76 76 76 76 114 114 76 114 76 76 114 114 114 114 114 114 114 114 114 76 114 114 114 114 114 114 114 114 114 76 76 76 114 114 114 114 114 114 114 114 114 114 114 114 114 114 114 114 114 114 114 114 114 114 114 114 114 114 114 114 114 76 114 76 114 114 114 114 114 114 114 114 114 114 114 114 76 114 114 114 76 76 114 76 76 114 114 114 114 114 114 76 76 76 114 114 114 114 114 114 76 76 76 76 76 76 114 114 114 114 114 114 114 76 76 76 114 114 114 114 114 114 114 114 76 76 76 76 76 76 76 76 76 76 76 114 114 76 76 76 114 76 114 76 114 114 114 114 76 114 76 114 114 114 114 114 114 114 114 114 114 76 114 114 114 114 114 114 114 114 114 114 76 114 114 114 114 114 114 114 114 114 114 76 76 76 114 114 114 76 114 76 76 114 114 76 76 114 114 114 114 76 76 76 76 76 76 114 114 76 76 114 114 114 114 76 76 76 76 76 76 76 76 76 76 76 76 76 76 76 76 76 76 76 76 76 76 76 76 76 76 76 76 114 76 76 114 114 114 114 114 114 114 114 114 114 114 114 114 114 114 114 114 114 114 114 114 114 114 114 114 114 114 114 114 114 114 114 114 114 114 114 114 114 114 114 114 114 114 114 114 114 114 114 114 114 114 114 114 114 114 114 114 114 114 114 114 114 114 114 114 114 114 114 114 114 114 114 114 114 114 114 114 114 114 114 114 114 114 114 114 114 114 114 114 114 114 114 114 114 114 114 114 114 114 114 114 114 114 167 167 167 167 167 167 167 167 167 167 167 167 167 167 167 167 167 167 167 167 167 167 114 76 76 76 76 76 76 76 76 76 76 76 76 76 76 76 76 76 76 76 76 76 76 76 76 76 114 76 76 76 114 114 76 76 76 76 40 40 40 40 40 40 40 40 40 40 40 40 40 
114 114 114 114 114 114 114 114 114 114 114 114 114 114 114 114 114 114 114 114 114 114 114 114 76 76 76 76 76 76 76 76 76 76 40 76 76 40 40 40 76 76 76 76 76 76 76 76 76 76 76 76 76 76 76 76 76 76 76 76 76 76 76 76 76 76 76 76 76 76 76 76 76 76 76 76 76 76 76 76 76 76 76 76 76 76 76 76 76 76 114 76 76 76 76 76 114 76 114 114 114 76 114 76 76 114 114 114 114 114 114 114 114 114 114 114 114 114 114 114 114 114 76 114 114 76 114 114 114 114 114 114 114 114 114 114 114 114 114 114 114 114 114 114 114 114 114 114 114 114 114 114 114 114 76 114 76 114 114 114 114 114 114 114 114 114 114 114 114 76 114 114 114 114 114 114 114 114 114 76 76 114 114 114 114 76 114 114 114 76 76 76 76 76 76 114 114 76 76 76 76 76 114 114 114 114 76 76 76 114 114 76 76 114 76 76 76 114 76 76 76 76 76 114 76 76 76 76 76 114 76 114 114 114 76 76 76 114 114 114 76 114 76 76 76 76 76 114 114 114 114 114 114 76 114 114 114 114 114 76 114 114 76 114 76 114 114 114 114 114 114 114 114 114 114 114 76 76 114 114 114 76 114 76 76 114 114 76 76 114 114 114 114 114 76 76 114 114 76 76 114 114 76 114 76 114 76 76 76 76 76 76 76 76 76 76 76 76 76 76 76 76 76 76 76 76 76 76 76 76 76 76 76 76 76 76 76 76 114 114 114 114 114 114 114 114 114 114 114 114 114 114 114 114 114 114 114 114 114 114 114 114 114 114 114 114 114 114 114 114 114 114 114 114 114 114 114 114 114 114 114 114 114 114 114 114 114 114 114 114 114 114 114 114 114 114 114 114 114 114 114 114 114 114 114 114 114 114 114 114 114 114 114 114 114 114 114 114 114 114 114 114 114 114 114 114 114 114 114 114 114 114 114 114 114 114 114 114 114 114 114 167 167 167 167 167 167 167 167 167 167 167 167 167 167 167 167 167 167 167 167 167 167 114 114 76 76 76 76 76 76 76 76 76 76 76 76 76 76 76 76 76 76 76 76 76 76 76 76 76 76 76 76 114 76 76 76 76 40 40 40 40 40 40 40 40 40 40 40 40 40 40 
114 114 114 114 114 114 114 114 114 114 114 114 114 114 114 114 114 114 114 114 114 114 114 114 114 76 76 76 76 76 76 76 40 76 40 76 76 76 76 76 76 76 76 76 76 76 76 76 76 76 76 76 76 76 76 76 76 76 76 76 76 76 76 76 76 76 76 76 76 76 76 76 76 76 76 76 76 76 76 76 76 76 76 76 76 76 76 76 76 76 76 76 76 76 76 76 76 76 76 76 76 76 76 76 76 114 114 114 114 76 114 114 76 76 76 76 76 114 114 76 114 114 114 114 114 76 114 76 114 114 114 114 114 114 114 114 114 114 114 114 114 114 114 114 114 114 114 114 114 114 114 114 114 114 114 114 114 114 114 114 114 114 114 114 114 114 114 114 114 76 114 114 76 76 114 114 114 76 76 76 114 114 76 76 114 114 76 114 114 114 76 76 114 114 76 76 76 76 76 76 76 114 114 114 76 76 114 114 76 114 114 114 114 114 114 114 76 76 76 76 76 76 76 76 76 114 114 76 76 76 76 76 76 76 76 76 76 114 114 114 114 114 76 76 76 76 76 76 114 76 114 114 114 76 114 114 114 114 114 114 114 114 114 76 114 114 114 114 114 114 114 114 114 114 114 114 114 114 114 114 114 76 114 114 76 114 114 114 76 114 114 76 114 114 114 114 114 114 76 114 114 114 114 114 114 76 76 76 114 76 76 76 76 76 76 76 76 76 76 76 76 76 76 76 76 76 76 76 76 76 76 76 76 76 76 76 76 114 114 114 114 114 114 114 114 114 114 114 114 114 114 114 114 114 114 114 114 114 114 114 114 114 114 114 114 114 114 114 114 114 114 114 114 114 114 114 114 114 114 114 114 114 114 114 114 114 114 114 114 114 114 114 114 114 114 114 114 114 114 114 114 114 114 114 114 114 114 114 114 114 114 114 114 114 114 114 114 114 114 114 114 114 114 114 114 114 114 114 114 114 114 114 114 114 114 114 114 114 114 114 114 114 167 167 167 167 167 167 167 167 167 167 167 167 167 167 167 167 167 167 167 167 167 167 114 76 76 76 76 76 76 76 76 76 76 76 76 76 76 76 76 76 76 76 76 76 76 76 76 114 76 76 76 76 76 76 76 40 40 40 40 40 40 40 40 40 40 40 40 40 40 40 
114 114 114 114 114 114 114 114 114 114 114 114 114 114 114 114 114 114 114 114 114 114 114 114 114 76 76 76 76 76 76 76 76 76 40 40 76 76 76 76 76 76 76 76 76 76 76 76 76 76 76 76 76 76 76 76 76 76 76 76 76 76 76 76 76 76 76 76 76 76 76 76 76 76 76 76 76 76 76 76 76 76 76 76 76 76 76 76 76 76 76 76 76 76 76 76 114 114 76 114 114 76 114 114 114 114 76 76 76 114 114 114 76 76 76 114 114 114 114 76 76 114 76 76 114 114 114 114 114 114 114 114 76 114 114 114 114 114 114 114 114 114 114 114 114 114 114 76 114 114 76 114 114 76 114 76 114 76 114 114 114 114 114 114 76 76 114 114 114 114 114 76 76 114 114 114 114 114 76 114 114 114 114 114 114 114 114 114 114 76 114 114 76 76 76 114 114 114 76 76 76 114 114 76 76 76 114 114 114 114 114 114 114 76 76 114 76 114 114 76 114 114 76 76 76 76 114 76 76 114 76 76 76 76 76 76 76 114 76 76 114 114 76 114 114 114 114 114 114 76 114 114 76 114 76 114 76 114 114 114 76 76 114 114 114 114 114 76 114 114 114 114 114 114 76 114 114 114 114 76 114 76 114 114 76 76 114 114 76 76 114 114 76 76 114 114 76 114 114 114 114 114 76 76 114 114 114 76 76 76 76 114 76 76 76 76 76 76 76 76 76 76 76 76 76 76 76 76 76 76 76 76 76 76 76 76 76 114 114 114 114 114 114 114 114 114 114 114 114 114 114 114 114 114 114 114 114 114 114 114 114 114 114 114 114 114 114 114 114 114 114 114 114 114 114 114 114 114 114 114 114 114 114 114 114 114 114 114 114 114 114 114 114 114 114 114 114 114 114 114 114 114 114 114 114 114 114 114 114 114 114 114 114 114 114 114 114 114 114 114 114 114 114 114 114 114 114 114 114 114 114 114 114 114 114 114 114 114 114 114 114 114 114 167 167 167 167 167 167 167 167 167 167 167 167 167 167 167 167 167 167 167 167 167 167 114 76 76 76 76 76 76 76 76 76 76 76 76 76 76 76 76 76 76 76 76 76 76 76 114 76 76 76 76 76 40 40 40 40 40 40 40 40 40 40 40 40 40 40 40 40 40 
114 114 114 114 114 114 114 114 114 114 114 114 114 114 114 114 114 114 114 114 114 114 114 76 114 76 76 76 76 76 76 76 76 76 76 76 40 40 76 76 76 76 76 76 76 76 76 76 76 76 76 76 76 76 76 76 76 76 76 76 76 76 76 76 76 76 76 76 76 76 76 76 76 76 76 76 76 76 76 76 76 76 76 76 76 76 76 76 76 76 76 76 76 114 76 76 76 76 76 76 76 76 76 76 76 76 76 76 114 114 114 76 114 76 114 114 114 114 114 76 114 114 114 114 114 114 114 76 114 114 114 114 114 114 114 114 114 114 114 114 114 114 114 114 76 76 114 114 114 114 76 114 114 76 114 114 114 114 76 114 114 114 114 114 114 114 114 76 114 114 114 114 114 114 114 114 114 114 114 114 76 114 114 114 76 76 114 76 114 76 114 114 76 76 76 76 76 76 76 76 76 76 114 114 114 76 114 76 76 76 114 114 114 114 76 76 114 76 76 76 76 76 114 114 76 76 76 76 76 76 76 114 76 76 76 76 114 114 76 76 114 114 114 76 114 76 76 76 76 76 76 114 114 114 114 114 114 114 114 114 114 114 114 76 76 114 76 114 114 114 114 76 76 114 114 114 114 114 76 76 114 76 114 76 114 76 114 114 114 114 114 114 114 114 114 114 114 76 76 114 76 114 114 114 76 114 76 76 76 114 76 76 76 76 76 76 76 76 76 76 76 76 76 76 76 76 76 76 76 76 76 76 76 76 76 76 114 76 76 114 114 114 114 114 114 114 114 114 114 114 114 114 114 114 114 114 114 114 114 114 114 114 114 114 114 114 114 114 114 114 114 114 114 114 114 114 114 114 114 114 114 114 114 114 114 114 114 114 114 114 114 114 114 114 114 114 114 114 114 114 114 114 114 114 114 114 114 114 114 114 114 114 114 114 114 114 114 114 114 114 114 114 114 114 114 114 114 114 114 114 114 114 114 114 114 114 114 114 114 114 114 114 114 167 167 167 167 167 167 167 167 167 167 167 167 167 167 167 167 167 167 167 167 167 167 114 114 76 76 76 76 76 76 76 76 76 76 76 76 76 76 76 76 76 76 76 76 76 76 114 76 76 76 76 40 40 40 40 40 40 40 40 40 40 40 40 40 40 40 40 40 40 
114 114 114 114 114 114 114 114 114 114 114 114 114 114 114 114 114 114 114 114 114 114 114 114 114 76 76 76 76 76 76 76 40 40 76 76 40 76 76 76 76 76 76 76 76 76 76 76 76 76 76 76 76 76 76 76 76 76 76 76 76 76 76 76 76 76 76 76 76 76 76 76 76 76 76 76 76 76 76 76 76 76 76 76 76 76 76 76 76 114 76 76 76 76 76 76 76 76 76 76 76 76 114 114 76 76 114 114 114 114 114 114 114 114 76 114 114 114 114 114 76 114 76 114 114 114 114 76 114 114 76 76 76 76 114 114 114 114 114 114 114 114 114 114 114 114 114 114 114 114 114 114 114 114 114 114 114 114 114 114 76 114 114 114 114 114 114 114 114 114 114 114 114 114 114 76 114 114 114 114 114 114 114 114 114 114 114 114 114 114 114 114 114 114 114 114 76 114 114 114 114 76 76 114 114 76 114 76 76 76 76 76 76 114 114 114 76 76 76 114 76 76 76 76 114 114 76 76 76 76 76 76 76 76 76 76 76 76 114 114 76 76 114 76 114 114 114 114 114 114 76 114 114 114 114 114 114 76 114 76 114 114 76 76 114 114 114 114 114 114 114 114 114 114 114 114 114 76 114 114 114 114 76 114 114 114 76 76 114 114 114 114 114 114 114 114 76 76 114 114 114 114 76 76 114 114 76 76 76 76 76 76 76 76 76 76 76 76 76 76 76 76 76 76 76 76 76 76 76 76 76 76 76 76 76 76 76 114 114 114 114 114 114 114 114 114 114 114 114 114 114 114 114 114 114 114 114 114 114 114 114 114 114 114 114 114 114 114 114 114 114 114 114 114 114 114 114 114 114 114 114 114 114 114 114 114 114 114 114 114 114 114 114 114 114 114 114 114 114 114 114 114 114 114 114 114 114 114 114 114 114 114 114 114 114 114 114 114 114 114 114 114 114 114 114 114 114 114 114 114 114 114 114 114 114 114 114 114 114 114 114 114 114 114 167 167 167 167 167 167 167 167 167 167 167 167 167 167 167 167 167 167 167 167 167 114 114 76 76 76 76 76 76 76 76 76 76 76 76 76 76 76 76 76 76 76 76 114 76 76 76 76 76 76 40 40 40 40 40 40 40 40 40 40 40 40 40 40 40 40 40 40 
114 114 114 114 114 114 114 114 114 114 114 114 114 114 114 114 114 114 114 114 114 114 114 114 76 76 76 76 76 76 76 76 40 40 40 76 76 76 76 76 76 76 76 76 76 76 76 76 76 76 76 76 76 76 76 76 76 76 76 76 76 76 76 76 76 76 76 76 76 76 76 76 76 76 76 76 76 76 76 76 76 76 76 76 76 76 76 76 76 76 76 76 76 114 76 76 114 76 76 76 76 76 76 76 76 76 114 76 76 76 76 114 114 114 114 76 76 76 114 76 114 114 114 114 114 114 114 76 114 114 114 114 114 114 114 114 76 114 114 114 114 76 114 114 114 114 114 114 114 114 114 114 114 114 114 114 114 114 114 114 114 114 114 114 114 114 114 114 114 76 114 114 114 114 114 76 114 114 114 114 114 114 114 76 114 114 114 114 114 114 114 76 114 114 114 114 114 114 114 114 76 76 114 114 76 76 114 114 114 76 76 76 76 76 76 114 76 76 76 114 76 76 76 76 76 114 76 76 76 76 76 76 76 76 114 76 76 76 76 76 76 76 114 76 114 76 114 114 76 76 114 114 114 114 76 76 114 76 76 76 114 114 76 114 114 114 114 114 114 76 114 114 114 76 114 114 114 114 76 114 114 114 76 114 114 114 76 114 114 114 114 76 76 76 76 76 114 76 114 114 76 76 114 76 114 76 76 76 76 76 76 76 76 76 76 76 76 76 76 76 76 76 76 76 76 76 76 76 76 76 76 76 76 76 76 76 76 76 114 114 114 114 114 114 114 114 114 114 114 114 114 114 114 114 114 114 114 114 114 114 114 114 114 114 114 114 114 114 114 114 114 114 114 114 114 114 114 114 114 114 114 114 114 114 114 114 114 114 114 114 114 114 114 114 114 114 114 114 114 114 114 114 114 114 114 114 114 114 114 114 114 114 114 114 114 114 114 114 114 114 114 114 114 114 114 114 114 114 114 114 114 114 114 114 114 114 114 114 114 114 114 114 114 114 167 167 167 167 167 167 167 167 167 167 167 167 167 167 167 167 167 167 167 167 167 167 114 114 76 76 76 76 76 76 76 76 76 76 76 76 76 76 76 76 76 76 76 76 76 76 76 76 76 40 40 40 40 40 40 40 40 40 40 40 40 40 40 40 40 40 40 40 
114 114 114 114 114 114 114 114 114 114 114 114 114 114 114 114 114 114 114 114 114 114 114 114 76 76 76 76 76 76 76 76 40 40 40 76 76 76 40 76 76 76 76 76 76 76 76 76 76 76 76 76 76 76 76 76 76 76 76 76 76 76 76 76 76 76 76 76 76 76 76 76 76 76 76 76 76 76 76 76 76 76 76 76 76 114 114 76 76 76 76 76 76 76 76 114 114 76 76 76 114 114 76 76 114 114 114 114 76 76 114 76 114 114 114 76 76 76 114 76 114 114 114 76 114 114 76 114 114 114 114 114 114 114 114 114 114 114 114 114 114 114 114 114 114 114 114 114 114 76 114 114 114 114 114 114 114 114 114 114 114 114 114 114 114 114 114 114 76 114 114 114 76 114 114 76 76 114 114 114 114 114 114 114 114 76 114 114 76 114 114 76 114 114 114 114 114 114 114 76 114 76 76 76 76 76 114 114 114 76 76 114 114 76 76 114 76 76 76 76 76 76 76 76 76 114 76 76 76 76 76 76 76 76 76 76 76 76 76 76 114 114 114 76 76 76 76 76 76 76 76 76 114 114 114 114 114 76 76 114 114 114 114 114 114 114 114 114 114 76 114 114 114 76 76 114 76 76 76 114 114 76 114 76 114 76 114 114 114 114 114 76 76 76 76 76 114 76 76 114 114 114 114 114 114 76 76 76 76 76 76 76 76 76 76 76 76 76 76 76 76 76 76 76 76 76 76 76 76 76 76 76 76 76 76 76 76 76 114 114 114 114 114 114 114 114 114 114 114 114 114 114 114 114 114 114 114 114 114 114 114 114 114 114 114 114 114 114 114 114 114 114 114 114 114 114 114 114 114 114 114 114 114 114 114 114 114 114 114 114 114 114 114 114 114 114 114 114 114 114 114 114 114 114 114 114 114 114 114 114 114 114 114 114 114 114 114 114 114 114 114 114 114 114 114 114 114 114 114 114 114 114 114 114 114 114 114 114 114 114 114 114 114 114 114 167 167 167 167 167 167 167 167 167 167 167 167 167 167 167 167 167 167 167 167 167 167 114 76 76 76 76 76 76 76 76 76 76 76 76 76 76 76 76 76 76 76 76 76 76 76 40 40 40 40 40 40 40 40 40 40 40 40 40 40 40 40 40 40 40 40 40 
114 114 114 114 114 114 114 114 114 114 114 114 114 114 114 114 114 114 114 114 114 114 114 114 76 76 76 76 76 76 76 76 76 76 76 76 76 76 76 76 76 76 76 76 76 76 76 76 76 76 76 76 76 76 76 76 76 76 76 76 76 76 76 76 76 76 76 76 76 76 76 76 76 76 76 76 76 76 76 76 76 76 76 76 76 114 114 76 76 76 76 114 76 76 76 76 76 76 76 76 114 114 114 76 76 76 76 114 114 114 114 114 114 114 114 114 114 114 114 114 76 76 114 76 76 114 76 114 114 114 114 114 114 114 114 114 114 76 114 114 114 114 114 114 114 114 114 114 114 114 114 114 114 114 114 114 114 114 114 114 114 76 114 114 114 114 114 114 114 114 114 114 114 114 114 114 114 114 114 76 76 114 76 76 114 76 114 114 76 114 114 114 114 114 114 114 76 76 114 76 76 76 76 76 76 76 114 76 76 76 114 114 114 76 76 76 114 76 76 76 114 76 76 76 76 76 76 76 76 76 76 76 76 76 76 76 76 114 114 114 76 76 76 76 76 76 76 114 76 76 76 76 76 76 114 114 114 76 114 114 114 114 114 114 114 114 114 114 114 114 114 114 114 114 114 114 114 76 114 114 76 76 114 114 114 114 114 114 114 114 114 114 114 76 76 76 114 76 76 114 114 114 114 114 76 76 76 114 114 76 76 76 76 76 76 76 76 76 76 76 76 76 76 76 76 76 76 76 76 76 76 76 76 76 76 76 76 76 76 76 76 114 114 114 114 114 114 114 114 114 114 114 114 114 114 114 114 114 114 114 114 114 114 114 114 114 114 114 114 114 114 114 114 114 114 114 114 114 114 114 114 114 114 114 114 114 114 114 114 114 114 114 114 114 114 114 114 114 114 114 114 114 114 114 114 114 114 114 114 114 114 114 114 114 114 114 114 114 114 114 114 114 114 114 114 114 114 114 114 114 114 114 114 114 114 114 114 114 114 114 114 114 114 114 114 167 167 167 167 167 167 167 167 167 167 167 167 167 167 167 167 167 167 167 167 167 167 167 114 76 76 76 76 76 76 76 76 76 76 76 76 76 76 76 76 76 76 76 76 76 40 40 40 40 40 40 40 40 40 40 40 40 40 40 40 40 40 40 40 40 40 40 
114 114 114 114 114 114 114 114 114 114 114 114 114 114 114 114 114 114 114 114 114 114 114 114 114 76 76 76 76 76 76 76 40 76 76 40 40 76 76 76 76 76 76 76 76 76 76 76 76 76 76 76 76 76 76 76 76 76 76 76 76 76 76 76 76 76 76 76 76 76 76 76 76 76 76 76 76 76 76 76 76 76 76 76 76 76 76 76 76 76 76 76 76 114 76 76 114 76 76 76 76 114 114 114 114 76 76 114 114 76 76 76 76 114 114 114 114 114 114 114 114 114 114 76 76 114 114 114 114 114 114 114 114 114 114 114 114 114 114 114 114 114 114 114 76 76 114 114 114 114 114 76 114 114 114 114 114 114 114 114 114 76 114 114 114 114 114 114 114 114 114 76 114 114 114 114 76 114 114 114 76 114 114 114 114 114 114 114 76 114 114 76 114 76 114 76 76 76 114 114 76 76 114 114 76 114 114 114 114 114 114 114 114 114 114 114 114 114 114 114 114 114 76 76 114 76 76 76 76 76 76 76 76 76 76 76 76 76 76 76 76 76 76 76 76 76 76 114 76 76 76 114 114 76 76 76 114 76 114 114 114 114 76 114 114 76 114 114 114 114 114 114 76 76 114 114 76 114 76 76 76 76 76 114 114 114 114 114 114 114 114 114 114 114 114 114 114 76 114 114 76 76 114 76 76 76 76 114 114 76 76 76 76 76 76 76 76 76 76 76 76 76 76 76 76 76 76 76 76 76 76 76 76 76 76 76 76 76 114 114 114 114 114 114 114 114 114 114 114 114 114 114 114 114 114 114 114 114 114 114 114 114 114 114 114 114 114 114 114 114 114 114 114 114 114 114 114 114 114 114 114 114 114 114 114 114 114 114 114 114 114 114 114 114 114 114 114 114 114 114 114 114 114 114 114 114 114 114 114 114 114 114 114 114 114 114 114 114 114 114 114 114 114 114 114 114 114 114 114 114 114 114 114 114 114 114 114 114 114 114 114 114 114 114 114 114 167 167 167 167 167 167 167 167 167 167 167 167 167 167 167 167 167 167 167 167 167 167 114 76 76 76 76 76 76 76 76 76 76 76 76 76 76 76 76 76 76 76 76 76 40 40 40 40 40 40 40 40 40 40 40 40 40 40 40 40 40 40 40 40 40 40 
114 114 114 114 114 114 114 114 114 114 114 114 114 114 114 114 114 114 114 114 114 114 114 114 114 76 76 76 76 76 76 40 40 40 40 40 76 76 76 76 76 76 76 76 76 76 76 76 76 76 76 76 76 76 76 76 76 76 76 76 76 76 76 76 76 76 76 76 76 76 76 76 76 76 76 76 76 76 76 76 76 76 76 76 76 76 76 76 114 76 76 76 114 114 76 76 114 114 76 76 76 76 76 76 114 114 114 114 114 76 76 114 76 114 114 76 114 76 76 76 114 114 114 114 76 114 114 114 114 114 114 114 114 114 114 114 114 76 76 114 114 76 76 114 114 114 76 76 76 114 114 114 114 114 114 114 114 114 114 114 114 114 114 114 114 114 114 76 114 114 114 76 114 114 76 114 114 114 114 114 114 114 114 114 76 114 76 114 76 114 114 76 114 114 114 114 114 114 114 114 114 114 114 114 114 114 114 114 114 114 167 114 114 114 114 167 114 114 114 114 114 114 114 114 167 114 114 114 114 114 76 76 76 76 76 76 76 76 76 76 76 76 76 76 76 76 76 76 114 76 76 76 76 76 76 114 76 76 114 76 76 114 76 114 114 76 114 114 114 114 114 114 76 114 76 114 114 76 114 114 114 114 76 114 76 114 114 114 76 114 114 114 114 114 114 114 76 76 114 114 114 114 76 76 76 76 76 76 76 114 76 76 76 76 76 76 76 76 76 76 76 76 76 76 76 76 76 76 76 76 76 76 76 76 76 76 76 76 76 114 114 114 114 114 114 114 114 114 114 114 114 114 114 114 114 114 114 114 114 114 114 114 114 114 114 114 114 114 114 114 114 114 114 114 114 114 114 114 114 114 114 114 114 114 114 114 114 114 114 114 114 114 114 114 114 114 114 114 114 114 114 114 114 114 114 114 114 114 114 114 114 114 114 114 114 114 114 114 114 114 114 114 114 114 114 114 114 114 114 114 114 114 114 114 114 114 114 114 114 114 114 114 114 114 114 114 114 167 167 167 167 167 167 167 167 167 167 167 167 167 167 167 167 167 167 167 167 167 114 114 76 76 76 76 76 76 76 76 76 76 76 76 76 76 76 76 76 76 40 40 40 40 40 40 40 40 40 40 40 40 40 40 40 40 40 40 40 40 40 40 40 40 
114 114 114 114 114 114 114 114 114 114 114 114 114 114 114 114 114 114 114 114 114 114 114 114 114 76 76 76 76 76 76 40 40 76 40 40 76 76 40 76 76 76 76 76 76 76 76 76 76 76 76 76 76 76 76 76 76 76 76 76 76 76 76 76 76 76 76 76 76 76 76 76 76 76 76 76 76 76 76 76 76 76 76 76 76 76 76 76 76 76 76 114 76 76 76 114 76 76 114 114 114 76 76 76 76 76 76 76 114 114 114 114 114 114 76 114 76 76 76 114 76 76 114 114 76 114 114 114 114 76 114 114 114 114 76 114 114 114 114 114 114 114 114 114 114 114 114 114 114 114 114 114 114 114 114 114 114 114 114 114 76 76 114 114 114 114 114 114 114 114 114 114 114 114 76 114 114 114 114 114 114 114 114 76 76 114 114 114 114 114 114 114 114 114 114 114 114 114 114 114 114 114 114 114 114 114 114 114 114 114 114 114 114 167 167 114 114 167 114 114 114 167 167 167 114 114 167 167 167 167 167 114 114 114 76 76 76 76 76 76 76 76 76 76 76 76 76 76 76 76 76 76 76 76 76 114 76 76 114 76 76 114 114 114 114 76 114 76 76 114 76 114 114 76 114 114 114 114 114 114 114 76 114 114 114 76 76 76 76 76 76 114 114 114 114 114 114 76 76 114 76 114 114 114 76 114 76 76 76 114 114 76 76 76 76 76 76 76 76 76 76 76 76 76 76 76 76 76 76 76 76 76 76 76 76 76 114 76 76 76 114 114 114 114 114 114 114 114 114 114 114 114 114 114 114 114 114 114 114 114 114 114 114 114 114 114 114 114 114 114 114 114 114 114 114 114 114 114 114 114 114 114 114 114 114 114 114 114 114 114 114 114 114 114 114 114 114 114 114 114 114 114 114 114 114 114 114 114 114 114 114 114 114 114 114 114 114 114 114 114 114 114 114 114 114 114 114 114 114 114 114 114 114 114 114 114 114 114 114 114 114 114 114 114 114 114 114 167 167 167 167 167 167 167 167 167 167 167 167 167 167 167 167 167 167 167 167 167 167 114 114 76 76 76 76 76 76 76 76 76 76 76 76 76 76 76 76 40 40 40 40 40 40 40 40 40 40 40 40 40 40 40 40 40 40 40 40 40 40 40 40 40 
114 114 114 114 114 114 114 114 114 114 114 114 114 114 114 114 114 114 114 114 114 114 114 114 76 76 76 76 76 40 40 40 40 76 76 40 76 40 76 76 76 76 76 76 76 76 76 76 76 76 76 76 76 76 76 76 76 76 76 76 76 76 76 76 76 76 76 76 76 76 76 76 76 76 76 76 76 76 76 76 76 76 76 76 76 76 76 76 76 76 76 114 114 76 76 76 114 76 76 76 114 76 76 114 76 76 114 114 76 76 114 114 114 114 76 114 114 114 114 114 114 76 114 114 114 114 114 114 114 114 114 114 114 114 114 76 114 114 114 114 114 114 114 114 76 114 114 114 114 76 114 114 114 114 114 114 114 114 114 114 114 114 114 114 114 114 114 114 114 76 76 76 114 114 76 114 114 114 114 114 114 76 76 114 114 114 114 76 76 114 114 114 114 114 114 114 114 114 114 114 114 114 114 114 114 114 114 114 114 114 114 114 167 114 114 114 114 114 114 114 167 167 167 167 167 167 167 167 167 167 167 167 167 167 114 114 114 114 114 76 76 76 76 76 76 76 76 76 76 76 76 76 76 76 76 76 76 114 114 114 76 76 76 114 114 114 114 114 114 114 76 76 76 76 76 76 76 76 76 76 76 76 76 76 76 76 114 76 76 114 114 114 76 114 114 114 76 114 114 76 76 76 76 114 114 114 76 114 76 76 76 76 76 76 76 114 76 76 76 76 76 76 76 76 76 76 76 76 76 76 76 76 76 76 76 76 76 76 76 76 114 114 114 114 114 114 114 114 114 114 114 114 114 114 114 114 114 114 114 114 114 114 114 114 114 114 114 114 114 114 114 114 114 114 114 114 114 114 114 114 114 114 114 114 114 114 114 114 114 114 114 114 114 114 114 114 114 114 114 114 114 114 114 114 114 114 114 114 114 114 114 114 114 114 114 114 114 114 114 114 114 114 114 114 114 114 114 114 114 114 114 114 114 114 114 114 114 114 114 114 114 114 114 114 114 114 114 114 167 167 167 167 167 167 167 167 167 167 167 167 167 167 167 167 167 167 167 167 167 167 114 114 76 76 76 76 76 76 76 76 76 114 76 76 76 76 40 40 40 40 40 40 40 40 40 40 40 40 40 40 40 40 40 40 40 40 40 40 40 40 40 40 
114 114 114 114 114 114 114 114 114 114 114 114 114 114 114 114 114 114 114 114 114 114 114 114 114 76 76 76 76 40 76 76 40 40 76 40 76 40 76 76 76 76 76 76 76 76 76 76 76 76 76 76 76 76 76 76 76 76 76 76 76 76 76 76 76 76 76 76 76 76 76 76 76 76 76 76 76 76 76 76 76 76 76 76 76 76 76 76 76 76 76 76 76 76 76 76 114 76 76 76 114 76 76 76 114 76 76 76 76 114 114 76 114 114 76 114 114 114 114 76 114 76 76 114 114 114 114 114 114 114 76 114 76 114 114 76 114 114 114 114 114 114 114 114 114 114 114 114 114 114 114 76 114 76 114 114 76 76 114 114 114 114 114 114 114 114 114 114 114 114 114 114 114 114 76 114 76 114 114 114 114 114 114 114 76 114 114 76 114 114 114 114 114 114 114 114 114 114 114 114 114 114 114 114 167 114 114 114 167 114 114 114 167 114 114 114 167 114 114 167 167 167 167 167 167 167 114 167 167 167 167 167 167 167 167 167 167 167 114 114 114 114 114 76 76 76 76 76 76 76 76 76 76 76 76 76 114 76 76 76 114 114 76 76 76 76 114 114 114 114 114 114 76 76 76 76 76 114 114 114 114 114 76 76 114 114 114 114 76 114 114 114 114 114 114 114 76 114 114 76 76 114 76 114 76 114 76 76 114 76 76 76 76 76 76 76 76 76 76 76 76 76 76 76 76 76 76 76 76 76 76 76 76 76 76 76 76 114 76 114 76 76 114 114 114 114 114 114 114 114 114 114 114 114 114 114 114 114 114 114 114 114 114 114 114 114 114 114 114 114 114 114 114 114 114 114 114 114 114 114 114 114 114 114 114 114 114 114 114 114 114 114 114 114 114 114 114 114 114 114 114 114 114 114 114 114 114 114 114 114 114 114 114 114 114 114 114 114 114 114 114 114 114 114 114 114 114 114 114 114 114 114 114 114 114 114 114 114 114 114 114 114 114 114 114 114 114 114 114 167 167 167 167 167 167 167 167 167 167 167 167 167 167 167 167 167 167 167 167 167 167 114 114 76 76 76 76 76 76 76 76 114 76 76 76 40 40 40 40 40 40 40 40 40 40 40 40 40 40 40 40 40 40 40 40 40 40 40 40 40 40 40 
114 114 114 114 114 114 114 114 114 114 114 114 114 114 114 114 114 114 114 114 114 114 114 114 114 76 76 76 76 76 76 76 40 76 76 76 76 40 76 76 76 76 76 76 76 76 76 76 76 76 76 76 76 76 76 76 76 76 76 76 76 76 76 76 76 76 76 76 76 76 76 76 76 76 76 76 76 76 76 76 76 76 76 76 76 76 114 114 76 76 76 114 76 76 114 76 76 76 114 76 114 114 114 76 114 114 76 76 114 114 114 76 76 114 76 76 114 114 114 114 114 114 114 114 114 114 114 114 114 114 76 114 114 114 114 114 114 114 114 114 114 114 114 114 114 114 114 114 114 114 114 76 114 76 114 114 114 114 114 76 114 114 114 114 114 114 114 114 114 114 114 114 114 114 114 76 114 114 114 114 114 114 114 114 114 114 114 114 114 114 114 114 114 114 114 114 114 114 114 114 114 114 114 114 167 114 114 114 114 114 167 114 167 167 167 114 167 114 114 167 167 114 114 167 167 167 167 167 167 167 167 114 114 114 167 167 167 167 167 167 167 114 114 114 76 76 76 76 76 76 76 76 76 76 76 76 76 76 76 76 76 76 76 76 114 76 114 114 76 114 114 114 114 76 76 114 114 114 114 114 76 114 76 76 114 114 114 114 114 114 114 114 114 76 76 76 114 114 114 76 114 114 76 76 76 114 76 76 114 76 76 114 76 76 76 114 76 76 76 76 76 76 76 76 76 76 76 76 76 76 76 76 76 76 76 76 76 114 114 114 114 114 114 114 114 114 114 114 114 114 114 114 114 114 114 114 114 114 114 114 114 114 114 114 114 114 114 114 114 114 114 114 114 114 114 114 114 114 114 114 114 114 114 114 114 114 114 114 114 114 114 114 114 114 114 114 114 114 114 114 114 114 114 114 114 114 114 114 114 114 114 114 114 114 114 114 114 114 114 114 114 114 114 114 114 114 114 114 114 114 114 114 114 114 114 114 114 114 114 114 114 114 114 114 114 114 114 114 114 167 167 167 167 167 167 167 167 167 167 167 167 167 167 167 167 167 167 167 167 167 167 114 114 76 76 76 76 76 76 76 76 76 76 76 40 40 40 40 40 40 40 40 40 40 40 40 40 40 40 40 40 40 40 40 40 40 40 40 40 40 40 40 
114 114 114 114 114 114 114 114 114 114 114 114 114 114 114 114 114 114 114 114 114 114 114 114 114 76 76 76 76 76 76 40 40 40 76 40 76 40 76 76 76 76 76 76 76 76 76 76 76 76 76 76 76 76 76 76 76 76 76 76 76 76 76 76 76 76 76 76 76 76 76 76 76 76 76 76 76 76 76 76 76 76 76 76 76 76 114 76 76 76 76 76 76 76 76 76 76 76 114 76 114 76 114 76 114 114 114 76 114 114 114 114 76 114 76 114 114 114 114 114 114 114 114 114 114 114 114 114 114 114 114 114 114 114 114 114 114 114 114 114 114 114 114 76 114 114 114 114 114 114 76 76 114 114 76 114 114 114 114 114 114 114 114 114 114 114 114 114 76 114 114 114 114 114 114 76 114 114 114 114 114 114 114 114 114 114 114 114 114 114 114 114 114 114 114 114 114 114 114 114 114 167 167 114 114 114 114 114 114 114 114 114 167 167 167 167 114 114 167 167 114 114 114 167 167 167 114 114 114 167 167 114 114 167 167 167 167 167 167 167 167 167 167 167 114 114 114 76 76 76 76 76 76 76 76 76 76 76 76 76 76 76 76 76 114 76 76 114 114 114 114 76 114 76 76 114 114 76 76 76 76 114 76 76 76 76 114 76 114 114 76 114 114 114 114 114 76 114 76 76 114 114 114 114 76 114 76 76 76 76 76 76 76 76 76 76 76 76 76 76 76 76 76 76 76 76 76 76 76 76 76 76 76 76 76 76 76 114 76 114 114 114 114 114 114 114 114 114 114 114 114 114 114 114 114 114 114 114 114 114 114 114 114 114 114 114 114 114 114 114 114 114 114 114 114 114 114 114 114 114 114 114 114 114 114 114 114 114 114 114 114 114 114 114 114 114 114 114 114 114 114 114 114 114 114 114 114 114 114 114 114 114 114 114 114 114 114 114 114 114 114 114 114 114 114 114 114 114 114 114 114 114 114 114 114 114 114 114 114 114 114 114 114 114 114 114 114 114 114 114 167 167 167 167 167 167 167 167 167 167 167 167 167 167 167 167 167 167 167 167 167 167 114 114 76 76 76 76 76 76 76 76 76 40 40 40 40 40 40 40 40 40 40 40 40 40 40 40 40 40 40 40 40 40 40 40 40 40 40 40 40 40 
114 114 114 114 114 114 114 114 114 114 114 114 114 114 114 114 114 114 114 114 114 114 114 114 76 76 76 76 76 76 76 40 76 76 76 76 76 76 76 76 76 76 76 76 76 76 76 76 76 76 76 76 76 76 76 76 76 76 76 76 76 76 76 76 76 76 76 76 76 76 76 76 76 76 76 76 76 76 76 76 76 76 76 76 76 76 76 76 114 114 76 76 76 114 114 114 114 76 114 76 114 76 114 114 76 114 114 76 114 76 76 114 76 114 76 114 114 114 114 114 114 114 114 114 114 114 76 114 114 114 114 114 114 114 114 114 114 114 114 114 114 114 114 76 114 114 114 114 114 114 114 76 114 114 114 76 114 114 114 114 114 114 114 114 114 114 114 114 76 76 114 114 76 114 114 114 114 114 114 114 114 114 114 114 114 114 114 114 114 114 114 114 114 114 114 114 114 114 114 167 114 114 114 167 114 114 114 167 114 114 114 167 114 167 167 167 167 167 167 114 114 114 167 167 114 114 114 114 114 114 114 114 167 167 167 114 114 167 167 167 167 167 167 167 167 167 167 114 114 114 76 76 76 76 76 76 76 76 76 76 76 76 76 76 114 76 76 114 114 114 114 76 114 76 76 76 114 76 76 76 114 114 114 114 114 76 114 76 76 76 76 76 114 114 114 114 76 76 76 76 114 114 114 114 76 76 76 76 76 76 76 76 114 76 76 76 76 76 76 76 76 76 76 76 76 76 76 76 76 76 76 76 76 76 76 76 76 76 76 114 114 114 114 114 114 114 114 114 114 114 114 114 114 114 114 114 114 114 114 114 114 114 114 114 114 114 114 114 114 114 114 114 114 114 114 114 114 114 114 114 114 114 114 114 114 114 114 114 114 114 114 114 114 114 114 114 114 114 114 114 114 114 114 114 114 114 114 114 114 114 114 114 114 114 114 114 114 114 114 114 114 114 114 114 114 114 114 114 114 114 114 114 114 114 114 114 114 114 114 114 114 114 114 114 114 114 114 114 114 114 114 167 167 167 167 167 167 167 167 167 167 167 167 167 167 167 167 167 167 167 167 167 167 114 76 76 76 76 76 76 76 76 40 40 40 40 40 40 40 40 40 40 40 40 40 40 40 40 40 40 40 40 40 40 40 40 40 40 40 40 40 40 
114 114 114 114 114 114 114 114 114 114 114 114 114 114 114 114 114 114 114 114 114 114 114 114 76 76 76 76 76 76 76 76 40 40 40 40 76 40 76 76 76 76 76 76 76 76 76 76 76 76 76 76 76 76 76 76 76 76 76 76 76 76 76 76 76 76 76 76 76 76 76 76 76 76 76 76 76 76 76 76 76 76 76 76 76 76 76 114 76 76 76 76 76 76 114 76 114 114 114 114 114 76 114 114 114 114 114 76 114 114 76 76 76 114 76 114 114 76 114 114 114 114 76 114 114 114 114 114 114 114 114 114 114 114 114 114 114 114 114 114 114 114 114 114 114 114 114 76 114 114 114 76 76 114 114 114 114 114 114 76 114 114 114 114 114 114 114 114 114 114 114 114 114 114 114 114 114 114 114 114 114 114 114 114 114 114 114 76 114 114 114 114 114 114 114 114 114 114 114 167 114 114 167 114 114 114 114 114 114 114 114 167 114 167 167 114 167 114 114 114 114 167 167 114 114 114 114 114 114 114 114 167 114 167 114 114 114 167 167 167 167 167 167 167 167 167 167 167 167 167 114 114 114 76 76 76 76 76 76 76 76 76 76 76 114 76 114 114 76 76 114 114 114 76 76 114 114 76 76 114 114 114 114 76 76 76 114 76 114 76 76 76 76 76 76 76 76 114 114 114 114 76 76 76 114 76 76 76 76 76 76 76 76 76 76 76 76 76 76 76 76 76 76 76 76 76 76 76 76 76 76 76 76 76 76 76 76 76 76 114 114 114 114 114 114 114 114 114 114 114 114 114 114 114 114 114 114 114 114 114 114 114 114 114 114 114 114 114 114 114 114 114 114 114 114 114 114 114 114 114 114 114 114 114 114 114 114 114 114 114 114 114 114 114 114 114 114 114 114 114 114 114 114 114 114 114 114 114 114 114 114 114 114 114 114 114 114 114 114 114 114 114 114 114 114 114 114 114 114 114 114 114 114 114 114 114 114 114 114 114 114 114 114 114 114 114 114 114 114 114 114 167 167 167 167 167 167 167 167 167 167 167 167 167 167 167 167 167 167 167 167 167 167 114 114 76 76 76 76 76 76 40 40 40 40 40 40 40 40 40 40 40 40 40 40 40 40 40 40 40 40 40 40 40 40 40 40 40 40 40 40 40 
114 114 114 114 114 114 114 114 114 114 114 114 114 114 114 114 114 114 114 114 114 114 114 114 114 76 76 76 76 76 76 76 40 76 40 40 76 76 76 76 76 76 76 76 76 76 76 76 76 76 76 76 76 76 76 76 76 76 76 76 76 76 76 76 76 76 76 76 76 76 76 76 76 76 76 76 76 76 76 76 114 114 76 76 76 76 76 76 76 76 114 114 76 76 114 76 76 76 114 76 114 76 114 114 114 114 114 76 114 114 114 76 76 114 76 114 114 76 114 76 114 76 76 114 114 114 114 114 114 76 114 114 114 114 114 114 114 114 114 114 114 114 114 114 114 114 114 114 114 114 114 76 114 114 114 114 114 114 114 114 114 114 114 114 114 114 114 114 114 114 114 114 114 114 114 114 114 114 114 114 114 114 114 114 114 114 114 114 114 114 114 114 114 114 114 114 114 114 114 114 167 114 114 114 114 114 114 114 114 167 114 114 114 167 167 114 114 114 167 167 114 114 167 114 114 114 114 114 167 114 114 114 114 114 114 114 167 167 167 114 114 167 167 167 167 167 167 167 167 167 167 167 167 114 114 76 76 76 76 76 76 76 76 76 76 76 114 114 76 76 76 76 76 76 114 76 76 76 114 114 76 114 76 76 76 76 76 76 114 114 76 76 76 76 76 76 114 114 76 76 114 76 76 76 114 114 114 76 114 76 76 114 76 76 76 76 76 76 76 76 76 76 76 76 76 76 76 76 76 76 76 76 76 76 76 76 76 76 114 114 114 114 114 114 114 114 114 114 114 114 114 114 114 114 114 114 114 114 114 114 114 114 114 114 114 114 114 114 114 114 114 114 114 114 114 114 114 114 114 114 114 114 114 114 114 114 114 114 114 114 114 114 114 114 114 114 114 114 114 114 114 114 114 114 114 114 114 114 114 114 114 114 114 114 114 114 114 114 114 114 114 114 114 114 114 114 114 114 114 114 114 114 114 114 114 114 114 114 114 114 114 114 114 114 114 114 114 114 114 114 114 114 167 167 167 167 167 167 167 167 167 167 167 167 167 167 167 167 167 167 167 167 167 167 114 114 76 76 76 76 40 40 40 40 40 40 40 40 40 40 40 40 40 40 40 40 40 40 40 40 40 40 40 40 40 40 40 40 40 40 40 40 
114 114 114 114 114 114 114 114 114 114 114 114 114 114 114 114 114 114 114 114 114 114 114 114 114 114 76 76 76 76 76 40 40 40 40 40 76 40 76 76 76 76 76 76 76 76 76 76 76 76 76 76 76 76 76 76 76 76 76 76 76 76 76 76 76 76 76 76 76 76 76 76 76 76 76 76 76 76 76 76 76 76 76 76 76 76 76 76 76 76 76 76 76 76 76 76 76 76 114 76 114 114 114 76 114 114 76 76 114 114 114 76 76 114 114 114 114 76 114 76 114 114 114 114 114 114 114 114 114 114 114 76 114 114 114 114 114 114 76 114 114 114 114 114 76 114 114 114 76 114 114 114 76 114 114 114 114 114 114 114 114 114 114 114 114 114 114 114 114 114 114 114 114 114 114 114 114 114 114 114 114 114 114 114 114 114 114 114 114 114 114 114 114 114 114 114 114 114 114 114 114 114 114 114 114 114 167 114 114 114 114 167 114 167 114 114 167 167 167 167 167 114 167 114 114 114 114 114 167 114 114 114 167 167 167 167 114 167 167 167 114 167 167 167 167 167 167 167 167 167 167 167 167 167 167 114 76 76 76 76 76 76 76 76 76 76 76 114 114 114 76 76 76 76 114 114 76 76 76 76 76 114 76 76 76 76 114 114 76 114 114 76 76 114 114 114 76 76 76 76 114 114 76 76 76 76 76 76 76 76 76 76 76 76 76 76 76 76 76 76 76 76 76 76 76 76 76 76 76 76 76 76 76 76 76 76 76 76 114 114 114 114 114 114 114 114 114 114 114 114 114 114 114 114 114 114 114 114 114 114 114 114 114 114 114 114 114 114 114 114 114 114 114 114 114 114 114 114 114 114 114 114 114 114 114 114 114 114 114 114 114 114 114 114 114 114 114 114 114 114 114 114 114 114 114 114 114 114 114 114 114 114 114 114 114 114 114 114 114 114 114 114 114 114 114 114 114 114 114 114 114 114 114 114 114 114 114 114 114 114 114 114 114 114 114 114 114 114 114 114 114 114 167 167 167 167 167 167 167 167 167 167 167 167 167 167 167 167 167 167 167 167 167 167 167 114 76 76 76 76 40 40 40 40 40 40 40 40 40 40 40 40 40 40 40 40 40 40 40 40 40 40 40 40 40 40 40 40 40 40 40 40 
114 114 114 114 114 114 114 114 114 114 114 114 114 114 114 114 114 114 114 114 114 114 114 114 114 76 76 76 76 76 40 76 40 40 40 76 40 40 76 40 76 76 76 76 76 76 76 76 76 76 76 76 76 76 76 76 76 76 76 76 76 76 76 76 76 76 76 76 76 76 76 76 76 76 76 76 76 76 76 76 114 76 76 76 76 76 76 76 114 114 76 76 114 76 76 76 76 76 114 114 76 76 114 114 114 76 114 114 76 114 114 114 114 114 114 114 114 114 76 76 114 114 114 76 76 114 114 114 114 114 114 114 114 114 114 114 114 114 114 114 114 114 114 114 114 114 114 114 114 114 114 114 114 114 114 114 114 76 114 114 76 114 114 114 114 114 114 114 114 114 76 114 114 114 114 114 114 114 114 114 114 114 114 114 114 114 114 114 114 114 114 114 114 114 114 114 114 114 114 114 114 114 114 114 114 114 114 114 114 114 167 167 114 114 114 167 167 167 114 167 167 114 114 167 167 167 167 114 114 114 167 114 167 167 167 114 167 167 167 167 167 167 167 167 167 167 167 167 167 167 167 167 167 167 167 167 167 114 114 76 76 76 76 76 76 76 76 76 76 76 76 76 76 76 76 114 114 114 76 76 76 76 114 114 114 114 76 76 76 76 76 76 76 76 76 76 76 76 76 114 114 76 76 114 76 76 76 76 114 114 114 76 76 76 76 76 76 76 76 76 76 76 76 76 76 76 76 76 76 76 76 76 76 76 76 76 76 114 114 114 114 114 114 114 114 114 114 114 114 114 114 114 114 114 114 114 114 114 114 114 114 114 114 114 114 114 114 114 114 114 114 114 114 114 114 114 114 114 114 114 114 114 114 114 114 114 114 114 114 114 114 114 114 114 114 114 114 114 114 114 114 114 114 114 114 114 114 114 114 114 114 114 114 114 114 114 114 114 114 114 114 114 114 114 114 114 114 114 114 114 114 114 114 114 114 114 114 114 114 114 114 114 114 114 114 114 114 114 114 114 114 114 114 167 167 167 167 167 167 167 167 167 167 167 167 167 167 167 167 167 167 167 167 167 167 114 76 76 76 40 40 40 40 40 40 40 40 40 40 40 40 40 40 40 40 40 40 40 40 40 40 40 40 40 40 40 40 40 40 40 40 40 
114 114 114 114 114 114 114 114 114 114 114 114 114 114 114 114 114 114 114 114 114 114 114 114 76 76 76 76 76 76 40 76 76 40 40 76 76 76 76 76 76 76 76 76 76 76 76 76 76 76 76 76 76 76 76 76 76 76 76 76 76 76 76 76 76 76 76 76 76 76 76 76 76 76 76 76 76 76 76 76 114 76 76 76 76 76 114 76 76 76 76 76 114 114 76 76 114 114 114 114 76 76 114 114 114 114 114 76 76 114 76 114 76 76 76 76 114 114 114 114 76 114 114 114 114 114 114 114 114 114 114 114 114 114 114 114 114 114 114 114 114 114 114 114 114 114 114 76 114 114 114 114 114 114 114 114 114 114 114 114 114 114 114 114 114 114 114 76 114 114 114 114 114 114 114 114 76 114 114 114 114 114 114 114 114 114 114 114 114 114 114 76 114 114 114 114 114 114 114 114 114 114 114 114 114 114 114 114 114 114 114 114 114 114 114 167 167 167 114 167 167 114 167 167 114 167 114 114 114 114 167 167 114 167 114 114 167 167 167 114 114 114 167 167 167 167 167 167 167 167 167 167 167 167 167 167 167 167 167 114 76 76 76 76 76 76 76 114 76 76 76 76 76 76 76 76 76 76 76 114 114 76 114 76 76 114 76 76 114 76 76 76 76 114 114 114 76 76 114 76 76 76 76 114 114 76 76 76 76 76 76 76 76 76 76 76 76 76 76 76 76 76 76 76 76 76 76 76 76 76 76 76 76 76 76 76 76 76 76 114 76 114 114 114 114 114 114 114 114 114 114 114 114 114 114 114 114 114 114 114 114 114 114 114 114 114 114 114 114 114 114 114 114 114 114 114 114 114 114 114 114 114 114 114 114 114 114 114 114 114 114 114 114 114 114 114 114 114 114 114 114 114 114 114 114 114 114 114 114 114 114 114 114 114 114 114 114 114 114 114 114 114 114 114 114 114 114 114 114 114 114 114 114 114 114 114 114 114 114 114 114 114 114 114 114 114 114 114 114 114 114 114 114 114 167 167 167 167 167 167 167 167 167 167 167 167 167 167 167 167 167 167 167 167 167 167 114 76 76 40 40 40 40 40 40 40 40 40 40 40 40 40 40 40 40 40 40 40 40 40 40 40 40 40 40 40 40 40 40 40 40 40 
114 114 114 114 114 114 114 114 114 114 114 114 114 114 114 114 114 114 114 114 114 114 114 114 76 76 76 76 76 76 40 40 40 40 40 76 76 40 76 76 76 76 76 76 76 76 76 76 76 76 76 76 76 76 76 76 76 76 76 76 76 76 76 76 76 76 76 76 76 76 76 76 76 76 76 76 76 76 76 76 76 76 76 76 76 76 76 76 76 114 76 76 76 76 76 114 114 114 114 114 76 76 76 76 114 114 76 76 76 114 76 114 76 114 114 76 76 114 114 114 76 114 114 114 114 114 114 114 76 114 114 114 114 114 114 114 114 114 114 114 114 114 114 114 114 114 114 114 114 114 114 114 76 76 114 114 114 114 114 114 114 114 114 114 114 114 76 76 76 114 114 114 114 114 114 114 114 114 114 114 114 114 114 114 114 114 114 114 114 114 114 114 114 114 114 114 114 114 114 114 114 114 114 114 114 114 114 114 114 114 114 114 114 114 114 114 167 167 167 167 167 114 114 167 114 114 167 167 114 167 114 167 114 167 167 167 167 167 167 167 167 167 167 167 167 167 167 167 167 167 167 167 167 167 167 167 167 167 167 167 114 114 76 76 76 76 76 76 76 76 76 76 76 76 114 76 76 76 76 76 114 76 76 76 76 76 76 114 76 76 76 76 76 76 76 76 76 76 76 76 76 76 76 114 76 76 76 76 76 76 76 76 76 76 76 76 76 76 76 76 76 76 76 76 76 76 76 76 76 76 76 76 76 76 76 76 76 76 114 114 114 114 114 114 114 114 114 114 114 114 114 114 114 114 114 114 114 114 114 114 114 114 114 114 114 114 114 114 114 114 114 114 114 114 114 114 114 114 114 114 114 114 114 114 114 114 114 114 114 114 114 114 114 114 114 114 114 114 114 114 114 114 114 114 114 114 114 114 114 114 114 114 114 114 114 114 114 114 114 114 114 114 114 114 114 114 114 114 114 114 114 114 114 114 114 114 114 114 114 114 114 114 114 114 114 114 114 114 114 114 114 114 114 114 114 167 167 167 167 167 167 167 167 167 167 167 167 167 167 167 167 167 167 167 167 167 114 76 40 40 40 40 40 40 40 40 40 40 40 40 40 40 40 40 40 40 40 40 40 40 40 40 40 40 40 40 40 40 40 40 40 40 
114 114 114 114 114 114 114 114 114 114 114 114 114 114 114 114 114 114 114 114 114 114 114 114 114 114 76 76 76 76 40 40 40 40 40 40 40 40 40 40 76 76 76 76 76 76 76 76 76 76 76 76 76 76 76 76 76 76 76 76 76 76 76 76 76 76 76 76 76 76 76 76 76 76 76 76 76 76 114 76 76 76 76 76 76 76 76 76 76 76 76 76 76 76 76 114 76 76 114 114 114 114 114 114 114 114 76 76 114 114 114 114 114 114 114 114 76 114 114 114 114 114 114 114 114 114 114 114 114 114 114 114 114 114 114 114 114 114 114 114 114 114 114 114 76 114 114 114 114 114 76 76 114 114 114 114 114 114 114 114 114 114 114 76 76 76 76 114 114 114 114 114 114 114 114 114 114 76 114 114 114 114 114 114 114 114 114 114 114 114 114 114 114 114 114 114 114 114 114 114 114 114 114 114 114 114 114 114 114 114 114 114 114 114 114 114 114 167 167 167 114 114 114 114 167 114 167 167 167 114 114 114 114 167 167 167 114 167 167 167 167 167 167 167 167 167 167 167 167 167 167 167 167 167 167 167 167 167 167 167 167 167 114 76 76 76 76 76 76 76 76 76 76 76 76 76 76 114 76 76 76 76 76 76 76 76 76 76 114 76 114 114 76 76 76 76 76 76 76 76 76 114 76 76 114 76 76 76 76 76 114 76 76 76 76 76 76 76 76 76 76 76 76 76 76 76 76 76 76 76 76 76 76 76 76 76 76 76 76 114 114 114 114 114 114 114 114 114 114 114 114 114 114 114 114 114 114 114 114 114 114 114 114 114 114 114 114 114 114 114 114 114 114 114 114 114 114 114 114 114 114 114 114 114 114 114 114 114 114 114 114 114 114 114 114 114 114 114 114 114 114 114 114 114 114 114 114 114 114 114 114 114 114 114 114 114 114 114 114 114 114 114 114 114 114 114 114 114 114 114 114 114 114 114 114 114 114 114 114 114 114 114 114 114 114 114 114 114 114 114 114 114 114 114 114 167 167 167 167 167 167 167 167 167 167 167 167 167 167 167 167 167 167 167 167 167 114 76 40 40 40 40 40 40 40 40 40 40 40 40 40 40 40 40 40 40 40 40 40 40 40 40 40 40 40 40 40 40 40 40 40 40 
114 114 114 114 114 114 114 114 114 114 114 114 114 114 114 114 114 114 114 114 114 114 114 114 114 76 76 76 76 76 76 76 40 40 40 40 40 76 76 40 76 76 76 76 76 76 76 76 76 76 76 76 76 76 76 76 76 76 76 76 76 76 76 76 76 76 76 76 76 76 76 76 76 76 76 76 76 76 76 76 76 76 76 76 76 76 76 76 76 76 76 76 76 76 76 114 114 114 114 114 114 114 76 76 114 76 76 76 76 76 76 76 114 114 114 114 114 114 114 114 76 114 114 114 114 114 114 114 114 114 114 114 114 114 114 114 114 114 76 114 114 114 76 76 76 114 76 76 76 114 114 114 114 114 114 114 114 114 114 114 114 76 76 76 76 76 76 114 114 114 114 114 114 114 114 76 114 114 114 114 114 114 114 114 114 114 114 114 114 114 114 114 114 114 114 114 114 114 114 114 114 114 114 114 114 114 114 114 167 114 114 114 114 114 114 114 114 167 114 114 114 114 114 114 167 114 114 167 167 114 167 167 167 114 114 167 167 167 167 167 167 167 167 167 167 167 167 167 167 167 167 167 167 167 167 167 167 167 167 167 167 167 167 114 114 76 76 76 76 114 76 76 76 76 76 76 114 76 76 76 76 76 76 76 76 76 76 76 76 76 76 114 76 76 76 76 76 114 114 76 76 76 76 76 76 76 76 76 76 76 76 76 76 76 76 76 76 76 76 76 76 76 76 76 76 76 76 76 76 76 76 76 76 76 76 76 76 76 76 114 76 114 114 114 114 114 114 114 114 114 114 114 114 114 114 114 114 114 114 114 114 114 114 114 114 114 114 114 114 114 114 114 114 114 114 114 114 114 114 114 114 114 114 114 114 114 114 114 114 114 114 114 114 114 114 114 114 114 114 114 114 114 114 114 114 114 114 114 114 114 114 114 114 114 114 114 114 114 114 114 114 114 114 114 114 114 114 114 114 114 114 114 114 114 114 114 114 114 114 114 114 114 114 114 114 114 114 114 114 114 114 114 114 114 114 114 167 167 167 167 167 167 167 167 167 167 167 167 167 167 167 167 167 167 167 167 114 76 40 40 40 40 40 40 40 40 40 40 40 40 40 40 40 40 40 40 40 40 40 40 40 40 40 40 40 40 40 40 40 40 40 40 
114 114 114 114 114 114 114 114 114 114 114 114 114 114 114 114 114 114 114 114 114 114 114 114 76 76 76 76 76 76 76 76 40 40 40 40 40 76 76 40 76 76 76 76 76 76 76 76 76 76 76 76 76 76 76 76 76 76 76 76 76 76 76 76 76 76 76 76 76 76 76 76 76 76 76 76 76 76 76 76 76 76 76 76 76 76 76 76 76 114 114 76 76 76 76 76 114 76 76 76 76 76 76 76 76 76 76 76 76 76 76 76 114 76 114 114 114 76 76 76 114 114 114 114 114 114 114 114 114 114 114 114 114 114 114 114 114 114 76 76 114 114 114 114 114 114 114 114 114 114 114 114 114 114 114 114 114 114 76 76 114 76 76 76 76 76 76 114 114 76 114 114 114 114 114 114 114 114 114 114 114 114 114 114 76 114 114 114 114 114 114 114 114 114 114 114 114 114 114 114 114 114 114 114 114 114 114 114 167 114 167 114 114 114 114 114 167 167 114 114 114 114 114 114 167 167 114 167 167 114 114 167 167 167 167 167 167 167 167 167 167 167 167 167 167 167 167 167 167 167 167 167 167 167 167 167 167 167 167 167 167 167 167 167 167 114 76 76 76 76 76 76 76 76 76 76 76 76 76 76 76 76 76 76 76 76 76 76 76 76 76 76 76 76 76 76 76 114 76 76 76 76 76 76 76 76 76 76 76 76 76 76 76 76 76 76 76 76 76 76 76 76 76 76 76 76 76 76 76 76 76 76 76 76 76 76 76 76 76 114 114 114 114 114 114 114 114 114 114 114 114 114 114 114 114 114 114 114 114 114 114 114 114 114 114 114 114 114 114 114 114 114 114 114 114 114 114 114 114 114 114 114 114 114 114 114 114 114 114 114 114 114 114 114 114 114 114 114 114 114 114 114 114 114 114 114 114 114 114 114 114 114 114 114 114 114 114 114 114 114 114 114 114 114 114 114 114 114 114 114 114 114 114 114 114 114 114 114 114 114 114 114 114 114 114 114 114 114 114 114 114 114 114 114 114 114 167 167 167 167 167 167 167 167 167 167 167 167 167 167 167 167 167 167 167 114 76 40 40 40 40 40 40 40 40 40 40 40 40 40 40 40 40 40 40 40 40 40 40 40 40 40 40 40 40 40 40 40 40 40 40 40 
114 114 114 114 114 114 114 114 114 114 114 114 114 114 114 114 114 114 114 114 114 114 114 114 114 76 76 76 76 76 76 40 40 40 40 40 40 76 76 40 40 76 76 76 76 76 76 76 76 76 76 76 76 76 76 76 76 76 76 76 76 76 76 76 76 76 76 76 76 76 76 76 76 76 76 76 76 76 76 76 76 76 76 76 76 76 76 76 76 76 76 76 76 76 76 76 114 76 76 76 76 76 76 76 76 76 76 114 114 114 114 114 114 114 76 76 76 76 76 76 114 114 114 114 114 114 114 114 114 114 114 114 114 76 114 114 114 114 114 114 114 114 114 114 167 114 114 114 114 114 114 114 114 114 114 114 114 114 76 76 76 76 76 114 114 76 76 114 76 76 114 114 114 114 114 114 114 114 114 114 114 114 76 114 76 114 114 114 114 114 114 114 114 114 114 114 114 114 114 114 114 114 114 114 114 114 114 114 114 114 114 114 114 167 167 114 114 114 114 114 114 114 167 114 167 167 167 167 167 114 114 114 167 167 167 167 167 167 114 167 167 167 167 167 167 167 167 167 167 167 167 167 167 167 167 167 167 167 167 167 167 167 167 167 167 167 114 114 76 76 76 76 76 76 76 76 76 76 76 76 76 76 76 76 76 76 76 114 76 76 76 114 76 76 76 76 76 76 76 76 114 76 76 76 114 76 76 76 76 76 76 76 76 76 76 76 76 76 76 76 76 76 76 76 76 76 76 76 76 76 76 76 76 76 76 76 114 114 76 114 114 114 114 114 114 114 114 114 114 114 114 114 114 114 114 114 114 114 114 114 114 114 114 114 114 114 114 114 114 114 114 114 114 114 114 114 114 114 114 114 114 114 114 114 114 114 114 114 114 114 114 114 114 114 114 114 114 114 114 114 114 114 114 114 114 114 114 114 114 114 114 114 114 114 114 114 114 114 114 114 114 114 114 114 114 114 114 114 114 114 114 114 114 114 114 114 114 114 114 114 114 114 114 114 114 114 114 114 114 114 114 114 114 114 114 114 114 167 167 167 167 167 167 167 167 167 167 167 167 167 167 167 167 167 114 114 76 40 40 40 40 40 40 40 40 40 40 40 40 40 40 40 40 40 40 40 40 40 40 40 40 40 40 40 40 40 40 40 40 40 40 40 
114 114 114 114 114 114 114 114 114 114 114 114 114 114 114 114 114 114 114 114 114 114 114 114 114 76 76 76 76 76 76 40 76 40 40 40 40 76 76 40 40 76 76 76 76 76 76 76 76 76 76 76 76 76 76 76 76 76 76 76 76 76 76 76 76 76 76 76 76 76 76 76 76 76 76 76 76 76 76 76 76 76 76 76 76 76 76 76 76 76 76 76 76 76 76 76 76 76 76 114 114 114 114 76 76 114 76 76 76 76 76 76 76 76 76 76 76 114 114 114 76 114 114 76 76 76 114 114 76 76 114 114 114 114 76 114 76 114 114 114 76 76 114 114 167 167 114 114 114 114 114 114 114 114 114 114 114 76 114 76 114 114 76 114 114 114 76 76 114 76 114 114 114 76 114 114 114 114 76 76 76 76 114 114 114 114 114 114 76 114 114 76 114 114 114 114 114 114 114 114 114 114 114 114 114 114 114 114 114 114 114 114 114 167 167 114 114 114 114 114 114 114 114 114 167 167 167 114 114 114 114 114 167 167 167 114 167 167 167 167 167 114 167 167 167 167 167 167 167 167 167 167 167 167 167 167 167 167 167 167 167 167 167 167 167 167 167 167 114 76 76 76 76 76 76 76 76 76 76 76 76 76 76 76 76 76 114 76 114 76 76 76 76 76 76 76 76 76 76 76 76 76 76 114 76 76 76 76 76 76 114 76 76 76 76 76 76 76 76 76 76 76 76 76 76 76 76 76 76 76 76 76 76 76 76 76 76 76 76 114 114 114 114 114 114 114 114 114 114 114 114 114 114 114 114 114 114 114 114 114 114 114 114 114 114 114 114 114 114 114 114 114 114 114 114 114 114 114 114 114 114 114 114 114 114 114 114 114 114 114 114 114 114 114 114 114 114 114 114 114 114 114 114 114 114 114 114 114 114 114 114 114 114 114 114 114 114 114 114 114 114 114 114 114 114 114 114 114 114 114 114 114 114 114 114 114 114 114 114 114 114 114 114 114 114 114 114 114 114 114 114 114 114 114 114 114 114 114 167 167 167 167 167 167 167 167 167 167 167 167 167 167 167 167 114 76 40 40 40 40 40 40 40 40 40 40 40 40 40 40 40 40 40 40 40 40 40 40 40 40 40 40 40 40 40 40 40 40 40 40 40 40 
114 114 114 114 114 114 114 114 114 114 114 114 114 114 114 114 114 114 114 114 114 114 114 114 114 114 76 76 76 76 76 76 40 40 40 40 40 40 40 40 76 76 76 76 76 76 76 76 76 76 76 76 76 76 76 76 76 76 76 76 76 76 76 76 76 76 76 76 76 76 76 76 76 76 76 76 76 76 76 76 76 76 76 76 76 76 76 76 76 76 76 76 76 76 76 76 76 76 76 76 76 114 76 76 114 114 76 114 114 114 114 114 114 114 114 76 76 76 76 114 114 114 114 114 114 114 114 114 114 76 114 76 76 76 76 114 76 76 76 114 76 114 114 114 114 114 114 114 114 114 114 76 114 76 76 76 76 76 76 114 76 76 76 76 76 76 76 76 114 114 114 114 114 114 114 114 114 114 76 76 114 114 76 114 114 114 114 114 114 114 114 114 114 114 114 114 114 114 114 114 114 114 114 114 114 114 114 114 114 114 114 114 114 114 114 114 114 114 114 114 114 167 167 167 114 167 114 114 167 167 167 167 114 167 167 167 167 167 167 114 167 114 167 167 167 167 167 167 167 167 167 167 167 167 167 167 167 167 167 167 167 167 167 167 167 167 167 167 167 167 114 76 76 76 76 76 76 76 76 76 76 76 76 76 76 76 76 76 76 76 76 76 76 76 76 76 76 76 76 76 76 76 76 76 76 76 76 76 76 76 76 76 76 76 76 76 76 76 76 76 76 76 76 76 76 76 76 76 76 76 76 76 76 76 76 76 76 76 76 114 114 114 114 114 114 114 114 114 114 114 114 114 114 114 114 114 114 114 114 114 114 114 114 114 114 114 114 114 114 114 114 114 114 114 114 114 114 114 114 114 114 114 114 114 114 114 114 114 114 114 114 114 114 114 114 114 114 114 114 114 114 114 114 114 114 114 114 114 114 114 114 114 114 114 114 114 114 114 114 114 114 114 114 114 114 114 114 114 114 114 114 114 114 114 114 114 114 114 114 114 114 114 114 114 114 114 114 114 114 114 114 114 114 114 114 114 114 114 114 167 167 167 167 167 167 167 167 167 167 167 167 167 167 114 76 76 40 40 40 40 40 40 40 40 40 40 40 40 40 40 40 40 40 40 40 40 40 40 40 40 40 40 40 40 40 40 40 40 40 40 40 40 
114 114 114 114 114 114 114 114 114 114 114 114 114 114 114 114 114 114 114 114 114 114 114 114 76 76 76 76 76 76 40 40 76 40 40 40 40 40 40 76 40 40 76 76 76 40 40 76 76 76 76 76 76 76 76 76 76 76 76 76 76 76 76 76 76 76 76 76 76 76 76 76 76 76 76 76 76 76 76 76 76 76 76 76 76 76 76 76 76 76 76 76 76 76 76 76 76 76 114 76 76 76 76 76 76 76 76 76 114 114 114 114 76 114 76 114 114 114 114 114 76 76 114 76 114 76 76 114 114 114 114 114 114 114 76 76 76 114 114 76 76 114 114 114 76 76 114 114 114 114 114 114 114 114 76 76 76 114 114 76 76 76 76 76 76 76 76 76 76 76 114 114 114 114 114 114 114 114 114 76 76 76 114 76 76 114 114 114 76 114 114 114 114 114 114 114 114 114 114 114 114 114 114 114 114 114 114 114 114 114 114 114 114 167 114 114 167 167 167 114 114 167 167 114 167 167 167 167 167 167 167 167 167 167 167 167 167 167 114 167 167 167 167 167 167 167 167 167 167 167 167 167 167 167 167 167 167 167 167 167 167 167 167 167 167 167 167 167 167 167 167 114 76 76 76 76 76 76 76 76 76 76 76 76 76 76 76 76 76 76 76 76 76 76 76 76 76 76 76 76 76 76 76 76 76 76 76 76 76 76 76 76 76 76 76 76 76 76 76 76 76 76 76 76 76 76 76 76 76 76 76 76 76 76 76 76 76 76 114 114 114 114 114 114 114 114 114 114 114 114 114 114 114 114 114 114 114 114 114 114 114 114 114 114 114 114 114 114 114 114 114 114 114 114 114 114 114 114 114 114 114 114 114 114 114 114 114 114 114 114 114 114 114 114 114 114 114 114 114 114 114 114 114 114 114 114 114 114 114 114 114 114 114 114 114 114 114 114 114 114 114 114 114 114 114 114 114 114 114 114 114 114 114 114 114 114 114 114 114 114 114 114 114 114 114 114 114 114 114 114 114 114 114 114 114 114 114 114 114 114 167 167 167 167 167 167 167 167 167 167 167 167 114 114 76 40 40 40 40 40 40 40 40 40 40 40 40 40 40 40 40 40 40 40 40 40 40 40 40 40 40 40 40 40 40 40 40 40 40 40 40 40 
114 114 114 114 114 114 114 114 114 114 114 114 114 114 114 114 114 114 114 114 114 114 114 114 76 76 76 76 76 76 40 40 40 40 40 40 40 40 40 40 76 40 76 76 76 76 76 76 76 76 76 76 76 76 76 76 76 76 76 76 76 76 76 76 76 76 76 76 76 76 76 76 76 76 76 76 76 76 76 76 76 76 76 76 76 76 76 76 76 76 76 76 76 76 76 76 76 76 76 76 76 76 76 76 76 114 76 76 76 76 114 114 76 76 76 76 76 114 114 114 76 114 114 114 114 76 76 114 76 76 114 114 76 114 76 114 76 167 167 114 114 76 76 76 76 76 76 114 114 76 76 114 76 76 76 76 76 114 76 76 76 76 76 76 76 76 114 76 114 76 114 114 76 76 114 76 76 114 76 114 114 114 114 114 114 114 114 114 114 114 114 114 114 114 114 114 114 114 114 114 114 114 114 114 114 114 114 114 114 114 114 114 114 114 114 114 167 114 167 114 114 114 114 114 114 167 167 167 167 167 167 167 167 167 167 114 167 167 114 167 167 167 167 167 167 167 167 167 167 167 167 167 167 167 167 167 167 167 167 167 167 167 167 167 167 167 167 167 167 167 167 167 167 114 76 76 76 76 76 76 76 76 76 76 76 76 76 76 76 76 76 76 76 76 76 76 76 76 76 76 76 76 76 76 76 76 76 76 76 76 76 76 76 76 76 76 76 76 76 76 76 76 76 76 76 76 76 76 76 76 76 76 76 76 76 76 76 114 114 114 114 114 114 114 114 114 114 114 114 114 114 114 114 114 114 114 114 114 114 114 114 114 114 114 114 114 114 114 114 114 114 114 114 114 114 114 114 114 114 114 114 114 114 114 114 114 114 114 114 114 114 114 114 114 114 114 114 114 114 114 114 114 114 114 114 114 114 114 114 114 114 114 114 114 114 114 114 114 114 114 114 114 114 114 114 114 114 114 114 114 114 114 114 114 114 114 114 114 114 114 114 114 114 114 114 114 114 114 114 114 114 114 114 114 114 114 114 114 114 114 167 167 167 167 167 167 167 167 167 167 167 114 114 76 40 40 40 40 40 40 40 40 40 40 40 40 40 40 40 40 40 40 40 40 40 40 40 40 40 40 40 40 40 40 40 40 40 40 40 40 40 40 
114 114 114 114 114 114 114 114 114 114 114 114 114 114 114 114 114 114 114 114 114 114 114 114 76 76 76 76 76 40 40 40 40 40 40 40 40 40 40 40 76 40 40 76 76 76 76 76 76 76 76 76 76 76 76 76 76 76 76 76 76 76 76 76 76 76 76 76 76 76 76 76 76 76 76 76 76 76 76 76 76 76 76 76 76 76 76 76 76 76 76 76 76 76 76 76 76 114 76 76 114 76 114 76 76 76 114 76 76 76 76 76 114 114 76 114 114 114 114 114 76 114 114 114 114 76 76 114 76 76 114 76 76 76 76 114 114 167 167 114 76 76 114 114 76 76 76 114 76 76 76 76 76 76 76 76 76 76 76 76 76 76 76 76 76 76 114 114 76 114 114 114 114 114 114 114 114 114 76 76 76 114 114 114 114 114 114 114 114 114 114 114 114 114 114 114 114 114 114 114 114 114 114 114 114 114 114 114 114 114 114 114 114 114 114 114 114 114 114 114 114 114 114 114 114 167 167 167 167 167 167 167 167 167 167 167 167 167 167 167 167 167 167 167 167 167 167 167 167 167 167 167 167 167 167 167 167 167 167 167 167 167 167 167 167 167 167 167 167 167 167 167 167 167 114 114 76 76 76 76 76 76 76 76 76 76 76 76 76 76 76 76 76 76 76 76 76 76 76 76 76 76 76 76 114 76 76 76 76 76 76 76 76 76 76 76 76 76 76 76 76 76 76 76 76 76 76 76 76 76 76 76 76 76 76 76 76 76 76 114 114 114 114 114 114 114 114 114 114 114 114 114 114 114 114 114 114 114 114 114 114 114 114 114 114 114 114 114 114 114 114 114 114 114 114 114 114 114 114 114 114 114 114 114 114 114 114 114 114 114 114 114 114 114 114 114 114 114 114 114 114 114 114 114 114 114 114 114 114 114 114 114 114 114 114 114 114 114 114 114 114 114 114 114 114 114 114 114 114 114 114 114 114 114 114 114 114 114 114 114 114 114 114 114 114 114 114 114 114 114 114 114 114 114 114 114 114 114 114 114 114 167 167 167 167 167 167 167 167 167 114 114 76 40 40 40 40 40 40 40 40 40 40 40 40 40 40 40 40 40 40 40 40 40 40 40 40 40 40 40 40 40 40 40 40 40 40 40 40 40 40 40 
114 114 114 114 114 114 114 114 114 114 114 114 114 114 114 114 114 114 114 114 114 114 114 114 114 76 76 76 76 40 76 76 40 40 40 40 40 40 40 40 76 76 76 76 76 76 76 76 76 76 76 76 76 76 76 76 76 76 76 76 76 76 76 76 76 76 76 76 76 76 76 76 76 76 76 76 76 76 76 76 76 76 76 76 76 76 76 76 76 76 76 76 76 76 76 76 76 76 76 76 76 76 76 76 76 76 76 76 76 76 76 76 114 76 76 76 76 76 76 76 114 114 76 76 114 114 76 114 114 76 76 114 114 76 76 114 114 114 114 76 76 76 76 76 114 114 76 76 76 76 76 76 76 76 76 76 76 76 76 76 76 76 76 76 76 76 76 76 114 114 114 114 76 76 114 114 114 114 76 76 76 114 114 114 114 114 114 76 76 114 114 114 114 114 114 114 114 114 114 114 114 114 114 114 114 114 114 114 114 114 114 114 114 167 167 167 114 167 114 114 114 114 167 114 114 167 167 167 167 167 167 114 167 167 167 167 167 167 167 167 167 167 167 167 167 167 167 114 167 167 167 167 167 167 167 167 167 167 167 167 167 167 167 167 167 167 167 167 167 167 167 167 167 167 167 167 114 76 76 76 76 76 76 76 76 76 76 76 76 76 76 76 76 76 76 76 76 76 76 76 76 76 76 76 76 76 76 76 76 76 76 76 76 76 76 76 76 76 76 76 76 76 76 76 76 76 76 76 76 76 76 76 76 76 76 76 76 76 76 114 114 114 114 114 114 114 114 114 114 114 114 114 114 114 114 114 114 114 114 114 114 114 114 114 114 114 114 114 114 114 114 114 114 114 114 114 114 114 114 114 114 114 114 114 114 114 114 114 114 114 114 114 114 114 114 114 114 114 114 114 114 114 114 114 114 114 114 114 114 114 114 114 114 114 114 114 114 114 114 114 114 114 114 114 114 114 114 114 114 114 114 114 114 114 114 114 114 114 114 114 114 114 114 114 114 114 114 114 114 114 114 114 114 114 114 114 114 114 114 114 114 114 167 167 167 167 167 167 167 114 114 76 40 40 40 40 40 40 40 40 40 40 40 40 40 40 40 40 40 40 40 40 40 40 40 40 40 40 40 40 40 40 40 40 40 40 40 40 40 40 40 40 
114 114 114 114 114 114 114 114 114 114 114 114 114 114 114 114 114 114 114 114 114 114 114 114 114 76 76 76 76 76 76 76 40 40 40 40 40 76 40 40 40 76 76 76 76 76 76 76 76 76 76 76 76 76 76 76 76 76 76 76 76 76 76 76 76 76 76 76 76 76 76 76 76 76 76 76 76 76 76 76 76 76 76 76 76 76 76 76 76 76 76 76 76 76 76 76 76 76 76 76 76 76 76 76 76 76 76 76 76 76 114 114 76 114 114 76 114 114 114 76 114 114 76 114 114 114 76 114 114 76 76 114 76 76 114 167 167 114 76 76 40 76 76 76 76 76 76 76 76 76 76 76 76 76 76 76 76 76 76 76 76 76 76 76 76 76 76 114 114 114 114 114 76 114 114 114 76 114 114 76 114 114 76 114 114 114 114 114 114 114 114 114 114 114 114 114 114 114 114 114 114 114 114 114 114 114 114 114 114 114 114 114 114 167 167 114 114 167 167 167 114 114 167 167 167 167 167 167 167 167 167 114 167 167 167 167 167 167 114 167 167 167 167 167 167 167 167 167 167 167 167 167 167 167 167 167 167 167 167 167 167 167 167 167 167 167 167 167 167 167 167 167 167 167 167 167 167 167 114 76 76 76 76 76 76 76 76 76 76 76 76 76 76 76 76 76 76 76 76 76 76 76 76 76 76 76 76 76 76 76 76 76 76 76 76 76 76 76 76 76 76 76 76 76 76 76 76 76 76 76 76 76 76 76 76 76 76 76 114 114 114 114 114 114 114 114 114 114 114 114 114 114 114 114 114 114 114 114 114 114 114 114 114 114 114 114 114 114 114 114 114 114 114 114 114 114 114 114 114 114 114 114 114 114 114 114 114 114 114 114 114 114 114 114 114 114 114 114 114 114 114 114 114 114 114 114 114 114 114 114 114 114 114 114 114 114 114 114 114 114 114 114 114 114 114 114 114 114 114 114 114 114 114 114 114 114 114 114 114 114 114 114 114 114 114 114 114 114 114 114 114 114 114 114 114 114 114 114 114 114 114 114 167 167 167 167 167 167 114 114 76 40 40 40 40 40 40 40 40 40 40 40 40 40 40 40 40 40 40 40 40 40 40 40 40 40 40 40 40 40 40 40 40 40 40 40 40 40 40 40 40 40 
114 114 114 114 114 114 114 114 114 114 114 114 114 114 114 114 114 114 114 114 114 114 114 114 76 76 76 76 76 76 40 40 40 40 40 40 40 76 40 40 40 40 40 40 40 40 76 76 76 76 76 76 76 76 76 76 76 76 76 76 76 76 76 76 76 76 76 76 76 76 76 76 76 76 76 76 76 76 76 76 76 76 76 76 76 76 76 76 76 76 76 76 76 76 76 76 76 76 76 76 76 76 76 76 76 76 76 76 76 76 114 114 76 76 76 76 76 76 76 114 76 76 76 76 76 76 76 76 76 76 114 76 76 76 114 167 167 114 76 40 40 76 114 76 76 76 76 76 76 114 76 76 76 76 76 76 76 76 76 76 76 76 76 76 76 76 76 114 76 76 114 114 114 114 114 114 76 76 76 114 76 114 114 76 114 114 114 114 114 114 114 76 114 114 114 114 114 114 114 114 114 114 114 114 114 114 114 114 114 114 114 114 114 114 114 167 114 114 167 167 167 114 167 167 167 167 167 167 114 167 167 167 167 167 167 167 167 167 114 167 167 167 167 167 167 167 167 167 167 167 167 167 167 167 167 167 167 167 167 167 167 167 167 167 167 167 167 167 167 167 167 167 167 167 167 167 167 167 167 114 76 76 76 76 76 76 76 76 76 76 76 76 76 76 76 76 76 76 76 76 76 76 76 76 76 76 76 76 76 76 76 76 76 76 76 76 76 76 76 76 76 76 76 76 76 76 76 76 76 76 76 76 76 76 76 76 76 76 114 114 114 114 114 114 114 114 114 114 114 114 114 114 114 114 114 114 114 114 114 114 114 114 114 114 114 114 114 114 114 114 114 114 114 114 114 114 114 114 114 114 114 114 114 114 114 114 114 114 114 114 114 114 114 114 114 114 114 114 114 114 114 114 114 114 114 114 114 114 114 114 114 114 114 114 114 114 114 114 114 114 114 114 114 114 114 114 114 114 114 114 114 114 114 114 114 114 114 114 114 114 114 114 114 114 114 114 114 114 114 114 114 114 114 114 114 114 114 114 114 114 114 114 167 167 167 167 114 114 114 76 40 40 40 40 40 40 40 40 40 40 40 40 40 40 40 40 40 40 40 40 40 40 40 40 40 40 40 40 40 40 40 40 40 40 40 40 40 40 40 40 40 40 
114 114 114 114 114 114 114 114 114 114 114 114 114 114 114 114 114 114 114 114 114 114 114 114 114 114 76 76 76 76 40 40 40 40 40 40 40 40 76 76 76 40 40 76 76 76 76 76 76 76 76 76 76 76 76 76 76 76 76 76 76 76 76 76 76 76 76 76 76 76 76 76 76 76 76 76 76 76 76 76 76 76 76 76 76 76 76 76 76 76 76 76 76 76 76 76 76 76 114 76 76 76 76 114 76 76 76 76 76 114 114 76 76 114 114 76 76 76 76 114 76 114 114 114 76 76 76 114 76 76 114 114 114 76 114 167 167 114 76 76 40 76 76 76 76 76 76 76 114 114 76 76 76 76 76 76 76 76 76 114 76 76 114 76 76 76 76 114 114 76 114 114 114 114 114 76 76 114 76 76 76 114 76 114 76 76 114 114 114 114 114 114 76 114 114 114 114 114 114 114 114 114 114 114 114 114 114 114 114 114 114 114 114 114 114 167 167 114 114 167 167 114 114 167 114 167 167 167 114 167 167 167 167 167 167 167 167 167 167 167 167 167 167 167 167 167 167 167 167 167 167 167 167 167 167 167 167 167 167 167 167 167 167 167 167 167 167 167 167 167 167 167 167 167 167 167 167 167 167 167 114 76 76 76 76 76 76 76 76 76 76 76 76 76 76 76 76 76 76 76 76 76 76 76 76 76 76 76 76 76 76 76 76 76 76 76 76 76 76 76 76 76 76 76 76 76 76 76 76 76 76 76 76 76 76 76 76 76 76 76 114 114 114 114 114 114 114 114 114 114 114 114 114 114 114 114 114 114 114 114 114 114 114 114 114 114 114 114 114 114 114 114 114 114 114 114 114 114 114 114 114 114 114 114 114 114 114 114 114 114 114 114 114 114 114 114 114 114 114 114 114 114 114 114 114 114 114 114 114 114 114 114 114 114 114 114 114 114 114 114 114 114 114 114 114 114 114 114 114 114 114 114 114 114 114 114 114 114 114 114 114 114 114 114 114 114 114 114 114 114 114 114 114 114 114 114 114 114 114 114 114 114 167 167 167 114 114 114 76 40 40 40 40 40 40 40 40 40 40 40 40 40 40 40 40 40 40 40 40 40 40 40 40 40 40 40 40 40 40 40 40 40 40 40 40 40 40 40 40 40 40 40 
114 114 114 114 114 114 114 114 114 114 114 114 114 114 114 114 114 114 114 114 114 114 114 114 76 76 76 76 76 76 40 76 40 40 40 40 40 40 40 40 40 76 76 76 76 40 76 76 76 76 76 76 40 76 76 76 76 76 76 76 76 76 76 76 76 76 76 76 76 76 76 76 76 76 76 76 76 76 76 76 76 76 76 76 76 76 76 76 76 76 76 76 76 76 76 76 76 76 76 76 114 76 76 76 76 76 114 76 76 76 76 76 76 76 76 114 114 76 76 114 76 76 76 114 114 76 114 114 76 114 76 114 114 114 76 114 114 76 76 76 76 76 76 76 76 76 76 114 114 114 76 76 76 76 76 76 76 76 114 76 76 76 76 76 76 76 114 114 114 76 76 114 114 114 114 114 114 114 114 76 114 114 76 76 114 114 114 114 114 114 114 76 114 114 114 114 114 114 114 114 114 114 114 114 114 114 114 114 114 114 114 114 114 114 114 114 167 114 114 167 167 167 114 114 114 167 167 167 167 114 114 114 167 167 167 167 167 114 167 167 167 167 167 167 167 167 167 167 167 167 167 167 167 167 167 167 167 167 167 167 167 167 167 167 167 167 167 167 167 167 167 167 167 167 167 167 167 167 167 167 167 167 114 76 76 76 76 76 76 76 76 76 76 76 76 76 76 76 76 76 76 76 76 76 76 76 76 76 76 76 76 76 76 76 76 76 76 76 76 76 76 76 76 76 76 76 76 76 76 76 76 76 76 76 76 76 76 76 76 76 114 114 114 114 114 114 114 114 114 114 114 114 114 114 114 114 114 114 114 114 114 114 114 114 114 114 114 114 114 114 114 114 114 114 114 114 114 114 114 114 114 114 114 114 114 114 114 114 114 114 114 114 114 114 114 114 114 114 114 114 114 114 114 114 114 114 114 114 114 114 114 114 114 114 114 114 114 114 114 114 114 114 114 114 114 114 114 114 114 114 114 114 114 114 114 114 114 114 114 114 114 114 114 114 114 114 114 114 114 114 114 114 114 114 114 114 114 114 114 114 114 114 114 114 114 114 76 76 40 40 40 40 40 40 40 40 40 40 40 40 40 40 40 40 40 40 40 40 40 40 40 40 40 40 40 40 40 40 40 40 40 40 40 40 40 40 40 40 40 40 40 40 
114 114 114 114 114 114 114 114 114 114 114 114 114 114 114 114 114 114 114 114 114 114 114 114 114 76 76 76 76 76 40 40 40 40 40 40 40 40 40 76 40 76 76 76 76 76 76 76 76 76 76 76 76 76 76 76 76 76 76 76 76 76 76 76 76 76 76 76 76 76 76 76 76 76 76 76 76 76 76 76 76 76 76 76 76 76 76 76 76 76 76 76 76 76 76 76 114 76 76 76 76 76 76 76 76 76 76 76 76 76 76 76 76 76 76 114 114 76 76 76 114 76 114 114 76 76 114 114 114 114 114 114 114 114 76 76 76 76 76 76 76 76 76 76 76 76 76 76 76 114 76 114 76 76 76 114 76 76 114 76 76 76 76 76 76 76 76 76 114 114 114 114 114 76 114 76 76 114 114 114 76 76 114 114 114 114 114 114 114 114 114 114 76 76 114 114 114 114 76 76 114 114 114 114 114 114 114 114 114 114 114 114 114 114 114 114 114 114 114 167 114 114 114 114 167 167 167 114 167 167 114 167 167 167 167 114 114 167 167 167 167 167 167 167 167 167 167 167 167 167 167 167 167 167 167 167 167 167 167 167 167 167 167 167 167 167 167 167 167 167 167 167 167 167 167 167 167 167 167 167 167 167 167 114 76 76 76 76 76 76 76 76 76 76 76 76 76 76 76 76 76 76 76 76 76 76 76 76 76 76 76 76 76 76 76 76 76 76 76 76 76 76 76 76 76 76 76 76 76 76 76 76 76 76 76 76 76 76 76 76 114 114 114 114 114 114 114 114 114 114 114 114 114 114 114 114 114 114 114 114 114 114 114 114 114 114 114 114 114 114 114 114 114 114 114 114 114 76 114 114 114 114 114 114 114 114 114 114 114 114 114 114 114 114 114 114 114 114 114 114 114 114 114 114 114 114 114 114 114 114 114 114 114 114 114 114 114 114 114 114 114 114 114 114 114 114 114 114 114 114 114 114 114 114 114 114 114 114 114 114 114 114 114 114 114 114 114 114 114 114 114 114 114 114 114 114 114 114 114 114 114 114 114 114 76 76 40 40 40 40 40 40 40 40 40 40 40 40 40 40 40 40 40 40 40 40 40 40 40 40 40 40 40 40 40 40 40 40 40 40 40 40 40 40 40 40 40 40 40 40 40 40 
114 114 114 114 114 114 114 114 114 114 114 114 114 114 114 114 114 114 114 114 114 114 114 114 76 76 76 76 76 40 40 40 40 40 40 40 40 40 40 76 76 40 40 40 40 40 40 76 76 76 76 76 76 76 76 76 76 76 76 76 76 76 76 76 76 76 76 76 76 76 76 76 76 76 76 76 76 76 76 76 76 76 76 76 76 76 76 76 76 76 76 76 76 114 76 76 76 76 76 76 76 76 76 76 76 76 76 76 76 76 76 76 76 76 76 114 114 114 114 114 114 76 76 114 114 76 114 114 76 76 114 114 114 114 76 76 76 76 76 76 76 76 76 76 114 76 114 114 76 76 76 76 76 76 76 76 76 76 76 76 76 76 76 114 114 76 76 114 114 114 114 114 114 114 114 76 114 114 114 114 114 114 114 114 114 114 114 114 114 76 76 114 114 114 114 114 114 114 114 76 114 114 114 114 114 114 114 114 114 114 114 114 114 114 114 167 167 114 167 114 114 114 114 167 167 114 114 167 114 167 167 167 167 167 114 167 167 167 167 167 167 167 167 167 167 167 167 167 167 167 167 167 167 167 167 167 167 167 167 167 167 167 167 167 167 167 167 167 167 167 167 167 167 167 167 167 167 167 167 167 167 167 167 167 114 76 40 76 76 76 76 76 76 76 76 76 76 76 76 76 76 76 76 76 76 76 76 76 76 76 76 76 76 76 76 76 76 76 76 76 76 76 76 76 76 76 76 76 76 76 76 76 76 76 76 76 76 76 114 114 114 114 114 114 114 114 114 114 114 114 114 114 114 114 114 114 114 114 114 114 114 114 114 114 114 114 114 114 114 114 114 114 114 76 114 114 114 114 76 114 114 114 114 114 114 114 114 114 114 114 114 114 114 114 114 114 114 114 114 114 114 114 114 114 114 114 114 114 114 114 114 114 114 114 114 114 114 114 114 114 114 114 114 114 114 114 114 114 114 114 114 114 114 114 114 114 114 114 114 114 114 114 114 114 114 114 114 114 114 114 114 114 114 114 114 114 114 114 114 114 114 114 114 114 76 40 40 40 40 40 40 40 40 40 40 40 40 40 40 40 40 40 40 40 40 40 40 40 40 40 40 40 40 40 40 40 40 40 40 40 40 40 40 40 40 40 40 40 40 40 40 40 
114 114 114 114 114 114 114 114 114 114 114 114 114 114 114 114 114 114 114 114 114 114 114 114 114 114 76 76 76 76 76 40 40 40 40 40 40 40 40 76 76 76 76 76 76 76 76 76 76 76 76 76 76 76 76 76 76 76 76 76 76 76 76 76 76 76 76 76 76 76 76 76 76 76 76 76 76 76 76 76 76 76 76 76 76 76 76 76 76 76 76 76 76 76 76 76 76 76 76 76 76 76 76 76 76 76 76 76 76 76 76 76 76 76 76 76 76 76 76 76 114 114 76 76 114 76 76 76 76 76 114 114 114 114 76 76 76 76 76 76 76 76 76 76 76 76 76 76 76 76 76 76 114 76 76 76 76 76 76 114 76 114 114 114 114 76 76 76 114 114 114 114 114 114 114 114 76 114 114 76 114 114 114 114 114 114 114 114 114 76 76 114 114 114 114 114 114 114 114 114 114 114 114 114 114 114 114 114 114 114 114 114 114 114 114 167 114 114 114 114 114 114 114 114 114 167 167 167 167 167 167 167 167 167 167 167 167 167 167 167 167 167 167 167 167 167 167 167 167 167 167 167 167 167 167 167 167 167 167 167 167 167 167 167 167 167 167 167 167 167 167 167 167 167 167 167 167 167 167 167 167 167 167 167 167 114 76 40 76 76 76 76 76 76 76 76 76 76 76 76 76 76 76 76 76 76 76 76 76 76 76 76 76 76 76 76 76 76 76 76 76 76 76 76 76 76 76 76 76 76 76 76 76 76 76 76 76 76 76 114 114 114 114 114 114 114 114 114 114 114 114 114 114 114 114 114 114 114 114 114 114 114 114 114 114 114 114 114 114 114 114 114 114 76 76 76 76 76 76 76 114 114 114 114 114 114 114 114 114 114 114 114 114 114 114 114 114 114 114 114 114 114 114 114 114 114 114 114 114 114 114 114 114 114 114 114 114 114 114 114 114 114 114 114 114 114 114 114 114 114 114 114 114 114 114 114 114 114 114 114 114 114 114 114 114 114 114 114 114 114 114 114 114 114 114 114 114 114 114 114 114 114 76 76 76 40 40 40 40 40 40 40 40 40 40 40 40 40 40 40 40 40 40 40 40 40 40 40 40 40 40 40 40 40 40 40 40 40 40 40 40 40 40 40 40 40 40 40 40 40 40 40 
114 114 114 114 114 114 114 114 114 114 114 114 114 114 114 114 114 114 114 114 114 114 114 114 76 76 76 76 76 40 40 40 40 40 40 40 40 40 40 76 40 40 40 40 40 40 76 76 76 76 76 76 76 76 76 76 76 76 76 76 76 76 76 76 76 76 76 76 76 76 76 76 76 76 76 76 76 76 76 76 76 76 76 76 76 76 76 76 76 76 76 76 76 76 76 76 76 76 76 76 114 76 76 76 76 76 76 76 76 76 76 76 76 76 76 76 76 76 76 76 114 76 76 76 114 114 76 76 114 76 76 114 114 114 76 76 76 76 76 76 76 76 76 76 76 76 76 76 76 76 76 76 76 76 76 76 76 76 114 114 76 76 76 76 114 114 114 114 76 76 76 76 76 76 76 76 76 114 114 76 76 114 114 114 114 114 114 114 114 114 114 114 114 76 76 114 114 114 114 114 114 114 114 114 114 114 114 114 114 114 114 114 114 114 114 114 114 114 114 114 167 167 114 114 114 114 167 167 167 167 167 167 114 167 167 167 167 167 167 167 167 167 167 167 167 167 167 167 167 167 167 167 167 167 167 167 167 167 167 167 167 167 167 167 167 167 167 167 167 167 167 167 167 167 167 167 167 167 167 167 167 167 167 167 167 167 167 76 76 76 76 76 76 76 76 76 76 76 76 76 76 76 76 76 76 76 76 76 76 76 76 76 76 76 76 76 76 76 76 76 76 76 76 76 76 76 76 76 76 76 76 76 76 76 76 76 76 76 76 114 114 114 114 114 114 114 114 114 114 114 114 114 114 114 114 114 114 114 114 114 114 114 114 114 114 114 114 114 114 114 114 114 114 76 76 76 76 76 76 114 76 76 114 114 114 114 114 114 114 114 114 114 114 114 114 114 114 114 114 114 114 114 114 114 114 114 114 114 114 114 114 114 114 114 114 114 114 114 114 114 114 114 114 114 114 114 114 114 114 114 114 114 114 114 114 114 114 114 114 114 114 114 114 114 114 114 114 114 114 114 114 114 114 114 114 114 114 114 114 114 114 114 76 76 40 40 40 40 40 40 40 40 40 40 40 40 40 40 40 40 40 40 40 40 40 40 40 40 40 40 40 40 40 40 40 40 40 40 40 40 40 40 40 40 40 40 40 40 40 40 40 40 
114 114 114 114 114 114 114 114 114 114 114 114 114 114 114 114 114 114 114 114 114 114 114 114 76 76 76 76 76 40 40 40 40 40 40 40 40 76 76 40 40 76 40 76 40 40 76 76 40 76 76 76 76 76 76 76 76 76 76 76 76 76 76 76 76 76 76 76 76 76 76 76 76 76 76 76 76 76 76 76 76 76 76 76 76 76 76 76 76 76 76 76 76 76 76 76 76 76 76 76 76 76 76 114 76 76 76 76 76 76 76 76 76 76 76 76 114 114 114 114 76 114 114 114 76 76 76 76 76 76 114 114 114 76 76 76 76 76 76 76 76 76 76 114 76 76 76 76 76 76 76 76 76 76 76 76 76 76 114 76 114 114 114 76 76 76 76 76 114 114 76 76 76 114 114 114 114 114 114 114 114 114 114 76 114 114 76 76 114 114 114 114 114 114 76 114 114 114 114 76 114 114 114 114 114 114 114 114 114 114 114 114 114 114 114 114 114 114 114 114 114 114 114 114 114 167 167 114 167 167 114 167 167 167 167 167 167 167 167 167 167 167 167 167 167 167 167 167 167 167 167 167 167 167 167 167 167 167 167 167 167 167 167 167 167 167 167 167 167 167 167 167 167 167 167 167 167 167 167 167 167 167 167 167 167 167 167 167 76 76 76 76 76 40 40 76 76 76 76 76 76 76 76 76 76 76 76 76 76 76 76 76 76 76 76 76 76 76 76 76 76 76 76 76 76 76 76 76 76 76 76 76 76 76 76 76 76 76 76 114 114 114 114 114 114 114 114 114 114 114 114 114 114 114 114 114 114 114 114 114 114 114 114 114 114 114 114 114 114 114 114 76 114 76 76 76 76 76 76 76 76 76 76 114 114 114 114 114 114 114 114 114 114 114 114 114 114 114 114 114 114 114 114 114 114 114 114 114 114 114 114 114 114 114 114 114 114 114 114 114 114 114 114 114 114 114 114 114 114 114 114 114 114 114 114 114 114 114 114 114 114 114 114 114 114 114 114 114 114 114 114 114 114 114 114 114 114 114 114 114 114 114 76 40 40 40 40 40 40 40 40 40 40 40 40 40 40 40 40 40 40 40 40 40 40 40 40 40 40 40 40 40 40 40 40 40 40 40 40 40 40 40 40 40 40 40 40 40 40 40 40 40 
114 114 114 114 114 114 114 114 114 114 114 114 114 114 114 114 114 114 114 114 114 114 114 114 114 76 76 76 76 76 40 40 40 40 40 40 40 40 40 40 40 40 76 76 76 76 76 76 76 76 76 76 76 76 76 76 76 76 76 76 76 76 76 76 76 76 76 76 40 76 76 76 76 76 76 76 76 76 76 76 76 76 76 76 76 76 76 76 76 76 76 76 76 76 76 76 76 76 76 76 76 76 76 114 76 76 76 76 76 76 76 76 76 76 76 76 76 76 76 76 76 76 114 114 76 76 114 114 76 114 167 167 114 76 76 76 76 76 76 76 76 76 76 76 76 76 76 76 76 76 76 76 76 76 76 76 76 76 114 76 114 114 76 76 76 76 76 114 114 76 76 76 76 76 114 76 114 114 114 114 114 114 114 114 76 76 76 76 114 114 114 114 114 114 114 114 114 114 114 114 114 114 114 114 114 114 114 114 114 114 114 114 114 114 114 114 114 114 114 114 114 114 114 167 167 167 167 114 114 167 167 167 167 167 167 167 167 167 167 167 167 167 167 167 167 167 167 167 167 167 167 167 167 167 167 167 167 167 167 167 167 167 167 167 167 167 167 167 167 167 167 167 167 167 167 167 167 167 167 167 167 167 167 167 167 167 167 167 167 167 167 167 167 114 76 40 76 76 76 76 76 76 76 76 76 76 76 76 76 76 76 76 76 76 76 76 76 76 76 76 76 76 76 76 76 76 76 76 76 76 76 76 76 76 76 76 76 76 76 114 114 114 114 114 114 114 114 114 114 114 114 114 114 114 114 114 114 114 114 114 114 114 114 114 114 114 114 114 114 114 114 76 114 76 76 76 76 76 76 76 76 76 76 114 114 114 114 114 114 114 114 114 114 114 114 114 114 114 114 114 114 114 114 114 114 114 114 114 114 114 114 114 114 114 114 114 114 114 114 114 114 114 114 114 114 114 114 114 114 114 114 114 114 114 114 114 114 114 114 114 114 114 114 114 114 114 114 114 114 114 114 114 114 114 114 114 114 114 114 114 114 76 40 40 40 40 40 40 40 40 40 40 40 40 40 40 40 40 40 40 40 40 40 40 40 40 40 40 40 40 40 40 40 40 40 40 40 40 40 40 40 40 40 40 40 40 40 40 40 40 40 40 
114 114 114 114 114 114 114 114 114 114 114 114 114 114 114 114 114 114 114 114 114 114 114 114 76 76 76 76 76 76 40 40 40 40 40 40 40 40 40 40 76 40 76 76 76 76 76 76 76 76 76 76 76 76 76 76 114 76 76 76 76 76 76 76 76 76 76 76 76 76 76 76 76 76 76 76 76 76 76 76 76 76 76 76 76 76 76 76 76 76 76 76 76 76 76 76 76 76 76 76 76 114 76 76 76 76 76 114 76 76 76 76 76 114 114 76 76 114 114 114 76 76 114 114 114 76 76 76 76 114 167 114 76 76 76 76 76 76 76 76 76 76 76 76 114 76 76 76 76 76 76 76 114 76 76 76 76 76 76 76 76 76 76 76 76 114 114 76 114 76 76 76 114 114 114 76 76 114 114 76 114 114 114 114 114 114 114 114 114 114 114 114 76 114 114 114 114 76 114 114 114 114 114 114 114 114 114 114 114 114 114 114 114 114 114 114 114 114 114 114 167 167 114 114 167 167 167 167 167 167 167 167 167 167 167 167 167 167 167 167 167 167 167 167 167 167 167 167 167 167 167 167 167 167 167 167 167 167 167 167 167 167 167 167 167 167 167 167 167 167 167 167 167 114 114 167 167 167 167 167 167 167 167 167 167 167 167 167 167 167 167 167 167 167 167 76 40 76 76 76 76 76 76 76 76 76 76 76 76 76 76 76 76 76 76 76 76 76 76 76 76 76 76 76 76 76 76 76 76 76 76 76 76 76 76 76 76 76 114 114 114 114 114 114 114 114 114 114 114 114 114 114 114 114 114 114 114 114 114 114 114 114 114 114 114 114 114 114 114 114 114 76 114 76 76 76 76 76 76 76 76 76 76 114 114 114 114 114 114 114 114 114 114 114 114 114 114 114 114 114 114 114 114 114 114 114 114 114 114 114 114 114 114 114 114 114 114 114 114 114 114 114 114 114 114 114 114 114 114 114 114 114 114 114 114 114 114 114 114 114 114 114 114 114 114 114 114 114 114 114 114 114 114 114 114 114 114 114 114 76 76 40 40 40 40 40 40 40 40 40 40 40 40 40 40 40 40 40 40 40 40 40 40 40 40 40 40 40 40 40 40 40 40 40 40 40 40 40 40 40 40 40 40 40 40 40 40 40 40 40 40 40 
114 114 114 114 114 114 114 114 114 114 114 114 114 114 114 114 114 114 114 114 114 114 114 114 114 76 76 76 76 76 40 40 40 40 40 40 40 40 76 76 40 40 76 76 76 76 76 76 76 76 40 76 76 76 76 76 76 76 76 76 76 76 76 76 76 76 76 76 76 76 76 76 76 76 76 76 76 76 76 76 76 76 76 76 76 76 76 76 76 76 76 76 76 76 76 76 76 76 76 76 76 76 76 76 76 76 76 76 76 76 76 76 76 76 76 76 76 76 76 114 114 114 76 76 76 76 76 76 76 114 114 114 76 76 76 76 76 76 76 76 76 76 76 76 76 76 76 76 76 76 76 76 76 76 76 76 76 114 114 76 114 76 114 76 76 114 114 76 76 76 76 114 114 114 76 114 114 114 76 76 76 114 114 114 114 114 114 114 114 114 114 114 114 114 114 114 114 114 114 76 76 114 114 114 114 114 114 114 114 114 114 114 114 114 114 114 114 114 114 167 114 167 167 114 167 167 167 167 167 167 167 167 167 167 167 167 167 167 167 167 167 167 167 167 167 167 167 167 167 167 167 167 167 167 167 167 167 167 167 167 167 167 167 167 167 167 167 167 167 167 167 167 167 167 167 167 167 167 167 167 167 167 167 167 167 167 167 167 167 167 167 167 167 167 167 167 76 40 76 76 76 76 76 76 76 76 76 76 76 76 76 76 76 76 76 76 76 76 76 76 76 76 76 76 76 76 76 76 76 76 76 76 76 76 76 76 76 76 76 114 114 114 114 114 114 114 114 114 114 114 114 114 114 114 114 114 114 114 114 114 114 114 114 114 114 114 114 114 114 114 114 76 76 76 76 76 76 76 76 76 76 76 76 76 76 114 114 114 114 114 114 114 114 114 114 114 114 114 114 114 114 114 114 114 114 114 114 114 114 114 114 114 114 114 114 114 114 114 114 114 114 114 114 114 114 114 114 114 114 114 114 114 114 114 114 114 114 114 114 114 114 114 114 114 114 114 114 114 114 114 114 114 114 114 114 114 114 114 114 76 76 40 40 40 40 40 40 40 40 40 40 40 40 40 40 40 40 40 40 40 40 40 40 40 40 40 40 40 40 40 40 40 40 40 40 40 40 40 40 40 40 40 40 40 40 40 40 40 40 40 40 40 
114 114 114 114 114 114 114 114 114 114 114 114 114 114 114 114 114 114 114 114 114 114 114 114 76 76 76 76 76 76 40 40 40 40 40 40 40 40 40 40 76 76 40 76 76 76 76 76 76 76 76 76 76 76 76 76 76 76 76 76 76 76 76 76 76 76 76 76 76 76 76 76 76 76 76 76 76 76 76 76 76 76 76 76 76 76 76 76 76 76 76 76 76 76 76 76 76 76 76 76 114 114 76 76 76 76 76 76 114 114 76 76 76 114 114 114 114 76 76 76 76 114 114 76 76 114 76 76 114 114 114 76 76 76 76 76 76 76 76 76 76 76 76 76 76 76 76 76 76 76 76 76 76 76 76 76 76 76 76 76 76 76 114 114 114 114 114 76 76 76 76 76 114 114 114 114 76 114 114 114 76 76 76 114 114 114 76 114 114 114 114 114 114 76 76 114 114 114 76 76 114 114 114 114 114 114 114 114 114 114 114 114 114 114 114 114 114 114 114 114 114 114 114 167 167 167 114 167 167 167 167 167 167 167 167 114 167 167 167 167 167 167 167 167 167 167 167 167 167 167 167 167 167 167 167 167 167 167 167 167 167 167 167 167 167 167 167 167 114 167 167 167 167 167 167 167 167 167 167 167 167 167 167 167 167 167 167 167 167 167 167 167 167 167 167 167 114 40 40 76 76 76 76 76 76 76 76 76 76 76 76 76 76 76 76 76 76 76 76 76 76 76 76 76 76 76 76 76 76 76 76 76 76 76 76 76 76 76 76 114 114 114 114 114 114 114 114 114 114 114 114 114 114 114 114 114 114 114 114 114 114 114 114 114 114 114 114 114 114 114 114 76 76 76 76 76 76 76 76 76 76 76 76 76 76 114 114 114 114 114 114 114 114 114 114 114 114 114 114 114 114 114 114 114 114 114 114 114 114 114 114 114 114 114 114 114 114 114 114 114 114 114 114 114 114 114 114 114 114 114 114 114 114 114 114 114 114 114 114 114 114 114 114 114 114 114 114 114 114 114 114 114 114 114 114 114 114 114 76 76 40 40 40 40 40 40 40 40 40 40 40 40 40 40 40 40 40 40 40 40 40 40 40 40 40 40 40 40 40 40 40 40 40 40 40 40 40 40 40 40 40 40 40 40 40 40 40 40 40 40 40 40 
114 114 114 114 114 114 114 114 114 114 114 114 114 114 114 114 114 114 114 114 114 114 114 114 114 76 76 76 76 76 76 40 40 40 40 40 40 40 40 40 76 76 40 40 76 76 76 76 76 76 76 76 76 76 76 76 76 76 76 76 76 76 76 76 40 76 76 76 76 76 76 76 76 76 76 76 76 76 76 76 76 76 76 76 76 76 76 76 76 76 76 76 76 76 76 76 76 76 76 76 76 114 76 76 76 76 76 76 76 76 114 114 76 76 114 114 114 76 76 76 76 114 114 76 114 76 76 114 114 114 114 76 76 76 76 76 76 76 76 76 76 76 76 76 76 76 76 76 76 76 76 76 76 76 76 76 76 114 76 76 76 114 114 76 76 114 114 76 76 76 76 76 114 114 76 114 76 114 114 76 76 114 114 114 114 114 114 76 76 114 114 114 76 114 114 114 114 114 114 114 114 114 114 114 114 114 114 114 114 114 114 114 114 114 114 114 114 114 114 114 114 167 167 167 167 167 167 167 167 167 167 167 167 167 167 167 167 167 167 167 167 167 167 167 167 167 167 167 167 167 167 167 167 167 167 167 167 167 167 167 167 167 167 167 114 167 167 167 167 167 167 167 167 167 167 167 167 167 167 167 167 167 167 167 167 167 167 167 167 167 167 167 167 167 167 167 167 114 40 76 76 40 76 76 76 76 76 76 76 76 76 76 76 76 76 76 76 76 76 76 76 76 76 76 76 76 76 76 76 76 76 76 76 76 76 76 76 76 76 114 114 114 114 114 114 114 114 114 114 114 114 114 114 114 114 114 114 114 114 114 114 114 114 114 114 114 114 114 114 114 114 114 76 76 76 76 76 76 76 76 76 76 76 76 76 76 76 114 114 114 114 114 114 114 114 114 114 114 114 114 114 114 114 114 114 114 114 114 114 114 114 114 114 114 114 114 114 114 114 114 114 114 114 114 114 114 114 114 114 114 114 114 114 114 114 114 114 114 114 114 114 114 114 114 114 114 114 114 114 114 114 114 114 114 114 114 114 76 76 40 40 40 40 40 40 40 40 40 40 40 40 40 40 40 40 40 40 40 40 40 40 40 40 40 40 40 40 40 40 40 40 40 40 40 40 40 40 40 40 40 40 40 40 40 40 40 40 40 40 40 40 40 
114 114 114 114 114 114 114 114 114 114 114 114 114 114 114 114 114 114 114 114 114 114 114 114 76 76 76 76 76 40 40 40 40 40 40 40 40 40 40 40 40 76 76 76 76 76 40 76 76 76 40 76 76 76 76 76 40 76 76 76 76 40 76 76 76 76 76 76 76 76 76 76 76 76 76 76 76 76 76 76 76 76 76 76 76 76 76 76 76 76 76 76 76 76 76 76 76 76 76 76 76 76 76 114 76 114 76 76 76 76 76 114 76 76 114 76 114 76 76 76 114 114 114 114 114 76 76 114 114 114 114 76 76 76 76 76 76 76 76 76 76 76 76 76 76 76 76 76 114 114 76 76 76 76 76 76 76 76 76 76 114 114 76 76 76 76 76 76 114 114 114 114 114 76 76 76 114 76 76 76 114 114 114 114 114 76 76 114 114 114 114 114 114 114 114 114 114 114 114 114 114 114 114 114 114 114 114 114 114 114 114 114 114 114 114 114 114 114 114 167 114 167 167 114 167 167 167 167 167 167 167 114 114 167 167 167 167 167 167 167 167 167 167 167 167 167 167 167 167 167 167 167 167 167 167 167 167 167 167 167 167 167 167 167 167 167 167 167 167 167 167 167 167 167 167 167 167 167 167 167 167 167 167 167 167 167 167 167 167 167 167 167 167 167 167 167 167 167 76 40 40 40 40 76 76 76 76 76 76 76 76 76 76 76 76 76 76 76 76 76 76 76 76 76 76 76 76 76 76 76 76 76 76 76 76 76 76 76 76 114 114 114 114 114 114 114 114 114 114 114 114 114 114 114 114 114 114 114 114 114 114 114 114 114 114 114 114 114 114 114 114 114 76 76 76 76 76 76 76 76 76 76 76 76 76 76 76 114 114 114 114 114 114 114 114 114 114 114 114 114 114 114 114 114 114 114 114 114 114 114 114 114 114 114 114 114 114 114 114 114 114 114 114 114 114 114 114 114 114 114 114 114 114 114 114 114 114 114 114 114 114 114 114 114 114 114 114 114 114 114 114 114 114 114 114 114 114 76 76 40 40 40 40 40 40 40 40 40 40 40 40 40 40 40 40 40 40 40 40 40 40 40 40 40 40 40 40 40 40 40 40 40 40 40 40 40 40 40 40 40 40 40 40 40 40 40 40 40 40 40 40 40 
114 114 114 114 114 114 114 114 114 114 114 114 114 114 114 114 114 114 114 114 114 114 114 114 76 76 76 76 76 76 40 40 40 40 40 40 40 40 40 40 40 40 76 76 76 76 76 76 76 76 76 76 76 76 76 76 76 76 76 76 76 76 76 76 76 76 76 76 76 76 76 76 76 76 76 76 76 76 76 76 76 76 76 76 76 76 76 76 76 76 76 76 76 76 76 76 76 76 76 76 76 76 76 76 114 76 76 76 76 76 76 76 76 76 114 76 114 76 76 76 114 76 114 114 76 76 114 114 114 76 76 76 76 76 76 76 76 76 76 76 76 76 76 76 76 76 76 76 76 76 76 76 76 76 76 76 76 76 76 114 114 76 114 114 114 76 76 76 114 114 114 76 76 114 114 114 76 76 76 76 114 114 114 114 76 76 76 114 114 76 114 114 114 114 114 114 114 114 114 114 114 114 114 114 114 114 114 114 114 114 114 114 114 114 114 114 114 114 114 114 114 167 114 114 167 167 167 167 167 167 167 167 167 167 167 167 167 114 167 167 167 167 167 167 167 167 167 167 167 167 167 167 167 167 167 167 167 167 167 167 167 167 167 167 167 167 167 167 167 167 167 167 167 167 167 167 167 167 167 167 167 167 167 167 167 167 167 167 167 167 167 167 167 167 167 167 167 167 114 76 40 76 76 76 40 76 76 76 76 76 76 76 76 76 76 76 76 76 76 76 76 76 76 76 76 76 76 76 76 76 76 76 76 76 76 76 76 76 76 76 114 114 114 114 114 114 114 114 114 114 114 114 114 114 114 114 114 114 114 114 114 114 114 114 114 114 114 114 114 114 114 76 76 76 76 76 76 76 76 76 76 76 76 76 76 76 76 76 114 114 114 114 114 114 114 114 114 114 114 114 114 114 114 114 114 114 114 114 114 114 114 114 114 114 114 114 114 114 114 114 114 114 114 114 114 114 114 114 114 114 114 114 114 114 114 114 114 114 114 114 114 114 114 114 114 114 114 114 114 114 114 114 114 114 114 76 76 76 40 40 40 40 40 40 40 40 40 40 40 40 40 40 40 40 40 40 40 40 40 40 40 40 40 40 40 40 40 40 40 40 40 40 40 40 40 40 40 40 40 40 40 40 40 40 40 40 40 40 40 40 40 40 
114 114 114 114 114 114 114 114 114 114 114 114 114 114 114 114 114 114 114 114 114 114 114 114 114 76 76 76 76 76 76 76 40 40 40 40 40 40 40 40 76 40 40 76 76 76 76 76 76 76 76 76 76 76 76 76 76 76 76 76 76 76 76 76 76 76 76 76 76 76 76 76 76 76 76 76 76 76 76 76 76 76 76 76 76 76 76 76 76 76 76 76 76 76 76 76 114 76 76 76 76 76 76 76 76 76 76 76 76 114 76 76 114 76 76 76 76 76 114 114 76 76 76 76 76 114 114 114 76 76 76 76 76 76 76 76 76 76 76 76 76 76 76 76 76 76 76 76 76 76 76 76 76 76 76 76 76 114 114 76 76 76 76 76 76 76 76 76 114 76 76 76 76 76 114 114 76 114 114 114 76 76 114 76 114 114 114 114 114 114 114 114 114 76 114 114 114 76 114 114 114 114 114 114 76 114 114 114 114 114 114 114 114 114 114 114 114 114 114 114 114 114 167 167 167 167 167 114 114 167 167 167 167 167 167 167 114 167 167 167 167 167 167 167 167 167 167 167 167 167 167 167 167 167 167 167 167 167 167 167 167 167 167 167 167 167 167 167 167 167 167 167 167 167 167 167 167 167 167 167 167 167 167 167 167 167 167 167 167 167 167 167 167 167 167 167 167 167 167 114 40 40 76 76 76 76 76 76 76 76 76 76 76 76 76 76 76 76 76 76 76 76 76 76 76 76 76 76 76 76 76 76 76 76 76 76 76 76 76 76 114 114 114 114 114 114 114 114 114 114 114 114 114 114 114 114 114 114 114 114 114 114 114 114 114 114 114 114 114 114 114 76 76 76 76 76 76 76 76 76 76 40 40 76 76 76 76 76 76 114 114 114 114 114 114 114 114 114 114 114 114 114 114 114 114 114 114 114 114 114 114 114 114 114 114 114 114 114 114 114 114 114 114 114 114 114 114 114 114 114 114 114 114 114 114 114 114 114 114 114 114 114 114 114 114 114 114 114 114 114 114 114 114 114 114 76 76 40 40 40 40 40 40 40 40 40 40 40 40 40 40 40 40 40 40 40 40 40 40 40 40 40 40 40 40 40 40 40 40 40 40 40 40 40 40 40 40 40 40 40 40 40 40 40 40 40 40 40 40 40 40 40 
114 114 114 114 114 114 114 114 114 114 114 114 114 114 114 114 114 114 114 114 114 114 114 114 76 76 76 76 76 40 40 40 40 40 40 40 40 40 40 40 76 76 40 76 76 76 76 76 76 76 76 76 76 76 76 76 76 76 76 76 76 76 76 76 76 76 76 76 76 76 76 76 76 76 76 76 76 76 76 76 76 76 76 76 76 76 76 76 76 76 76 76 76 76 76 76 76 76 76 76 76 76 76 114 76 76 114 76 76 76 76 76 76 76 76 76 76 114 114 114 76 76 76 76 76 114 114 114 76 76 76 76 76 76 76 76 76 76 76 76 76 76 76 76 114 76 114 76 76 114 76 76 76 76 76 76 114 114 114 76 76 76 76 76 114 76 76 114 76 76 76 76 76 76 76 76 114 76 76 114 114 76 114 114 114 114 114 76 76 114 114 76 76 114 114 114 76 76 114 114 114 114 114 76 114 114 114 114 114 114 114 114 114 114 114 114 114 114 114 114 114 167 167 167 167 167 167 167 114 167 167 167 167 167 167 167 167 167 167 167 167 167 167 167 167 167 167 167 167 167 167 167 167 114 114 114 114 167 167 167 167 167 167 167 167 167 167 167 167 167 167 167 167 167 167 167 167 167 167 167 167 167 167 167 167 167 167 167 167 167 167 167 167 167 167 167 167 167 167 167 114 40 40 40 76 76 76 76 76 76 76 76 76 76 76 76 76 76 76 76 76 76 76 76 76 76 76 76 76 76 76 76 76 76 76 76 76 76 76 114 114 114 114 114 114 114 114 114 114 114 114 114 114 114 114 114 114 114 114 114 114 114 114 114 114 114 114 114 114 114 114 76 76 76 76 76 76 76 40 40 76 40 40 76 76 76 76 76 76 114 114 114 114 114 114 114 114 114 114 114 114 114 114 114 114 114 114 114 114 114 114 114 114 114 114 114 114 114 114 114 114 114 114 114 114 114 114 114 114 114 114 114 114 114 114 114 114 114 114 114 114 114 114 114 114 114 114 114 114 114 114 114 114 114 76 76 40 40 40 40 40 40 40 40 40 40 40 40 40 40 40 40 40 40 40 40 40 40 40 40 40 40 40 40 40 40 40 40 40 40 40 40 40 40 40 40 40 40 40 40 40 40 40 40 40 40 40 40 40 40 40 40 
114 114 114 114 114 114 114 114 114 114 114 114 114 114 114 114 114 114 114 114 114 114 114 114 76 76 76 76 76 40 40 40 40 40 40 40 40 40 76 76 76 76 76 76 76 76 76 76 76 76 76 76 76 76 76 76 76 76 76 76 76 76 76 76 76 76 76 76 76 76 76 76 76 76 76 76 76 76 76 76 76 76 76 76 76 76 76 76 76 76 76 76 76 76 76 76 76 76 76 76 76 76 76 76 114 76 76 76 76 76 76 114 76 76 76 114 76 76 76 76 76 76 76 114 76 114 114 76 114 76 76 76 76 76 76 76 76 76 76 76 76 76 76 76 114 76 76 76 76 76 76 76 76 76 76 76 114 76 76 76 76 114 76 76 76 76 114 76 76 76 114 76 76 76 114 114 114 114 76 114 114 76 114 114 114 114 76 76 114 114 114 114 114 114 114 114 76 114 114 114 114 114 114 114 114 114 114 114 114 114 114 76 114 114 114 114 114 114 114 114 114 167 114 167 114 167 167 167 167 167 167 114 114 167 167 167 167 167 167 167 167 167 167 167 167 167 167 167 167 167 114 114 114 114 167 114 167 167 167 167 167 167 167 167 167 167 167 167 167 167 167 167 167 167 167 167 167 167 167 167 167 167 167 167 167 167 167 167 167 167 167 167 167 167 167 167 167 167 167 167 167 76 40 76 76 40 40 76 76 76 76 76 76 76 76 76 76 76 76 76 76 76 76 76 76 76 76 76 76 76 76 76 76 76 76 76 76 76 76 114 114 114 114 114 114 114 114 114 114 114 114 114 114 114 114 114 114 114 114 114 114 114 114 114 114 114 114 114 114 114 114 76 76 76 76 76 76 76 40 40 40 40 40 40 76 76 76 76 76 76 114 114 114 114 114 114 114 114 114 114 114 114 114 114 114 114 114 114 114 114 114 114 114 114 114 114 114 114 114 114 114 114 114 114 114 114 114 114 114 114 114 114 114 114 114 114 114 114 114 114 114 114 114 114 114 114 114 114 114 114 114 114 114 114 76 76 40 40 40 40 40 40 40 40 40 40 40 40 40 40 40 40 40 40 40 40 40 40 40 40 40 40 40 40 40 40 40 40 40 40 40 40 40 40 40 40 40 40 40 40 40 40 40 40 40 40 40 40 40 40 40 40 
114 114 114 114 114 114 114 114 114 114 114 114 114 114 114 114 114 114 114 114 114 114 114 114 76 76 76 76 76 76 40 40 40 40 40 40 40 40 40 40 76 76 76 76 76 76 76 76 76 76 76 76 76 76 76 76 76 76 76 76 76 76 76 76 76 76 76 76 76 76 76 76 76 76 76 76 76 76 76 76 76 76 76 76 76 76 76 76 76 76 76 76 76 76 76 76 76 76 76 76 114 76 76 76 76 76 76 76 76 76 114 76 76 76 76 76 76 76 76 76 76 76 76 114 114 114 76 76 76 76 76 76 76 76 76 76 76 76 76 76 76 76 76 76 76 76 76 76 76 114 114 76 76 76 114 114 76 76 76 76 76 114 76 76 114 114 76 76 114 114 114 76 76 76 114 76 114 114 76 76 114 114 114 114 114 76 114 114 114 76 114 114 114 114 76 76 114 114 114 114 114 114 114 114 76 114 114 114 114 114 114 114 114 114 114 114 114 114 167 114 114 114 114 114 167 167 167 167 167 167 167 167 167 167 167 167 167 167 167 167 167 167 167 167 167 167 167 167 167 114 114 114 114 167 167 167 167 167 167 167 167 167 167 167 167 167 167 167 167 167 167 167 167 167 167 167 167 167 167 167 167 167 167 167 167 167 167 167 167 167 167 167 167 167 167 167 167 167 167 167 167 114 40 40 76 76 76 76 76 76 76 76 76 76 76 76 76 76 76 76 76 76 76 76 76 76 76 76 76 76 76 76 76 76 76 76 76 76 76 114 114 114 114 114 114 114 114 114 114 114 114 114 114 114 114 114 114 114 114 114 114 114 114 114 114 114 114 114 114 114 114 114 76 76 76 76 76 76 40 40 40 40 40 40 40 76 76 76 76 76 76 114 114 114 114 114 114 114 114 114 114 114 114 114 114 114 114 114 114 114 114 114 114 114 114 114 114 114 114 114 114 114 114 114 114 114 114 114 114 114 114 114 114 114 114 114 114 114 114 114 114 114 114 114 114 114 114 114 114 114 114 114 114 76 76 40 40 40 40 40 40 40 40 40 40 40 40 40 40 40 40 40 40 40 40 40 40 40 40 40 40 40 40 40 40 40 40 40 40 40 40 40 40 40 40 40 40 40 40 40 40 40 40 40 40 40 40 40 40 40 40 40 
114 114 114 114 114 114 114 114 114 114 114 114 114 114 114 114 114 114 114 114 114 114 114 76 76 76 76 76 76 40 40 40 40 40 40 40 40 40 40 40 40 40 76 76 76 76 76 76 40 76 76 76 76 76 76 76 76 76 76 76 76 76 76 76 76 76 76 76 76 76 76 76 76 76 76 76 76 76 76 76 76 76 76 76 76 76 76 76 76 76 76 76 76 76 76 76 76 76 76 76 76 76 76 76 114 76 76 76 76 76 76 76 76 76 114 76 76 76 76 114 114 76 114 114 114 114 76 76 76 76 76 76 76 76 76 76 76 76 76 76 76 76 76 76 76 76 76 76 76 76 76 76 76 76 76 76 76 76 76 76 76 76 76 76 76 76 76 76 76 76 76 76 114 114 114 76 76 76 76 114 114 114 114 114 114 114 114 114 76 76 114 114 76 76 114 114 114 114 76 114 114 114 114 114 114 114 114 114 114 114 114 114 114 114 114 114 114 114 167 114 114 114 114 167 167 167 167 114 114 167 167 167 167 167 167 167 167 167 167 167 167 167 167 114 114 114 114 114 114 167 167 167 167 167 167 167 167 167 167 167 167 167 167 167 167 167 167 167 167 167 167 167 167 167 167 167 167 167 167 167 167 167 167 167 167 167 167 167 167 167 167 167 167 167 167 167 167 167 167 167 167 167 114 40 76 76 40 40 76 76 76 76 76 76 76 76 76 76 76 76 76 76 76 76 76 76 76 76 76 76 76 76 76 76 76 76 76 76 76 114 114 114 114 114 114 114 114 114 114 114 114 114 114 114 114 114 114 114 114 114 114 114 114 114 114 114 114 114 114 114 114 114 114 76 76 76 76 40 40 40 40 40 40 40 40 76 76 76 76 76 76 114 114 114 114 114 114 114 114 114 114 114 114 114 114 114 114 114 114 114 114 114 114 114 114 114 114 114 114 114 114 114 114 114 114 114 114 114 114 114 114 114 114 114 114 114 114 114 114 114 114 114 114 114 114 114 114 114 114 114 114 114 76 76 40 40 40 40 40 40 40 40 40 40 40 40 40 40 40 40 40 40 40 40 40 40 40 40 40 40 40 40 40 40 40 40 40 40 40 40 40 40 40 40 40 40 40 40 40 40 40 40 40 40 40 40 40 40 40 40 40 40 
114 114 114 114 114 114 114 114 114 114 114 114 114 114 114 114 114 114 114 114 114 114 114 76 76 76 76 76 76 76 40 76 40 40 40 40 40 40 40 40 76 76 40 76 76 76 76 76 76 76 76 76 76 76 76 76 76 76 76 76 76 76 76 76 76 76 76 76 76 76 76 76 76 76 76 76 76 76 76 76 76 76 76 76 76 76 76 76 76 76 76 76 76 76 76 76 76 76 76 76 76 76 76 76 76 76 76 76 76 76 114 76 76 76 114 114 114 76 76 76 76 76 76 114 114 76 76 76 76 76 76 76 76 76 76 76 76 76 76 76 76 76 76 114 76 76 76 76 76 76 76 114 114 114 114 114 76 114 114 114 76 76 76 76 76 76 76 114 76 76 76 114 114 76 114 114 76 114 114 114 114 114 114 114 114 114 114 114 114 114 114 114 76 114 114 114 114 114 114 114 114 114 114 114 114 114 114 114 114 114 114 114 114 114 114 114 114 114 114 114 114 167 167 167 167 167 167 114 114 167 167 167 167 167 167 167 167 167 167 167 167 167 114 114 114 114 114 114 114 167 167 167 167 167 167 167 167 167 167 167 167 167 167 167 167 167 167 167 167 167 167 167 167 167 167 167 167 167 167 167 167 167 167 167 167 167 167 167 167 167 167 167 167 167 167 167 167 167 167 167 167 167 167 114 40 40 40 76 76 76 76 76 76 76 76 76 76 76 76 76 76 76 76 76 76 76 76 76 76 76 76 76 76 76 76 76 76 76 76 114 114 114 114 114 114 114 114 114 114 114 114 114 114 114 114 114 114 114 114 114 114 114 114 114 114 114 114 114 114 114 114 114 114 76 76 76 76 40 40 40 40 40 40 40 40 40 76 76 76 76 76 76 114 114 114 114 114 114 114 114 114 114 114 114 114 114 114 114 114 114 114 114 114 114 114 114 114 114 114 114 114 114 114 114 114 114 114 114 114 114 114 114 114 114 114 114 114 114 114 114 114 114 114 114 114 114 114 114 114 114 114 76 76 40 40 40 40 40 40 40 40 40 40 40 40 40 40 40 40 40 40 40 40 40 40 40 40 40 40 40 40 40 40 40 40 40 40 40 40 40 40 40 40 40 40 40 40 40 40 40 40 40 40 40 40 40 40 40 40 40 40 40 
114 114 114 114 114 114 114 114 114 114 114 114 114 114 114 114 114 114 114 114 114 114 114 114 76 76 76 76 76 40 40 40 40 40 40 40 40 40 40 40 76 76 40 76 76 76 76 76 76 76 76 76 76 76 76 76 76 76 76 76 76 76 76 76 76 76 76 76 76 76 76 76 76 76 76 76 76 76 76 76 76 76 76 76 76 76 76 76 76 76 76 76 76 76 76 76 76 76 76 76 76 76 76 76 76 76 76 114 76 76 76 76 76 76 76 76 114 114 76 76 114 114 76 76 76 76 76 76 76 76 76 76 76 76 76 76 76 76 76 76 76 76 76 76 76 76 76 76 114 76 76 76 76 76 76 76 76 76 76 76 76 76 76 76 76 76 76 76 76 76 76 114 76 76 114 114 114 114 114 76 76 114 114 114 114 114 76 114 114 114 114 76 114 114 114 114 114 114 114 114 114 114 114 114 114 114 114 114 114 114 114 114 114 114 114 114 114 114 114 114 167 167 167 114 167 167 167 167 167 167 167 167 114 167 167 167 167 167 167 167 167 167 114 114 114 114 167 167 167 167 167 167 167 167 167 167 167 167 167 167 167 167 167 167 167 167 167 167 167 167 167 167 167 167 167 167 167 167 167 167 167 167 167 167 167 167 167 167 167 167 167 167 167 167 167 167 167 167 167 167 167 167 167 167 114 76 40 76 40 40 76 40 76 76 76 76 76 76 76 76 76 76 76 76 76 76 76 76 76 76 76 76 76 76 76 76 76 76 76 114 114 114 114 114 114 114 114 114 114 114 114 114 114 114 114 114 114 114 114 114 114 114 114 114 114 114 114 114 114 114 114 76 76 76 76 76 76 76 40 40 40 40 40 40 40 40 40 40 76 76 76 76 76 114 114 114 114 114 114 114 114 114 114 114 114 114 114 114 114 114 114 114 114 114 114 114 114 114 114 114 114 114 114 114 114 114 114 114 114 114 114 114 114 114 114 114 114 114 114 114 114 114 114 114 114 114 114 114 114 114 114 76 76 40 40 40 40 40 40 40 40 40 40 40 40 40 40 40 40 40 40 40 40 40 40 40 40 40 40 40 40 40 40 40 40 40 40 40 40 40 40 40 40 40 40 40 40 40 40 40 40 40 40 40 40 40 40 40 40 40 40 40 
114 114 114 114 114 114 114 114 114 114 114 114 114 114 114 114 114 114 114 114 114 114 114 114 76 76 76 76 76 76 40 40 40 40 40 40 40 76 76 76 76 40 40 76 76 76 76 76 76 76 76 76 76 76 76 76 76 76 76 76 76 76 76 76 76 76 76 76 76 76 76 76 76 76 76 76 76 76 76 76 76 76 76 76 76 76 76 76 76 76 76 76 76 76 76 76 76 76 76 76 76 76 76 76 76 76 76 76 76 76 76 76 76 76 76 76 76 76 76 76 76 76 76 76 76 76 76 76 76 76 76 76 76 76 76 76 76 76 76 76 76 76 114 76 76 76 76 76 114 114 76 76 76 76 76 76 76 76 76 76 76 76 76 114 76 76 76 76 114 114 76 76 76 76 114 76 114 114 114 76 76 114 114 114 114 114 114 114 114 114 114 76 114 114 76 114 114 114 114 114 114 114 114 114 114 76 114 114 114 114 114 114 114 114 114 114 114 114 114 114 167 114 114 114 114 114 167 167 167 167 167 114 114 167 167 167 167 167 114 114 167 114 114 114 114 167 167 167 167 167 167 167 167 167 167 167 167 167 167 167 167 167 167 167 167 167 167 167 167 167 167 167 167 167 167 167 167 167 167 167 167 167 167 167 167 167 167 167 167 167 167 167 167 167 167 167 167 167 167 167 167 167 167 167 167 114 40 40 76 76 76 76 76 76 76 76 76 76 76 76 76 76 76 76 76 76 76 76 76 76 76 76 76 76 76 76 76 76 76 114 114 114 114 114 114 114 114 114 114 114 114 114 114 114 114 114 114 114 114 114 114 114 114 114 114 114 114 114 114 114 114 76 76 76 76 76 76 76 40 40 40 40 40 40 40 40 76 40 76 76 76 76 76 114 114 114 114 114 114 114 114 114 114 114 114 114 114 114 114 114 114 114 114 114 114 114 114 114 114 114 114 114 114 114 114 114 114 114 114 114 114 114 114 114 114 114 114 114 114 114 114 114 114 114 114 114 114 114 114 114 76 76 40 40 40 40 40 40 40 40 40 40 40 40 40 40 40 40 40 40 40 40 40 40 40 40 40 40 40 40 40 40 40 40 40 40 40 40 40 40 40 40 40 40 40 40 40 40 40 40 40 40 40 40 40 40 40 40 40 40 40 40 
114 114 114 114 114 114 114 114 114 114 114 114 114 114 114 114 114 114 114 114 114 114 114 114 76 76 76 76 76 40 40 40 40 40 40 40 40 40 40 40 76 76 76 76 76 76 76 76 76 76 40 40 76 76 76 76 76 76 76 76 76 76 76 76 76 76 76 76 76 76 76 76 76 76 76 76 76 76 76 76 76 76 76 76 76 76 76 76 76 76 76 76 76 76 76 76 76 76 76 76 76 76 76 76 76 76 76 114 76 76 76 76 76 76 76 76 76 76 114 114 114 76 76 76 76 76 76 76 76 76 76 76 76 76 76 76 76 76 76 76 76 76 76 76 76 76 76 114 76 114 114 76 76 76 76 114 114 114 76 114 76 76 76 76 76 76 76 114 76 114 76 114 114 114 114 114 76 76 76 114 114 114 114 114 114 114 114 114 114 114 114 114 114 114 76 114 114 114 114 114 114 114 114 114 114 114 114 114 114 114 114 114 114 114 114 114 114 114 114 114 114 114 114 114 167 167 167 167 167 167 167 167 167 167 167 167 114 114 114 114 114 114 114 167 167 167 167 167 167 167 167 167 167 167 167 167 167 167 167 167 167 167 167 167 167 167 167 167 167 167 167 167 167 167 167 167 167 167 167 167 167 167 167 167 167 167 167 167 167 167 167 167 167 167 167 167 167 167 167 167 167 167 167 167 167 167 76 40 76 76 40 40 76 76 40 76 76 76 76 76 76 76 76 76 76 76 76 76 76 76 76 76 76 76 76 76 76 76 76 114 114 114 114 114 114 114 114 114 114 114 114 114 114 114 114 114 114 114 114 114 114 114 114 114 114 114 114 114 114 114 114 114 76 76 76 76 76 76 40 40 40 40 40 40 40 40 40 40 76 76 76 76 76 114 114 114 114 114 114 114 114 114 114 114 114 114 114 114 114 114 114 114 114 114 114 114 114 114 114 114 114 114 114 114 114 114 114 114 114 114 114 114 114 114 114 114 114 114 114 114 114 114 114 114 114 114 114 114 114 76 76 40 40 40 40 40 40 40 40 40 40 40 40 40 40 40 40 40 40 40 40 40 40 40 40 40 40 40 40 40 40 40 40 40 40 40 40 40 40 40 40 40 40 40 40 40 40 40 40 40 40 40 40 40 40 40 40 40 40 40 40 40 
114 114 114 114 114 114 114 114 114 114 114 114 114 114 114 114 114 114 114 114 114 114 114 114 76 76 76 76 76 76 40 40 40 40 40 40 40 40 40 40 76 76 76 76 76 76 76 76 76 76 76 76 76 76 76 76 76 76 76 76 76 76 76 76 76 76 76 76 76 76 76 76 76 76 76 76 76 76 76 76 76 76 76 76 76 76 76 76 76 76 76 76 76 76 76 76 76 114 76 76 76 76 76 76 76 76 114 114 76 76 76 76 76 76 76 76 76 76 114 114 114 76 76 76 76 76 76 76 76 76 76 76 76 76 76 76 76 76 76 76 76 76 76 76 76 76 76 76 76 76 76 76 76 76 76 76 76 76 76 76 76 76 76 76 76 76 76 76 76 114 76 76 76 76 76 114 76 114 114 114 114 114 114 114 114 114 76 76 114 114 114 114 76 114 114 114 114 114 114 76 114 114 114 114 114 114 114 114 114 114 114 114 114 114 114 114 114 114 114 114 114 114 167 167 167 167 167 167 167 167 114 167 167 167 167 114 114 114 114 114 114 114 167 167 167 167 167 167 167 167 167 167 167 167 167 167 167 167 167 167 167 167 167 167 167 167 167 167 167 167 167 167 167 167 167 167 167 167 167 167 167 167 167 167 167 167 167 167 167 167 167 167 167 167 167 167 167 167 167 167 167 167 167 167 167 167 114 76 40 40 40 76 76 40 40 76 76 76 76 76 76 76 76 76 76 76 76 76 76 76 76 76 76 76 76 76 76 76 76 114 114 114 114 114 114 114 114 114 114 114 114 114 114 114 114 114 114 114 114 114 114 114 114 114 114 114 114 114 114 114 114 114 76 76 76 76 76 76 40 40 40 40 40 40 40 40 40 40 76 40 76 76 76 76 76 76 114 114 114 114 114 114 114 114 114 114 114 114 114 114 114 114 114 114 114 114 114 114 114 114 114 114 114 114 114 114 114 114 114 114 114 114 114 114 114 114 114 114 114 114 114 114 114 114 114 114 114 114 76 76 40 40 40 40 40 40 40 40 40 40 40 40 40 40 40 40 40 40 40 40 40 40 40 40 40 40 40 40 40 40 40 40 40 40 40 40 40 40 40 40 40 40 40 40 40 40 40 40 40 40 40 40 40 40 40 40 40 40 40 40 40 40 
114 114 114 114 114 114 114 114 114 114 114 114 114 114 114 114 114 114 114 114 114 114 114 114 76 76 76 76 76 76 76 40 40 40 40 40 40 40 40 40 76 76 76 76 76 40 76 76 76 76 40 76 76 76 76 76 76 76 76 76 76 76 76 76 76 76 76 76 76 76 76 76 76 76 76 76 76 76 76 76 76 76 76 76 76 76 76 76 76 76 76 76 76 76 76 76 76 76 76 76 114 114 76 76 76 76 76 76 76 76 114 114 76 76 76 76 76 114 114 114 114 76 76 76 76 76 76 76 76 76 76 76 76 76 76 76 76 76 76 76 76 76 76 76 76 76 76 76 76 76 76 76 76 76 76 114 76 76 76 76 76 76 76 76 114 114 76 76 76 114 76 114 114 114 76 76 76 114 114 114 114 114 114 114 114 114 114 114 114 114 114 114 114 114 114 114 114 114 114 114 114 114 114 114 114 114 114 114 114 114 114 114 114 114 114 114 114 114 114 114 114 114 167 167 167 167 114 114 167 167 167 167 167 167 114 114 114 114 114 114 167 167 167 167 167 167 167 167 167 167 167 167 167 167 167 167 167 167 167 167 167 167 167 167 167 167 167 167 167 167 167 167 167 167 167 167 167 167 167 167 167 167 167 167 167 167 167 167 167 167 167 167 167 167 167 167 167 167 167 167 167 167 167 167 167 167 167 114 40 40 76 76 76 76 40 76 76 76 76 76 40 76 76 76 76 76 76 76 76 76 76 76 76 76 76 76 76 76 76 114 76 114 114 114 114 114 114 114 114 114 114 114 114 114 114 114 114 114 114 114 114 114 114 114 114 114 114 114 114 114 114 114 76 76 76 76 76 76 40 40 40 40 40 40 40 40 40 40 76 40 76 76 76 76 76 76 114 114 114 114 114 114 114 114 114 114 114 114 114 114 114 114 114 114 114 114 114 114 114 114 114 114 114 114 114 114 114 114 114 114 114 114 114 114 114 114 114 114 114 114 114 114 114 114 114 114 114 114 76 76 40 40 40 40 40 40 40 40 40 40 40 40 40 40 40 40 40 40 40 40 40 40 40 40 40 40 40 40 40 40 40 40 40 40 40 40 40 40 40 40 40 40 40 40 40 40 40 40 40 40 40 40 40 40 40 40 40 40 40 40 40 40 
114 114 114 114 114 114 114 114 114 114 114 114 114 114 114 114 114 114 114 114 114 114 76 114 114 76 76 76 76 76 40 76 40 40 40 40 40 40 76 40 40 40 76 76 76 76 76 76 76 76 76 76 76 76 76 76 76 76 76 76 76 76 76 76 76 40 76 76 76 76 76 76 76 76 76 76 76 76 76 76 76 76 76 76 76 76 76 76 76 76 76 76 76 76 76 76 76 76 76 76 76 114 114 76 76 114 76 76 76 76 76 114 76 76 76 76 114 114 114 76 76 76 76 76 76 76 76 76 76 76 76 76 76 76 76 76 76 76 114 76 76 76 76 114 114 114 76 76 76 76 114 76 76 76 114 114 76 76 76 76 76 76 76 114 76 76 76 114 114 114 76 76 114 76 76 76 114 114 114 114 114 114 114 114 114 114 114 114 114 114 76 114 114 114 114 114 114 114 114 114 114 114 114 114 114 114 114 114 114 114 114 114 114 114 114 114 114 114 114 114 114 167 167 114 167 167 167 167 167 167 114 114 167 167 114 114 114 114 167 167 167 167 167 167 167 167 167 167 167 167 167 167 167 167 167 167 167 167 167 167 167 167 167 167 167 167 167 167 167 167 167 167 167 167 167 167 167 167 167 167 167 167 167 167 167 167 167 167 167 167 167 167 167 167 167 167 167 167 167 167 167 167 167 167 167 167 167 167 76 40 40 76 76 76 76 40 40 76 76 76 40 76 76 76 76 40 76 76 76 76 76 76 76 76 76 76 76 76 114 114 114 114 114 114 114 114 114 114 114 114 114 114 114 114 114 114 114 114 114 114 114 114 114 114 114 114 114 114 114 114 114 114 76 76 76 76 76 76 40 40 40 40 40 40 40 40 40 40 40 76 76 76 76 76 76 76 114 114 114 114 114 114 114 114 114 114 114 114 114 114 114 114 114 114 114 114 114 114 114 114 114 114 114 114 114 114 114 114 114 114 114 114 114 114 114 114 114 114 114 114 114 114 114 114 114 114 114 76 76 40 40 40 40 40 40 40 40 40 40 40 40 40 40 40 40 40 40 40 40 40 40 40 40 40 40 40 40 40 40 40 40 40 40 40 40 40 40 40 40 40 40 40 40 40 40 40 40 40 40 40 40 40 40 40 40 40 40 40 40 40 40 40 
114 114 114 114 114 114 114 114 114 114 114 114 114 114 114 114 114 114 114 114 114 114 114 114 76 76 76 76 76 40 76 40 40 40 40 40 40 40 40 40 76 76 76 76 76 40 76 76 76 76 76 76 76 76 76 76 76 76 76 76 76 76 76 76 76 76 76 76 76 76 76 76 76 76 76 76 76 76 76 76 76 76 76 76 76 76 76 76 76 76 76 76 76 76 76 76 76 76 76 76 76 114 76 76 76 76 76 76 76 76 76 114 76 76 76 76 114 114 114 76 76 76 76 76 76 76 76 76 76 76 76 114 76 76 76 76 76 76 76 76 76 76 114 76 76 76 76 76 76 76 76 76 114 76 76 76 76 76 76 76 76 76 76 76 76 114 114 76 76 114 76 76 76 76 76 114 76 114 114 114 114 114 114 76 114 114 114 114 114 114 114 114 114 114 114 114 114 114 114 114 114 114 114 114 114 114 114 114 114 114 114 114 114 114 114 114 114 114 114 114 114 114 114 114 114 167 167 167 167 167 114 114 114 114 114 114 167 167 167 167 167 167 167 167 167 167 167 167 167 167 167 167 167 167 167 167 167 167 167 167 167 167 167 167 167 167 167 167 167 167 167 167 167 167 167 167 167 167 167 167 167 167 167 167 167 167 167 167 167 167 167 167 167 167 167 167 167 167 167 167 167 167 167 167 167 167 167 167 167 76 40 40 40 40 76 76 40 40 40 76 76 76 76 76 76 76 76 76 76 76 76 76 76 76 76 76 76 76 114 76 114 114 114 114 114 114 114 114 114 114 114 114 114 114 114 114 114 114 114 114 114 114 114 114 114 114 114 114 114 114 114 114 76 76 76 76 76 76 40 40 40 40 40 40 40 40 40 40 40 40 76 76 76 76 76 114 114 114 114 114 114 114 114 114 114 114 114 114 114 114 114 114 114 114 114 114 114 114 114 114 114 114 114 114 114 114 114 114 114 114 114 114 114 114 114 114 114 114 114 114 114 114 114 114 114 114 114 76 40 40 40 40 40 40 40 40 40 40 40 40 40 40 40 40 40 40 40 40 40 40 40 40 40 40 40 40 40 40 40 40 40 40 40 40 40 40 40 40 40 40 40 40 40 40 40 40 40 40 40 40 40 40 40 40 40 40 40 40 40 40 40 40 
114 114 114 114 114 114 114 114 114 114 114 114 114 114 114 114 114 114 114 114 114 114 114 114 76 76 76 76 76 76 76 40 40 40 40 40 40 40 76 76 40 40 76 76 76 76 76 76 76 76 76 76 76 76 76 76 76 76 76 76 76 76 76 76 76 76 76 76 76 76 76 76 76 76 76 76 76 76 76 76 76 76 76 76 76 76 76 76 76 76 76 76 76 76 76 114 76 76 76 76 76 76 76 76 76 76 76 76 76 76 76 76 114 76 76 76 114 114 76 76 76 76 76 76 76 76 76 76 76 76 76 76 76 76 76 76 76 76 76 76 76 76 76 76 76 76 76 76 76 76 76 76 76 76 76 76 76 76 76 76 76 76 76 76 114 114 76 76 114 114 114 76 76 114 114 114 76 114 114 114 114 114 114 114 114 114 114 114 114 114 114 114 114 114 114 114 114 114 114 114 114 114 114 114 114 114 114 114 114 114 114 114 114 114 114 114 114 114 114 114 114 114 114 114 167 114 167 167 114 114 114 114 114 114 114 167 167 167 167 167 167 167 167 167 167 167 167 167 167 167 167 167 167 167 167 167 167 167 167 167 167 167 167 167 167 167 167 167 167 167 167 167 167 167 167 167 167 167 167 167 167 167 167 167 167 167 167 167 167 167 167 167 167 167 167 167 167 167 167 167 167 167 167 167 167 167 167 167 167 114 40 40 40 40 40 40 40 40 76 76 40 40 40 76 76 76 76 76 76 76 76 76 76 76 76 76 76 76 114 114 114 114 114 114 114 114 114 114 114 114 114 114 114 114 114 114 114 114 114 114 114 114 114 114 114 114 114 114 114 114 114 114 76 76 76 76 76 76 40 40 40 40 40 40 40 40 40 40 40 40 76 76 76 76 76 76 76 114 114 114 114 114 114 114 114 114 114 114 114 114 114 114 114 114 114 114 114 114 114 114 114 114 114 114 114 114 114 114 114 114 114 114 114 114 114 114 114 114 114 114 114 114 114 114 114 114 76 76 40 40 40 40 40 40 40 40 40 40 40 40 40 40 40 40 40 40 40 40 40 40 40 40 40 40 40 40 40 40 40 40 40 40 40 40 40 40 40 40 40 40 40 40 40 40 40 40 40 40 40 40 40 40 40 40 40 40 40 40 40 40 40 40 
114 114 114 114 114 114 114 114 114 114 114 114 114 114 114 114 114 114 114 114 114 114 114 76 76 76 76 76 76 76 76 40 40 40 40 40 40 40 40 40 76 76 76 76 76 76 76 76 76 76 40 76 76 76 76 76 76 76 76 76 76 76 76 76 76 76 76 76 76 76 76 76 76 76 76 76 76 76 76 76 76 76 76 76 76 76 76 76 76 76 76 76 76 76 76 76 76 76 76 76 76 76 76 76 114 76 76 76 76 76 76 76 114 76 76 76 114 76 76 76 76 76 76 76 76 76 76 76 76 76 76 76 76 76 76 76 76 76 76 76 76 76 76 76 76 76 76 114 76 76 76 76 76 76 76 76 76 76 76 114 76 76 76 76 114 114 114 114 114 76 114 114 114 114 114 76 114 114 114 114 114 114 114 114 114 114 114 114 114 114 114 114 114 114 114 114 114 114 114 114 114 114 76 114 114 114 114 114 114 114 114 114 114 114 114 114 114 114 114 114 114 114 167 167 167 114 114 114 114 114 114 114 114 114 167 167 167 167 167 167 167 167 167 167 167 167 167 167 167 167 167 167 167 167 167 167 167 167 167 167 167 167 167 167 167 167 167 167 167 167 167 167 167 167 167 167 167 167 167 167 167 167 167 167 167 167 167 167 167 167 167 167 167 167 167 167 167 167 167 167 167 167 167 167 167 167 167 167 167 167 114 76 76 76 40 76 76 76 76 76 76 40 40 76 76 76 76 76 40 76 40 40 76 76 76 76 76 76 76 114 114 114 114 114 114 114 114 114 114 114 114 114 114 114 114 114 114 114 114 114 114 114 114 114 114 114 114 114 114 114 114 114 114 76 76 76 76 76 40 40 40 40 40 40 40 40 40 40 40 40 40 76 76 76 76 76 76 114 114 114 114 114 114 114 114 114 114 114 114 114 114 114 114 114 114 114 114 114 114 114 114 114 114 114 114 114 114 114 114 114 114 114 114 114 114 114 114 114 114 114 114 114 114 114 114 76 76 40 40 40 40 40 40 40 40 40 40 40 40 40 40 40 40 40 40 40 40 40 40 40 40 40 40 40 40 40 40 40 40 40 40 40 40 40 40 40 40 40 40 40 40 40 40 40 40 40 40 40 40 40 40 40 40 40 40 40 40 40 40 40 40 40 
114 114 114 114 114 114 114 114 114 114 114 114 114 114 114 114 114 114 114 114 114 114 114 76 76 76 76 76 76 76 40 40 40 40 40 40 40 40 40 40 76 76 76 76 76 76 76 76 76 76 76 76 76 76 76 76 76 76 76 76 76 76 76 76 76 76 76 76 76 76 76 76 76 76 76 76 76 76 76 76 76 76 76 76 76 76 76 76 76 76 76 76 76 76 76 76 76 76 76 76 76 76 76 76 76 76 76 76 76 114 114 76 76 76 114 76 114 76 76 76 76 76 76 76 76 76 76 76 76 76 76 76 76 76 76 76 76 76 76 76 76 76 76 76 76 76 76 76 114 76 76 76 76 76 76 76 76 114 76 76 76 114 76 76 76 114 114 114 76 76 76 114 76 76 114 114 114 114 114 76 114 114 114 114 114 114 114 114 114 114 114 114 114 114 114 114 114 114 114 114 114 76 76 114 114 114 114 114 114 114 114 114 114 114 114 114 114 114 114 114 114 167 167 167 114 114 114 114 114 114 114 114 167 167 167 167 167 167 167 167 167 167 167 167 167 167 167 167 167 167 167 167 167 167 167 167 167 167 167 167 167 167 167 167 167 167 167 167 167 167 167 167 167 167 167 167 167 167 167 167 167 167 167 167 167 167 167 167 167 167 167 167 167 167 167 167 167 167 167 167 167 167 167 167 167 167 167 167 167 167 167 114 76 40 40 40 40 40 40 76 76 40 40 40 76 76 76 76 76 76 76 40 76 76 76 76 76 76 114 114 114 114 114 114 114 114 114 114 114 114 114 114 114 114 114 114 114 114 114 114 114 114 114 114 114 114 114 114 114 114 114 114 114 76 76 76 76 76 40 40 40 40 40 40 40 40 40 40 40 40 40 40 76 76 76 76 76 76 114 114 114 114 114 114 114 114 114 114 114 114 114 114 114 114 114 114 114 114 114 114 114 114 114 114 114 114 114 114 114 114 114 114 114 114 114 114 114 114 114 114 114 114 114 114 114 76 76 40 40 40 40 40 40 40 40 40 40 40 40 40 40 40 40 40 40 40 40 40 40 40 40 40 40 40 40 40 40 40 40 40 40 40 40 40 40 40 40 40 40 40 40 40 40 40 40 40 40 40 40 40 40 40 40 40 40 40 40 40 40 40 40 40 
114 114 114 114 114 114 114 114 114 114 114 114 114 114 114 114 114 114 114 114 114 114 114 76 76 76 76 76 76 76 76 40 40 40 40 40 40 40 40 40 40 40 40 76 76 76 76 76 76 76 76 76 76 76 76 76 76 76 76 76 76 76 76 76 76 76 76 76 76 76 76 76 76 76 76 76 76 76 76 76 76 76 76 76 76 76 76 76 76 76 76 76 76 76 76 76 76 76 76 76 76 76 76 76 76 76 76 76 76 76 114 76 76 76 114 76 76 76 76 76 76 76 76 76 76 76 76 76 114 76 76 76 76 76 76 76 114 76 76 76 76 76 76 76 76 76 76 76 76 76 76 76 76 76 76 76 76 76 114 114 76 76 76 76 76 114 114 114 114 114 114 114 76 114 114 114 76 76 114 114 114 114 76 76 76 114 114 114 114 114 114 114 114 114 114 114 114 114 114 114 114 114 114 114 114 114 114 114 114 114 114 114 114 114 114 114 114 114 114 167 167 167 114 114 114 114 114 114 114 114 114 167 167 167 167 167 167 167 167 167 167 167 167 167 167 167 167 167 167 167 167 167 167 167 167 167 167 167 167 167 167 167 167 167 167 167 167 167 167 167 167 167 167 167 167 167 167 167 167 167 167 167 167 167 167 167 167 167 167 167 167 167 167 167 167 167 167 167 167 167 167 167 167 167 167 167 167 167 167 167 167 167 167 114 76 40 40 76 76 76 76 40 40 76 76 76 76 76 76 76 76 76 76 76 76 76 76 76 76 114 114 114 114 114 114 114 114 114 114 114 114 114 114 114 114 114 114 114 114 114 114 114 114 114 114 114 114 114 114 114 114 114 114 76 76 76 76 76 76 40 40 40 40 40 40 40 40 40 40 40 40 40 76 76 76 76 76 76 114 114 114 114 114 114 114 114 114 114 114 114 114 114 114 114 114 114 114 114 114 114 114 114 114 114 114 114 114 114 114 114 114 114 114 114 114 114 114 114 114 114 114 114 114 114 76 76 40 40 40 40 40 40 40 40 40 40 40 40 40 40 40 40 40 40 40 40 40 40 40 40 40 40 40 40 40 40 40 40 40 40 40 40 40 40 40 40 40 40 40 40 40 40 40 40 40 40 40 40 40 40 40 40 40 40 40 40 40 40 40 40 40 40 
114 114 114 114 114 114 114 114 114 114 114 114 114 114 114 114 114 114 114 114 114 114 114 76 76 76 76 76 76 76 76 40 40 40 40 40 40 40 40 40 76 76 76 76 76 76 40 76 76 76 76 76 40 76 76 76 76 76 76 76 76 76 76 76 76 76 76 76 76 76 76 76 76 76 76 76 76 76 76 76 76 76 76 76 76 76 76 76 76 76 76 76 76 76 76 76 76 76 76 76 76 76 76 76 76 76 76 76 76 76 76 76 76 114 114 76 76 76 76 76 76 76 76 76 76 76 76 76 76 76 76 76 76 76 76 76 76 76 76 76 76 76 114 76 76 76 76 76 76 76 76 76 76 76 76 114 76 76 76 76 114 76 76 114 114 76 76 114 76 76 76 76 76 114 114 114 114 114 114 114 114 114 76 76 114 114 114 114 114 114 114 114 114 114 114 114 114 114 114 114 114 114 114 114 114 114 114 114 114 114 114 114 114 114 114 114 114 114 114 167 167 114 114 114 114 114 114 114 114 167 167 167 167 167 167 167 167 167 167 167 167 167 167 167 167 167 167 167 167 167 167 167 167 167 167 167 167 167 167 167 167 167 167 167 167 167 167 167 167 167 167 167 167 167 167 167 167 167 167 167 167 167 167 167 167 167 167 167 167 167 167 167 167 167 167 167 167 167 167 167 167 167 167 167 167 167 167 167 167 167 167 167 167 167 167 114 76 76 40 40 40 40 40 40 40 40 40 40 40 76 76 76 76 76 76 76 76 76 76 114 114 114 114 114 114 114 114 114 114 114 114 114 114 114 114 114 114 114 114 114 114 114 114 114 114 114 114 114 114 114 114 114 114 114 76 76 76 76 76 40 40 40 40 40 40 40 40 40 40 40 40 40 40 76 76 76 76 76 76 76 114 114 114 114 114 114 114 114 114 114 114 114 114 114 114 114 114 114 114 114 114 114 114 114 114 114 114 114 114 114 114 114 114 114 114 114 114 114 114 114 114 114 114 76 76 40 40 40 40 40 40 40 40 40 40 40 40 40 40 40 40 40 40 40 40 40 40 40 40 40 40 40 40 40 40 40 40 40 40 40 40 40 40 40 40 40 40 40 40 40 40 40 40 40 40 40 40 40 40 40 40 40 40 40 40 40 40 40 40 40 40 40 
114 114 114 114 114 114 114 114 114 114 114 114 114 114 114 114 114 114 114 114 114 114 114 114 76 76 76 76 76 76 40 40 40 40 40 40 40 40 40 40 40 40 76 76 76 76 76 76 76 76 76 76 76 76 76 76 76 76 76 76 76 76 76 76 76 76 76 76 76 76 76 76 76 76 76 76 76 76 76 76 76 76 76 76 76 76 76 76 76 76 76 76 76 76 76 76 76 76 76 76 76 76 76 76 76 76 76 76 76 76 76 114 114 114 114 76 76 76 76 76 76 76 76 76 76 76 76 76 76 76 76 76 76 76 76 76 76 76 76 114 76 76 76 76 76 76 76 76 76 76 76 76 76 76 76 76 114 114 114 76 114 114 114 114 76 76 114 114 114 114 76 114 114 114 114 114 114 114 114 114 76 76 114 114 114 76 76 114 114 114 114 114 114 114 114 114 114 114 114 114 114 114 114 114 114 114 114 114 114 114 114 114 114 114 114 114 114 114 114 114 114 114 114 114 114 76 114 114 114 167 167 167 167 167 167 167 167 167 167 167 167 167 167 167 167 167 167 167 167 167 167 167 167 167 167 167 167 167 167 167 167 167 167 167 167 167 167 167 167 167 167 167 167 167 167 167 167 167 167 167 167 167 167 167 167 167 167 167 167 167 167 167 167 167 167 167 167 167 167 167 167 167 167 167 167 167 167 167 167 167 167 167 167 167 167 167 167 76 40 40 40 40 40 76 76 76 76 76 40 76 76 76 76 76 76 76 76 76 76 114 114 114 114 114 114 114 114 114 114 114 114 114 114 114 114 114 114 114 114 114 114 114 114 114 114 114 114 114 114 114 114 76 114 76 76 76 76 76 76 40 40 40 40 40 40 40 40 40 40 40 40 40 40 76 76 76 76 76 76 114 114 114 114 114 114 114 114 114 114 114 114 114 114 114 114 114 114 114 114 114 114 114 114 114 114 114 114 114 114 114 114 114 114 114 114 114 114 114 114 114 114 114 76 76 76 40 40 40 40 40 40 40 40 40 40 40 40 40 40 40 40 40 40 40 40 40 40 40 40 40 40 40 40 40 40 40 40 40 40 40 40 40 40 40 40 40 40 40 40 40 40 40 40 40 40 40 40 40 40 40 40 40 40 40 40 40 40 40 40 40 40 40 
114 114 114 114 114 114 114 114 114 114 114 114 114 114 114 114 114 114 114 114 114 114 76 76 76 76 76 76 76 76 76 40 40 40 40 40 40 40 40 76 40 40 76 76 76 76 76 76 76 76 76 76 76 76 76 76 76 76 76 76 76 40 76 76 76 76 76 76 76 76 76 76 76 76 76 76 76 76 76 76 76 76 76 76 76 76 76 76 76 76 76 76 76 76 76 76 76 76 76 76 76 76 76 76 76 76 76 114 76 76 76 76 114 114 76 76 76 76 76 76 76 76 76 76 76 76 76 76 76 76 76 76 76 76 76 76 76 76 76 76 76 76 76 76 76 76 76 76 76 76 76 76 76 76 76 114 76 76 76 76 114 76 76 76 114 114 114 76 114 114 114 114 76 76 76 114 114 114 114 114 76 114 114 114 114 76 114 114 114 114 114 114 114 114 114 114 114 114 114 114 114 76 114 114 114 114 114 114 114 114 114 114 114 114 114 114 114 114 114 114 114 114 114 76 76 114 114 167 167 167 167 167 167 167 167 167 167 167 167 167 167 167 167 167 167 167 167 167 167 167 167 167 167 167 167 167 167 167 167 167 167 167 167 167 167 167 167 167 167 167 167 167 167 167 167 167 167 167 167 167 167 167 167 167 167 167 167 167 167 167 167 167 167 167 167 167 167 167 167 167 167 167 167 167 167 167 167 167 167 167 167 167 167 167 167 167 167 167 114 40 40 76 40 40 40 40 40 76 76 76 76 40 76 76 76 76 76 76 76 114 114 114 114 114 114 114 114 114 114 114 114 114 114 114 114 114 114 114 114 114 114 114 114 114 114 114 114 114 114 114 114 114 114 76 76 76 76 76 40 40 40 40 40 40 40 40 40 40 40 40 40 40 40 40 40 76 76 76 76 76 114 76 114 114 114 114 114 114 114 114 114 114 114 114 114 114 114 114 114 114 114 114 114 114 114 114 114 114 114 114 114 114 114 114 114 114 114 114 114 114 114 114 76 76 40 40 40 40 40 40 40 40 40 40 40 40 40 40 40 40 40 40 40 40 40 40 40 40 40 40 40 40 40 40 40 40 40 40 40 40 40 40 40 40 40 40 40 40 40 40 40 40 40 40 40 40 40 40 40 40 40 40 40 40 40 40 40 40 40 40 40 40 
114 114 114 114 114 114 114 114 114 114 114 114 114 114 114 114 114 114 114 114 114 114 114 114 76 76 76 76 76 76 76 40 40 40 40 40 40 40 40 76 76 76 76 76 76 76 76 76 76 76 76 76 76 76 76 76 40 76 76 76 76 76 76 76 76 76 76 76 76 76 76 76 76 76 76 76 76 76 76 76 76 76 76 76 76 76 76 76 76 76 76 76 76 76 76 76 76 76 114 76 76 76 76 76 76 76 76 76 76 76 76 114 114 114 76 76 76 76 76 76 76 76 76 76 76 76 76 76 76 76 76 76 76 76 76 76 114 76 76 76 76 76 114 76 76 76 76 76 76 114 114 76 76 76 76 76 76 76 76 76 76 76 114 114 114 114 76 76 114 114 114 114 114 114 114 114 114 114 114 114 114 114 114 114 114 114 114 114 114 114 114 114 114 114 114 114 114 114 114 114 114 114 114 114 114 114 76 114 114 114 114 114 114 114 114 114 114 114 114 114 114 114 114 114 114 167 167 167 167 167 167 167 167 167 167 167 167 167 167 167 167 167 167 167 167 167 167 167 167 167 167 167 167 167 167 167 167 167 167 167 167 167 167 167 114 167 167 167 167 167 167 167 167 167 167 167 167 167 167 167 167 167 167 167 167 167 167 167 167 167 167 167 167 167 167 167 167 167 167 167 167 167 167 167 167 167 167 167 167 167 167 167 167 167 167 167 167 167 167 114 76 76 76 40 40 40 76 40 76 76 76 76 76 76 76 76 76 76 76 114 76 114 114 114 114 114 114 114 114 114 114 114 114 114 114 114 114 114 114 114 114 114 114 114 114 114 114 114 114 114 114 114 76 76 76 76 76 76 40 40 40 40 40 40 40 40 40 40 40 40 40 40 40 40 40 76 76 76 76 76 114 114 114 114 114 114 114 114 114 114 114 114 114 114 114 114 114 114 114 114 114 114 114 114 114 114 114 114 114 114 114 114 114 114 114 114 114 114 114 114 114 76 76 40 40 40 40 40 40 40 40 40 40 40 40 40 40 40 40 40 40 40 40 40 40 40 40 40 40 40 40 40 40 40 40 40 40 40 40 40 40 40 40 40 40 40 40 40 40 40 40 40 40 40 40 40 40 40 40 40 40 40 40 40 40 40 40 40 40 40 40 40 
114 114 114 114 114 114 114 114 114 114 114 114 114 114 114 114 114 114 114 114 114 114 114 114 76 76 76 76 76 76 40 40 40 40 40 40 40 40 40 40 40 40 40 76 76 76 76 76 76 76 76 76 76 76 76 76 76 76 76 76 76 76 76 76 76 76 76 76 76 76 76 76 76 76 76 76 76 76 76 76 76 76 76 76 76 76 76 76 76 76 76 76 76 76 76 76 76 76 76 76 76 76 76 76 76 76 76 76 76 76 114 114 114 76 76 76 76 76 76 76 76 76 76 76 76 76 76 76 76 76 76 76 76 76 76 76 76 76 76 114 76 76 76 114 76 76 76 76 76 76 76 114 114 76 76 76 76 114 114 114 76 76 114 114 76 76 76 114 114 114 76 76 114 114 114 76 114 114 114 114 114 114 114 114 76 114 114 114 114 114 114 114 114 114 114 114 114 114 114 76 114 114 114 114 114 114 114 114 114 114 114 114 114 114 114 114 114 114 114 114 114 76 114 167 167 167 167 167 167 167 167 167 167 167 167 167 167 167 167 167 167 167 167 167 167 167 167 167 167 167 167 167 167 167 167 167 167 167 167 167 167 167 167 167 167 167 167 167 167 167 167 167 167 167 167 167 167 167 167 167 167 167 167 167 167 167 167 167 167 167 167 167 167 167 167 167 167 167 167 167 167 167 167 167 167 167 167 167 167 167 167 167 167 167 167 167 167 167 167 167 114 76 40 40 40 40 76 76 40 40 76 76 76 76 76 76 76 76 76 114 114 114 114 114 114 114 114 114 114 114 114 114 114 114 114 114 114 114 114 114 114 114 114 114 114 114 114 114 114 114 114 114 114 76 76 76 76 40 40 40 40 40 40 40 40 40 40 40 40 40 40 40 40 40 40 76 76 76 76 76 76 114 114 114 114 114 114 114 114 114 114 114 114 114 114 114 114 114 114 114 114 114 114 114 114 114 114 114 114 114 114 114 114 114 114 114 114 114 114 114 76 76 40 40 40 40 40 40 40 40 40 40 40 40 40 40 40 40 40 40 40 40 40 40 40 40 40 40 40 40 40 40 40 40 40 40 40 40 40 40 40 40 40 40 40 40 40 40 40 40 40 40 40 40 40 40 40 40 40 40 40 40 40 40 40 40 40 40 40 40 40 40 
114 114 114 114 114 114 114 114 114 114 114 114 114 114 114 114 114 114 114 114 114 114 114 76 76 76 76 76 76 76 76 76 40 40 40 40 40 40 40 40 40 40 76 76 76 76 76 76 76 76 76 76 76 76 76 76 76 76 76 76 76 76 76 76 76 76 76 76 76 76 76 76 76 76 76 76 76 76 76 76 76 76 76 76 76 76 76 76 76 76 76 76 76 76 76 76 76 76 76 76 76 76 76 76 76 76 76 76 76 114 114 114 114 76 76 76 76 76 76 76 76 76 76 76 76 76 76 76 76 76 76 76 76 76 76 76 76 76 76 76 76 76 76 76 76 76 76 76 76 76 76 76 76 76 76 76 76 76 76 76 114 114 114 114 114 114 114 114 76 114 76 76 114 114 114 76 114 114 114 114 114 114 114 114 114 114 114 114 114 114 114 114 114 114 114 114 114 114 114 76 114 114 114 114 114 114 114 114 114 114 114 114 114 114 114 114 114 114 114 76 114 114 114 167 167 167 167 167 167 167 167 167 167 167 167 167 167 167 167 167 167 167 167 167 167 167 167 167 167 167 167 167 167 167 167 167 167 167 167 167 167 167 167 167 167 167 167 167 167 167 167 167 167 167 167 167 167 167 167 167 167 167 167 167 167 167 167 167 167 167 167 167 167 167 167 167 167 167 167 167 167 167 167 167 167 167 167 167 167 167 167 167 167 167 167 167 167 167 167 167 167 114 40 40 40 40 40 40 76 76 76 76 76 76 76 76 76 76 76 76 76 114 114 114 114 114 114 114 114 114 114 114 114 114 114 114 114 114 114 114 114 114 114 114 114 114 114 114 114 114 114 114 76 76 76 76 76 40 40 40 40 40 40 40 40 40 40 40 40 40 40 40 40 40 40 40 76 76 76 76 76 76 114 114 114 114 114 114 114 114 114 114 114 114 114 114 114 114 114 114 114 114 114 114 114 114 114 114 114 114 114 114 114 114 114 114 114 114 114 114 76 76 40 40 40 40 40 40 40 40 40 40 40 40 40 40 40 40 40 40 40 40 40 40 40 40 40 40 40 40 40 40 40 40 40 40 40 40 40 40 40 40 40 40 40 40 40 40 40 40 40 40 40 40 40 40 40 40 40 40 40 40 40 40 40 40 40 40 40 40 40 76 
114 114 114 114 114 114 114 114 114 114 114 114 114 114 114 114 114 114 114 114 114 114 76 76 76 76 76 76 76 40 40 40 40 40 40 40 40 40 40 76 76 76 76 76 76 76 76 76 76 76 76 76 76 76 40 76 76 76 76 76 76 76 76 76 76 76 76 76 76 76 76 76 76 76 76 76 76 76 76 76 76 76 76 76 76 76 76 76 76 76 76 76 76 76 76 76 114 76 76 76 76 76 76 76 76 76 76 76 76 114 114 76 114 76 76 76 76 76 76 76 76 76 76 76 76 76 76 76 76 76 76 76 76 76 76 76 76 76 76 76 76 76 76 76 76 76 76 76 76 76 76 76 76 114 114 114 76 76 114 114 114 114 114 76 114 114 76 76 114 114 114 114 114 114 114 114 114 114 114 114 114 114 114 114 114 114 114 114 114 114 114 114 114 114 114 114 114 76 114 114 114 114 76 114 114 114 114 114 114 114 114 114 76 76 114 114 114 76 76 114 114 167 167 167 167 167 167 167 167 167 167 167 167 167 167 167 167 167 167 167 167 167 167 167 167 167 167 167 167 167 167 167 167 167 167 167 167 167 167 167 167 167 167 167 167 167 167 167 167 167 167 167 167 167 167 167 167 167 167 167 167 167 167 167 167 167 167 167 167 167 167 167 167 167 167 167 167 167 167 167 167 167 167 167 167 167 167 167 167 167 167 167 167 167 167 167 167 167 167 167 167 167 76 40 40 40 40 40 40 40 40 40 76 76 76 76 76 76 76 114 76 114 114 114 114 114 114 114 114 114 114 114 114 114 114 114 114 114 114 114 114 114 114 114 114 114 114 114 114 114 114 76 76 76 76 76 76 76 40 40 40 40 40 40 40 40 40 40 40 40 40 40 40 40 40 40 40 76 76 76 76 76 76 114 114 114 114 114 114 114 114 114 114 114 114 114 114 114 114 114 114 114 114 114 114 114 114 114 114 114 114 114 114 114 114 114 114 114 114 76 76 40 40 40 40 40 40 40 40 40 40 40 40 40 40 40 40 40 40 40 40 40 40 40 40 40 40 40 40 40 40 40 40 40 40 40 40 40 40 40 40 40 40 40 40 40 40 40 40 40 40 40 40 40 40 40 40 40 40 40 40 40 40 40 40 40 40 40 40 40 76 76 
114 114 114 114 114 114 114 114 114 114 114 114 114 114 114 114 114 114 114 114 114 114 114 114 76 76 76 76 76 76 40 40 40 40 40 40 40 40 40 40 40 40 40 40 40 76 76 76 76 76 76 76 76 76 76 76 76 76 76 76 76 76 76 40 76 76 76 76 76 76 76 76 76 76 76 76 76 76 76 76 76 76 76 76 76 76 76 76 76 76 76 76 76 76 76 76 114 76 76 76 76 76 76 76 76 76 76 76 76 114 114 114 76 76 76 76 76 76 76 76 76 76 76 76 76 76 76 76 76 76 76 76 76 76 76 76 114 76 76 76 76 76 76 76 76 76 76 76 76 76 76 76 76 76 76 76 76 114 114 114 76 114 114 114 114 114 76 114 114 114 114 114 114 114 114 114 114 114 114 114 114 114 114 114 114 114 114 114 114 76 114 114 114 114 114 114 114 114 114 114 114 114 114 114 114 114 114 114 114 114 114 114 76 114 114 114 76 114 114 114 114 167 167 167 167 167 167 167 167 167 167 167 167 167 114 167 167 167 167 167 167 167 167 167 167 167 167 167 167 167 167 167 167 167 167 167 167 167 167 167 167 167 167 167 167 167 167 167 167 167 167 167 167 167 167 167 167 167 167 167 167 167 167 167 167 167 167 167 167 167 167 167 167 167 167 167 167 167 167 167 167 167 167 167 167 167 167 167 167 167 167 167 167 167 167 167 167 167 167 167 167 167 167 76 40 40 40 40 40 40 40 40 76 76 76 76 76 76 76 114 114 114 114 114 114 114 114 114 114 114 114 114 114 114 114 114 114 114 114 114 114 114 114 114 114 114 114 114 114 114 114 114 76 76 76 76 76 76 40 40 40 40 40 40 40 40 40 40 40 40 40 40 40 40 40 40 40 40 76 76 76 76 76 76 114 114 114 114 114 114 114 114 114 114 114 114 114 114 114 114 114 114 114 114 114 114 114 114 114 114 114 114 114 114 114 114 114 114 76 76 76 40 40 40 40 40 40 40 40 40 40 40 40 40 40 40 40 40 40 40 40 40 40 40 40 40 40 40 40 40 40 40 40 40 40 40 40 40 40 40 40 40 40 40 40 40 40 40 40 40 40 40 40 40 40 40 40 40 40 40 40 40 40 40 40 40 40 40 40 40 76 76 
114 114 114 114 114 114 114 114 114 114 114 114 114 114 114 114 114 114 114 114 114 114 114 114 76 76 76 76 76 76 40 40 40 40 40 40 40 40 40 76 40 76 76 76 76 76 76 76 76 76 76 76 76 76 76 76 76 76 76 76 76 76 76 40 76 76 76 76 76 76 76 76 76 76 76 76 76 76 76 76 76 76 76 76 76 76 76 76 76 76 76 76 76 76 76 76 76 76 76 76 76 76 76 76 76 76 76 76 114 114 114 76 76 76 76 76 76 76 76 76 76 76 76 76 76 76 76 76 76 76 76 76 76 76 76 76 76 114 114 76 76 76 76 76 76 76 76 76 76 76 76 76 76 76 76 114 114 114 114 76 114 114 76 76 76 76 76 114 114 114 114 114 114 114 114 114 114 114 114 114 114 114 114 114 114 114 114 114 114 76 114 114 114 114 114 114 114 114 114 114 114 114 114 114 114 114 114 114 114 114 114 76 76 114 76 76 114 114 167 167 114 167 167 167 167 167 167 167 167 167 167 167 167 167 167 167 167 167 167 167 167 167 167 167 167 167 167 167 167 167 167 167 167 167 167 167 167 167 167 167 167 167 167 167 167 167 167 167 167 167 167 167 167 167 167 167 167 167 167 167 167 167 167 167 167 167 167 167 167 167 167 167 167 167 167 167 167 167 167 167 167 167 167 167 167 167 167 167 167 167 167 167 167 167 167 167 167 167 167 167 167 167 167 114 40 40 40 40 40 40 40 76 76 76 76 76 76 76 76 76 114 114 114 114 114 114 114 114 114 114 114 114 114 114 114 114 114 114 114 114 114 114 114 114 114 114 114 114 114 114 114 114 114 76 76 76 76 76 40 40 40 40 40 40 40 40 40 40 40 40 40 40 40 40 40 40 40 40 40 76 76 76 76 76 76 114 114 114 114 114 114 114 114 114 114 114 114 114 114 114 114 114 114 114 114 114 114 114 114 114 114 114 114 114 114 114 114 114 76 40 40 40 40 40 40 40 40 40 40 40 40 40 40 40 40 40 40 40 40 40 40 40 40 40 40 40 40 40 40 40 40 40 40 40 40 40 40 40 40 40 40 40 40 40 40 40 40 40 40 40 40 40 40 40 40 40 40 40 40 40 40 40 40 40 40 40 40 40 76 76 76 114 
114 114 114 114 114 114 114 114 114 114 114 114 114 114 114 114 114 114 114 114 114 114 76 114 76 76 76 76 76 76 76 40 40 40 40 40 40 40 40 40 40 40 76 76 40 40 76 76 76 76 76 76 40 76 76 76 76 76 76 76 76 76 76 76 76 76 76 76 76 76 76 76 76 76 76 76 76 76 76 76 76 76 76 76 76 76 76 76 76 76 76 76 76 76 76 76 76 76 114 76 76 76 76 76 76 76 114 114 114 114 76 76 76 76 76 76 76 76 76 76 76 76 76 76 76 76 76 76 76 76 76 76 76 76 76 76 76 76 76 76 114 114 76 76 76 76 76 76 76 114 114 76 76 76 114 76 76 76 76 114 114 114 114 114 114 114 114 114 114 114 114 114 114 114 114 114 114 114 114 114 114 114 114 114 114 114 114 114 114 114 114 114 114 76 114 114 114 114 114 76 114 114 114 114 114 114 114 114 114 114 76 76 114 114 114 114 167 167 167 167 167 167 114 167 167 167 167 167 167 167 167 167 167 167 167 167 167 167 167 167 167 167 167 167 167 167 167 167 167 167 167 167 167 167 167 167 167 167 167 167 167 167 167 167 167 167 167 167 167 167 167 167 167 167 167 167 167 167 167 167 167 167 167 167 167 167 167 167 167 167 167 167 167 167 167 167 167 167 167 167 167 167 167 167 167 167 167 167 167 167 167 167 167 167 167 167 167 167 167 167 167 167 167 167 114 40 40 76 76 40 40 40 76 76 76 76 76 76 76 114 114 114 114 114 114 114 114 114 114 114 114 114 114 114 114 114 114 114 114 114 114 114 114 114 114 114 114 114 114 114 114 114 76 76 76 76 76 76 40 40 40 40 40 40 40 40 40 40 40 40 40 40 40 40 40 40 40 40 40 76 40 76 76 76 76 76 114 114 114 114 114 114 114 114 114 114 114 114 114 114 114 114 114 114 114 114 114 114 114 114 114 114 114 114 114 114 114 76 76 40 40 40 40 40 40 40 40 40 40 40 40 40 40 40 40 40 40 40 40 40 40 40 40 40 40 40 40 40 40 40 40 40 40 40 40 40 40 40 40 40 40 40 40 40 40 40 40 40 40 40 40 40 40 40 40 40 40 40 40 40 40 40 40 40 40 40 40 40 76 76 114 114 
114 114 114 114 114 114 114 114 114 114 114 114 114 114 114 114 114 114 114 114 114 114 114 114 76 76 76 76 76 76 40 40 40 40 40 40 40 40 76 76 40 40 76 40 40 40 40 40 40 76 76 76 76 76 76 76 76 76 76 76 76 76 76 76 76 76 76 76 76 76 76 76 76 76 76 76 76 76 76 76 76 76 76 76 76 76 76 76 76 76 76 76 76 76 76 76 76 76 76 76 76 76 76 76 114 76 114 167 114 114 76 76 76 76 76 76 76 76 76 76 76 76 76 76 76 76 76 76 76 76 76 76 76 76 76 76 76 76 76 76 76 76 76 76 76 76 76 76 76 76 76 76 76 76 76 76 76 114 114 114 76 76 114 114 114 114 76 114 114 114 114 114 114 114 114 114 114 114 114 114 114 114 114 114 114 114 114 76 114 114 114 114 114 76 114 114 76 76 114 76 114 76 76 76 114 114 114 76 76 76 114 76 76 114 167 167 167 167 114 167 114 167 114 167 167 167 167 167 167 167 167 167 167 167 167 167 167 167 167 167 167 167 167 167 167 167 167 167 167 114 167 167 167 167 167 167 167 167 167 167 167 167 167 167 167 167 167 167 167 167 167 167 167 167 167 167 167 167 167 167 167 167 167 167 167 167 167 167 167 167 167 167 167 167 167 167 167 167 167 167 167 167 167 167 167 167 167 167 167 167 167 167 167 167 167 167 167 167 167 167 167 167 167 167 167 76 40 40 40 40 40 76 40 40 76 76 76 76 76 76 76 114 114 114 114 114 114 114 114 114 114 114 114 114 114 114 114 114 114 114 114 114 114 114 114 114 114 114 114 114 114 114 114 76 76 76 76 76 76 40 40 40 40 40 40 40 40 40 40 40 40 40 40 40 40 40 40 40 40 40 76 76 76 76 76 76 76 76 114 114 114 114 114 114 114 114 114 114 114 114 114 114 114 114 114 114 114 114 114 114 114 114 114 114 114 114 76 76 40 40 40 40 40 40 40 40 40 40 40 40 40 40 40 40 40 40 40 40 40 40 40 40 40 40 40 40 40 40 40 40 40 40 40 40 40 40 40 40 40 40 40 40 40 40 40 40 40 40 40 40 40 40 40 40 40 40 40 40 40 40 40 40 40 40 40 40 40 76 76 114 114 114 
114 114 114 114 114 114 114 114 114 114 114 114 114 114 114 114 114 114 114 114 114 114 114 114 76 76 76 76 76 76 40 40 40 40 40 40 40 40 40 40 40 76 76 76 76 76 76 76 76 76 76 76 76 76 76 76 76 76 76 76 76 76 76 76 76 76 76 76 76 76 76 76 76 76 76 76 76 76 76 76 76 76 76 76 76 76 76 76 76 76 76 76 76 76 76 76 76 76 76 76 76 76 76 76 76 76 114 167 114 76 76 76 76 76 76 76 76 76 76 76 76 76 76 76 76 76 76 76 76 76 76 76 76 76 76 76 76 76 76 76 76 76 76 76 76 76 76 76 76 76 114 114 114 76 76 76 76 76 76 114 76 114 114 114 114 114 76 76 114 114 114 114 114 114 114 114 76 76 76 114 114 76 114 114 114 114 114 114 114 114 114 114 114 114 114 76 76 76 76 76 76 76 114 114 114 114 76 76 114 114 114 76 114 114 167 167 167 114 167 114 167 167 167 167 167 167 167 167 167 167 167 167 167 167 167 167 167 167 114 167 167 167 167 167 167 167 167 167 167 114 167 167 167 167 167 167 167 167 167 167 167 167 167 167 167 167 167 167 167 167 167 167 167 167 167 167 167 167 167 167 167 167 167 167 167 167 167 167 167 167 167 167 167 167 167 167 167 167 167 167 167 167 167 167 167 167 167 167 167 167 167 167 167 167 167 167 167 167 167 167 167 167 167 167 167 76 40 40 76 76 40 40 40 76 76 76 76 76 76 114 76 114 114 114 114 114 114 114 114 114 114 114 114 114 114 114 114 114 114 114 114 114 114 114 114 114 114 114 114 114 114 114 76 76 76 76 76 76 40 40 40 40 40 40 40 40 40 40 40 40 40 40 40 40 40 40 40 40 40 40 40 76 76 76 76 76 114 114 76 114 114 114 114 114 114 114 114 114 114 114 114 114 114 114 114 114 114 114 114 114 114 114 114 114 114 114 76 76 40 40 40 40 40 40 40 40 40 40 40 40 40 40 40 40 40 40 40 40 40 40 40 40 40 40 40 40 40 40 40 40 40 40 40 40 40 40 40 40 40 40 40 40 40 40 40 40 40 40 40 40 40 40 40 40 40 40 40 40 40 40 40 40 40 40 40 76 76 76 114 114 114 114 
114 114 114 114 114 114 114 114 114 114 114 114 114 114 114 114 114 114 114 114 114 114 114 114 76 76 76 76 76 76 40 40 40 40 40 40 40 40 40 40 40 76 76 76 76 76 76 76 76 76 76 76 76 76 76 76 76 76 76 76 76 76 76 76 76 76 76 76 76 76 76 76 76 76 76 76 76 76 76 76 76 76 76 76 76 76 76 76 76 76 76 76 76 76 76 76 76 76 76 76 76 76 76 76 76 76 167 114 114 114 76 76 76 76 76 76 76 76 76 76 76 76 76 76 76 76 76 76 76 76 76 76 76 76 76 76 76 76 76 76 76 76 76 76 76 76 76 76 76 76 76 76 76 76 76 76 76 76 76 76 114 114 114 114 76 76 114 114 114 114 114 114 114 114 114 76 76 76 114 114 114 114 114 114 114 114 114 114 114 114 114 114 114 114 76 76 114 114 76 76 76 114 114 114 114 76 76 114 114 114 114 114 114 114 167 167 167 167 114 167 167 167 167 114 114 167 167 167 114 167 167 167 114 167 167 167 167 167 167 167 167 167 167 167 167 167 167 167 167 167 167 167 167 167 167 167 167 167 167 167 167 167 167 167 167 167 167 167 167 167 167 167 167 167 167 167 167 167 167 167 167 167 167 167 167 167 167 167 167 167 167 167 167 167 167 167 167 167 167 167 167 167 167 167 167 167 167 167 167 167 167 167 167 167 167 167 167 167 167 167 167 167 167 167 167 167 76 76 76 76 40 40 40 40 76 76 76 76 76 76 76 114 114 114 114 114 114 114 114 114 114 114 114 114 114 114 114 114 114 114 114 114 114 114 114 114 114 114 114 114 114 114 114 76 76 76 76 76 76 40 40 40 40 40 40 40 40 40 40 40 40 40 40 40 40 40 40 40 40 40 40 40 40 76 76 76 76 76 114 114 76 114 114 114 114 114 114 114 114 114 114 114 114 114 114 114 114 114 114 114 114 114 114 114 114 76 76 40 40 40 40 40 40 40 40 40 40 40 40 40 40 40 40 40 40 40 40 40 40 40 40 40 40 40 40 40 40 40 40 40 40 40 40 40 40 40 40 40 40 40 40 40 40 40 40 40 40 40 40 40 40 40 40 40 40 40 40 40 40 40 40 40 40 40 40 76 76 114 114 114 114 114 
114 114 114 114 114 114 114 114 114 114 114 114 114 114 114 114 114 114 114 114 114 114 114 114 76 76 76 76 76 76 40 40 40 40 40 40 40 40 40 40 40 76 76 76 76 76 76 76 76 76 76 76 76 76 76 76 76 76 76 76 76 76 76 76 76 76 76 76 76 76 76 76 76 76 76 76 76 76 76 76 76 76 76 76 76 76 76 76 76 76 76 76 76 76 76 76 76 76 76 76 76 76 76 76 76 114 167 114 114 114 76 40 76 76 76 76 76 76 76 76 76 76 76 76 76 76 76 76 76 76 76 76 76 76 76 76 76 76 76 76 76 76 76 76 76 76 76 76 114 76 76 76 76 114 114 76 76 76 114 114 114 114 76 114 114 76 114 114 114 114 114 114 114 114 114 76 114 114 114 114 114 114 114 114 114 114 114 114 114 114 114 114 76 114 114 114 114 76 76 76 76 76 76 76 76 76 76 76 76 114 167 167 167 167 114 167 167 167 167 167 167 167 167 167 114 167 167 167 114 167 167 167 167 167 167 167 167 167 167 167 114 114 167 167 167 167 167 167 167 167 167 167 167 167 167 167 167 167 167 167 167 167 167 167 167 167 167 167 167 167 167 167 167 167 167 167 167 167 167 167 167 167 167 167 167 167 167 167 167 167 167 167 167 167 167 167 167 167 167 167 167 167 167 167 167 167 167 167 167 167 167 167 167 167 167 167 167 167 167 167 167 167 167 167 167 167 167 114 40 40 40 40 40 40 76 76 76 76 76 76 76 114 114 114 114 114 114 114 114 114 114 114 114 114 114 114 114 114 114 114 114 114 114 114 114 114 114 114 114 114 114 114 114 76 76 76 76 76 76 40 40 40 40 40 40 40 40 40 40 40 40 40 40 40 40 40 40 40 40 40 40 40 40 76 76 76 76 76 76 76 114 114 114 114 114 114 167 167 167 114 114 76 76 114 114 114 114 114 114 114 114 114 114 114 76 76 76 40 40 40 40 40 40 40 40 40 40 40 40 40 40 40 40 40 40 40 40 40 40 40 40 40 40 40 40 40 40 40 40 40 40 40 40 40 40 40 40 40 40 40 40 40 40 40 40 40 40 40 40 40 40 40 40 40 40 40 40 40 40 40 40 40 40 40 40 76 76 114 114 114 114 114 
114 114 114 114 114 114 114 114 114 114 114 114 114 114 114 114 114 114 114 114 114 114 114 76 76 76 76 76 76 76 40 40 40 40 40 40 40 40 40 40 40 40 40 76 40 76 76 76 76 76 76 76 76 76 76 76 76 76 76 76 76 76 76 76 76 76 76 76 76 76 76 76 76 76 76 76 76 76 76 76 76 76 76 76 76 76 76 76 76 76 76 76 76 76 76 76 76 76 76 76 76 76 76 76 114 167 167 167 114 114 76 76 76 76 76 76 76 76 76 76 76 76 76 76 76 76 76 76 76 76 76 76 76 76 76 76 76 76 76 76 76 76 76 76 76 76 76 114 114 76 76 114 76 76 76 76 76 76 76 114 76 76 76 114 114 114 114 114 114 114 114 114 76 76 76 114 114 114 114 114 114 114 114 114 114 114 114 114 114 114 114 114 76 114 114 114 114 76 76 76 114 76 76 76 76 76 76 76 114 114 114 114 167 167 167 114 167 167 167 167 167 167 167 167 114 167 167 167 167 167 167 167 167 167 167 167 167 167 167 167 167 114 167 167 167 167 167 167 167 167 167 167 167 167 167 167 167 167 167 167 167 167 167 167 167 167 167 167 167 167 167 167 167 167 167 167 167 167 167 167 167 167 167 167 167 167 167 167 167 167 167 167 167 167 167 167 167 167 167 167 167 167 167 167 167 167 167 167 167 167 167 167 167 167 167 167 167 167 167 167 167 167 167 167 167 167 167 167 76 40 40 40 40 76 76 40 76 76 76 114 76 114 114 114 114 114 114 114 114 114 114 114 114 114 114 114 114 114 114 114 114 114 114 114 114 114 114 114 114 114 114 114 114 76 76 76 76 76 40 40 40 40 40 40 40 40 40 40 40 40 40 40 40 40 40 40 40 40 40 40 40 40 40 40 40 76 76 76 76 114 114 167 167 167 167 167 167 167 167 167 167 114 114 114 114 114 167 167 114 114 114 114 114 114 76 76 40 40 40 40 40 40 40 40 40 40 40 40 40 40 40 40 40 40 40 40 40 40 40 40 40 40 40 40 40 40 40 40 40 40 40 40 40 40 40 40 40 40 40 76 40 40 40 40 40 40 40 40 40 40 40 40 40 40 40 40 40 40 40 40 40 40 40 40 76 76 76 114 114 114 114 114 
114 114 114 114 114 114 114 114 114 114 114 114 114 114 114 114 114 114 114 114 114 114 114 76 76 76 76 76 76 76 40 40 40 40 40 40 40 40 40 40 40 40 40 40 40 76 40 76 76 76 76 76 76 76 76 76 76 76 76 76 76 76 76 76 76 76 76 76 76 76 76 76 76 76 76 76 76 76 76 76 76 76 76 76 76 76 76 76 76 76 76 76 76 76 76 76 76 76 76 76 76 76 76 76 114 167 167 167 114 76 76 76 76 76 76 76 76 76 76 76 76 76 76 76 76 76 76 76 76 76 76 76 76 76 76 76 76 76 76 76 76 76 76 76 76 76 76 76 76 76 76 76 76 76 114 114 114 114 76 76 114 114 114 114 114 114 114 114 114 114 76 76 76 114 114 114 114 114 76 76 114 114 114 114 114 114 114 114 114 114 114 114 114 114 76 76 114 114 114 114 76 76 76 76 76 76 114 114 167 167 114 114 167 167 167 167 167 167 167 167 167 167 167 167 167 167 167 167 167 167 167 167 167 167 167 167 167 167 114 167 167 167 167 167 167 167 167 167 167 167 167 167 167 167 167 167 167 167 167 167 167 167 167 167 167 167 167 167 167 167 167 167 167 167 167 167 167 167 167 167 167 167 167 167 167 167 167 167 167 167 167 167 167 167 167 167 167 167 167 167 167 167 167 167 167 167 167 167 167 167 167 167 167 167 167 167 167 167 167 167 167 167 167 167 167 167 167 167 114 76 40 40 40 40 76 76 76 76 76 76 76 114 114 114 114 114 114 114 114 114 114 114 114 114 114 114 114 114 114 114 114 114 114 114 114 114 114 114 114 114 114 114 76 76 76 76 76 76 76 40 40 40 40 40 40 40 40 40 40 40 40 40 40 40 40 40 40 40 40 40 40 40 40 40 76 76 76 76 114 114 167 167 167 167 167 167 167 167 167 167 167 167 167 114 167 167 167 167 167 114 114 76 114 76 76 40 40 40 40 40 40 40 40 40 40 40 40 40 40 40 40 40 40 40 40 40 40 40 40 40 40 40 40 40 40 40 40 40 40 40 40 40 40 40 40 40 40 40 40 76 40 40 40 40 40 40 40 40 40 40 40 40 40 40 40 40 40 40 40 40 40 40 40 76 76 114 114 114 114 114 114 114 
114 114 114 114 114 114 114 114 114 114 114 114 114 114 114 114 114 114 114 114 114 114 114 76 76 76 76 76 76 76 40 40 40 40 40 40 40 40 40 40 40 76 40 76 76 76 76 76 76 76 76 76 76 76 76 76 76 76 76 76 76 76 76 76 76 76 76 76 76 76 76 76 76 76 76 76 76 76 76 76 76 76 76 76 76 76 76 76 76 76 76 76 76 76 76 76 76 76 76 76 76 76 76 76 167 167 167 114 114 76 76 76 76 76 76 76 76 76 76 76 76 76 76 76 76 76 76 76 76 76 76 76 76 76 76 114 76 76 76 76 114 114 76 114 76 76 76 76 76 76 114 76 76 114 76 76 76 76 76 76 114 114 114 114 114 114 114 114 114 114 76 114 114 114 114 76 76 76 114 114 114 114 114 76 114 114 114 114 114 114 114 114 114 114 114 114 114 76 76 76 76 76 76 76 114 114 114 167 114 167 167 114 114 167 167 167 167 167 167 167 167 114 167 114 167 167 167 167 114 167 167 167 167 167 167 167 167 167 114 114 167 167 167 167 167 167 167 167 167 167 167 167 167 167 167 167 167 167 167 167 167 167 167 167 167 167 167 167 167 167 167 167 167 167 167 167 167 167 167 167 167 167 167 167 167 167 167 167 167 167 167 167 167 167 167 167 167 167 167 167 167 167 167 167 167 167 167 167 167 167 167 167 167 167 167 167 167 167 167 167 167 167 167 167 167 167 167 167 167 114 40 40 40 40 40 76 76 76 76 76 76 114 114 114 114 114 114 114 114 114 114 114 114 114 114 114 114 114 114 114 114 114 114 114 114 114 114 114 114 114 114 76 76 76 76 76 76 76 40 40 40 40 40 40 40 40 40 40 40 40 40 40 40 40 40 40 40 40 40 40 40 40 40 76 40 40 76 114 167 167 167 167 167 167 167 167 167 167 167 167 167 167 167 167 167 167 167 167 167 167 167 114 76 76 40 40 40 40 40 40 40 40 40 40 40 40 40 40 40 40 40 40 40 40 40 40 40 40 40 40 40 40 40 40 40 40 40 40 40 40 40 40 40 40 40 40 40 40 40 40 40 40 40 40 40 40 40 40 40 40 40 40 40 40 40 40 40 40 40 40 40 40 40 76 76 114 114 114 114 114 114 114 
114 114 114 114 114 114 114 114 114 114 114 114 114 114 114 114 114 114 114 114 114 114 114 76 76 76 76 76 76 76 40 40 40 40 40 40 40 40 40 40 40 40 40 40 40 76 76 76 76 76 76 76 76 76 76 76 76 76 76 76 76 76 40 76 76 76 76 76 76 76 76 76 76 76 76 76 76 76 76 76 76 76 76 76 76 76 76 76 76 76 76 76 76 76 76 76 76 76 76 76 76 76 76 114 167 167 167 114 114 76 76 76 76 76 76 76 76 76 76 76 76 76 76 76 76 76 76 76 76 76 76 76 76 76 76 76 76 76 76 76 76 76 76 76 76 76 76 76 76 76 76 76 76 114 76 76 76 76 76 114 114 114 114 114 114 114 114 114 114 76 114 114 114 114 76 76 76 114 114 114 114 114 114 114 114 114 114 114 114 114 114 114 76 76 76 114 114 76 76 76 76 76 76 114 167 167 167 167 167 167 167 167 167 167 167 167 167 114 167 167 167 167 167 167 167 167 167 167 167 167 167 167 167 114 167 167 114 114 167 167 167 167 167 167 167 167 167 167 167 167 167 167 167 167 167 167 167 167 167 167 167 167 167 167 167 167 167 167 167 167 167 167 167 167 167 167 167 167 167 167 167 167 167 167 167 167 167 167 167 167 167 167 167 167 167 167 167 167 167 167 167 167 167 167 167 167 167 167 167 167 167 167 167 167 167 167 167 167 167 167 167 167 167 167 167 167 167 167 167 114 40 40 40 40 40 40 76 76 76 76 76 114 114 114 114 114 114 114 114 114 114 114 114 114 114 114 114 114 114 114 114 114 114 114 114 114 114 114 114 114 114 114 76 76 76 76 76 76 40 40 40 40 40 40 40 40 40 40 40 40 40 40 40 40 40 40 40 40 40 40 40 40 40 40 40 76 167 167 167 167 167 167 167 167 167 167 167 167 167 167 167 167 167 167 167 167 167 167 167 167 167 167 76 40 40 40 40 40 40 40 40 40 40 40 40 40 40 40 40 40 40 40 40 40 40 40 40 40 40 40 40 40 40 40 40 40 40 40 40 40 40 40 40 40 40 40 40 40 40 40 40 40 40 40 40 40 40 40 40 40 40 40 40 40 40 40 40 40 40 40 40 76 76 114 114 114 114 114 114 114 114 114 
114 114 114 114 114 114 114 114 114 114 114 114 114 114 114 114 114 114 114 114 114 114 114 114 76 76 76 76 76 76 76 40 40 40 40 40 76 40 40 40 40 40 40 76 76 40 76 76 76 76 76 76 76 76 76 76 76 76 76 76 76 76 76 76 76 76 76 76 76 76 76 76 76 76 76 76 76 76 76 76 76 76 76 76 76 76 76 76 76 76 76 76 76 76 76 76 76 76 76 76 76 76 76 167 167 167 114 114 76 76 76 76 76 76 76 76 76 76 76 76 76 76 76 76 76 76 76 76 76 76 76 76 76 76 76 76 76 76 76 76 76 76 76 76 76 114 114 76 76 114 114 114 114 76 114 114 114 114 114 114 114 114 114 114 114 114 76 114 76 114 114 114 114 114 114 114 114 114 114 114 114 114 114 114 114 114 114 114 114 114 114 76 76 76 114 76 76 76 76 76 76 76 114 114 114 167 167 114 114 167 114 167 167 167 167 167 167 167 114 167 167 167 167 167 167 167 167 167 167 167 167 167 167 114 114 167 167 167 167 167 167 167 167 167 167 167 167 167 167 167 167 167 167 167 167 167 167 167 167 167 167 167 167 167 167 167 167 167 167 167 167 167 167 167 167 167 167 167 167 167 167 167 167 167 167 167 167 167 167 167 167 167 167 167 167 167 167 167 167 167 167 167 167 167 167 167 167 167 167 167 167 167 167 167 167 167 167 167 167 167 167 167 167 167 167 167 167 167 167 167 76 40 40 40 40 76 76 76 76 76 114 114 114 114 114 114 114 114 114 114 114 114 114 114 114 114 114 114 114 114 114 114 114 114 114 114 114 114 114 114 114 114 114 76 76 76 76 76 76 40 40 40 40 40 40 40 40 40 40 40 40 40 40 40 40 40 40 40 40 40 40 40 40 40 114 167 167 167 167 167 167 167 167 167 167 167 167 167 167 167 167 167 167 167 167 167 167 167 167 167 167 167 114 40 40 40 40 40 40 40 40 40 40 40 40 40 40 40 40 40 40 40 40 40 40 40 40 40 40 40 40 40 40 40 40 40 40 40 40 40 40 40 40 40 40 40 40 40 40 40 40 40 40 40 40 40 40 40 40 40 40 40 40 40 40 40 40 40 40 40 76 76 76 114 114 114 114 114 114 114 114 76 
114 114 114 114 114 114 114 114 114 114 114 114 114 114 114 114 114 114 114 114 114 114 114 114 76 76 76 76 76 76 40 40 40 40 40 40 40 40 40 40 40 76 40 76 76 76 76 76 76 40 40 76 76 76 40 76 76 76 76 76 76 76 76 76 76 76 76 76 76 76 76 76 76 76 76 76 76 76 76 76 76 76 76 76 76 76 76 76 76 76 76 76 76 76 76 76 76 76 76 76 76 76 114 167 167 167 114 114 76 76 76 76 76 76 76 76 76 76 76 76 76 76 76 76 76 76 76 76 76 76 76 76 76 76 76 76 76 76 76 76 76 76 76 114 114 76 76 76 114 114 76 76 76 76 114 114 76 114 76 114 114 114 76 76 76 76 114 114 114 114 114 76 114 76 114 114 114 114 76 76 114 114 114 114 114 114 114 76 76 76 76 114 114 114 114 76 76 76 76 114 114 114 114 114 114 114 167 167 167 167 167 167 167 167 114 114 167 167 114 114 167 167 167 167 167 167 167 167 167 167 114 114 114 114 114 114 167 167 167 167 167 167 167 167 167 167 167 167 167 167 167 167 167 167 167 167 167 167 167 167 167 167 167 167 167 167 167 167 167 167 167 167 167 167 167 167 167 167 167 167 167 167 167 167 167 167 167 167 167 167 167 167 167 167 167 167 167 167 167 167 167 167 167 167 167 167 167 167 167 167 167 167 167 167 167 167 167 167 167 167 167 167 167 167 167 167 167 167 167 167 114 40 40 40 40 76 76 76 76 76 114 114 114 114 114 114 114 114 114 114 114 114 114 114 114 114 114 114 114 114 114 114 114 114 114 114 114 114 114 114 114 114 76 76 76 76 76 76 76 40 40 40 40 40 40 40 40 40 40 40 40 40 40 40 40 40 40 40 40 40 40 40 40 114 167 167 167 167 167 167 167 167 167 167 167 167 167 167 167 167 167 167 167 167 167 167 167 167 167 167 167 167 167 76 40 40 40 40 40 40 40 40 40 40 40 40 40 40 40 40 40 40 40 40 40 40 40 40 40 40 40 40 40 40 40 40 40 40 40 40 40 40 40 40 40 40 40 40 40 40 40 40 40 40 40 40 40 40 40 40 40 40 40 40 40 40 40 40 40 40 76 76 114 114 114 114 114 114 114 114 114 114 
114 114 114 114 114 114 114 114 114 114 114 114 114 114 114 114 114 114 114 114 114 114 114 114 76 76 76 76 76 76 76 40 40 40 40 40 40 40 40 40 76 76 76 76 76 76 76 76 76 76 76 76 76 76 76 76 76 76 76 76 76 76 76 76 76 76 76 76 76 76 76 76 76 76 76 76 76 76 76 76 76 76 76 76 76 76 76 76 76 76 76 76 76 76 76 76 76 76 76 76 76 76 114 167 167 167 114 114 114 76 76 76 76 76 76 76 76 76 76 76 76 76 76 76 76 76 76 76 76 76 76 76 76 76 76 76 76 76 76 76 76 76 76 76 76 76 76 114 114 114 76 76 76 114 114 114 76 114 76 114 114 114 76 76 114 114 114 114 114 114 114 114 114 114 114 114 114 114 114 114 114 114 114 114 114 114 76 76 76 76 76 114 114 114 76 76 76 76 114 114 114 167 167 114 114 114 167 167 167 167 167 167 167 167 167 114 114 167 167 167 114 167 167 167 167 167 167 167 167 114 114 114 114 167 167 114 167 167 167 167 167 167 167 167 167 167 167 167 167 167 167 167 167 167 167 167 167 167 167 167 167 167 167 167 167 167 167 167 167 167 167 167 167 167 167 167 167 167 167 167 167 167 167 167 167 167 167 167 167 167 167 167 167 167 167 167 167 167 167 167 167 167 167 167 167 167 167 167 167 167 167 167 167 167 167 167 167 167 167 167 167 167 167 167 167 167 167 167 167 167 167 76 40 40 40 40 76 76 76 76 76 114 114 114 114 114 114 114 114 114 114 114 114 114 114 114 114 114 114 114 114 114 114 114 114 114 114 114 114 114 114 114 76 76 76 76 76 76 76 40 40 40 40 40 40 40 40 40 40 40 40 40 40 40 40 40 40 40 40 40 40 40 167 167 167 167 167 167 167 167 167 167 167 167 167 167 167 167 167 167 167 167 167 167 167 167 167 167 167 167 167 167 167 114 40 40 40 40 40 40 40 40 40 40 40 40 40 40 40 40 40 40 40 40 40 40 40 40 40 40 40 40 40 40 40 40 40 40 40 40 40 40 40 40 40 40 40 40 40 40 40 40 40 40 40 40 40 40 40 40 40 40 40 40 40 40 40 40 40 76 76 114 114 114 114 114 114 114 114 114 114 114 
114 114 114 114 114 114 114 114 114 114 114 114 114 114 114 114 114 114 114 114 114 114 114 114 76 76 76 76 76 76 76 76 40 40 40 40 40 40 40 40 40 40 40 76 76 76 76 40 76 76 76 76 76 76 76 76 76 76 76 76 76 76 76 76 76 76 76 76 76 76 76 76 76 76 76 76 76 76 76 76 76 76 76 76 76 76 76 76 76 76 76 76 76 76 76 76 76 76 76 76 76 76 167 167 167 167 114 114 76 76 76 76 76 76 76 76 76 76 76 76 76 76 76 76 76 76 76 76 76 76 76 76 76 76 76 76 76 76 76 76 76 76 76 76 76 76 114 76 76 114 76 114 114 114 114 76 114 114 114 114 114 114 76 114 114 114 114 114 114 114 114 114 114 76 76 76 114 114 114 114 114 114 114 114 114 76 76 76 76 76 76 114 76 76 76 76 76 114 114 167 167 167 167 167 114 114 114 167 167 167 114 167 167 167 167 114 114 114 114 167 114 114 167 167 167 167 167 114 167 167 167 167 167 167 167 167 114 167 167 167 167 167 167 167 167 167 167 167 167 167 167 167 167 167 167 167 167 167 167 167 167 167 167 167 167 167 167 167 167 167 167 167 167 167 167 167 167 167 167 167 167 167 167 167 167 167 167 167 167 167 167 167 167 167 167 167 167 167 167 167 167 167 167 167 167 167 167 167 167 167 167 167 167 167 167 167 167 167 167 167 167 167 167 167 167 167 167 167 167 167 167 114 40 40 40 40 40 76 76 76 76 114 114 114 114 114 114 114 114 114 114 114 114 114 114 114 114 114 114 114 114 114 114 114 114 114 114 114 114 114 114 114 114 76 76 76 76 76 76 40 40 40 40 40 40 40 40 40 40 40 40 40 40 40 40 40 40 40 40 40 76 167 167 167 167 167 167 167 167 167 167 167 167 167 167 167 167 167 167 167 167 167 167 167 167 167 167 167 167 167 167 167 167 167 40 40 40 40 40 40 40 40 40 40 40 40 40 40 40 40 40 40 40 40 40 40 40 40 40 40 40 40 40 40 40 40 40 40 40 40 40 40 40 40 40 40 40 40 40 40 40 40 40 40 40 40 40 40 40 40 40 40 40 40 40 40 40 40 76 76 114 114 114 114 114 114 114 114 114 114 114 114 
114 114 114 114 114 114 114 114 114 114 114 114 114 114 114 114 114 114 114 114 114 114 114 114 76 76 76 76 76 76 40 40 40 40 40 40 40 40 40 40 40 40 40 76 76 40 76 40 76 76 76 76 76 76 76 76 76 76 76 76 76 76 76 76 76 76 76 76 76 76 76 76 76 76 76 76 76 76 76 76 76 76 76 76 76 76 76 76 76 76 76 76 76 76 76 76 76 76 76 76 76 114 167 167 167 114 114 114 76 76 76 76 76 76 76 76 76 76 76 76 76 76 76 76 76 76 76 76 76 76 76 76 76 76 76 114 76 76 76 76 76 76 76 76 114 76 76 76 76 114 114 114 114 76 76 114 114 114 114 114 114 114 114 114 76 76 76 114 114 114 114 114 76 76 76 114 114 114 114 114 114 114 114 76 76 76 76 76 114 114 76 76 76 76 76 114 114 114 114 114 167 114 114 167 167 114 114 167 167 167 167 167 167 167 167 167 167 114 114 114 167 167 167 167 167 167 114 114 114 167 167 167 167 167 167 167 167 114 167 167 167 167 167 167 167 167 167 167 167 167 167 167 167 167 167 167 167 167 167 167 167 167 167 167 167 167 167 167 167 167 167 167 167 167 167 167 167 167 167 167 167 167 167 167 167 167 167 167 167 167 167 167 167 167 167 167 167 167 167 167 167 167 167 167 167 167 167 167 167 167 167 167 167 167 167 167 167 167 167 167 167 167 167 167 167 167 167 167 167 167 167 114 76 40 40 76 76 76 76 76 76 76 114 114 114 114 114 114 114 114 114 114 114 114 114 114 114 114 114 114 114 114 114 114 114 114 114 114 114 114 114 114 114 76 76 76 76 76 76 40 40 40 40 40 40 40 40 40 40 40 40 40 40 40 40 40 40 40 40 114 167 167 167 167 167 167 167 114 114 167 167 167 167 167 167 167 167 167 167 167 167 167 167 167 167 167 167 167 167 167 167 167 167 167 76 40 40 40 40 40 40 40 40 40 40 40 40 40 40 40 40 40 40 40 40 40 40 40 40 40 40 40 40 40 40 40 40 40 40 40 40 40 40 40 40 40 40 40 40 40 40 40 40 40 40 40 40 40 40 40 40 40 40 40 40 40 40 40 76 76 114 114 114 114 114 114 114 114 114 114 114 76 
114 114 114 114 114 114 114 114 114 114 114 114 114 114 114 114 114 114 114 114 114 114 114 114 76 76 76 76 76 76 40 40 40 40 40 40 40 40 40 40 40 40 40 40 76 40 76 40 76 76 76 76 76 76 76 76 76 76 76 76 76 76 76 76 76 76 76 76 76 76 76 76 76 76 76 76 76 76 76 76 76 76 76 76 76 76 76 76 76 76 76 76 76 76 76 76 76 76 76 76 76 167 167 167 167 114 114 114 76 76 76 76 76 76 76 76 76 76 76 76 76 76 76 76 76 76 76 76 114 76 76 76 76 76 76 76 76 76 76 76 76 76 114 76 76 76 76 76 114 114 76 114 114 76 114 114 76 76 114 114 114 114 114 114 76 114 114 114 114 114 114 76 76 114 114 114 114 114 114 114 114 114 76 76 76 76 76 114 76 76 76 76 76 76 76 114 114 167 114 114 167 114 167 167 167 167 114 167 167 167 167 114 114 114 114 167 167 167 167 114 114 167 167 114 114 167 167 167 167 167 167 167 167 167 114 167 167 167 114 167 167 167 167 167 167 167 167 167 167 167 167 167 167 167 167 167 167 167 167 167 167 167 167 167 167 167 167 167 167 167 167 167 167 167 167 167 167 167 167 167 167 167 167 167 167 167 167 167 167 167 167 167 167 167 167 167 167 167 167 167 167 167 167 167 167 167 167 167 167 167 167 167 167 167 167 167 167 167 167 167 167 167 167 167 167 167 167 167 167 167 167 167 114 40 40 40 76 76 76 76 76 76 114 114 114 114 114 114 114 114 114 114 114 114 114 114 114 114 114 114 114 114 114 114 114 114 114 114 114 114 114 114 114 76 76 76 76 76 40 40 40 40 40 40 40 40 40 40 40 40 40 40 40 40 40 40 40 76 167 167 167 167 167 167 167 167 114 114 114 167 167 167 167 167 167 167 167 167 167 167 167 167 167 167 167 167 167 167 167 167 167 167 167 167 114 40 40 40 40 40 40 40 40 40 40 40 40 40 40 40 40 40 40 40 40 40 40 40 40 40 40 40 40 40 40 40 40 40 40 40 40 40 40 40 40 40 40 40 40 40 40 40 40 40 40 40 40 40 40 40 40 40 40 40 40 40 40 76 76 114 114 114 114 114 114 114 114 114 114 76 114 114 
114 114 114 114 114 114 114 114 114 114 114 114 114 114 114 114 114 114 114 114 114 114 114 114 76 76 76 76 76 76 40 40 40 40 40 40 40 40 40 76 40 40 40 40 76 40 76 76 76 40 76 76 76 76 40 76 76 76 76 76 76 76 76 76 76 76 76 76 76 76 76 76 76 76 76 76 76 76 76 76 76 76 76 76 76 76 76 76 76 76 76 76 76 76 76 76 76 76 76 76 76 167 167 167 167 114 114 114 76 76 76 76 76 76 76 76 76 76 76 76 76 76 76 76 76 76 76 76 76 76 76 76 76 76 76 76 114 114 76 76 76 114 114 76 76 76 114 114 114 76 76 76 114 114 114 114 114 114 114 114 114 114 76 76 114 114 114 76 114 76 76 76 114 114 114 114 114 114 114 114 114 114 76 76 76 76 76 76 76 76 76 76 76 114 114 114 167 114 114 114 114 167 167 167 167 167 114 167 167 167 114 167 114 114 167 167 114 167 167 167 167 114 114 114 114 114 167 167 167 167 167 167 167 167 167 167 167 167 167 167 114 167 167 167 167 167 167 167 167 167 167 167 167 167 167 167 167 167 167 167 167 167 167 167 167 167 167 167 167 167 167 167 167 167 167 167 167 167 167 167 167 167 167 167 167 167 167 167 167 167 167 167 167 167 167 167 167 167 167 167 167 167 167 167 167 167 167 167 167 167 167 167 167 167 167 167 167 167 167 167 167 167 167 167 167 167 167 167 167 167 167 167 167 76 40 40 76 76 76 76 76 76 114 114 114 114 114 114 114 114 114 114 114 114 114 114 114 114 114 114 114 114 114 114 114 114 114 114 114 114 114 114 114 76 76 76 76 76 40 40 40 40 40 40 40 40 40 40 40 40 40 40 40 40 40 40 76 167 167 167 167 167 167 167 167 114 114 114 167 167 167 167 167 167 167 167 167 167 167 167 167 167 167 167 167 167 167 167 167 167 167 167 167 167 167 40 40 40 40 40 40 40 40 40 40 40 40 40 40 40 40 40 40 40 40 40 40 40 40 40 40 40 40 40 40 40 40 40 40 40 40 40 40 40 40 40 40 40 40 40 40 40 40 40 40 40 40 40 40 40 40 40 40 40 40 40 76 76 114 114 114 114 114 114 114 114 114 114 114 76 114 114 
114 114 114 114 114 114 114 114 114 114 114 114 114 114 114 114 114 114 114 114 114 114 114 114 114 76 76 76 76 40 40 76 40 40 40 40 40 40 40 40 40 40 40 40 76 40 76 40 76 76 76 76 76 76 76 76 76 76 76 76 76 76 76 76 76 76 76 76 76 76 76 76 76 76 76 76 76 76 76 76 76 76 76 76 76 76 76 76 76 76 76 76 76 76 76 76 76 76 76 76 114 167 167 167 167 114 114 76 76 76 76 76 76 76 76 76 76 76 76 76 76 76 76 76 76 76 76 76 76 76 76 76 76 76 76 76 76 76 76 76 76 76 76 76 114 76 76 76 76 76 76 114 76 114 76 76 76 114 114 76 76 114 114 114 114 114 76 76 76 76 114 114 114 114 114 114 114 114 114 114 114 114 76 114 114 76 76 76 76 76 76 114 114 114 167 167 114 167 114 167 114 167 167 167 167 167 114 114 114 167 167 114 167 167 114 167 114 167 167 167 167 114 114 114 114 114 167 167 167 167 167 167 167 167 167 114 167 167 167 167 167 167 167 167 167 167 167 167 167 167 167 167 167 167 167 167 167 167 167 167 167 167 167 167 167 167 167 167 167 167 167 167 167 167 167 167 167 167 167 167 167 167 167 167 167 167 167 167 167 167 167 167 167 167 167 167 167 167 167 167 167 167 167 167 167 167 167 167 167 167 167 167 167 167 167 167 167 167 167 167 167 167 167 167 167 167 167 167 167 167 167 167 167 114 40 40 40 76 76 76 76 76 114 114 114 114 114 114 114 114 114 114 114 114 114 114 114 114 114 114 114 114 114 114 114 114 114 114 114 114 114 114 114 76 76 76 76 76 40 40 40 40 40 40 40 40 40 40 40 40 40 40 40 40 40 114 167 167 167 167 167 167 167 114 114 114 167 167 167 167 167 167 167 167 167 167 167 167 167 167 167 167 167 167 167 167 167 167 167 167 167 167 167 167 167 76 40 40 40 40 40 40 40 40 40 40 40 40 40 40 40 40 40 40 40 40 40 40 40 40 40 40 40 40 40 40 40 40 40 40 40 40 40 40 40 40 40 40 40 40 40 40 40 40 40 40 40 40 40 40 40 40 40 40 40 40 76 76 114 114 114 114 114 114 114 114 114 114 114 114 114 114 
114 114 114 114 114 114 114 114 114 114 114 114 114 114 114 114 114 114 114 114 114 114 114 114 76 76 76 76 76 40 40 40 40 40 40 40 40 40 40 40 40 40 40 40 40 76 40 76 76 76 76 40 76 76 76 76 76 76 76 76 76 76 76 76 76 40 76 76 76 76 76 76 76 76 76 76 76 76 76 76 76 76 76 76 76 76 76 76 76 76 76 76 76 76 76 76 76 76 76 76 167 167 167 167 114 114 114 114 76 76 76 76 76 76 76 76 76 76 76 76 76 76 76 76 76 76 76 76 76 76 76 76 76 76 76 76 76 76 114 114 76 76 76 76 114 76 76 76 114 114 114 76 114 114 114 114 114 114 76 76 76 76 76 114 114 76 76 76 76 114 114 114 76 76 114 114 76 114 114 76 76 114 114 76 76 76 76 76 76 76 76 114 114 114 167 167 114 114 167 167 167 167 167 167 114 114 114 114 114 114 167 167 114 167 167 167 167 167 114 114 114 114 114 167 167 167 114 167 167 167 167 114 167 167 167 167 167 167 167 167 167 167 114 167 167 167 167 167 167 167 167 167 167 167 167 167 167 167 167 167 167 167 167 167 167 167 114 167 167 167 167 167 167 167 167 167 167 167 167 167 167 167 167 167 167 167 167 167 167 167 167 167 167 167 167 167 167 167 167 167 167 167 167 167 167 167 167 167 167 167 167 167 167 167 167 167 167 167 167 167 167 167 167 167 167 167 167 167 167 167 167 167 167 167 114 40 40 40 76 76 76 76 114 114 114 114 114 114 114 114 114 114 114 114 114 114 114 114 114 114 114 114 114 114 114 114 114 114 114 114 114 76 76 76 76 76 76 76 76 40 40 40 40 40 40 40 40 40 40 40 40 40 40 76 167 167 167 167 167 167 167 167 114 114 114 167 167 167 167 167 167 167 167 167 167 167 167 167 167 167 167 167 167 167 167 167 167 167 167 167 167 167 167 167 167 114 40 40 40 40 40 40 40 40 40 40 40 40 40 40 40 40 40 40 40 40 40 40 40 40 40 40 40 40 40 40 40 40 40 40 40 40 40 40 40 40 40 40 40 40 40 40 40 40 40 40 40 40 40 40 40 40 40 40 40 76 76 114 114 114 114 114 114 114 114 114 114 114 114 114 114 114 
114 114 114 114 114 114 114 114 114 114 114 114 114 114 114 114 114 114 114 114 114 114 114 114 76 76 76 76 76 40 40 40 40 40 40 40 40 40 40 40 76 40 40 40 76 76 76 76 40 76 76 40 76 76 76 76 76 76 76 76 76 76 76 76 76 76 76 76 76 76 76 76 76 76 76 76 76 76 76 76 76 76 76 76 76 76 76 76 76 76 76 76 76 76 76 76 76 76 76 76 167 167 167 167 114 114 114 114 76 76 76 76 76 76 76 76 76 76 76 76 76 76 76 76 76 76 76 76 76 76 76 76 76 76 76 76 114 76 76 76 76 76 114 114 76 76 76 76 114 114 114 76 114 114 114 76 76 76 76 114 76 76 76 76 76 76 76 76 114 114 114 114 114 114 114 114 76 76 76 76 76 76 76 76 76 76 76 76 76 114 114 114 114 167 114 114 167 114 167 167 167 167 167 114 167 114 114 114 114 114 114 114 167 167 167 167 167 114 114 167 114 114 114 167 167 167 167 114 167 167 167 167 167 167 167 167 167 167 167 167 167 167 167 167 167 167 167 167 167 167 167 167 167 167 167 167 167 167 167 167 167 167 167 167 167 167 167 167 167 167 167 167 167 167 167 167 167 167 167 167 167 167 167 167 167 167 167 167 167 167 167 167 167 167 167 167 167 167 167 167 167 167 167 167 167 167 167 167 167 167 167 167 167 167 167 167 167 167 167 167 167 167 167 167 167 167 167 167 167 167 167 167 167 167 167 76 76 76 76 76 76 76 76 114 114 114 114 114 114 114 114 114 114 114 114 114 114 114 114 114 114 114 114 114 114 114 114 114 114 114 114 114 114 76 76 76 76 76 40 40 40 40 40 40 40 40 40 40 40 40 40 40 114 167 167 167 167 167 167 167 167 114 114 114 167 167 167 167 167 167 167 167 167 167 167 167 167 167 167 167 167 167 167 167 167 167 167 167 167 167 167 167 167 167 167 114 40 40 40 40 40 40 40 40 40 40 40 40 40 40 40 40 40 40 40 40 40 40 40 40 40 40 40 40 40 40 40 40 40 40 40 40 40 40 40 40 40 40 40 40 40 40 40 40 40 40 40 40 40 40 40 40 40 40 76 76 114 114 114 114 114 114 114 114 114 114 114 114 114 114 114 114 
114 114 114 114 114 114 114 114 114 114 114 114 114 114 114 114 114 114 114 114 114 114 114 114 76 76 76 76 76 76 40 40 40 40 40 40 40 40 40 40 40 40 40 40 40 40 40 76 76 76 76 76 76 76 76 76 76 76 76 76 76 76 76 76 76 76 76 76 76 76 76 76 76 76 76 76 76 76 76 76 76 76 76 76 76 76 76 76 76 76 76 76 76 76 76 76 76 76 76 114 167 167 167 167 114 114 114 114 76 76 76 76 76 76 76 76 76 76 76 76 76 76 76 76 76 76 76 114 114 76 76 76 76 76 76 76 76 76 76 76 76 76 76 76 76 76 114 114 114 114 114 114 114 114 76 76 76 76 76 76 114 76 76 76 40 76 76 114 114 114 114 114 114 114 114 76 76 76 114 114 114 114 76 76 76 76 76 76 114 114 167 114 114 114 114 167 167 167 114 167 167 114 114 114 114 114 114 114 114 114 114 114 167 167 167 114 114 114 114 167 167 167 167 167 167 167 167 114 114 114 167 167 167 167 167 167 167 167 167 114 167 167 167 167 167 167 167 167 167 114 114 167 167 167 167 167 167 167 167 167 114 114 167 167 167 167 167 167 167 167 167 167 167 167 167 167 167 167 167 167 167 167 167 167 167 167 167 167 167 167 167 167 167 167 167 167 167 167 167 167 167 167 167 167 167 167 167 167 167 167 167 167 167 167 167 167 167 167 167 167 167 167 167 167 167 167 167 167 167 167 167 167 167 167 167 114 40 76 76 76 76 76 76 114 114 114 114 114 114 114 114 114 114 114 114 114 114 114 114 114 114 114 114 114 114 114 114 114 114 114 114 114 114 76 76 76 76 76 40 40 40 40 40 40 40 40 40 40 40 40 40 114 167 167 167 167 167 167 167 114 114 114 114 167 167 167 167 167 167 167 167 167 167 167 167 167 167 167 167 167 167 167 167 167 167 167 167 167 167 167 167 167 167 167 167 167 40 40 40 40 40 40 40 40 40 40 40 40 40 40 40 40 40 40 40 40 40 40 40 40 40 40 40 40 40 40 40 40 40 40 40 40 40 40 40 40 40 40 40 40 40 40 40 40 40 40 40 40 40 40 40 40 40 40 76 76 114 114 114 114 114 114 114 114 114 114 114 114 114 114 114 114 
114 114 114 114 114 114 114 114 114 114 114 114 114 114 114 114 114 114 114 114 114 114 114 114 76 76 76 76 76 40 40 40 40 40 40 40 40 40 40 40 40 40 40 76 76 76 76 76 76 76 76 76 76 76 76 76 76 76 76 76 76 76 76 76 76 76 76 76 76 76 76 76 76 76 76 76 76 76 76 76 76 76 76 76 76 76 76 76 76 76 76 76 76 76 76 76 76 76 76 114 167 167 167 167 167 114 114 76 76 76 76 76 76 76 76 76 76 76 76 76 76 76 76 76 76 76 76 76 114 76 76 76 76 76 76 76 76 76 76 114 76 76 76 76 76 114 114 114 76 114 114 114 114 114 76 76 76 114 114 114 76 76 40 76 76 114 114 114 114 114 114 114 114 114 114 114 114 114 114 76 76 76 76 76 76 76 76 114 114 114 167 114 114 114 114 167 167 167 114 114 114 114 114 114 114 114 114 114 114 114 167 167 114 114 114 114 114 167 114 167 167 167 167 114 167 167 167 167 114 114 114 167 167 167 167 167 167 167 167 167 114 167 167 167 167 167 167 167 167 167 167 114 167 167 167 167 167 167 167 167 167 114 167 167 167 167 167 167 167 167 167 167 167 167 167 167 167 167 167 167 167 167 167 167 167 167 167 167 167 167 167 167 167 167 167 167 167 167 167 167 167 167 167 167 167 167 167 167 167 167 167 167 167 167 167 167 167 167 167 167 167 167 167 167 167 167 167 167 167 167 167 167 167 167 167 167 76 40 76 76 76 114 114 114 114 114 114 114 114 114 114 114 114 114 114 114 114 114 114 114 114 114 114 114 114 114 114 114 114 114 114 76 76 76 76 76 76 76 76 40 40 40 40 40 40 40 40 40 40 40 167 167 167 167 167 167 167 167 114 114 114 167 167 167 167 167 167 167 167 167 167 167 167 167 167 167 167 167 167 167 167 167 167 167 167 167 167 167 167 167 167 167 167 167 167 167 76 40 40 40 40 40 40 40 40 40 40 40 40 40 40 40 40 40 40 40 40 40 40 40 40 40 40 40 40 40 40 40 40 40 40 40 40 40 40 40 40 40 40 40 40 40 40 40 40 40 40 40 40 40 40 40 40 76 76 114 114 114 114 114 114 114 114 114 114 114 114 114 114 114 114 114 
114 114 114 114 114 114 114 114 114 114 114 114 114 114 114 114 114 114 114 114 114 114 114 114 76 76 76 76 76 76 40 40 40 40 40 40 40 40 40 40 40 40 40 40 76 76 76 40 76 76 76 76 76 76 76 76 76 76 76 76 76 76 76 76 76 76 76 76 76 76 76 76 76 76 76 76 76 76 76 76 76 76 76 76 76 76 76 114 76 76 76 76 76 76 76 76 76 76 76 167 167 167 167 167 114 114 114 76 76 76 76 76 76 76 76 76 76 76 76 76 76 76 76 76 76 76 76 76 114 76 76 76 76 76 76 76 76 76 76 76 76 76 76 114 114 114 114 114 114 114 114 76 76 76 76 76 114 114 76 76 76 76 76 76 114 114 114 114 114 114 76 76 76 76 76 76 76 76 76 76 76 76 76 76 76 76 114 114 167 114 114 167 114 167 167 114 167 167 114 114 114 114 114 114 114 114 114 114 114 114 114 167 114 114 114 167 114 167 167 167 167 167 167 167 167 167 167 167 114 114 114 167 167 167 167 167 167 167 167 167 167 114 167 167 167 167 167 167 167 167 167 167 114 167 167 167 167 167 114 167 167 167 167 167 167 167 167 167 167 167 167 167 167 167 167 167 167 167 167 167 167 167 167 167 167 167 167 167 167 167 167 167 167 167 167 167 167 167 167 167 167 167 167 167 167 167 167 167 167 167 167 167 167 167 167 167 167 167 167 167 167 167 167 167 167 167 167 167 167 167 167 167 167 167 167 167 167 76 40 76 76 76 76 114 114 114 114 114 114 114 114 114 114 114 114 114 114 114 114 114 114 114 114 114 114 114 114 114 114 114 114 114 76 76 76 76 76 76 40 40 40 40 40 40 40 40 40 40 76 167 167 167 167 167 167 167 114 114 114 114 167 167 167 167 167 167 167 167 167 167 167 167 167 167 167 167 167 167 167 167 167 167 167 167 167 167 167 167 167 167 167 167 167 167 167 167 76 40 40 40 40 40 40 40 40 40 40 40 40 40 40 40 40 40 40 40 40 40 40 40 40 40 40 40 40 40 40 40 40 40 40 40 40 40 40 40 40 40 40 40 40 40 40 40 40 40 40 40 40 40 40 40 76 76 114 114 114 114 114 114 114 114 114 114 114 114 114 114 114 114 114 114 
114 114 114 114 114 114 114 114 114 114 114 114 114 114 114 114 114 114 114 114 114 114 114 114 76 76 76 76 76 76 40 40 40 40 40 40 40 40 40 40 40 40 40 40 40 76 76 76 76 76 76 76 76 76 76 76 76 40 76 76 76 76 76 76 76 76 76 76 76 76 76 76 76 76 76 76 76 76 76 76 76 76 76 76 76 76 76 76 76 76 76 76 76 76 76 76 76 76 114 167 167 167 167 167 114 114 114 76 76 76 76 76 76 76 76 76 76 76 76 76 76 76 76 76 76 76 76 76 76 76 76 76 76 76 76 76 76 76 76 76 76 76 114 114 76 114 114 114 114 114 76 76 76 76 76 76 76 76 76 76 76 76 114 114 114 114 114 114 114 114 114 76 76 114 114 114 76 76 76 76 76 76 76 76 76 114 114 167 114 114 114 114 167 114 167 167 114 167 114 114 167 114 114 114 114 114 167 167 114 167 114 114 114 114 114 167 114 167 114 167 167 114 167 167 167 114 167 167 167 167 167 114 167 167 167 167 167 167 167 167 167 167 114 167 167 167 167 167 167 167 167 167 167 114 167 167 167 167 114 167 167 167 167 167 167 167 167 167 167 167 167 167 167 167 167 167 167 167 167 167 167 167 167 167 167 167 167 167 167 167 167 167 167 167 167 167 167 167 167 167 167 167 167 167 167 167 167 167 167 167 167 167 167 167 167 167 167 167 167 167 167 167 167 167 167 167 167 167 167 167 167 167 167 167 167 167 167 114 40 76 76 76 76 114 114 114 114 114 114 114 114 114 114 114 114 114 114 114 114 114 114 114 114 114 114 114 114 114 114 114 114 114 76 76 76 76 76 76 40 40 40 40 40 40 40 40 40 114 167 167 167 167 167 167 167 114 114 114 114 167 167 167 167 167 167 167 167 167 167 167 167 167 167 167 167 167 167 167 167 167 167 167 167 167 167 167 167 167 167 167 167 167 167 167 167 167 76 40 40 40 40 40 40 40 40 40 40 40 40 40 40 40 40 40 40 40 40 40 40 40 40 40 40 40 40 40 40 40 40 40 40 40 40 40 40 40 40 40 40 40 40 40 40 40 40 40 40 40 40 40 40 40 76 114 114 114 114 114 114 114 114 114 114 114 114 114 114 114 114 114 114 114 
114 114 114 114 114 114 114 114 114 114 114 114 114 114 114 114 114 114 114 114 114 114 114 114 76 76 76 76 76 76 40 40 40 40 40 40 40 40 40 40 40 40 40 40 40 76 76 76 76 76 76 76 76 76 76 76 76 76 76 76 76 76 76 76 76 76 76 76 76 76 76 76 76 76 76 76 76 76 76 76 76 76 76 76 76 76 76 76 76 76 76 76 76 76 76 76 76 76 114 167 167 167 167 167 114 114 114 76 76 76 76 76 76 76 76 76 76 76 76 76 76 76 76 76 76 76 76 76 76 76 114 76 76 76 76 114 76 76 76 76 114 114 114 76 76 114 114 114 114 76 76 76 76 114 114 114 76 76 76 76 114 114 114 114 114 114 114 114 76 76 76 76 114 114 114 114 76 76 76 76 76 76 76 76 114 114 114 167 167 114 167 114 167 167 114 167 114 114 114 114 114 167 114 114 114 167 167 167 167 114 114 114 114 167 167 167 167 167 114 167 167 167 114 167 167 167 167 167 167 167 167 114 114 167 167 167 167 167 167 167 167 167 167 167 167 167 167 167 167 167 167 167 167 114 114 167 167 167 167 167 167 167 167 167 167 167 167 167 167 167 167 167 167 167 167 167 167 167 167 167 167 167 167 167 167 167 167 167 167 167 167 167 167 167 167 167 167 167 167 167 167 167 167 167 167 167 167 167 167 167 167 167 167 167 167 167 167 167 167 167 167 167 167 167 167 167 167 167 167 167 167 167 167 167 167 167 167 167 76 76 76 76 76 114 114 114 114 114 114 114 114 114 114 114 114 114 114 114 114 114 114 114 114 114 114 114 114 114 114 114 114 114 76 76 76 76 76 40 40 40 40 40 40 40 40 76 167 167 167 167 167 167 167 167 114 114 114 114 167 167 167 167 167 167 167 167 167 167 167 167 167 167 167 167 167 167 167 167 167 167 167 167 167 167 167 167 167 167 167 167 167 167 167 167 167 167 76 40 40 40 40 40 40 40 40 40 40 40 40 40 40 40 40 40 40 40 40 40 40 40 40 40 40 40 40 40 40 40 40 40 40 40 40 40 40 40 40 40 40 40 40 40 40 40 40 40 40 40 40 40 40 76 114 114 114 114 114 114 114 114 114 114 114 114 114 114 114 114 114 114 114 114 
114 114 114 114 114 114 114 114 114 114 114 114 114 114 114 114 114 114 114 114 114 114 114 114 114 76 76 76 76 76 40 40 40 40 40 40 40 40 40 40 40 40 76 76 76 40 76 40 76 76 76 40 76 76 76 76 76 76 76 76 76 76 76 76 76 76 76 76 76 76 76 76 76 76 76 76 76 76 76 76 76 76 76 76 76 76 76 76 76 76 76 76 76 76 76 76 76 76 114 167 167 167 114 167 114 114 114 76 76 76 76 76 76 76 76 76 76 76 76 76 76 76 76 76 76 76 76 76 76 76 76 76 76 76 76 76 76 76 76 114 114 114 114 114 76 76 114 114 114 76 76 76 76 76 76 76 76 76 76 114 114 114 114 114 114 76 76 76 76 76 114 114 114 114 76 76 76 76 76 76 76 76 114 114 114 114 114 167 167 114 114 167 114 167 167 114 114 114 114 114 114 114 114 167 167 167 167 114 114 114 114 167 167 167 167 167 167 167 167 114 114 167 167 114 114 167 167 167 167 167 167 167 167 114 167 167 167 167 114 167 167 167 167 167 167 167 167 167 167 167 167 167 167 167 114 114 167 167 167 167 167 167 167 167 167 167 167 167 167 167 167 167 167 167 167 167 167 167 167 167 167 167 167 167 167 167 167 167 167 167 167 167 167 167 167 167 167 167 167 167 167 167 167 167 167 167 167 167 167 167 167 167 167 167 167 167 167 167 167 167 167 167 167 167 167 167 167 167 167 167 167 167 167 167 167 167 167 167 114 76 76 76 114 114 114 114 114 114 114 114 114 114 114 114 114 114 114 114 114 114 114 114 114 114 114 114 114 114 114 114 76 76 76 76 76 76 76 40 40 40 40 40 40 40 114 167 167 167 167 167 167 167 167 114 114 114 167 167 167 167 167 167 167 167 167 167 167 167 167 167 167 167 167 167 167 167 167 167 167 167 167 167 167 167 167 167 167 167 167 167 167 167 167 167 167 167 76 40 40 40 40 40 40 40 40 40 40 40 40 40 40 40 40 40 40 40 40 40 40 40 40 40 40 40 40 40 40 40 40 40 40 40 40 40 40 40 40 40 40 40 40 40 40 40 40 40 40 40 40 40 76 76 114 114 114 114 114 114 114 114 114 114 114 114 114 114 114 114 114 114 114 114 
114 114 114 114 114 114 114 114 114 114 114 114 114 114 114 114 114 114 114 114 114 114 114 114 76 76 76 76 76 76 40 40 40 40 40 40 40 40 40 40 40 40 40 40 40 76 76 76 76 76 76 76 76 76 76 76 76 76 76 76 76 76 76 76 76 76 76 76 76 76 76 76 76 76 76 76 76 76 76 76 76 76 76 76 76 76 76 76 76 76 76 76 76 76 76 76 76 76 167 167 167 167 167 114 114 167 114 76 76 76 76 76 76 76 76 76 76 76 76 76 76 76 76 76 76 76 76 76 76 40 76 76 76 76 76 76 76 76 76 76 76 76 114 114 114 76 76 76 76 114 114 114 76 76 76 76 76 114 114 114 114 114 114 114 76 114 76 76 76 114 114 114 76 114 76 76 76 76 76 76 76 114 114 114 114 114 114 114 167 167 167 167 167 114 114 167 114 114 114 114 114 114 167 167 167 114 114 114 114 114 167 167 167 167 167 167 167 114 167 114 114 114 167 167 114 167 167 167 114 167 167 167 167 114 114 167 167 167 114 114 167 167 167 114 167 167 167 167 114 167 167 114 114 167 167 167 167 167 167 167 167 167 167 167 167 167 167 167 167 167 167 167 167 167 167 167 167 167 167 167 167 167 167 167 167 167 167 167 167 167 167 167 167 167 167 167 167 167 167 167 167 167 167 167 167 167 167 167 167 167 167 167 167 167 167 167 167 167 167 167 167 167 167 167 167 167 167 167 167 167 167 167 167 167 167 167 167 167 167 167 114 76 76 114 114 114 114 114 114 114 114 114 114 114 114 114 114 114 114 114 114 114 114 114 114 114 114 114 114 114 114 76 76 76 76 76 40 40 40 40 40 40 114 167 167 167 167 167 167 167 167 114 114 114 167 167 167 167 167 167 167 167 167 167 167 167 167 167 167 167 167 167 167 167 167 167 167 167 167 167 167 167 167 167 167 167 167 167 167 167 167 167 167 167 167 167 76 40 40 40 40 40 40 40 40 40 40 40 40 40 40 40 40 40 40 40 40 40 40 40 40 40 40 40 40 40 40 40 40 40 40 40 40 40 40 40 40 40 40 40 40 40 40 40 40 40 40 40 40 76 76 114 114 114 114 114 114 114 114 114 114 114 114 114 114 114 114 114 114 114 114 114 
114 114 114 114 114 114 114 114 114 114 114 114 114 114 114 114 114 114 114 114 114 114 114 114 76 76 76 76 76 76 40 40 40 40 40 40 40 40 40 40 40 40 76 76 76 76 40 40 76 76 76 76 76 76 76 76 76 76 76 76 76 76 76 76 76 76 76 76 76 76 76 76 76 76 76 76 76 76 76 76 76 76 76 76 76 76 76 76 76 76 76 76 76 76 76 76 76 76 167 167 167 167 167 114 114 167 114 114 76 40 76 76 76 76 76 76 76 76 76 76 76 76 76 76 76 76 76 76 40 76 76 76 76 76 76 114 114 76 76 76 76 114 114 114 76 76 76 76 114 114 76 76 76 76 76 114 114 114 76 76 76 114 76 76 76 76 76 76 114 114 114 114 76 114 76 76 76 76 76 76 114 114 167 114 114 114 114 167 167 167 167 114 114 114 114 114 167 114 114 114 114 114 167 167 167 114 114 114 167 167 167 167 167 167 167 167 167 167 114 167 167 114 167 167 167 114 167 167 167 114 167 167 167 167 167 167 167 167 167 114 114 167 167 167 114 114 167 167 167 114 114 114 114 167 167 167 167 167 167 167 167 167 167 167 167 167 167 167 167 167 167 167 167 167 167 167 167 167 167 167 167 167 167 167 167 167 167 167 167 167 167 167 167 167 167 167 167 167 167 167 167 167 167 167 167 167 167 167 167 167 167 167 167 167 167 167 167 167 167 167 167 167 167 167 167 167 167 167 167 167 167 167 167 167 167 167 167 167 167 167 167 114 76 76 76 114 114 114 114 114 114 114 114 114 114 114 114 114 114 114 114 114 114 114 114 114 114 114 114 114 114 114 76 76 76 76 40 40 40 40 76 167 167 167 167 167 167 167 167 167 114 114 114 167 167 167 167 167 167 167 167 167 167 167 167 167 167 167 167 167 167 167 167 167 167 167 167 167 167 167 167 167 167 167 167 167 167 167 167 167 167 167 167 167 167 167 76 40 40 40 40 40 40 40 40 40 40 40 40 40 40 40 40 40 40 40 40 40 40 40 40 40 40 40 40 40 40 40 40 40 40 40 40 40 40 40 40 40 40 40 40 40 40 40 40 40 40 40 40 76 76 114 114 114 114 114 114 114 114 114 114 114 114 114 114 114 114 114 114 114 114 114 
114 114 114 114 114 114 114 114 114 114 114 114 114 114 114 114 114 114 114 114 114 114 114 114 76 76 76 76 76 76 40 40 40 40 40 40 40 40 40 40 40 40 40 76 76 76 76 40 76 76 76 76 76 76 76 76 76 76 76 76 76 76 76 76 76 76 76 76 76 76 76 76 76 76 76 76 76 76 76 76 76 76 76 76 76 76 76 76 76 76 76 76 76 76 76 76 76 114 167 167 167 167 114 167 114 114 114 114 76 76 76 76 76 76 76 76 76 76 76 76 76 76 76 76 76 76 76 40 76 76 76 76 76 76 76 76 76 76 76 114 114 114 114 76 76 76 76 76 114 76 76 76 76 76 114 114 76 76 76 114 76 114 76 76 76 114 114 114 114 114 114 76 76 76 76 76 76 76 76 114 114 114 167 114 114 114 114 114 114 114 114 167 114 114 114 114 114 114 114 114 114 114 114 114 114 114 114 114 167 167 167 167 167 114 167 167 167 167 167 114 167 167 114 167 167 167 114 167 167 167 167 114 167 167 167 167 114 114 167 167 114 114 167 167 167 167 114 167 114 114 114 167 167 167 167 167 167 167 167 167 167 167 167 167 167 167 167 167 167 167 167 167 167 167 167 167 167 167 167 167 167 167 167 167 167 167 167 167 167 167 167 167 167 167 167 167 167 167 167 167 114 167 167 167 167 167 167 167 167 167 167 167 167 167 167 167 167 167 167 167 167 167 167 167 167 167 167 167 167 167 167 167 167 167 167 167 167 167 167 167 167 167 167 114 76 114 114 114 114 114 114 114 114 114 114 114 114 114 114 114 114 114 114 114 114 114 114 114 114 114 114 76 76 76 76 40 40 40 40 114 167 167 167 167 167 167 167 114 114 114 114 114 167 167 167 167 167 167 167 167 167 167 167 167 167 167 167 167 167 167 167 167 167 167 167 167 167 167 167 167 167 167 167 167 167 167 167 167 167 167 167 167 167 167 167 167 76 40 40 40 40 40 40 40 40 40 40 40 40 40 40 40 40 40 40 40 40 40 40 40 40 40 40 40 40 40 40 40 40 40 40 40 40 40 40 40 40 40 40 40 40 40 40 40 40 40 40 40 40 76 114 114 114 114 114 114 114 114 114 114 114 114 114 114 114 114 114 114 114 114 114 114 
114 114 114 114 114 114 114 114 114 114 114 114 114 114 114 114 114 114 114 114 114 114 114 114 76 76 76 76 76 76 40 76 40 40 40 40 40 40 40 40 76 76 40 40 40 76 76 76 76 76 76 76 76 76 76 76 76 76 76 76 76 76 76 76 76 76 76 76 76 76 76 76 76 76 76 76 76 76 76 76 76 76 76 76 76 76 76 76 76 76 76 76 76 76 76 76 76 114 167 167 167 167 167 167 114 114 76 76 76 76 76 76 76 76 76 76 76 76 76 76 76 76 76 76 76 40 76 76 76 76 76 76 76 114 76 76 114 114 114 114 76 76 76 76 76 114 76 76 76 76 76 76 114 114 76 76 76 76 114 114 114 114 114 114 114 114 114 114 114 114 114 76 76 76 76 76 76 76 114 114 114 114 114 114 167 167 114 114 114 114 114 114 114 114 114 114 114 114 167 167 167 167 114 114 114 114 167 167 114 167 167 167 114 114 167 167 167 114 167 167 114 167 167 167 167 167 167 167 167 167 167 167 167 114 167 167 167 114 114 167 167 167 114 114 167 167 114 114 114 114 167 167 167 167 167 167 167 167 167 167 167 167 167 167 167 167 167 167 167 167 167 167 167 167 167 167 167 167 167 167 167 167 167 167 167 167 167 167 167 167 167 167 167 167 167 167 167 114 114 167 167 167 167 167 167 167 167 167 167 167 167 167 167 167 167 167 167 167 167 167 167 167 167 167 167 167 167 167 167 167 167 167 167 167 167 167 167 167 167 167 167 167 167 167 114 114 114 114 114 114 114 114 114 114 114 114 114 114 114 114 114 114 114 114 114 114 114 114 114 114 76 76 76 76 76 76 76 114 167 167 167 167 167 167 167 167 167 167 167 114 167 167 167 167 167 167 167 167 167 167 167 167 167 167 167 167 167 167 167 167 167 167 167 167 167 167 167 167 167 167 167 167 167 167 167 167 167 167 167 167 167 167 167 167 167 114 40 40 40 40 40 40 40 40 40 40 40 40 40 40 40 40 40 40 40 40 40 40 40 40 40 40 40 40 40 40 40 40 40 40 40 40 40 40 40 40 40 40 40 40 40 40 40 40 40 40 40 40 76 114 114 114 114 114 114 114 114 114 114 114 114 114 114 114 114 114 114 114 114 114 114 114 
114 114 114 114 114 114 114 114 114 114 114 114 114 114 114 114 114 114 114 114 114 114 114 76 76 76 76 76 76 76 40 76 40 40 40 40 40 40 40 40 40 76 76 40 40 40 76 76 76 76 76 76 76 76 76 76 76 76 76 76 76 76 76 76 76 76 76 76 76 76 76 76 76 76 76 76 76 76 76 76 76 76 76 76 76 76 76 76 76 76 76 76 76 76 76 76 76 114 167 167 167 167 167 114 114 114 76 76 76 76 76 76 76 76 76 76 76 76 76 76 76 76 76 76 76 76 76 76 76 76 76 76 76 76 76 76 114 114 114 76 76 76 76 114 76 76 76 76 76 76 114 114 114 76 76 76 76 114 114 76 114 114 76 114 114 114 114 114 114 114 114 114 76 76 76 76 114 114 114 114 114 114 114 114 167 167 167 114 114 114 114 114 114 114 114 114 167 167 167 167 114 114 114 114 114 167 167 167 114 114 167 167 167 167 114 167 114 167 167 167 167 167 167 114 114 167 167 167 167 167 167 167 114 167 114 167 167 167 114 114 167 167 167 114 114 167 114 114 167 114 167 167 167 167 167 167 167 167 167 167 114 167 167 167 167 167 167 167 167 167 167 167 167 167 167 167 167 167 167 167 167 167 167 167 167 167 167 167 167 167 167 167 167 167 167 114 114 114 114 167 167 167 167 167 167 167 167 167 167 167 167 167 167 167 167 167 167 167 167 167 167 167 167 167 167 167 167 167 167 167 167 167 167 167 167 167 167 167 167 167 167 167 167 167 167 114 114 114 114 114 114 114 114 114 114 114 114 114 114 114 114 114 114 114 114 114 114 114 114 114 76 76 76 76 76 76 167 167 167 167 167 167 167 167 167 167 167 167 167 167 167 167 167 167 167 167 167 167 167 167 167 167 167 167 167 167 167 167 167 167 167 167 167 167 167 167 167 167 167 167 167 167 167 167 167 167 167 167 167 167 167 167 167 167 167 114 40 40 40 40 40 40 40 40 40 40 40 40 40 40 40 40 40 40 40 40 40 40 40 40 40 40 40 40 40 40 40 40 40 40 40 40 40 40 40 40 40 40 40 40 40 40 40 40 40 40 40 76 76 114 114 114 114 114 114 114 114 114 114 114 114 114 114 114 114 114 114 114 114 114 114 114 
114 114 114 114 114 114 114 114 114 114 114 114 114 114 114 114 114 114 114 114 114 114 114 114 114 76 76 76 76 76 40 40 40 40 40 40 40 40 40 40 40 40 40 40 76 76 76 76 76 76 76 76 76 76 76 76 76 76 76 76 76 76 76 76 76 76 76 76 76 76 76 76 76 76 76 76 76 76 76 76 76 76 76 76 76 76 76 76 76 76 76 76 76 76 76 76 76 167 167 167 167 167 167 114 114 114 76 76 76 76 76 76 76 76 76 76 76 76 76 76 76 76 76 76 76 76 76 76 76 76 76 76 76 76 76 76 76 76 76 76 76 76 76 76 76 76 76 76 76 114 114 114 76 76 76 76 114 114 114 114 114 114 76 76 76 76 76 76 76 76 76 76 76 76 76 114 114 114 114 114 114 114 114 114 114 167 167 114 114 114 114 114 114 114 114 167 167 167 114 114 114 114 114 167 167 114 167 114 114 114 114 114 167 167 114 167 167 114 167 167 167 167 114 114 114 167 167 167 167 114 167 167 167 114 114 167 167 167 167 167 167 167 167 167 114 114 167 114 167 167 167 167 167 167 167 167 167 167 167 167 167 167 167 167 167 167 167 167 167 167 167 167 167 167 167 167 167 167 167 167 167 167 167 167 167 167 167 167 167 167 167 167 167 167 167 114 114 114 114 167 167 167 167 167 167 167 167 167 167 167 167 167 167 167 167 167 167 167 167 167 167 167 167 167 167 167 167 167 167 167 167 167 167 167 167 167 167 167 167 167 167 167 167 167 167 167 114 114 114 114 114 114 114 114 114 114 114 114 114 114 114 114 114 114 114 114 114 114 114 76 76 76 76 114 167 167 167 167 167 167 167 167 167 167 114 167 167 167 167 167 167 167 167 167 167 167 167 167 167 167 167 167 167 167 167 167 167 167 167 167 167 167 167 167 167 167 167 167 167 167 167 167 167 167 167 167 167 167 167 167 167 167 167 167 167 114 40 40 40 40 40 40 40 40 40 40 40 40 40 40 40 40 40 40 40 40 40 40 40 40 40 40 40 40 40 40 40 40 40 40 40 40 40 40 40 40 40 40 40 40 40 40 40 40 40 40 40 76 114 114 114 114 114 114 114 114 114 114 114 114 114 114 114 114 114 114 114 114 114 114 114 114 
114 114 114 114 114 114 114 114 114 114 114 114 114 114 114 114 114 114 114 114 114 114 114 114 76 76 76 76 76 76 40 40 40 40 40 40 40 40 40 40 76 76 76 76 76 76 76 76 76 76 76 76 76 76 76 76 76 76 76 76 76 76 76 76 76 76 76 76 76 76 76 76 76 76 76 76 76 76 76 76 76 76 76 76 76 76 76 76 76 76 76 76 76 76 76 76 76 167 167 167 167 167 167 114 114 114 76 76 76 76 76 76 76 76 76 76 76 76 76 76 76 76 40 76 76 76 76 76 114 76 76 76 76 114 76 76 76 76 76 76 76 114 76 76 76 76 76 76 114 76 76 76 114 114 114 114 76 76 114 114 76 76 76 76 76 76 114 114 76 76 76 76 76 76 114 114 114 114 167 114 114 114 114 114 114 114 114 114 114 114 114 114 114 114 114 167 167 114 114 114 114 114 114 167 167 167 114 114 114 114 114 114 114 167 167 114 167 114 167 167 167 167 167 114 167 114 167 114 167 114 114 167 167 167 114 167 167 167 167 167 167 114 114 167 114 114 167 167 167 167 167 167 114 167 167 167 167 167 167 167 167 167 167 167 167 167 167 167 167 167 167 167 167 167 167 167 167 167 167 167 167 167 167 167 167 167 167 167 167 167 167 167 167 167 114 114 114 114 167 167 167 167 167 167 167 167 167 167 167 167 167 167 167 167 167 167 167 167 167 167 167 167 167 167 167 167 167 167 167 167 167 167 167 167 167 167 167 167 167 167 167 167 167 167 167 167 114 114 114 114 114 114 114 114 114 114 114 114 114 114 114 114 114 114 114 114 114 114 114 114 114 114 114 167 167 167 167 167 167 167 167 167 167 167 167 167 167 167 167 167 167 167 167 167 167 167 167 167 167 167 167 167 167 167 167 167 167 167 167 167 167 167 167 167 167 167 167 167 167 167 167 167 167 167 167 167 167 167 167 167 167 167 167 167 167 76 40 40 40 40 40 40 40 40 40 40 40 40 40 40 40 40 40 40 40 40 40 40 40 40 40 40 40 40 40 40 40 40 40 40 40 40 40 40 40 40 40 40 40 40 40 40 40 40 40 40 76 76 114 114 114 114 114 114 114 114 114 114 114 114 114 114 114 114 114 114 114 114 114 114 114 114 
114 114 114 114 114 114 114 114 114 114 114 114 114 114 114 114 114 114 114 114 114 114 114 114 76 76 76 76 76 76 40 40 40 40 40 40 40 40 40 76 40 76 76 76 76 40 76 76 76 76 76 76 76 76 76 76 76 76 76 76 76 76 76 76 76 76 76 76 76 76 76 76 76 76 76 76 76 76 76 76 76 76 76 76 76 76 76 76 76 76 76 76 76 76 76 76 76 167 167 167 167 167 114 114 114 114 114 76 76 76 76 76 76 76 76 76 76 76 76 76 76 76 76 114 76 76 76 76 76 76 76 76 76 114 76 76 76 76 114 76 76 76 76 76 76 114 114 114 114 76 76 114 76 114 76 76 76 114 114 114 76 76 76 76 76 114 114 76 76 76 76 76 76 114 114 114 114 114 114 114 114 114 114 114 114 114 114 114 114 114 114 114 114 114 114 114 114 114 114 114 114 114 167 167 114 167 114 114 167 114 114 167 114 114 167 167 167 167 114 167 167 167 167 167 114 167 114 114 167 167 167 114 167 167 167 167 167 167 167 167 114 114 114 114 167 167 167 167 167 167 167 167 167 114 167 167 167 167 167 167 167 167 167 167 167 167 167 167 167 167 167 167 167 167 167 167 167 167 167 167 167 167 167 167 167 167 167 167 167 167 167 167 114 114 114 114 167 167 167 167 167 167 167 167 167 167 167 167 167 167 167 167 167 167 167 167 167 167 167 167 167 167 167 167 167 167 167 167 167 167 167 167 167 167 167 167 167 167 167 167 167 167 167 167 167 167 167 114 114 114 114 114 114 114 114 114 114 114 114 114 114 114 114 114 114 114 114 114 114 114 167 167 167 167 167 167 167 167 167 167 167 167 167 167 167 167 167 167 167 167 167 167 167 167 167 167 167 167 167 167 167 167 167 167 167 167 167 167 167 167 167 167 167 167 167 167 167 167 167 167 167 167 167 167 167 167 167 167 167 167 167 167 167 167 167 76 40 40 40 40 40 40 40 40 40 40 40 40 40 40 40 40 40 40 40 40 40 40 40 40 40 40 40 40 40 40 40 40 40 40 40 40 40 40 40 40 40 40 40 40 40 40 40 40 40 76 76 114 114 114 114 114 114 114 114 114 114 114 114 114 114 114 114 114 114 114 114 114 114 114 114 114 
114 114 114 114 114 114 114 114 114 114 114 114 114 114 114 114 114 114 114 114 114 114 114 114 76 76 76 76 76 76 40 40 40 40 40 40 40 40 40 40 76 76 76 76 76 76 76 76 76 76 76 76 76 76 76 76 76 76 76 76 76 76 76 76 76 76 76 76 76 76 76 76 76 76 76 76 76 76 76 76 76 76 76 76 76 76 76 76 76 76 76 76 76 76 76 76 167 167 167 167 167 167 167 114 114 76 76 76 76 76 76 40 76 76 76 40 76 76 76 76 76 76 76 76 76 76 76 76 76 76 76 76 76 76 76 40 76 76 76 76 76 76 76 76 76 76 114 114 114 76 76 114 114 114 76 76 76 76 76 76 76 76 76 76 76 114 76 76 76 76 76 76 114 114 114 114 114 114 114 114 114 114 114 114 114 114 114 114 114 114 114 114 114 114 114 114 114 114 114 114 167 114 114 167 114 114 167 114 114 167 167 114 167 114 114 167 167 167 114 114 114 167 167 167 114 114 167 114 114 167 167 167 114 167 167 167 114 114 114 167 114 114 114 114 167 167 167 167 167 167 167 167 167 167 167 167 167 167 167 167 167 167 167 167 167 167 167 167 167 167 167 167 167 167 167 167 167 167 167 167 167 167 167 167 167 167 167 167 167 167 167 114 114 114 114 167 167 167 167 167 167 167 167 167 167 167 167 167 167 167 167 167 167 167 167 167 167 167 167 167 167 167 167 167 167 167 167 167 167 167 167 167 167 167 167 167 167 167 167 167 167 167 167 167 167 167 167 114 114 114 114 114 114 114 114 114 114 114 114 114 114 114 114 114 114 114 114 114 167 167 167 167 167 167 167 167 167 167 167 167 167 167 167 167 167 167 167 167 167 167 167 167 167 167 167 167 167 167 167 167 167 167 167 167 167 167 167 167 167 167 167 167 167 167 167 167 167 167 167 167 167 167 167 167 167 167 167 167 167 167 167 167 167 167 114 40 40 40 40 40 40 40 40 40 40 40 40 40 40 40 40 40 40 40 40 40 40 40 40 40 40 40 40 40 40 40 40 40 40 40 40 40 40 40 40 40 40 40 40 40 40 40 40 40 76 76 76 114 114 114 114 114 114 114 114 114 114 114 114 114 114 114 114 114 114 114 114 114 114 114 114 114 
114 114 114 114 114 114 114 114 114 114 114 114 114 114 114 114 114 114 114 114 114 114 114 114 76 76 76 76 76 76 76 76 40 40 40 40 76 76 40 40 40 40 40 40 76 76 76 76 76 76 76 76 76 76 76 76 76 76 76 76 76 76 76 76 76 76 76 76 76 76 76 76 76 76 76 76 76 76 76 76 76 76 76 76 76 76 76 76 76 76 76 76 76 76 76 76 167 167 167 167 167 114 167 114 114 76 76 76 76 76 76 76 76 76 76 76 76 76 76 76 76 76 76 76 76 76 76 76 76 76 76 76 76 76 76 76 114 114 76 76 76 76 76 114 76 76 76 76 76 114 114 114 114 114 114 76 114 76 76 76 76 76 76 114 76 76 76 76 76 76 114 114 114 114 114 114 114 114 114 114 114 114 114 114 114 114 114 114 114 114 167 167 114 114 114 76 76 114 114 114 114 167 167 167 167 167 114 167 167 114 167 167 167 167 114 114 114 167 167 167 114 114 114 167 167 167 114 114 114 114 167 167 167 114 167 167 167 114 114 114 114 114 114 114 167 167 167 167 167 167 167 167 167 167 167 167 114 167 167 167 167 167 167 167 167 167 167 167 167 167 167 167 167 167 167 167 167 167 167 167 167 167 167 167 167 167 167 167 167 167 114 114 114 114 114 167 167 167 167 167 167 167 167 167 167 167 167 167 167 167 167 167 167 167 167 167 167 167 167 167 167 167 167 167 167 167 167 167 167 167 167 167 167 167 167 167 167 167 167 167 167 167 167 167 167 167 167 167 114 114 114 114 114 114 114 114 114 114 114 114 114 114 114 114 114 114 167 167 167 167 167 167 167 167 167 114 167 167 167 167 167 167 167 167 167 167 167 167 167 167 167 167 167 167 167 167 167 167 167 167 167 167 167 167 167 167 167 167 167 167 167 167 167 167 167 167 167 167 167 167 167 167 167 167 167 167 167 167 167 167 167 167 167 167 114 40 40 40 40 40 40 40 40 40 40 40 40 40 40 40 40 40 40 40 40 40 40 40 40 40 40 40 40 40 40 40 40 40 40 40 40 40 40 40 40 40 40 40 40 40 40 40 40 40 76 76 114 114 114 114 114 114 114 114 114 114 114 114 114 114 114 114 114 114 114 114 114 114 114 114 114 114 
114 114 114 114 114 114 114 114 114 114 114 114 114 114 114 114 114 114 114 114 114 114 114 114 76 76 76 76 76 76 40 40 40 40 40 40 40 76 40 40 76 76 40 40 76 76 76 76 76 76 76 76 76 76 76 76 76 76 76 76 76 76 76 76 76 76 76 76 76 76 76 76 76 76 76 76 76 76 76 76 76 76 76 76 76 76 76 76 76 76 76 76 76 76 76 76 114 167 167 167 167 114 114 114 76 76 76 76 76 76 76 76 76 76 76 76 76 76 76 76 76 76 76 76 76 76 76 76 76 76 76 76 76 76 76 76 76 76 76 76 114 114 114 114 76 76 76 76 76 76 76 114 114 76 114 76 114 76 76 76 76 114 114 76 76 76 76 76 76 114 114 114 114 114 114 114 114 114 114 114 114 114 114 114 114 114 114 114 114 114 114 114 114 114 114 114 114 114 114 167 167 114 167 167 114 114 167 114 167 167 114 167 167 114 167 114 114 114 167 167 114 114 114 114 167 167 167 167 167 114 114 167 167 114 114 167 167 114 114 114 114 167 167 167 114 114 167 167 167 167 167 167 167 167 167 167 167 167 114 114 167 167 167 167 167 167 167 114 167 167 167 167 167 167 167 167 167 167 167 167 167 167 167 167 167 167 167 167 114 114 114 167 167 167 167 167 167 167 167 167 167 167 167 167 167 167 167 167 167 167 167 167 167 167 167 167 167 167 167 167 167 167 167 167 167 167 167 167 167 167 167 167 167 167 167 167 167 167 167 167 167 167 167 167 167 167 167 167 114 114 114 114 114 114 114 114 114 114 114 114 114 114 114 114 167 167 167 167 167 167 167 167 167 114 114 167 167 167 167 167 167 167 167 167 167 167 167 167 167 167 167 167 167 167 167 167 167 167 167 167 167 167 167 167 167 167 167 167 167 167 167 167 167 167 167 167 167 167 167 167 167 167 167 167 167 167 167 167 167 167 167 167 167 167 114 40 40 40 40 40 40 40 40 40 40 40 40 40 40 40 40 40 40 40 40 40 40 40 40 40 40 40 40 40 40 40 40 40 40 40 40 40 40 40 40 40 40 40 40 40 40 40 40 76 76 114 114 114 114 114 114 114 114 114 114 114 114 114 114 114 114 114 114 114 114 114 114 114 114 114 114 114 
114 114 114 114 114 114 114 114 114 114 114 114 114 114 114 114 114 114 114 114 114 114 114 114 76 76 76 76 76 76 76 40 40 40 40 40 40 40 40 40 76 76 40 40 40 76 76 76 76 76 76 76 76 76 76 76 76 76 76 76 76 76 76 76 76 76 76 76 76 76 76 76 76 76 76 76 76 76 76 76 76 76 76 76 76 76 76 76 76 76 76 76 76 76 76 76 114 167 167 167 167 114 114 76 114 114 114 114 76 76 76 76 76 76 76 76 76 76 76 76 76 76 76 76 76 76 76 76 76 76 76 76 76 76 114 76 76 76 76 76 76 76 76 76 114 114 114 76 76 114 114 76 76 114 76 76 76 76 76 76 114 76 76 76 76 76 76 76 76 114 114 114 114 114 114 114 114 114 114 114 114 114 114 114 114 114 114 114 114 114 114 114 114 114 114 114 114 114 114 114 167 167 114 167 167 114 167 167 114 167 167 114 167 167 114 167 114 114 114 114 114 167 167 114 114 167 167 167 167 167 114 167 167 167 114 114 114 114 114 167 167 167 167 167 167 114 114 114 167 167 167 167 167 167 167 167 167 167 167 114 114 167 167 167 167 167 167 114 114 167 167 167 167 167 167 167 167 167 167 167 167 167 167 167 167 167 167 114 114 114 167 167 167 167 167 167 167 167 167 167 167 167 167 167 167 167 167 167 167 167 167 167 167 167 167 167 167 167 167 167 167 167 167 167 167 167 167 167 167 167 167 167 167 167 167 167 167 167 167 167 167 167 167 167 167 167 167 167 114 114 114 114 114 114 114 114 114 114 114 114 114 114 114 167 167 167 167 167 167 167 167 167 167 167 167 167 167 167 167 167 167 167 167 167 167 167 167 167 167 167 167 167 167 167 167 167 167 167 167 167 167 167 167 167 167 167 167 167 167 167 167 167 167 167 167 167 167 167 167 167 167 167 167 167 167 167 167 167 167 167 167 167 167 167 114 40 40 40 40 40 40 40 40 40 40 40 40 40 40 40 40 40 40 40 40 40 40 40 40 40 40 40 40 76 40 40 40 40 40 40 40 40 40 40 40 40 40 40 40 40 40 40 76 76 76 114 114 114 114 114 114 114 114 114 114 114 114 114 114 114 114 114 114 114 114 114 114 114 114 114 114 114 
114 114 114 114 114 114 114 114 114 114 114 114 114 114 114 114 114 114 114 114 114 114 114 114 76 76 76 76 76 76 76 40 40 40 40 40 40 40 40 76 40 40 76 76 76 76 76 76 76 76 76 76 76 76 76 76 76 76 76 76 76 76 76 76 76 76 76 76 76 76 76 76 76 76 76 76 76 76 76 76 76 76 76 76 76 76 76 76 76 76 76 76 76 76 76 76 167 167 167 167 167 114 114 114 114 76 114 114 76 76 114 76 76 76 76 76 76 76 76 76 76 76 76 76 76 76 76 76 76 76 76 76 76 114 76 76 76 76 76 76 76 76 76 76 114 114 114 114 114 114 114 76 76 76 76 76 76 76 76 76 76 76 76 76 76 76 76 76 114 114 114 114 114 114 114 114 114 114 114 114 114 114 114 114 114 114 114 114 114 114 76 76 114 114 114 114 114 114 114 114 114 167 167 114 167 167 167 167 167 114 167 114 114 167 114 114 167 114 114 114 114 114 167 167 114 114 167 167 167 167 167 114 114 114 114 114 114 114 167 167 167 167 167 167 167 167 167 114 114 167 167 167 167 167 167 167 167 167 167 167 114 114 114 167 167 167 167 167 114 114 114 167 167 167 167 167 167 167 167 167 167 167 167 167 167 167 167 114 114 167 167 167 167 167 167 167 167 167 167 167 167 167 167 167 167 167 167 167 167 167 167 167 167 167 167 167 167 167 167 167 167 167 167 167 167 167 167 167 167 167 167 167 167 167 167 167 167 167 167 167 167 167 167 167 167 167 167 167 167 114 114 114 114 114 114 114 114 114 114 114 114 167 167 167 167 167 167 167 167 114 167 167 167 167 167 167 167 167 167 167 167 167 167 167 167 167 167 167 167 167 167 167 167 167 167 167 167 167 167 167 167 167 167 167 167 167 167 167 167 167 167 167 167 167 167 167 167 167 167 167 167 167 167 167 167 167 167 167 167 167 167 167 167 167 76 40 40 40 40 40 40 40 40 40 40 40 40 40 40 40 40 40 40 40 40 40 40 40 40 40 40 40 40 40 40 40 40 40 40 40 40 40 40 40 40 40 40 40 40 40 40 40 76 76 114 114 114 114 114 114 114 114 114 114 114 114 114 114 114 114 114 114 114 114 114 114 114 114 114 114 114 114 
114 114 114 114 114 114 114 114 114 114 167 114 114 114 114 114 114 114 114 114 114 114 114 114 76 76 76 76 76 76 76 40 40 40 40 40 40 76 40 40 40 76 76 76 76 76 76 76 76 40 76 76 76 76 76 76 76 76 76 76 76 76 76 76 76 76 76 76 76 76 76 76 76 76 76 76 76 76 76 76 76 76 76 76 76 76 76 76 76 76 76 76 76 76 76 114 167 167 167 167 114 114 114 114 114 114 76 76 76 76 76 76 76 76 76 76 76 76 76 76 76 76 76 76 76 76 76 76 40 76 76 76 76 76 76 76 76 76 76 76 76 76 76 76 114 76 76 76 76 114 114 114 76 76 76 76 76 76 76 76 76 76 76 76 76 76 76 114 114 114 114 114 114 114 114 114 114 114 114 114 114 114 114 114 114 114 114 114 114 114 76 114 114 114 114 114 167 114 114 114 114 114 167 167 167 114 167 114 114 167 114 114 167 114 114 114 114 114 114 114 114 114 167 167 167 114 114 167 167 167 167 114 114 114 114 114 114 167 167 167 167 167 114 167 167 167 167 167 167 114 114 167 167 167 114 114 167 167 167 167 167 167 114 114 167 167 167 167 167 114 114 167 167 167 167 167 167 167 167 167 114 167 167 167 167 167 114 114 167 167 167 167 167 167 167 167 114 167 167 167 167 114 167 114 167 167 167 167 167 167 167 167 167 167 167 167 167 167 167 167 167 167 167 167 167 167 167 167 167 167 167 167 167 167 167 114 167 167 167 167 167 167 167 167 167 167 167 167 167 114 114 114 114 114 114 114 114 114 167 167 167 167 167 167 167 167 167 167 167 167 167 167 167 167 167 167 167 167 167 167 167 167 167 167 167 167 167 167 167 167 167 167 167 167 167 167 167 167 167 167 167 167 167 167 167 167 167 167 167 167 167 167 167 167 167 167 167 167 167 167 167 167 167 167 167 167 167 167 167 167 167 167 167 167 76 40 40 40 40 40 40 40 40 40 40 40 40 40 40 40 40 40 40 40 40 40 40 40 40 40 40 40 40 40 40 40 40 40 40 40 40 40 40 40 40 40 40 40 40 40 40 76 76 114 114 114 114 114 114 114 114 114 114 114 114 114 114 114 114 114 114 114 114 114 114 114 114 114 114 114 114 114 
114 114 114 114 114 114 114 114 114 114 114 114 114 114 114 114 114 114 114 114 114 114 114 114 76 76 76 76 76 76 76 40 40 40 40 40 40 40 40 40 76 76 76 40 40 40 40 76 76 76 76 76 76 76 76 76 76 76 76 76 76 76 76 76 76 76 76 76 76 76 76 76 76 76 76 76 76 76 76 76 76 76 76 76 76 76 76 76 76 76 76 76 76 76 76 114 167 167 167 167 114 114 114 114 114 114 76 114 114 76 76 76 76 76 76 76 76 76 76 76 76 76 76 76 76 76 76 76 76 76 76 76 76 76 76 76 76 76 76 76 76 76 76 76 76 76 76 76 76 76 76 76 76 76 76 76 114 76 76 76 76 76 76 76 76 114 114 114 114 114 114 114 114 114 114 114 114 114 114 114 114 114 114 114 114 114 114 114 114 114 114 114 114 114 114 114 114 114 114 114 114 114 114 167 167 167 114 114 114 167 114 114 114 114 114 114 114 114 167 167 114 114 114 114 167 167 114 114 167 167 167 114 114 114 114 114 167 114 114 167 167 114 114 114 114 114 167 167 167 114 114 114 167 167 167 167 114 114 167 167 167 167 114 114 114 167 167 167 167 167 167 167 167 167 167 167 167 167 167 114 114 114 114 114 167 167 167 167 167 167 167 167 167 167 167 114 114 114 167 167 167 167 167 167 167 167 167 167 167 167 167 167 167 167 167 167 167 167 167 167 167 167 167 167 167 167 167 167 167 167 167 167 167 167 167 114 167 167 167 167 167 167 167 167 167 167 167 167 167 167 114 114 114 114 114 114 114 167 167 167 167 167 167 167 167 167 167 167 167 167 167 167 167 167 167 167 167 167 167 167 167 167 167 167 167 167 167 167 167 167 167 167 167 167 167 167 167 167 167 167 167 167 167 167 167 167 167 167 167 167 167 167 167 167 167 167 167 167 167 167 167 167 167 167 167 167 167 167 167 167 167 167 167 114 40 40 40 40 40 40 40 40 40 40 40 40 40 40 40 40 40 40 40 40 40 40 40 40 40 40 40 40 40 40 40 40 40 40 40 40 40 40 40 40 40 40 40 40 40 40 76 76 76 114 114 114 114 114 114 114 114 114 114 114 114 114 114 114 114 114 114 114 114 114 114 114 114 114 114 114 114 114 
114 114 114 114 114 167 114 114 114 114 114 114 114 114 114 114 114 114 114 114 114 114 114 114 114 76 76 76 76 76 76 40 40 40 76 40 40 40 40 40 40 76 76 76 76 76 76 76 76 76 76 76 76 76 76 76 76 76 76 76 76 76 76 76 76 76 76 76 76 76 76 76 76 76 76 76 76 76 76 76 76 76 76 76 76 76 76 76 76 76 76 76 76 76 76 114 167 167 167 167 167 114 114 114 114 76 76 114 76 76 76 76 76 76 76 76 76 76 76 76 76 76 76 76 76 40 40 76 76 76 76 76 76 76 76 76 76 76 76 76 114 114 114 76 76 76 76 114 76 76 76 76 76 76 76 114 76 76 76 114 76 76 76 76 114 114 114 114 114 114 114 114 114 114 114 114 114 114 114 114 114 114 114 114 114 114 114 76 76 114 114 114 114 114 114 114 114 114 114 114 114 114 114 114 167 167 167 114 167 114 114 167 114 114 114 114 114 114 114 167 167 114 114 114 167 167 167 114 114 167 114 114 114 114 114 167 167 167 167 114 167 167 114 167 167 114 114 167 167 167 167 114 114 167 167 167 167 114 114 167 167 167 167 167 114 114 167 167 167 167 167 167 167 167 167 167 114 167 114 114 114 114 114 167 167 167 167 167 167 167 167 167 114 167 167 167 167 167 167 167 167 167 167 167 167 167 167 167 167 167 167 167 167 167 167 167 167 167 167 167 167 167 167 167 167 167 167 167 167 167 167 167 167 167 167 167 167 167 167 167 167 167 167 167 167 167 167 167 167 167 167 114 114 114 114 114 167 167 167 167 167 167 167 167 167 167 167 167 167 167 167 167 167 167 167 167 167 167 167 167 167 167 167 167 167 167 167 167 167 167 167 167 167 167 167 167 167 167 167 167 167 167 167 167 167 167 167 167 167 167 167 167 167 167 167 167 167 167 167 167 167 167 167 167 167 167 167 167 167 167 167 167 167 114 40 40 40 40 40 40 40 40 40 40 40 40 40 40 40 40 40 40 40 40 40 40 40 40 40 40 40 40 40 40 40 40 40 40 40 40 40 40 40 40 40 40 40 40 40 40 76 76 114 114 114 114 114 114 114 114 114 114 114 114 114 114 114 114 114 114 114 114 114 114 114 114 114 114 114 114 114 114 
114 114 114 114 114 114 114 114 114 114 167 114 114 114 114 114 114 114 114 114 114 114 114 114 76 76 76 76 76 76 76 40 40 40 40 40 40 40 76 40 40 76 76 76 76 76 76 76 76 76 76 76 76 76 76 76 76 76 76 76 76 76 76 76 76 76 76 76 76 76 76 76 76 76 76 76 76 76 76 76 76 76 76 76 76 76 76 76 76 76 76 76 76 76 76 167 167 167 167 167 114 167 114 114 114 114 114 76 76 76 76 76 76 76 76 76 76 76 76 76 76 76 76 76 76 76 76 76 76 76 76 76 76 114 76 76 76 76 76 76 76 76 76 114 76 114 114 76 76 76 76 76 76 114 114 114 76 76 76 76 76 76 76 114 114 114 114 114 114 114 114 114 114 114 114 114 114 114 114 114 114 114 167 114 76 76 76 114 114 114 114 114 114 114 114 114 114 114 114 114 167 114 114 114 114 114 167 167 114 114 114 114 167 114 114 114 114 114 114 167 167 167 114 114 114 114 167 167 114 114 114 114 114 114 114 167 167 167 167 167 114 114 167 167 167 167 167 167 114 167 167 167 167 114 114 167 167 167 114 114 167 167 167 167 114 114 167 167 167 167 167 167 167 167 167 167 114 114 114 114 167 167 167 167 167 167 167 167 167 167 167 167 114 114 167 167 167 167 167 167 167 167 167 167 167 167 167 167 167 167 167 167 167 167 167 167 167 167 167 167 167 167 167 167 167 167 167 167 167 167 167 167 167 167 167 167 114 167 167 167 167 167 167 167 167 167 167 167 167 167 167 114 114 114 167 167 167 167 167 167 167 167 167 114 167 167 167 167 167 167 167 167 167 167 167 167 167 167 167 167 167 167 167 167 167 167 167 167 167 167 167 167 167 167 167 167 167 167 167 167 167 167 167 167 167 167 167 167 167 167 167 167 167 167 167 167 167 167 167 167 167 167 167 167 167 167 167 167 167 167 167 167 167 114 40 40 40 40 40 40 40 40 40 40 40 40 40 40 40 40 40 40 40 40 40 40 40 40 40 40 40 40 40 40 40 40 40 40 40 40 40 40 40 40 40 40 40 40 40 76 76 114 114 114 114 114 114 114 114 114 114 114 114 114 114 114 114 114 114 114 114 114 114 114 114 114 114 114 114 114 114 114 
114 114 114 114 114 114 114 114 114 114 114 114 114 114 114 114 114 114 114 114 114 114 114 114 76 76 76 76 76 76 76 76 40 76 76 40 40 40 40 40 40 76 40 76 76 40 76 76 76 76 76 76 76 76 76 76 76 76 76 76 76 76 76 76 76 76 76 76 76 76 76 76 76 76 76 76 76 76 76 76 76 76 76 76 76 76 76 76 76 76 76 76 76 76 114 167 167 167 167 167 114 167 114 114 114 114 114 76 114 76 76 76 76 76 76 76 76 76 76 76 76 76 76 76 76 76 76 76 76 76 76 76 76 76 76 76 76 76 76 76 76 76 76 114 76 76 76 76 76 76 76 114 114 114 114 114 76 76 76 76 76 76 114 114 114 114 114 114 114 114 114 114 114 114 114 114 114 114 114 114 114 114 114 114 76 76 114 114 114 114 114 114 114 114 114 114 114 114 114 114 167 114 114 114 114 114 114 167 167 114 114 114 114 167 167 114 114 114 114 167 167 167 167 114 114 114 167 114 114 114 114 114 167 167 167 114 167 114 114 167 167 167 114 167 167 167 167 167 114 114 167 167 167 167 114 114 167 167 167 167 114 167 167 167 167 114 167 167 167 167 167 167 167 167 167 167 167 114 114 114 167 167 167 167 167 167 167 167 167 167 167 167 114 114 167 167 167 167 167 167 167 167 167 167 167 167 167 167 167 167 167 167 167 167 167 167 167 167 167 167 167 167 167 167 167 167 167 167 167 167 167 167 167 167 167 167 167 167 167 167 167 167 167 167 167 167 167 167 167 167 167 167 167 167 167 167 167 167 167 167 167 167 167 167 167 167 167 167 167 167 167 167 167 167 167 167 167 167 167 167 167 167 167 167 167 167 167 167 167 167 167 167 167 167 167 167 167 167 167 167 167 167 167 167 167 167 167 167 167 167 167 167 167 167 167 167 167 167 167 167 167 167 167 167 167 167 167 167 167 167 167 167 167 76 40 40 40 40 40 40 40 40 40 40 40 40 40 40 40 40 40 40 40 40 40 40 40 40 40 40 40 40 40 40 40 40 40 40 40 40 40 40 40 40 40 40 40 40 76 76 76 114 114 114 114 114 114 114 114 114 114 114 114 114 114 114 114 114 114 114 114 114 114 114 114 114 114 114 114 114 114 114 
114 114 114 114 114 167 114 114 114 114 114 114 114 114 114 114 114 114 114 114 114 114 114 114 114 76 76 76 76 76 40 76 76 76 40 40 40 40 40 40 40 40 40 76 76 76 76 76 76 76 76 76 76 76 76 76 76 76 76 76 76 76 76 76 76 76 76 76 76 76 76 76 76 76 76 76 76 76 76 76 76 76 76 76 76 76 76 76 76 76 76 76 76 76 114 167 167 167 167 167 114 114 114 114 114 114 114 76 114 76 76 76 76 76 76 76 76 76 76 76 76 76 76 76 76 76 76 76 76 76 76 76 76 76 76 76 76 76 76 76 76 76 76 76 76 76 76 76 76 76 114 114 114 76 76 76 76 76 76 76 76 114 114 114 114 114 114 114 114 114 114 114 114 114 114 114 114 114 114 167 114 114 114 114 114 114 114 114 114 114 114 114 114 114 114 114 114 114 114 167 114 167 114 114 114 114 114 114 114 167 114 114 167 114 114 167 167 114 114 114 167 167 114 167 114 114 114 114 114 114 114 114 167 167 167 167 167 114 114 114 167 167 167 114 114 167 167 167 114 167 114 167 167 167 167 114 114 167 167 167 114 114 167 167 167 167 167 167 167 167 167 167 167 167 114 114 167 167 167 167 167 167 167 167 167 167 167 167 167 167 167 167 167 167 167 167 167 167 167 167 167 167 167 167 167 167 167 167 167 167 167 167 167 167 167 167 167 167 167 167 167 167 167 167 167 167 167 167 167 167 167 167 167 167 167 167 167 114 114 167 167 167 167 167 167 167 167 167 167 167 167 167 167 167 167 167 167 167 167 167 167 167 167 167 167 167 167 167 167 167 167 167 167 167 167 167 167 167 167 167 167 167 167 167 167 167 167 167 167 167 167 167 167 167 167 167 167 167 167 167 167 167 167 167 167 167 167 167 167 167 167 167 167 167 167 167 167 167 167 167 167 167 167 167 167 167 167 167 167 167 167 167 167 76 40 40 40 40 40 40 40 40 40 40 40 40 40 40 40 40 40 40 40 40 40 40 40 40 40 40 40 40 40 40 40 40 40 40 40 40 40 40 40 40 40 40 40 40 76 76 114 114 114 114 114 114 114 114 114 114 114 114 114 114 114 114 114 114 114 114 114 114 114 114 114 114 114 114 114 114 114 114 
114 114 114 114 114 167 114 114 114 114 114 114 114 114 114 114 114 114 114 114 114 114 114 114 76 76 76 76 76 76 76 76 40 40 40 76 76 40 40 40 40 40 40 40 76 76 76 76 76 76 76 76 76 76 76 76 40 76 76 76 76 40 76 76 76 76 76 76 76 76 76 76 76 76 76 76 76 76 76 76 76 76 76 76 76 76 76 76 76 76 76 76 76 76 114 167 167 167 167 167 114 114 167 114 114 114 114 76 114 76 76 76 76 76 76 76 76 76 76 76 76 76 76 76 76 76 76 76 76 76 76 76 76 76 76 76 76 76 76 76 114 114 114 76 76 76 76 76 76 76 114 76 76 76 114 114 76 76 76 76 114 114 114 114 114 114 114 114 114 114 114 114 114 114 114 114 114 114 114 114 114 114 76 76 76 114 114 114 114 114 114 114 114 114 114 114 114 114 114 114 114 114 114 114 114 114 114 114 114 114 167 114 167 167 167 114 167 167 114 114 114 167 167 167 114 114 114 114 114 114 167 114 114 114 167 167 167 114 114 114 114 167 167 167 167 167 167 167 114 167 167 114 114 167 167 167 114 114 167 167 167 114 114 114 167 167 167 167 167 167 167 167 167 167 167 167 167 167 167 167 167 167 167 167 167 167 167 167 167 167 167 167 167 167 167 167 167 167 167 167 167 167 167 167 167 167 167 167 167 167 167 167 114 114 167 167 167 167 167 167 167 167 167 167 167 114 167 167 167 167 167 167 167 167 167 167 167 114 114 167 167 167 167 114 167 167 167 167 167 167 167 167 167 167 167 167 167 167 167 167 167 167 167 167 167 167 167 167 167 167 167 167 167 167 167 167 167 167 167 167 167 167 167 167 167 167 167 167 167 167 167 167 167 167 167 167 167 167 167 167 167 167 167 167 167 167 167 167 167 167 167 167 167 167 167 167 167 167 167 167 167 167 167 167 167 167 167 167 167 167 167 167 114 76 40 40 40 40 40 40 40 40 40 40 40 40 40 40 40 40 40 40 40 40 40 40 40 40 40 40 40 40 40 40 40 40 40 40 40 40 40 40 40 40 40 40 76 76 76 76 114 114 114 114 114 114 114 114 114 114 114 114 114 114 114 114 114 114 114 114 114 114 114 114 114 114 114 114 114 114 114 114 
114 114 114 114 114 114 114 114 114 114 114 114 114 114 114 114 114 114 114 114 114 114 114 114 114 76 76 76 76 76 76 76 76 40 40 40 40 40 40 76 76 76 76 76 76 76 76 76 76 76 76 76 76 76 76 76 76 76 76 76 76 76 76 76 76 76 76 76 76 76 76 76 76 76 76 76 76 76 76 76 76 76 76 76 76 76 76 76 76 76 76 76 76 76 167 167 167 167 167 167 167 114 114 114 114 114 114 114 114 76 76 76 76 76 76 76 76 76 76 76 76 76 76 76 76 76 76 76 76 76 76 76 76 76 76 76 76 76 76 76 76 114 76 76 76 76 114 114 114 114 114 76 76 76 114 76 76 76 76 114 114 114 114 114 114 114 114 114 114 114 114 114 114 114 114 114 114 114 114 114 114 114 114 114 114 114 114 114 114 114 114 114 114 114 167 114 114 114 114 114 114 114 114 167 114 114 114 114 114 114 114 167 167 167 167 167 114 167 114 114 114 114 167 114 114 114 114 114 167 167 167 167 114 114 114 167 167 167 167 114 167 114 114 167 167 167 167 114 114 114 167 167 114 114 114 167 114 114 167 167 167 167 167 114 114 167 167 167 167 167 167 114 114 167 167 167 167 167 167 167 167 167 167 167 167 167 167 167 167 167 167 167 167 167 167 167 167 167 167 167 167 167 167 167 167 167 167 167 167 167 167 167 167 114 167 167 167 167 167 167 167 167 167 167 167 114 114 167 167 167 114 167 167 167 167 167 167 114 114 114 114 167 167 167 114 167 167 114 167 167 167 167 167 167 167 167 167 167 167 167 167 167 167 167 167 167 167 167 167 167 167 167 167 167 167 167 167 167 167 167 167 167 167 167 167 167 167 167 167 167 167 167 167 167 167 167 167 167 167 167 167 167 167 167 167 167 167 167 167 167 167 167 167 167 167 167 167 167 167 167 167 167 167 167 167 167 167 167 167 167 167 167 114 40 40 40 40 40 40 40 40 40 40 40 40 40 40 40 40 40 40 40 40 40 40 40 40 40 40 40 40 40 40 40 40 40 40 40 40 40 40 40 40 40 40 40 76 76 76 114 114 114 114 114 114 114 114 114 114 114 114 114 114 114 114 114 114 114 114 114 114 114 114 114 114 114 114 114 114 114 114 114 
114 114 114 114 114 114 114 167 114 114 114 114 114 114 114 114 114 114 114 114 114 114 114 114 114 76 76 76 76 76 40 76 40 40 40 40 40 40 40 40 40 40 76 76 40 76 76 76 76 76 76 76 76 76 76 76 76 76 76 76 76 76 76 76 76 76 76 76 76 76 76 76 76 76 76 76 76 76 76 76 76 76 76 76 76 76 76 76 76 76 76 76 76 76 167 167 167 167 167 114 167 167 114 114 114 114 114 76 114 76 76 76 76 76 76 76 76 76 76 76 76 76 76 76 76 76 76 76 76 76 76 76 76 114 76 76 76 76 76 76 76 76 76 76 76 76 76 114 114 114 76 114 76 76 76 76 76 76 114 114 114 114 114 114 114 114 114 114 114 114 114 114 114 114 114 114 114 114 76 76 76 76 114 114 114 114 114 114 114 114 114 114 114 114 167 167 114 114 114 114 114 114 114 114 114 114 114 114 167 114 114 114 167 167 167 167 167 167 167 114 114 114 114 114 114 114 114 114 167 167 167 167 114 167 114 114 114 167 167 167 167 167 114 114 114 167 167 114 114 167 114 167 167 114 114 114 114 114 114 114 114 167 167 167 114 167 167 167 167 167 167 167 114 167 167 167 167 167 167 167 167 167 167 167 167 167 167 167 167 167 167 167 167 167 167 167 167 167 167 167 167 167 167 167 167 167 167 167 167 167 167 167 167 167 114 114 167 167 167 167 167 167 167 167 167 167 114 167 167 167 114 114 167 167 167 114 114 114 114 114 114 167 167 167 114 167 167 167 167 167 167 167 167 167 114 114 114 167 167 167 167 167 167 167 167 167 167 167 167 167 167 167 167 167 167 167 167 167 167 167 167 167 167 167 167 167 167 167 167 167 167 167 167 167 167 167 167 167 167 167 167 167 167 167 167 167 167 167 167 167 167 167 167 167 167 167 167 167 167 167 167 167 167 167 167 167 167 167 167 167 167 167 76 40 40 40 40 40 40 40 40 40 40 40 40 40 40 40 40 40 40 40 40 40 40 40 40 40 40 40 40 40 40 40 40 40 40 40 40 40 40 40 40 40 40 40 76 76 114 114 114 114 114 114 114 114 114 114 114 114 114 114 114 114 114 114 114 114 114 114 114 114 114 114 114 114 114 114 114 114 114 114 
114 114 114 114 114 114 114 167 114 114 114 114 114 114 114 114 114 114 114 114 114 114 114 114 114 76 76 76 76 76 76 76 40 40 40 40 40 40 76 76 76 76 76 76 76 76 76 76 76 76 76 76 76 76 76 76 76 76 76 76 76 76 76 76 76 76 76 76 76 76 76 76 76 76 76 76 76 76 76 76 76 76 76 76 76 76 76 76 76 76 76 76 76 76 167 167 167 167 167 167 114 167 114 114 114 114 114 76 76 76 76 76 76 76 76 76 76 76 76 76 76 76 76 76 76 76 76 76 76 76 76 76 76 76 76 76 114 114 114 76 76 76 76 76 114 114 76 76 114 114 76 114 76 76 76 76 76 114 114 114 114 114 114 114 114 114 114 114 114 114 114 114 114 114 114 114 114 114 76 76 76 114 114 114 114 114 114 114 114 114 114 114 114 114 114 167 114 114 114 114 114 114 114 114 114 114 167 114 167 167 167 114 114 114 114 114 167 114 167 114 114 114 114 114 114 114 114 114 167 167 167 114 114 167 114 114 114 167 167 167 167 114 114 114 114 114 167 167 167 167 167 114 114 167 114 114 167 167 114 114 114 167 167 167 167 114 114 114 167 114 167 167 167 167 167 167 167 167 167 167 167 167 167 114 114 167 167 114 167 167 167 167 167 167 167 167 167 167 167 167 167 167 167 167 167 167 167 167 114 114 114 167 167 167 114 114 114 167 167 167 167 167 167 167 167 167 167 114 167 167 167 114 114 167 167 114 114 114 114 114 114 114 114 167 167 167 167 167 167 167 167 167 167 114 114 167 167 167 167 167 167 167 167 167 167 167 167 167 167 167 167 167 167 167 167 167 167 167 167 167 167 167 167 167 167 167 167 167 167 167 167 167 167 167 167 167 167 167 167 167 167 167 167 167 167 167 167 167 167 167 114 114 167 167 167 167 167 167 167 167 167 167 167 167 167 167 167 167 167 167 167 114 76 40 40 40 40 40 40 40 40 40 40 40 40 40 40 40 40 40 40 40 40 40 40 40 40 40 40 40 40 40 40 40 40 40 40 40 40 40 40 40 40 40 40 76 76 76 114 114 114 114 114 114 114 114 114 114 114 114 114 114 114 114 114 114 114 114 114 114 114 114 114 114 114 114 114 114 114 114 114 114 
114 114 114 114 114 167 114 114 114 114 114 114 114 114 114 114 114 114 114 114 114 114 114 114 114 76 76 76 76 76 40 40 40 40 40 40 40 40 40 76 40 40 40 40 76 76 76 76 76 76 76 76 76 76 76 76 76 76 76 76 76 76 76 76 76 76 76 76 76 76 76 76 76 76 76 76 76 76 76 76 76 76 76 76 76 76 76 76 76 76 76 76 76 76 167 167 167 167 167 167 114 167 114 114 114 114 114 114 114 76 114 114 76 76 114 76 76 76 76 76 76 76 76 76 76 76 76 76 76 76 76 76 76 76 76 76 114 76 76 76 76 76 76 114 114 76 76 114 114 114 114 76 76 76 76 76 76 114 114 114 114 114 114 114 114 114 114 114 114 114 114 114 114 114 114 114 114 76 76 114 114 114 114 76 114 114 114 114 114 114 114 114 114 114 114 114 114 114 114 114 114 114 114 167 114 114 114 114 114 114 167 167 114 114 114 114 114 167 114 114 114 114 114 114 167 114 114 114 114 167 167 167 167 114 114 167 167 114 167 167 167 167 167 114 114 114 114 167 167 167 114 167 114 114 167 167 114 114 114 167 167 114 114 114 167 167 167 114 167 167 167 167 167 167 167 167 167 167 167 167 167 167 167 167 114 114 167 167 167 167 167 167 167 167 167 167 167 167 167 167 167 167 167 167 167 167 167 167 167 114 114 114 114 167 167 114 114 114 167 167 167 167 167 167 167 167 167 114 114 167 167 114 114 167 114 114 114 114 114 114 114 114 167 167 167 167 167 167 167 167 167 114 167 167 167 167 167 167 167 167 167 167 167 167 167 167 167 167 167 167 167 167 167 167 167 167 167 167 167 167 167 167 167 167 167 167 167 167 167 167 167 167 167 167 167 167 167 167 167 167 167 167 167 167 167 167 167 167 114 114 114 114 114 167 167 167 167 167 167 167 167 167 167 167 167 167 167 167 167 167 167 114 40 40 40 40 40 40 40 40 40 40 40 40 40 40 40 40 40 40 40 40 40 40 40 40 40 40 40 40 40 40 40 40 40 40 40 40 40 40 40 40 40 40 40 76 76 114 114 114 114 114 114 114 114 114 114 114 114 114 114 114 114 114 114 114 114 114 114 114 114 114 114 114 114 114 114 114 114 114 114 114 
114 114 114 114 114 114 114 114 114 114 114 114 114 114 114 114 114 114 114 114 114 114 114 114 114 114 76 76 76 76 76 40 40 40 40 40 40 40 40 40 40 76 76 76 76 76 76 76 76 76 76 76 76 76 76 76 76 76 76 76 76 76 76 76 76 76 76 76 76 76 76 76 76 76 76 76 76 76 76 76 76 76 76 76 76 76 76 76 76 76 76 76 76 114 167 167 167 167 167 167 114 167 167 114 114 114 114 114 76 76 114 114 76 76 114 114 76 76 76 76 76 76 76 76 76 76 76 76 76 76 76 76 76 76 76 76 76 76 76 76 76 114 114 76 76 76 76 114 114 76 76 76 76 76 76 114 114 114 114 114 114 114 114 114 114 114 114 114 114 114 114 114 114 167 114 76 76 76 114 114 114 114 114 114 114 114 114 114 114 114 114 114 114 114 114 76 114 114 114 114 114 114 114 167 167 167 167 167 114 114 114 167 167 114 114 114 114 114 114 114 114 114 114 167 167 167 167 114 114 114 114 114 167 167 167 114 114 167 114 114 167 167 167 167 114 114 114 114 167 167 167 114 167 114 114 167 167 114 114 114 167 167 114 114 167 167 167 167 167 114 167 167 167 167 167 167 167 167 167 167 167 167 167 167 167 114 114 167 167 167 167 167 167 167 167 167 167 167 167 167 167 167 167 167 167 167 114 167 167 167 167 114 114 114 167 167 167 114 114 167 167 167 167 167 167 167 167 167 114 167 167 114 114 114 167 114 114 114 114 114 167 167 167 167 167 167 167 114 114 114 167 167 167 167 167 167 167 167 167 167 167 167 167 167 167 167 167 167 167 167 167 167 167 167 167 167 167 167 167 167 167 167 167 167 167 167 167 167 167 167 167 167 167 167 167 167 167 167 167 167 167 167 167 167 167 167 167 114 114 114 114 114 114 167 167 167 167 167 167 167 167 167 167 167 167 167 167 167 167 167 167 76 40 40 40 40 40 40 40 40 40 40 40 40 40 40 40 40 40 40 40 40 40 40 40 40 40 40 40 40 40 40 40 40 40 40 40 40 40 40 40 40 40 40 76 76 114 114 114 114 114 114 114 114 114 114 114 114 114 114 114 114 114 114 114 114 114 114 114 114 114 114 114 114 114 114 114 114 114 114 114 114 
114 114 114 114 114 114 114 114 114 114 114 114 114 114 114 114 114 114 114 114 114 114 114 114 114 114 76 76 76 76 76 40 40 40 40 40 40 40 40 40 76 76 40 76 40 76 76 76 76 76 76 76 76 76 76 76 76 76 76 76 76 76 76 76 76 76 76 76 76 76 76 76 76 76 76 76 76 76 76 76 76 76 76 76 76 76 76 76 76 76 76 76 76 114 167 167 167 167 167 167 167 167 114 114 114 114 114 114 114 114 114 76 76 114 114 76 76 76 76 76 76 76 76 76 76 76 76 76 76 76 76 76 76 76 76 76 76 76 76 76 76 76 76 76 76 76 114 114 76 76 76 76 76 76 114 114 114 114 114 114 114 114 114 114 114 114 114 76 114 114 114 114 114 114 76 76 76 114 114 114 114 114 114 114 114 114 114 114 114 114 114 114 114 114 114 114 114 114 114 114 114 114 114 114 167 167 167 167 167 114 114 114 114 167 114 114 114 114 114 114 114 114 167 167 114 167 167 167 114 114 114 114 114 167 167 114 114 114 167 114 114 167 167 167 167 167 114 114 114 167 167 167 114 167 114 167 114 114 114 114 114 167 167 114 114 114 167 167 167 167 167 167 167 167 167 167 167 167 167 167 167 167 167 167 167 167 114 114 167 167 167 167 167 167 167 167 167 167 167 167 167 167 114 167 167 167 167 167 167 167 167 167 167 114 114 114 167 167 114 114 114 167 167 167 167 167 167 167 114 114 167 114 114 114 114 114 114 114 167 167 167 167 167 167 167 167 114 114 114 114 167 167 167 167 167 167 167 167 167 167 167 167 167 167 167 167 167 167 167 167 167 167 167 167 167 167 167 167 167 167 167 167 167 167 167 167 167 167 167 167 167 167 167 167 167 167 167 167 167 167 167 167 167 167 167 167 167 114 114 114 114 114 114 114 114 167 167 167 167 167 167 167 167 167 167 167 167 167 167 167 114 76 40 40 40 40 40 40 40 40 40 40 40 40 40 40 40 40 40 40 40 40 40 40 40 40 40 40 40 40 40 40 40 40 40 40 40 40 40 40 40 40 40 40 76 76 114 114 114 114 114 114 114 114 114 114 114 114 114 114 114 114 114 114 114 114 114 114 114 114 114 114 114 114 114 114 114 114 114 114 114 114 
114 114 114 114 114 114 114 114 114 114 114 114 114 114 114 114 114 114 114 114 114 114 114 114 76 76 76 76 76 40 76 40 40 40 40 40 40 40 76 40 76 76 40 40 40 76 76 76 76 76 76 76 76 76 76 76 76 76 76 76 76 76 76 76 76 76 76 76 76 76 76 76 76 76 76 76 76 76 76 76 76 76 76 114 76 76 76 76 76 76 76 76 76 114 167 167 167 167 167 167 167 167 114 114 114 114 114 114 114 114 114 114 76 114 114 76 76 76 76 76 114 76 76 76 76 76 76 76 76 76 76 76 76 76 76 40 76 76 76 114 114 76 76 76 76 114 114 114 76 76 76 76 76 114 114 114 114 114 114 114 114 114 114 114 114 114 114 76 76 114 114 114 114 114 76 76 114 114 114 114 114 114 114 114 114 114 114 114 114 114 114 114 114 114 114 114 114 114 114 114 114 114 114 114 114 114 167 167 167 114 114 114 114 167 114 114 114 114 114 114 114 167 167 167 167 167 167 167 167 114 114 114 114 114 167 167 167 114 114 167 114 167 167 167 167 167 167 114 114 167 114 167 167 114 167 114 114 167 114 114 114 114 167 167 114 114 114 167 167 167 167 167 167 167 167 167 167 114 114 167 167 167 167 167 167 167 167 167 114 114 167 167 167 167 167 167 167 167 167 167 167 167 114 167 114 167 167 167 167 167 167 167 167 167 114 114 114 167 167 114 114 167 167 167 114 167 167 167 114 114 114 114 114 114 114 114 114 167 167 167 167 167 167 167 167 167 114 167 167 167 167 167 167 167 167 167 167 167 167 167 167 167 167 167 167 167 167 167 167 167 167 167 167 167 167 167 167 167 167 167 167 167 167 167 167 167 167 167 167 167 167 167 167 167 167 167 167 167 167 167 167 167 167 167 167 167 114 114 114 114 114 114 114 114 114 167 167 167 167 167 167 167 167 167 167 167 167 167 167 167 114 40 40 40 40 40 40 40 40 40 40 40 40 40 40 40 40 40 40 40 40 40 40 40 40 40 40 40 40 40 40 40 40 40 40 40 40 40 40 40 40 40 40 76 76 76 114 114 114 114 114 114 114 114 114 114 114 114 114 114 114 114 114 114 114 114 114 114 114 114 114 114 114 114 114 114 114 114 114 114 114 114 
114 114 114 114 114 114 114 114 114 114 114 114 114 114 114 114 114 114 114 114 114 114 114 114 114 76 76 76 76 76 76 76 40 40 40 40 40 40 40 40 76 76 76 76 76 76 76 76 76 76 76 76 76 76 76 76 76 76 76 76 76 76 76 76 76 76 76 76 76 76 76 76 76 76 76 76 76 76 76 76 76 76 76 76 76 76 76 76 76 76 76 76 76 114 167 167 167 167 167 167 114 114 114 114 114 114 114 114 114 114 114 114 76 76 76 76 76 76 76 76 114 76 76 76 76 76 76 76 76 76 76 76 76 76 76 76 76 76 76 76 76 76 76 76 114 76 76 76 76 76 76 76 76 114 114 114 114 114 114 114 114 114 114 114 114 114 114 114 114 114 114 114 76 76 76 114 114 114 114 114 114 114 114 114 114 114 114 114 114 114 114 114 114 114 114 114 114 114 114 114 114 114 167 114 114 114 167 167 167 167 114 114 114 114 114 114 114 114 114 167 167 167 167 167 114 167 167 114 114 167 167 114 114 114 167 167 167 167 114 114 114 167 167 167 167 167 167 167 114 114 167 114 114 167 167 167 167 167 167 114 114 114 114 114 114 167 114 114 167 114 167 167 167 114 114 167 167 167 167 114 167 167 167 167 167 167 167 167 114 114 167 167 167 167 167 167 167 167 167 167 167 167 167 167 114 114 167 114 167 167 114 167 167 167 167 167 114 114 167 167 114 114 167 167 167 114 167 167 167 114 114 114 114 114 114 167 167 167 167 167 167 167 167 114 114 167 167 167 167 167 167 167 167 167 167 167 167 167 167 167 167 167 167 167 167 167 167 167 167 167 167 167 167 167 167 167 167 167 167 167 167 167 167 167 167 167 167 167 167 167 167 167 167 167 167 167 167 167 167 167 167 167 167 167 167 114 114 114 114 114 114 114 114 114 114 167 167 167 167 114 114 114 167 167 167 167 167 167 167 167 76 40 40 40 40 40 40 40 40 40 40 40 40 40 40 40 40 40 40 40 40 40 40 40 40 40 40 40 40 40 40 40 40 40 40 40 40 40 40 40 40 40 40 76 76 114 114 114 114 114 114 114 114 114 114 114 114 114 114 114 114 114 114 114 114 114 114 114 114 114 114 114 114 114 114 114 114 114 114 114 114 114 
114 114 114 114 114 114 114 114 114 114 114 114 114 114 114 114 114 114 114 114 114 114 114 114 114 114 76 76 76 76 76 76 40 40 40 40 40 40 76 76 40 40 40 76 76 76 76 76 76 76 76 76 76 76 76 76 76 76 76 76 76 76 76 76 76 76 76 76 76 76 76 76 76 76 76 76 76 76 76 76 76 76 76 76 76 76 76 76 76 76 76 76 76 167 167 167 167 167 167 167 167 114 114 114 114 114 114 114 114 114 114 114 76 76 114 114 114 76 76 76 76 76 76 76 76 76 76 76 114 76 76 76 76 76 76 76 76 76 76 114 114 76 76 76 76 76 76 76 76 76 76 114 114 114 114 114 114 114 114 114 76 114 114 114 114 114 114 114 114 114 76 76 76 76 76 114 114 114 114 114 114 114 114 114 114 114 114 114 114 114 114 114 114 114 114 114 114 114 114 114 114 114 114 167 114 114 114 114 167 167 167 114 114 114 114 114 114 114 167 114 114 167 167 167 167 114 114 167 167 114 114 167 114 114 114 114 167 167 167 167 114 114 167 167 167 167 167 167 167 114 114 114 114 114 114 114 167 167 167 167 114 114 114 114 114 114 167 167 167 114 167 167 167 114 114 114 167 167 167 167 167 167 167 167 167 167 167 167 167 167 114 167 167 167 167 167 167 167 167 167 167 167 114 114 167 114 167 114 167 167 114 167 167 167 167 167 167 114 167 167 114 114 167 167 167 114 114 114 114 114 114 114 114 167 167 167 167 167 167 167 167 167 167 167 167 167 167 167 167 167 167 167 167 167 167 167 167 167 167 167 167 167 167 167 167 167 167 167 167 167 167 167 167 167 167 167 167 167 167 167 167 167 167 167 167 167 167 167 167 167 167 167 167 167 167 167 167 167 167 167 167 167 167 167 114 114 114 114 114 114 114 114 114 114 167 167 167 114 114 114 114 114 167 167 167 167 167 167 167 114 40 40 40 40 40 40 40 40 40 40 40 40 40 40 40 40 76 40 40 40 40 40 40 40 40 40 40 40 40 40 40 40 40 40 40 40 40 40 40 40 40 40 40 76 114 114 114 114 114 114 114 114 114 114 114 114 114 114 114 114 114 114 114 114 114 114 114 114 114 114 114 114 114 114 114 114 114 114 114 114 114 114 
114 114 114 114 114 114 114 114 114 114 114 114 114 114 114 114 114 114 114 114 114 114 114 114 76 76 76 76 76 40 40 40 40 40 40 40 40 40 40 40 40 76 40 76 40 76 76 76 76 76 76 76 76 76 76 76 76 76 76 76 76 76 76 76 76 76 76 76 76 76 76 76 76 76 76 76 76 76 76 76 76 76 76 76 76 76 76 76 76 76 76 76 76 167 167 167 167 167 167 114 167 167 114 114 114 114 114 76 114 114 114 114 76 76 114 114 114 114 114 76 76 76 76 76 76 76 76 76 76 76 76 76 76 76 76 114 76 76 76 114 114 114 114 76 76 76 76 76 76 76 114 114 114 114 114 114 114 114 114 114 114 114 114 114 114 114 114 114 114 114 76 76 76 76 114 114 114 114 114 114 114 114 114 114 114 114 114 114 114 114 114 114 114 114 114 114 114 114 114 114 114 114 114 114 167 114 114 114 114 114 167 114 114 114 114 114 167 114 114 167 167 114 114 114 114 167 114 114 114 167 114 114 167 114 114 114 114 114 114 167 167 167 114 114 114 167 167 167 167 114 114 114 114 114 114 114 114 167 167 167 114 114 114 114 114 114 114 167 114 114 114 114 114 114 114 114 114 167 167 167 167 167 114 167 167 167 167 167 167 167 167 114 167 167 167 167 167 167 167 167 167 167 167 114 114 114 167 167 167 167 114 167 167 167 167 167 167 114 114 167 114 114 114 167 167 167 114 114 114 114 114 167 167 167 167 167 167 167 114 167 167 167 167 167 167 167 167 167 167 167 167 167 167 167 167 167 167 167 167 167 167 167 167 167 167 167 167 167 167 167 167 167 167 167 167 167 167 167 167 167 167 167 167 167 167 167 167 167 167 167 167 167 167 167 167 167 167 167 167 167 167 167 167 167 114 114 114 114 114 114 114 114 114 114 167 167 114 114 114 114 114 114 167 167 167 167 167 167 167 76 40 40 40 40 40 40 40 40 40 40 40 40 40 40 40 40 40 40 40 40 40 40 40 40 40 40 40 40 40 40 40 40 40 40 40 40 40 40 40 40 40 76 76 76 114 114 114 114 114 114 114 114 114 114 114 114 114 114 114 114 114 114 114 114 114 114 114 114 114 114 114 114 114 114 114 114 114 114 114 114 114 114 
114 114 114 114 114 114 114 114 114 114 114 114 114 114 114 114 114 114 114 114 114 114 114 114 114 76 76 76 76 76 76 76 40 40 40 40 40 40 40 40 76 76 76 76 40 40 40 76 76 76 76 76 76 76 76 76 76 76 76 76 76 76 76 76 76 76 76 76 76 76 76 76 76 76 76 76 76 76 76 76 76 76 76 76 76 76 76 76 76 76 76 76 76 167 167 167 167 167 167 167 167 167 114 114 167 167 114 114 114 114 114 114 114 76 76 76 76 114 76 76 76 76 76 76 76 76 76 76 76 76 76 76 76 76 76 76 76 76 76 76 76 76 76 76 76 76 76 76 76 114 114 114 114 114 114 114 114 114 76 114 114 114 114 114 114 114 114 114 114 114 76 76 76 114 114 114 114 114 114 114 114 114 114 114 114 114 114 114 114 114 114 114 114 114 114 114 114 114 114 114 114 114 114 114 167 114 114 114 114 114 114 114 114 114 114 167 167 114 114 167 114 114 114 114 114 114 114 114 114 114 114 114 167 114 114 114 114 114 114 167 167 167 167 114 114 114 114 114 114 114 114 114 114 114 167 114 114 114 114 114 167 114 114 114 114 114 114 167 114 114 114 114 114 167 167 114 167 114 114 167 167 167 114 114 167 167 167 167 167 167 167 167 114 167 167 167 167 167 167 167 167 167 167 167 114 114 114 167 167 167 114 167 167 114 167 167 167 114 114 114 167 114 114 114 114 114 114 114 114 167 167 167 167 167 167 167 167 114 114 114 167 167 167 167 167 167 167 167 167 167 167 167 167 167 167 167 167 167 167 167 167 167 167 167 167 167 167 167 167 167 167 167 167 167 167 167 167 167 167 167 167 167 167 167 167 167 167 167 167 167 167 167 167 167 167 167 167 167 167 167 167 167 167 114 114 114 114 114 114 114 114 114 167 167 167 114 76 76 114 114 114 114 167 167 167 167 167 167 114 76 40 40 40 40 40 40 40 40 40 40 40 40 40 40 40 40 40 40 40 40 40 40 40 40 40 40 40 40 40 40 40 40 40 40 40 40 40 40 40 40 40 76 76 114 114 114 114 114 114 114 114 114 114 114 114 114 114 114 114 114 114 114 114 114 114 114 114 114 114 114 114 114 114 114 114 114 114 114 114 114 114 114 
114 114 114 114 114 114 114 114 114 114 114 114 114 114 114 114 114 114 114 114 114 114 114 114 114 76 76 76 76 76 76 40 76 40 40 40 40 40 40 76 40 76 76 76 76 76 76 76 76 76 76 76 76 76 76 76 76 76 76 76 76 76 76 76 76 76 76 76 76 76 76 76 76 76 76 76 76 76 76 76 76 76 76 76 76 76 76 76 76 76 76 76 40 114 167 167 167 167 167 167 114 114 114 114 167 114 114 114 114 76 76 114 114 114 114 114 114 114 76 76 76 76 76 76 76 76 76 76 76 76 76 76 76 76 76 76 76 76 76 76 76 76 76 76 76 76 76 76 114 114 114 114 114 114 114 76 114 114 114 114 114 114 114 114 114 114 114 76 76 76 76 114 114 114 114 114 114 114 114 114 114 114 114 114 114 114 114 114 114 114 114 114 114 114 114 114 114 114 114 114 114 114 76 114 114 167 114 114 114 114 114 114 114 114 114 167 167 167 167 167 114 114 114 114 114 114 114 114 167 114 114 114 114 114 114 167 114 114 114 114 114 167 167 167 114 114 114 114 114 167 114 114 167 114 114 167 114 114 114 114 167 167 167 167 114 114 114 114 114 114 114 167 167 114 167 114 167 114 114 114 167 167 167 114 114 167 167 167 167 167 167 167 167 114 114 167 167 167 167 167 114 167 114 114 167 114 114 114 114 167 167 167 167 167 114 114 167 114 114 114 167 114 114 114 114 114 114 167 167 167 167 167 167 167 114 114 167 167 167 167 167 167 167 167 167 167 167 167 167 167 167 167 167 167 167 167 167 167 167 167 167 167 167 167 167 167 167 167 167 167 167 167 167 167 167 167 167 167 167 167 167 167 167 167 167 167 167 167 167 167 167 167 167 167 167 167 167 167 167 167 167 167 114 114 114 114 114 114 114 114 114 114 167 167 114 76 76 114 114 114 114 167 167 167 167 167 167 167 76 40 40 40 40 40 40 40 40 40 40 40 40 40 40 40 40 40 40 40 40 40 40 40 40 40 40 40 40 40 40 40 40 40 40 40 40 40 40 40 40 40 76 76 114 114 114 114 114 114 114 114 114 114 114 114 114 114 114 114 114 114 114 114 114 114 114 114 114 114 114 114 114 114 114 114 114 114 114 114 114 114 114 114 
114 114 114 114 114 114 114 114 114 114 114 114 114 114 114 114 114 114 114 114 114 114 114 114 114 76 76 76 76 40 40 40 40 40 40 40 40 40 40 76 76 40 76 76 76 76 40 76 76 76 76 76 76 76 76 76 76 76 76 76 76 76 76 76 76 76 76 76 76 76 76 76 76 76 76 76 76 76 76 76 76 76 76 76 76 76 76 76 76 76 76 76 76 167 167 167 167 167 167 167 114 114 167 114 114 114 114 167 114 114 114 114 114 114 114 114 114 114 76 76 76 114 76 76 76 76 76 40 40 76 76 114 76 76 76 76 76 114 114 76 76 76 76 76 76 76 76 114 114 114 114 114 114 114 114 114 114 114 114 76 114 114 114 114 114 114 114 40 76 76 114 114 114 114 114 114 114 114 114 114 114 114 114 114 114 114 114 76 114 114 114 114 114 114 114 114 114 114 114 114 114 114 114 114 114 114 114 114 114 76 76 114 167 114 114 114 167 167 167 114 114 114 114 114 114 114 114 114 114 167 167 114 114 167 167 114 167 114 114 114 114 114 114 167 167 114 114 114 114 114 114 114 114 114 114 114 167 114 114 114 114 167 167 114 114 114 114 114 114 114 114 114 167 114 167 114 167 167 114 167 114 167 167 167 114 167 167 167 167 167 167 167 167 167 114 114 114 167 167 167 167 114 114 167 114 167 114 114 114 114 167 167 167 167 167 114 114 167 114 76 114 114 114 114 114 114 167 167 167 167 167 167 167 114 167 167 167 167 167 167 167 167 167 167 167 167 167 167 167 167 167 167 167 167 167 167 167 167 167 167 167 167 167 167 167 167 167 167 167 167 167 167 167 167 167 167 167 167 167 167 167 167 167 167 167 167 167 167 167 167 167 167 167 167 167 167 167 167 167 167 167 167 114 114 114 114 114 114 114 114 114 167 167 114 114 76 76 114 114 114 114 167 114 167 167 167 167 114 76 40 40 40 40 40 40 40 40 40 40 40 40 40 40 40 40 40 40 40 40 40 40 40 40 40 40 40 40 40 40 40 40 40 40 40 40 40 40 40 40 76 76 76 114 114 114 114 114 114 114 114 114 114 114 114 114 114 114 114 114 114 114 114 114 114 114 114 114 114 114 114 114 114 114 114 114 114 114 114 114 114 114 114 
114 114 114 114 114 114 114 114 114 114 114 114 114 114 114 114 114 114 114 114 114 114 114 114 114 76 76 76 76 76 76 40 40 40 40 40 40 40 40 40 76 76 76 76 76 76 76 76 76 76 76 76 76 76 76 76 76 76 76 76 76 76 76 76 76 76 76 76 76 76 76 76 76 76 76 76 76 76 76 76 76 76 76 76 76 76 76 76 76 76 76 76 76 167 167 167 167 167 114 167 167 114 114 114 114 114 114 114 76 114 114 114 114 76 114 114 114 114 114 76 114 76 76 76 76 76 76 40 76 76 76 76 76 76 76 76 76 76 76 76 76 76 76 76 76 76 114 114 114 114 114 114 114 114 114 114 76 76 114 114 114 114 114 114 114 76 76 76 76 76 114 114 114 114 114 114 114 114 114 114 114 114 114 114 114 114 114 114 114 114 114 114 114 114 114 114 114 114 114 76 114 114 114 114 114 114 114 114 114 114 114 114 114 114 114 114 114 114 167 167 114 114 114 167 114 114 114 114 114 114 114 114 114 114 167 114 114 167 114 114 114 114 114 114 167 167 114 114 114 114 114 114 114 114 114 114 114 114 114 114 114 114 114 114 114 114 114 114 114 114 114 114 114 114 167 167 114 167 167 167 114 114 167 114 114 114 167 167 167 167 167 167 167 167 114 114 114 114 167 167 167 114 167 167 114 114 114 114 114 114 167 167 167 114 114 114 114 114 114 114 114 114 114 114 114 167 167 167 167 167 167 114 167 167 167 167 114 167 167 167 167 167 167 167 167 167 167 167 167 167 167 167 167 167 167 167 167 167 167 167 167 167 167 167 167 167 167 167 167 167 167 167 167 167 167 167 167 167 167 167 167 167 167 167 167 167 167 167 167 167 167 167 167 167 167 167 167 167 167 167 167 114 114 114 114 114 114 114 114 167 167 167 114 114 76 76 76 114 114 114 114 114 114 167 167 167 167 114 40 40 40 40 40 40 40 40 40 40 40 40 40 40 40 40 40 40 40 40 40 40 40 40 40 40 40 40 40 40 40 40 40 40 40 40 40 40 40 40 76 76 76 114 114 114 114 114 114 114 114 114 114 114 114 114 114 114 114 114 114 114 114 114 114 114 114 114 114 114 114 114 114 114 114 114 114 114 114 114 114 114 114 114 
114 114 114 114 114 114 114 114 114 114 114 114 114 114 114 114 114 114 114 114 114 114 114 114 114 76 76 76 76 76 76 40 40 40 40 40 40 40 40 76 76 76 76 76 76 76 76 76 76 76 76 76 76 76 76 76 76 76 76 76 76 76 76 76 76 76 76 76 76 76 76 76 76 76 76 76 76 76 76 76 76 76 76 76 76 76 76 76 76 76 76 76 40 167 167 167 167 167 114 167 167 167 114 114 114 114 114 114 114 114 114 114 114 114 114 114 76 114 114 114 114 76 76 76 76 76 76 76 76 76 76 40 76 76 76 114 76 76 76 76 76 76 76 76 76 114 114 114 114 114 114 114 114 114 114 114 114 76 114 114 114 114 114 114 114 76 76 114 76 114 114 114 114 114 114 114 114 114 114 114 114 114 114 114 76 114 114 114 114 114 114 114 114 114 114 114 114 114 114 114 114 114 114 114 114 114 114 114 114 114 114 114 114 114 114 167 114 114 114 114 114 114 114 167 167 114 114 114 114 167 114 114 114 114 114 167 167 114 114 114 114 114 114 114 114 167 167 167 114 114 114 114 114 114 114 167 167 114 114 114 114 114 114 114 114 114 114 114 114 167 167 114 114 114 114 167 167 114 167 167 114 114 114 167 114 114 114 167 167 167 167 167 167 114 167 114 114 114 114 114 167 167 167 167 114 114 114 167 114 114 114 167 167 114 114 167 114 114 114 114 76 114 167 167 167 167 167 167 167 114 114 167 167 167 167 167 167 167 167 167 167 167 167 167 167 167 167 167 167 167 167 167 167 167 167 167 167 167 167 167 167 167 167 167 167 167 167 167 167 167 167 167 167 167 167 167 167 167 167 167 167 167 167 167 167 167 167 167 167 167 167 167 167 167 167 167 167 167 167 167 114 114 114 114 114 114 114 114 114 167 167 114 114 76 76 76 114 114 114 114 114 114 114 167 167 167 167 76 40 40 40 40 40 40 40 40 40 40 40 40 40 40 40 40 40 40 40 40 40 40 40 40 40 40 40 40 40 40 40 40 40 40 40 40 40 40 40 40 76 76 76 114 114 114 114 114 114 114 114 114 114 114 114 114 114 114 114 114 114 114 114 114 114 114 114 114 114 114 114 114 114 114 114 114 114 114 114 114 114 114 114 114 
114 114 114 114 114 114 114 114 114 114 114 114 114 114 114 114 114 114 114 114 114 114 114 114 114 76 76 76 76 76 76 40 40 40 40 40 40 40 40 76 76 76 40 76 76 76 76 76 76 76 76 76 76 76 76 76 76 76 76 76 76 76 76 76 76 76 76 76 76 76 76 76 76 76 76 76 76 76 76 76 76 76 76 76 76 76 76 76 76 76 76 76 40 167 167 167 167 167 167 167 167 114 114 114 114 114 114 167 167 114 114 114 114 114 114 114 76 114 114 114 76 76 76 76 76 76 76 76 76 76 76 40 76 76 76 76 76 76 76 76 76 76 76 76 114 114 114 114 114 114 76 114 114 114 114 114 114 114 114 114 114 114 114 76 76 76 76 76 114 114 114 114 114 114 114 114 114 114 114 114 114 114 114 114 114 76 114 114 114 114 114 114 114 114 114 114 114 114 114 114 114 114 114 114 114 114 114 114 114 167 114 114 114 114 114 114 167 114 114 114 114 114 167 114 167 167 167 114 114 114 114 167 114 114 114 114 114 114 114 114 114 114 114 114 114 114 114 167 167 114 114 114 114 114 167 167 114 114 114 114 114 114 114 114 114 114 167 114 114 167 167 114 114 114 114 167 167 114 114 167 167 114 114 167 167 114 114 114 167 167 167 167 114 167 167 167 114 114 114 114 114 167 167 114 114 114 114 167 167 114 114 167 167 167 114 114 114 114 114 167 114 167 167 167 167 167 167 114 114 114 167 167 167 167 167 167 167 167 167 167 167 167 167 167 167 167 167 167 167 167 167 167 167 167 167 167 167 167 167 167 167 167 167 167 167 167 167 167 167 167 167 167 167 167 167 167 167 167 167 167 167 167 167 167 167 167 167 167 167 167 167 167 167 167 167 167 167 167 167 167 114 114 114 114 114 114 114 114 167 114 114 114 76 76 114 114 114 114 114 114 114 114 114 167 167 167 167 76 40 40 40 40 40 40 40 40 40 40 40 40 40 40 40 40 40 40 40 40 40 40 40 40 40 40 40 40 40 40 40 40 40 40 40 40 40 40 40 40 76 76 114 114 114 114 114 114 114 114 114 114 114 114 114 114 114 114 114 114 114 114 114 114 114 114 114 114 114 114 114 114 114 114 114 114 114 114 114 114 114 114 114 114 
167 114 114 114 114 114 114 114 114 114 114 114 114 114 114 114 114 114 114 114 114 114 114 114 76 76 76 76 76 76 76 40 40 40 40 40 40 40 40 40 40 40 76 76 76 76 76 76 76 76 76 76 76 76 76 76 76 76 76 76 76 76 76 76 76 76 76 76 76 76 76 76 76 76 76 76 76 76 76 76 76 76 76 76 76 76 76 76 76 76 76 76 76 167 167 167 167 167 167 167 114 114 114 167 114 114 114 167 167 114 114 114 114 114 114 114 114 114 114 76 76 76 76 76 76 76 76 76 76 40 40 76 76 76 76 76 76 76 76 76 76 76 114 114 114 114 114 114 114 114 114 114 114 114 114 114 114 114 114 76 114 114 76 76 76 114 76 76 114 114 114 114 114 114 114 114 114 114 114 114 114 114 114 114 114 76 76 114 114 114 114 76 114 114 114 114 114 114 114 114 114 114 114 114 114 76 114 114 114 114 114 114 114 114 114 114 114 114 114 114 114 114 114 114 114 167 167 114 114 114 114 167 114 114 114 114 114 114 114 114 114 114 114 114 114 114 114 114 167 167 114 114 114 114 114 114 114 114 114 167 114 114 114 114 114 114 114 114 114 114 114 114 167 167 114 114 167 167 114 114 114 114 114 114 167 167 114 114 114 114 167 167 114 114 114 114 167 114 114 114 114 114 167 114 114 114 114 114 167 114 114 114 114 114 114 114 114 114 114 114 167 167 167 167 167 114 114 114 167 114 167 167 167 167 167 167 167 167 167 167 167 167 167 167 167 167 167 167 167 167 167 167 167 167 167 167 167 167 167 167 167 167 167 167 167 167 167 167 167 167 167 167 167 167 167 167 167 167 167 167 167 167 167 167 167 167 167 167 167 167 167 167 167 167 167 167 167 167 167 114 114 114 114 114 114 114 167 167 114 114 114 76 76 114 114 114 114 114 114 114 114 114 167 167 167 167 114 40 40 40 40 40 40 40 40 40 40 40 40 40 40 40 40 40 40 40 40 40 40 40 40 40 40 40 40 40 40 40 40 40 40 40 40 40 40 40 40 40 76 76 114 114 114 114 114 114 114 114 114 114 114 114 114 114 114 114 114 114 114 114 114 114 114 114 114 114 114 114 114 114 114 114 114 114 114 114 114 114 114 114 114 114 
114 114 114 114 114 114 114 114 114 114 114 114 114 114 114 114 114 114 114 114 114 114 114 114 114 76 76 76 76 76 76 40 40 40 40 40 40 40 40 76 40 40 76 76 76 76 76 76 76 40 76 76 76 76 76 76 76 76 76 76 76 76 76 76 76 76 76 76 76 76 76 76 76 76 76 76 76 76 76 76 76 76 76 76 76 76 76 76 76 76 76 76 76 167 167 167 167 167 167 114 167 114 114 114 114 114 114 114 114 114 114 114 114 114 76 114 114 114 114 76 76 76 76 76 76 76 76 76 76 76 76 76 76 76 76 76 76 76 76 76 76 76 114 114 114 114 114 114 114 114 114 76 76 114 114 114 114 114 114 114 76 76 76 76 76 76 114 114 114 114 114 114 114 114 114 114 114 114 114 114 114 76 114 114 114 114 114 114 114 114 114 76 76 114 114 114 114 114 114 114 114 114 114 114 114 114 114 114 114 114 114 114 114 114 114 114 114 114 114 114 114 114 114 114 114 167 114 167 114 114 114 114 114 114 114 114 114 114 114 114 114 114 114 167 114 114 114 114 114 167 167 114 114 114 114 114 114 114 114 167 167 114 114 114 114 114 114 114 114 114 114 114 114 167 167 114 114 167 167 114 114 167 114 114 114 167 167 114 114 114 114 114 114 114 114 114 167 114 114 114 114 114 167 167 114 114 114 114 114 167 114 114 114 114 114 114 114 167 167 167 167 167 167 114 114 114 114 114 167 167 167 167 167 167 167 167 167 167 167 167 167 167 167 167 167 167 167 167 167 167 167 167 167 167 167 167 167 167 167 167 167 167 167 167 167 167 167 167 167 167 167 167 167 167 167 167 167 167 167 167 167 167 167 167 167 167 167 167 167 167 167 167 167 167 167 167 167 167 167 114 114 114 114 114 114 114 114 114 114 114 76 114 114 114 114 114 114 114 114 114 114 167 167 167 167 167 76 40 40 40 40 40 40 40 40 40 40 40 40 40 40 40 40 40 40 40 40 40 40 40 40 40 40 40 40 40 40 40 40 40 40 40 40 40 76 76 76 76 76 114 114 114 114 114 114 114 114 114 114 114 114 114 114 114 114 114 114 114 114 114 114 114 114 114 114 114 114 114 114 114 114 114 114 114 114 114 114 114 114 114 114 114 
114 114 114 114 114 114 114 114 114 114 114 114 114 114 114 114 114 114 114 114 114 114 114 114 114 76 76 76 76 76 76 40 40 40 40 40 40 40 40 76 76 76 76 76 76 76 76 76 76 76 76 76 76 76 76 76 76 76 76 76 76 76 76 76 76 76 76 76 76 76 76 76 76 76 76 76 76 76 76 76 76 76 76 76 76 76 76 76 76 76 76 76 76 167 167 167 167 167 167 114 167 167 114 114 114 114 114 114 114 114 114 114 114 114 76 114 114 114 114 114 114 76 76 76 76 76 76 76 76 76 76 76 76 76 76 76 76 76 76 76 76 114 114 114 114 114 114 114 114 114 114 76 76 76 114 114 114 114 114 114 76 76 76 76 76 76 114 114 114 114 114 114 114 114 114 114 114 114 114 114 114 114 114 114 114 114 114 76 76 76 114 76 76 114 114 114 114 114 114 114 114 114 114 114 114 114 114 114 114 114 114 114 114 114 114 114 114 114 114 114 114 114 114 114 114 167 167 114 167 114 114 114 114 114 114 114 114 114 114 114 114 114 167 114 167 167 114 114 114 114 114 114 114 114 114 114 167 114 114 114 114 167 167 167 114 114 114 114 114 114 114 114 114 114 167 114 114 167 167 114 114 114 114 114 114 114 167 114 114 114 114 114 114 114 114 167 114 167 114 114 114 114 114 167 167 114 114 114 114 167 114 114 114 114 114 114 167 167 167 167 167 167 167 114 114 167 167 167 167 167 167 167 167 167 167 167 167 167 167 167 167 167 167 167 167 167 167 167 167 167 167 167 167 167 167 167 167 167 167 167 167 167 167 167 167 167 167 167 167 167 167 167 167 167 167 167 167 167 167 167 167 167 167 167 167 167 167 167 167 167 167 167 167 167 167 167 167 167 114 114 114 114 114 114 167 167 114 114 114 114 114 114 114 114 114 114 114 114 114 114 114 167 167 167 167 114 76 40 40 40 40 40 40 40 40 40 40 40 40 40 40 40 40 40 40 40 40 40 40 40 40 40 40 40 40 40 40 40 40 40 40 40 40 40 40 40 40 76 114 114 114 114 114 114 114 114 114 114 114 114 114 114 114 114 114 114 114 114 114 114 114 114 114 114 114 114 114 114 114 114 114 114 114 114 114 114 114 114 114 114 114 114 
114 114 114 114 114 114 114 114 114 114 114 114 114 114 167 114 114 114 114 114 114 114 114 114 114 76 76 76 76 76 76 40 40 40 40 40 40 40 40 40 40 76 76 76 76 40 76 76 76 76 40 76 76 76 76 76 76 76 76 76 76 76 76 76 76 76 76 76 76 76 76 76 76 76 76 76 76 76 76 76 76 76 76 76 76 76 76 76 76 76 76 76 76 167 167 167 167 114 167 114 167 114 114 114 114 114 114 114 114 114 114 114 114 114 114 114 76 114 114 114 76 76 76 76 76 76 76 76 76 76 76 76 76 76 76 76 76 76 76 114 114 114 114 114 114 114 114 114 114 76 114 114 114 76 114 114 114 76 76 76 76 76 114 114 114 114 114 114 114 114 114 114 114 114 114 114 114 114 114 114 114 114 114 114 76 114 114 114 76 76 114 114 114 114 114 114 114 114 114 114 114 114 114 114 114 114 167 114 114 114 114 114 114 114 114 114 114 114 114 114 114 114 114 114 114 114 114 114 114 114 114 114 114 114 114 114 167 114 114 114 114 114 167 114 114 167 167 114 114 114 114 114 114 114 114 114 167 167 167 114 114 114 114 167 114 114 114 114 114 114 114 114 114 114 114 167 114 114 167 167 114 114 114 167 114 114 114 114 167 114 114 114 114 114 114 114 167 114 114 167 114 114 114 114 167 114 114 114 114 114 114 114 114 114 114 167 167 167 167 167 114 114 167 167 167 167 167 167 167 167 167 167 167 167 167 167 167 167 167 167 167 167 167 167 167 167 167 167 167 167 167 167 167 167 167 167 167 167 167 167 167 167 167 167 167 167 167 167 167 167 167 167 167 167 167 167 167 167 167 167 167 167 167 167 167 167 167 167 167 167 167 167 167 167 167 167 167 114 114 114 114 114 114 114 167 114 114 114 114 114 114 114 114 114 114 114 114 114 114 114 114 167 167 167 167 114 40 40 40 40 40 40 40 40 40 40 40 40 40 40 40 40 40 40 40 40 40 40 40 40 40 40 40 40 40 40 40 40 40 40 40 40 40 40 40 76 76 76 114 114 114 114 114 114 114 114 114 114 114 114 114 114 114 114 114 114 114 114 114 114 114 114 114 114 114 114 114 114 114 114 114 114 114 114 114 114 114 114 114 114 114 114 
114 114 114 114 114 114 114 114 114 114 114 114 114 114 114 114 114 114 114 114 114 114 114 114 114 76 76 76 76 40 76 40 40 40 40 40 40 40 40 76 40 40 76 76 76 76 76 76 76 76 76 76 76 76 76 76 76 76 76 76 76 76 76 76 76 76 76 76 76 76 76 76 76 76 76 76 76 76 76 76 76 76 76 76 76 76 76 76 76 76 76 40 114 167 167 167 167 167 167 167 167 114 114 167 114 114 76 114 167 114 114 114 114 114 114 76 76 76 114 114 76 76 76 76 76 76 76 76 76 76 76 76 76 76 76 76 76 114 114 114 114 114 114 114 114 114 114 114 114 76 114 76 114 114 114 114 114 114 76 76 114 114 76 76 114 114 114 114 114 114 114 114 114 114 114 114 114 114 76 114 114 114 114 114 114 76 76 114 114 114 114 114 114 114 114 114 114 114 114 114 114 114 114 114 114 114 114 114 167 114 114 114 114 114 114 114 114 114 114 114 114 114 114 167 114 114 114 114 114 114 114 114 114 114 114 114 114 114 167 114 114 114 167 167 167 167 114 114 114 114 114 114 114 114 114 114 114 167 167 167 114 114 114 114 114 167 114 114 114 114 114 114 114 114 114 114 167 114 114 167 114 114 114 114 167 114 114 114 114 167 114 114 114 114 114 114 114 114 114 114 114 114 114 114 167 114 114 114 114 114 114 114 114 167 167 167 167 167 114 114 114 114 167 167 167 167 167 167 167 167 167 167 167 167 167 167 167 167 167 167 167 167 167 167 114 167 167 167 167 167 167 167 167 167 167 167 167 167 167 167 167 167 167 167 167 167 167 167 167 167 167 167 167 167 167 167 167 167 167 167 167 167 167 167 167 167 167 167 167 167 167 167 167 167 167 167 167 114 114 114 114 114 114 167 114 114 76 114 114 114 114 114 114 114 114 114 76 114 114 114 114 167 167 167 167 76 40 40 40 40 40 40 40 40 40 40 40 40 40 40 40 40 40 40 40 40 40 40 40 40 40 40 40 40 40 40 40 40 40 40 40 40 40 40 40 76 76 114 114 114 114 114 114 114 114 114 114 114 114 114 114 114 114 114 114 114 114 114 114 114 114 114 114 114 114 114 114 114 114 114 114 114 114 114 114 114 114 114 114 114 114 114 
114 114 114 114 114 114 114 114 114 114 114 114 114 114 114 114 114 114 114 114 114 114 114 114 114 114 76 76 76 76 76 40 40 40 40 40 40 40 40 76 76 76 40 76 76 76 76 76 76 76 76 76 76 76 76 76 76 76 76 76 76 76 76 76 76 76 76 76 76 76 76 76 76 76 76 76 76 76 76 76 76 76 76 76 76 76 76 76 76 76 76 40 114 167 167 167 167 167 167 167 167 167 167 114 114 114 114 114 114 114 114 114 114 114 76 114 114 114 114 114 76 114 76 76 76 76 76 76 76 76 76 76 76 76 76 76 76 114 114 114 114 114 114 114 114 114 114 114 114 114 114 114 114 114 114 76 76 76 76 76 114 76 76 114 114 114 114 114 114 114 114 114 114 114 114 114 114 114 114 114 114 114 76 114 114 76 76 114 114 114 114 114 114 114 114 114 114 114 76 114 114 114 114 114 114 114 114 114 114 114 114 114 114 114 114 114 114 114 167 114 114 114 114 114 114 114 114 114 114 114 114 114 114 114 167 114 114 114 167 167 114 114 114 114 114 114 114 114 76 114 114 114 114 167 114 114 114 114 167 114 114 114 114 114 114 114 114 167 114 114 114 114 114 114 114 114 167 114 114 114 167 114 114 114 114 167 114 114 114 114 114 114 114 114 114 114 114 114 114 114 114 114 114 114 114 114 114 114 114 114 114 114 167 167 167 167 167 167 114 167 114 114 167 167 167 167 167 167 167 167 167 167 167 167 167 167 167 167 167 167 167 167 167 167 167 167 167 167 167 167 167 167 167 167 167 167 167 167 167 167 167 167 167 167 167 167 167 167 167 167 167 167 167 167 167 167 167 167 167 167 167 167 167 167 167 167 167 167 167 167 167 167 167 167 167 167 114 114 114 114 114 114 114 114 114 76 114 114 114 114 114 114 114 114 76 76 114 114 114 114 167 167 167 167 114 76 40 40 40 40 40 40 40 40 40 40 40 40 40 40 40 40 40 40 40 40 40 40 40 40 40 40 40 40 40 40 40 40 40 40 40 40 40 40 40 76 76 114 114 114 114 114 114 114 114 114 114 114 114 114 114 114 114 114 114 114 114 114 114 114 114 114 114 114 114 114 114 114 114 114 114 114 114 114 114 114 114 114 114 114 114 114 
114 114 114 114 114 114 114 114 114 114 114 114 114 114 114 114 114 114 114 114 114 114 114 114 114 114 76 76 76 76 76 40 40 40 40 40 40 76 76 76 40 40 40 76 76 76 76 76 76 76 76 76 76 76 76 76 76 76 76 76 76 76 76 76 76 76 76 76 76 76 76 76 76 76 76 76 76 76 76 76 76 76 76 76 76 76 76 76 76 76 76 40 114 167 167 167 167 167 167 114 167 167 167 114 114 114 114 114 114 114 114 167 114 114 76 114 114 114 114 114 114 114 114 76 76 76 76 76 76 76 76 76 76 76 76 76 76 114 76 76 114 114 114 114 114 114 114 114 76 114 114 114 114 114 114 76 76 76 76 114 76 114 114 114 114 114 114 114 114 114 114 114 114 114 114 114 76 114 114 114 114 114 76 76 76 76 76 114 114 114 114 114 114 114 114 114 114 114 114 114 114 114 114 114 114 114 114 114 114 114 114 114 114 114 114 114 114 167 167 167 114 114 114 114 114 167 114 114 114 114 114 114 114 114 114 114 167 167 114 114 167 114 114 114 114 114 114 114 114 114 114 167 114 114 114 114 114 114 114 114 114 114 114 114 114 114 114 114 167 114 114 167 114 114 114 114 114 167 114 114 114 167 167 114 114 114 167 114 114 114 114 114 167 114 114 114 114 114 114 114 114 114 114 114 114 114 114 114 114 114 167 167 167 167 167 114 114 114 167 167 167 167 167 167 167 167 167 167 167 167 167 167 167 167 167 167 167 167 167 167 167 167 167 167 167 167 167 167 167 167 167 167 167 167 167 167 167 167 167 167 167 167 167 167 167 167 167 167 167 167 167 167 167 167 167 167 167 167 167 167 167 167 167 167 167 167 167 167 167 167 167 167 167 167 167 114 114 114 114 114 167 114 114 114 114 114 114 114 114 114 114 114 76 76 76 76 114 114 114 167 167 167 167 167 76 40 40 40 40 40 40 40 40 40 40 40 40 40 40 40 40 40 40 40 40 40 40 40 40 40 40 40 40 40 40 40 40 40 40 40 40 40 40 40 76 76 114 114 114 114 114 114 114 114 114 114 114 114 114 114 114 114 114 114 114 114 114 114 114 114 114 114 114 114 114 114 114 114 114 114 114 114 114 114 114 114 114 114 114 114 114 114 
114 114 114 114 114 114 114 114 114 114 114 114 114 114 114 114 114 114 114 114 114 114 114 114 114 114 76 76 76 76 76 76 40 40 40 40 40 76 76 40 40 76 76 76 76 76 76 76 76 76 76 76 76 76 76 76 76 76 76 76 76 76 76 76 76 76 76 76 76 76 76 76 76 76 76 76 76 76 76 76 76 76 76 76 76 76 76 76 76 76 40 40 167 167 167 167 167 167 167 167 167 167 167 167 114 114 114 114 114 114 114 114 114 114 114 114 114 114 114 114 114 76 76 76 114 76 76 76 76 76 76 76 76 76 76 114 114 114 76 76 76 114 114 114 76 114 76 114 114 76 114 114 114 76 76 76 76 76 76 76 76 76 114 114 114 114 114 114 114 114 114 114 114 114 114 114 114 114 114 114 76 76 76 76 76 114 114 114 114 114 114 114 114 114 114 76 76 114 114 114 114 114 114 114 114 114 114 114 114 114 114 114 114 114 114 114 114 114 167 167 167 114 114 114 114 114 114 114 114 114 114 76 114 76 114 114 114 114 114 114 114 114 114 114 114 114 114 114 114 114 114 114 167 114 114 167 114 114 114 114 114 114 114 114 114 114 114 114 114 114 114 167 114 114 114 114 114 114 167 114 114 114 167 114 114 114 114 167 114 114 114 114 114 167 114 114 114 114 114 114 114 114 114 114 114 114 114 114 167 167 167 167 167 167 114 114 114 114 167 167 167 167 167 167 167 167 167 167 167 167 167 167 167 167 167 167 167 167 167 167 167 167 167 167 167 167 167 167 167 167 167 167 167 167 167 167 167 167 167 167 167 167 167 167 167 167 167 167 167 167 167 167 167 167 167 167 167 167 167 167 167 167 167 167 167 167 167 167 167 167 167 167 167 167 167 114 114 114 114 114 114 114 114 114 114 114 114 114 114 76 76 76 76 76 76 76 114 114 167 167 167 167 167 167 76 40 40 40 40 40 40 40 40 40 40 40 40 40 40 40 40 40 40 40 40 40 40 40 40 40 40 40 40 40 40 40 40 40 40 40 40 40 40 40 76 76 114 114 114 114 114 114 114 114 114 114 114 114 114 114 114 114 114 114 114 114 114 114 114 114 114 114 114 114 114 114 114 114 114 114 114 114 114 114 114 114 114 114 114 114 114 114 
114 114 114 114 114 114 114 114 114 114 114 114 114 114 114 114 114 114 114 114 114 114 114 114 114 114 76 76 76 40 40 76 40 40 40 40 40 40 40 40 40 40 40 76 76 76 76 76 76 76 76 76 76 76 76 76 76 76 76 76 76 76 76 76 76 76 76 76 76 76 76 76 76 76 76 76 76 76 76 76 76 76 76 76 76 76 76 76 76 76 76 76 167 167 167 167 167 167 167 167 167 114 114 167 167 114 114 114 114 114 114 114 114 114 114 114 114 114 114 114 114 76 76 76 76 76 76 76 76 76 76 76 40 76 76 114 114 114 114 114 76 76 114 114 114 76 76 76 114 114 114 114 114 76 76 76 114 76 76 76 114 114 114 114 76 114 114 114 114 114 114 114 114 114 114 114 114 114 114 114 76 76 114 114 76 114 114 114 114 114 114 114 114 114 114 114 114 114 114 114 114 114 114 114 114 114 114 114 114 114 114 114 114 114 114 114 114 114 114 114 114 114 114 114 114 114 114 114 114 114 76 76 76 76 76 76 76 76 40 76 76 76 76 114 167 167 114 114 114 114 114 114 114 114 114 114 114 114 114 114 114 114 114 114 114 114 114 114 114 114 114 114 114 114 114 114 114 114 114 114 114 114 114 114 114 114 114 114 114 114 114 114 114 167 114 114 114 76 114 114 114 114 114 114 114 114 114 167 167 167 167 167 167 114 114 114 114 167 167 167 167 167 167 167 167 167 167 167 167 167 167 167 167 167 167 167 167 167 167 167 167 167 167 167 167 167 167 167 167 167 167 167 167 167 167 167 167 167 167 167 167 167 167 167 167 167 167 167 167 167 167 167 167 167 167 167 167 167 167 167 167 167 167 167 167 167 167 167 167 167 167 167 167 167 114 114 114 114 114 114 114 114 114 114 114 114 114 76 76 76 40 40 76 76 76 76 114 114 167 167 167 167 167 114 76 40 40 40 40 40 40 40 40 40 40 40 40 40 40 40 40 40 40 40 40 40 40 40 40 40 40 40 40 40 40 40 40 40 40 40 40 40 40 76 76 114 114 114 114 114 114 114 114 114 114 114 114 114 114 114 114 114 114 114 114 114 114 114 114 114 114 114 114 114 114 114 114 114 114 114 114 114 114 114 114 114 114 114 114 114 114 114 
114 114 114 114 114 114 114 114 114 114 114 114 114 114 114 114 114 114 114 114 114 114 114 114 114 114 76 76 76 76 76 40 40 40 40 40 40 40 40 76 40 76 76 76 76 76 76 76 40 76 76 76 76 76 76 76 76 76 76 76 76 76 76 76 76 76 76 76 76 76 76 76 76 76 76 76 76 76 76 76 76 76 76 76 76 76 76 76 76 76 76 76 167 167 167 167 167 167 167 167 114 167 167 167 167 114 167 114 114 114 114 114 114 114 114 114 114 114 114 114 114 114 114 76 76 76 76 76 76 76 76 40 76 114 114 114 114 114 114 114 76 76 76 114 114 114 76 114 114 114 114 114 76 76 76 114 114 76 76 114 114 114 114 114 114 76 114 114 114 114 114 114 114 114 114 114 114 114 76 76 76 76 114 114 114 114 114 114 114 114 114 114 114 76 76 114 114 114 114 114 114 114 114 114 114 114 114 114 114 114 114 114 114 114 114 114 114 114 76 114 114 114 114 114 114 114 114 114 114 114 76 76 114 114 114 114 114 76 76 76 40 40 40 114 114 114 114 114 114 114 114 114 114 114 114 114 114 114 114 114 167 167 114 114 114 114 114 114 114 114 114 114 114 114 114 114 114 114 114 114 114 114 114 114 114 167 114 114 114 114 114 114 114 114 167 114 114 114 114 114 114 114 114 114 114 114 167 167 167 167 114 114 167 114 114 167 167 167 167 167 167 167 167 167 167 167 167 167 167 167 167 167 167 167 167 167 167 167 167 167 167 167 167 167 167 167 167 167 167 167 167 167 167 167 167 167 167 167 167 167 167 167 167 167 167 167 167 167 167 167 167 167 167 167 167 167 167 167 167 167 167 167 167 167 167 167 167 167 167 167 167 167 167 167 114 114 114 114 114 114 114 114 114 114 114 76 76 40 76 40 40 40 76 76 76 76 114 114 167 167 167 167 167 76 40 40 40 40 40 40 40 40 40 40 40 40 40 40 40 40 40 40 40 40 40 40 40 40 40 40 40 40 40 40 40 40 40 40 40 40 40 40 40 76 76 114 114 114 114 114 114 114 114 114 114 114 114 114 114 114 114 114 114 114 114 114 114 114 114 114 114 114 114 114 114 114 114 114 114 114 114 114 114 114 114 114 114 114 114 114 114 114 
114 114 114 114 114 114 114 114 114 114 114 114 114 114 114 114 114 114 114 114 114 114 114 114 114 114 76 76 76 76 76 40 40 40 40 40 40 40 76 76 40 76 76 76 40 76 76 76 76 76 76 76 76 76 76 76 76 76 76 76 76 76 76 40 76 76 76 76 76 76 76 76 76 76 76 76 76 76 76 76 76 76 76 76 76 76 76 76 76 76 76 40 167 167 167 167 167 167 167 167 167 167 167 167 114 114 167 167 114 114 114 167 114 114 114 114 114 114 114 114 114 114 114 114 76 76 76 76 76 40 76 76 76 114 114 114 114 114 114 114 114 76 76 114 114 114 76 114 114 114 114 76 76 76 76 114 76 76 114 114 114 114 114 114 114 114 114 114 114 114 114 114 114 114 114 114 114 76 76 76 114 76 76 114 114 114 114 114 114 114 114 114 114 76 76 114 114 114 114 114 114 114 114 114 114 114 114 114 114 114 114 114 76 76 114 114 114 76 114 114 114 114 114 114 114 114 114 114 114 114 114 76 114 114 114 114 114 114 114 76 76 40 40 76 114 114 114 114 114 114 114 114 114 114 114 114 114 114 114 114 114 114 114 114 167 114 114 114 114 114 114 114 114 114 114 114 114 114 114 114 114 114 167 114 114 114 167 167 114 114 114 114 114 114 114 114 114 114 114 76 114 114 114 114 167 167 167 167 167 167 114 114 114 114 114 167 167 167 167 167 167 167 167 167 167 167 167 167 167 167 167 167 167 167 167 167 167 167 167 167 167 167 167 167 167 167 167 167 167 167 167 167 167 167 167 167 167 167 167 167 167 167 167 167 167 167 167 167 167 167 167 167 167 167 167 167 167 167 167 167 167 167 167 167 167 167 167 167 167 167 167 167 167 114 114 114 114 114 114 114 114 114 114 76 76 40 76 40 76 76 76 76 76 76 76 114 114 167 167 167 167 167 114 76 40 40 40 40 40 40 40 40 40 40 40 40 40 40 40 40 40 40 40 40 40 40 40 40 40 40 40 40 40 40 40 40 40 40 40 40 40 40 76 76 114 114 114 114 114 114 114 114 114 114 114 114 114 114 114 114 114 114 114 114 114 114 114 114 114 114 114 114 114 114 114 114 114 114 114 114 114 114 114 114 114 114 114 114 114 114 114 114 
114 114 114 114 114 114 114 114 114 114 114 114 114 114 114 114 114 114 114 114 114 114 114 114 114 114 76 76 76 76 76 40 40 40 40 40 40 40 40 40 40 76 76 76 76 76 76 76 76 76 76 76 76 76 76 76 76 76 76 76 76 76 76 76 76 76 76 76 76 76 76 76 76 76 76 76 76 76 76 76 76 76 76 76 76 76 76 76 76 76 76 40 167 167 167 167 167 167 167 167 167 167 167 114 167 114 114 114 114 114 114 114 114 114 114 114 114 114 114 114 114 114 114 114 114 114 76 76 76 76 76 76 114 114 76 114 114 114 114 114 114 76 76 76 76 114 114 114 114 114 76 76 76 76 114 114 76 114 114 114 114 114 114 114 114 114 114 114 114 114 114 114 114 114 76 114 76 76 114 114 114 114 114 76 114 114 114 114 114 114 76 114 114 114 114 114 114 114 114 114 114 114 114 114 114 114 114 114 114 76 76 76 76 76 76 76 76 76 76 76 76 76 76 76 114 114 114 114 114 114 114 76 114 114 114 114 114 114 114 114 76 76 40 76 114 114 114 167 114 167 114 114 114 114 114 114 114 114 114 114 76 76 114 114 114 114 114 114 114 114 114 114 114 114 114 114 114 114 114 114 114 114 114 114 76 76 114 167 167 114 114 114 114 114 76 167 114 114 114 76 114 114 114 167 167 167 167 114 114 114 114 114 167 167 167 167 167 167 167 167 167 167 167 167 167 167 167 167 167 167 167 167 167 167 167 167 167 167 167 167 167 167 167 167 167 167 167 167 167 167 167 167 167 167 167 167 167 167 167 167 167 167 167 167 167 167 167 167 167 167 167 167 167 167 167 167 167 167 167 167 167 167 167 167 167 167 167 167 167 167 167 167 114 114 114 114 114 114 114 114 114 76 76 76 40 40 40 76 76 76 76 40 76 114 114 114 167 167 167 167 167 167 76 40 40 40 40 40 40 40 40 40 40 40 40 40 40 40 40 40 40 40 40 40 40 40 40 40 40 40 40 40 40 40 40 40 40 40 40 40 40 40 76 114 114 114 114 114 114 114 114 114 114 114 114 114 114 114 114 114 114 114 114 114 114 114 114 114 114 114 114 114 114 114 114 114 114 114 114 114 114 114 114 114 114 114 114 114 114 114 114 114 
114 114 167 114 114 114 114 114 114 114 114 114 114 114 114 114 114 114 114 114 114 114 114 114 114 76 76 76 76 76 76 40 40 40 40 40 40 40 40 40 40 76 40 40 76 76 76 76 76 76 76 76 76 76 76 76 76 76 76 76 76 76 76 76 76 76 76 76 76 76 76 76 76 76 76 76 76 76 76 76 76 76 76 76 76 76 76 76 40 76 76 76 167 167 167 167 167 167 167 167 167 167 167 114 167 167 114 114 114 167 167 114 114 114 114 114 114 114 114 167 114 114 114 76 114 114 76 76 76 40 76 114 114 114 76 76 76 114 114 114 114 114 76 76 76 114 114 114 76 76 76 76 76 114 76 76 114 114 114 114 114 114 114 114 114 114 114 114 114 114 114 114 114 114 76 76 76 114 114 114 114 114 114 114 114 114 114 114 114 114 114 76 114 114 114 114 114 114 114 114 114 114 114 114 114 114 114 76 76 76 40 76 76 76 76 40 40 40 40 40 40 76 76 76 76 76 114 114 114 76 76 76 114 114 114 114 114 114 114 114 114 76 40 40 76 114 114 114 114 114 114 114 114 114 114 114 114 114 114 114 114 114 76 76 76 76 114 114 114 114 114 114 114 114 114 114 114 114 114 114 114 76 76 76 40 40 76 114 114 114 114 114 114 114 76 76 114 114 114 114 114 167 167 167 167 167 114 114 114 114 114 167 167 167 167 167 167 167 167 167 167 167 167 167 167 167 167 167 167 167 167 167 167 167 167 167 167 167 167 167 167 167 167 167 167 167 167 167 167 167 167 167 167 167 167 167 167 167 167 167 167 167 167 167 167 167 167 167 167 167 167 167 167 167 167 167 167 167 167 167 167 167 167 167 167 167 167 167 167 167 167 114 114 114 114 114 114 114 114 114 76 76 40 40 40 76 76 40 40 76 76 76 76 114 167 167 167 167 167 167 167 114 76 40 40 40 40 40 40 40 40 40 40 40 40 40 40 40 40 40 40 40 40 40 40 40 40 40 40 40 40 40 40 40 40 40 40 40 40 40 40 76 76 114 114 114 114 114 114 114 114 114 114 114 114 114 114 114 114 114 114 114 114 114 114 114 114 114 114 114 114 114 114 114 114 114 114 114 114 114 114 114 114 114 114 114 114 114 114 114 114 114 
114 114 114 114 114 114 114 114 114 114 114 114 114 114 114 114 114 114 114 114 114 114 114 114 114 114 76 76 76 76 76 40 40 40 40 40 40 40 40 76 40 76 76 40 76 76 40 40 76 76 76 76 76 76 76 76 76 76 76 76 76 76 76 76 76 76 76 76 76 76 76 76 76 76 76 76 76 76 76 76 76 76 76 76 76 76 76 76 76 76 76 76 167 167 167 167 167 167 167 167 167 114 167 114 167 167 114 114 114 167 114 114 114 114 167 114 114 114 114 114 114 114 114 114 114 76 76 76 76 76 76 76 76 76 114 114 76 76 76 114 76 114 114 76 114 114 114 114 76 76 76 76 76 76 114 76 114 114 114 114 114 114 114 114 114 114 114 114 114 76 114 114 114 76 76 76 76 114 114 114 76 114 114 114 114 114 114 114 114 114 114 114 76 114 114 114 114 114 114 114 114 114 114 114 76 76 40 40 40 76 76 114 114 114 114 76 114 76 76 76 76 76 40 40 76 76 76 114 114 76 76 76 114 114 114 114 114 114 114 114 114 114 76 40 40 76 76 76 76 76 114 114 114 114 114 114 114 167 167 114 114 114 114 114 114 114 76 76 114 76 114 167 114 114 76 114 167 114 114 114 76 76 76 40 40 40 40 40 76 114 114 114 114 114 114 76 114 114 114 114 167 167 167 167 114 114 114 114 114 114 167 167 167 167 167 167 167 167 167 167 167 167 167 167 167 167 167 167 167 167 167 167 167 167 167 167 167 167 167 167 167 167 167 167 167 167 167 167 167 167 167 167 167 167 167 167 167 167 167 167 167 167 167 167 167 167 167 167 167 167 167 167 167 167 167 167 167 167 167 167 167 167 167 167 167 167 167 167 167 167 167 114 114 114 114 114 114 76 76 76 40 40 40 40 76 76 76 76 76 76 76 76 114 114 167 167 167 167 167 167 167 114 76 40 40 40 40 40 40 40 40 40 40 40 40 40 40 40 40 40 40 40 40 40 40 40 40 40 40 40 40 40 40 40 40 40 40 40 40 40 40 76 76 114 114 114 114 114 114 114 114 114 114 114 114 114 114 114 114 114 114 114 114 114 114 114 114 114 114 114 114 114 114 114 114 114 114 114 114 114 114 114 114 114 114 114 114 114 114 114 114 114 
114 114 114 114 114 114 114 114 114 114 114 114 114 114 114 114 114 114 114 114 114 114 114 114 114 114 76 76 76 76 76 40 40 40 40 40 40 40 40 76 40 40 40 40 76 76 76 76 76 76 76 76 76 76 76 76 76 76 76 76 76 76 76 76 76 76 76 76 76 76 76 76 76 76 76 76 76 76 76 76 76 76 76 76 76 76 76 76 76 76 40 40 167 167 167 167 167 167 167 167 167 167 167 167 167 114 114 114 114 114 114 114 114 114 114 114 114 167 114 114 114 114 114 114 114 76 76 76 76 76 76 114 114 114 76 76 114 76 76 76 76 114 114 114 114 114 114 114 76 76 76 114 76 76 76 114 114 114 114 114 114 114 114 114 114 114 114 114 114 114 114 114 76 76 76 114 114 76 76 114 114 114 114 114 114 114 114 114 76 76 114 114 114 114 114 114 114 114 114 114 114 114 114 76 76 76 40 40 76 114 114 114 114 114 114 76 114 76 114 114 76 76 76 40 40 40 76 76 76 76 40 76 114 114 114 167 114 114 114 114 114 114 114 114 76 76 76 40 40 76 76 76 76 76 76 76 114 114 167 167 114 114 114 114 114 167 114 76 76 40 40 114 114 114 76 76 114 167 167 76 76 114 114 114 76 40 40 40 40 76 114 114 114 114 114 76 76 114 167 167 167 167 114 167 114 114 114 114 114 114 167 167 167 167 167 167 167 167 167 167 167 167 167 167 167 167 167 167 167 167 167 167 167 167 167 167 167 167 167 167 167 167 167 167 167 167 167 167 167 167 167 167 167 167 167 167 167 167 167 167 167 167 167 167 167 167 167 167 167 167 167 167 167 167 167 167 167 167 167 167 167 167 167 167 167 167 167 167 167 167 114 114 114 114 114 114 76 76 40 40 76 40 40 40 76 76 76 76 76 76 76 76 114 114 167 167 167 167 167 167 114 76 40 40 40 40 40 40 40 40 40 40 40 40 40 40 40 40 40 40 40 40 40 40 40 40 40 40 40 40 40 40 40 40 40 40 40 40 40 40 76 76 114 114 114 114 114 114 114 114 114 114 114 114 114 114 114 114 114 114 114 114 114 114 114 114 114 114 114 114 114 114 114 114 114 114 114 114 114 114 114 114 114 114 114 114 114 114 114 114 114 114 
114 114 114 114 114 114 114 114 114 114 114 114 114 114 114 114 114 114 114 114 114 114 114 114 114 76 76 76 76 76 76 40 40 40 40 40 40 40 40 76 76 76 76 40 76 76 76 76 76 76 76 76 76 76 76 76 76 76 76 76 76 76 76 76 76 76 76 76 76 76 76 76 76 76 76 76 76 76 76 76 76 76 76 76 76 76 76 76 76 40 40 40 167 167 167 167 167 167 167 114 167 167 167 167 114 114 114 167 114 114 114 114 114 114 114 76 114 167 114 114 114 114 114 114 114 76 76 76 114 114 76 76 114 114 76 114 114 114 76 76 76 76 114 114 114 76 76 76 76 76 114 114 76 76 114 114 114 114 114 114 114 114 114 114 114 114 114 114 114 114 114 76 76 76 114 114 114 76 76 114 114 114 114 114 114 114 114 76 76 76 114 114 114 114 114 114 114 114 114 114 114 114 114 76 40 40 76 76 114 114 114 114 114 114 114 114 76 76 76 114 114 114 76 114 76 76 40 40 40 40 76 114 114 114 114 114 114 114 167 114 167 114 114 114 114 114 76 76 76 76 76 76 40 40 76 76 76 76 114 114 114 114 114 114 114 114 167 114 114 114 40 40 76 114 76 76 76 114 114 114 76 76 114 114 114 76 76 40 40 40 114 114 114 114 114 114 114 167 167 167 167 114 114 114 114 114 114 114 167 167 167 167 167 167 167 167 167 167 167 167 167 167 167 167 167 167 167 167 167 167 167 167 167 167 167 167 167 167 167 167 167 167 167 167 167 167 167 167 167 167 167 167 167 167 167 167 167 167 167 167 167 167 167 167 167 167 167 167 167 167 167 167 167 167 167 167 167 167 167 167 167 167 167 167 167 167 167 167 114 114 114 114 114 76 76 76 76 40 40 40 76 76 40 76 76 76 76 76 76 76 114 114 114 167 167 167 167 167 167 114 76 40 40 40 40 40 40 40 40 40 40 40 40 40 40 40 40 40 40 40 40 40 40 40 40 40 40 40 40 40 40 40 40 40 40 40 40 40 40 40 76 114 114 114 114 114 114 114 114 114 114 114 114 114 114 114 114 114 114 114 114 114 114 114 114 114 114 114 114 114 114 114 114 114 114 114 114 114 114 114 114 114 114 114 114 114 114 114 114 114 114 114 
114 167 114 114 114 114 114 114 114 114 114 114 114 114 114 114 114 114 114 114 114 114 114 114 114 76 76 76 76 76 76 40 40 40 40 40 40 40 40 40 76 76 76 76 76 76 76 76 76 76 76 76 76 76 40 40 76 76 76 76 76 76 76 76 76 76 76 76 76 76 76 76 76 76 76 76 76 76 76 76 76 76 76 76 76 76 76 76 76 76 76 76 167 167 167 167 167 167 167 167 167 167 167 114 114 167 114 114 114 114 114 114 114 114 114 114 114 114 114 114 114 114 114 114 114 76 76 76 76 114 114 76 76 76 114 76 76 76 114 114 76 76 114 114 114 76 76 40 76 76 76 76 114 114 114 114 114 114 114 114 114 114 114 114 114 114 114 114 114 114 76 76 76 76 114 114 114 114 114 114 114 114 114 114 114 114 76 76 114 114 114 114 114 114 114 114 114 114 114 114 114 76 76 76 76 76 114 114 114 114 114 114 114 114 114 114 114 76 76 76 76 76 76 76 76 76 76 40 40 40 76 114 114 167 167 114 114 114 114 114 114 114 114 114 114 76 76 76 76 76 76 76 76 114 76 76 40 40 76 76 76 76 114 114 114 114 114 114 114 114 114 76 40 40 76 40 40 40 76 76 40 40 76 114 114 76 76 40 40 40 40 114 114 114 114 167 167 167 167 167 114 114 114 114 114 114 114 167 167 167 167 167 167 167 167 167 167 167 167 167 167 167 167 167 167 167 167 167 167 167 167 167 167 167 167 167 167 167 167 167 167 167 167 167 167 167 167 167 167 167 167 167 167 167 167 167 167 167 167 167 167 167 167 167 167 167 167 167 167 167 167 167 167 167 167 167 167 167 167 167 167 167 167 167 167 167 114 114 114 114 114 76 76 76 76 40 40 40 40 76 76 76 40 76 76 76 76 76 76 76 114 114 167 167 167 167 167 167 167 76 76 40 40 40 40 40 40 40 40 40 40 40 40 40 40 40 40 40 40 40 40 40 40 40 40 40 40 40 40 40 40 40 40 40 40 40 40 40 40 76 76 114 114 114 114 114 114 114 114 114 114 114 114 114 114 114 114 114 114 114 114 114 114 114 114 114 114 114 114 114 114 114 114 114 114 114 114 114 114 114 114 114 114 114 114 114 114 114 114 114 114 114 
114 114 114 114 114 114 114 114 114 114 114 114 114 114 114 114 114 114 114 114 114 114 114 114 114 114 76 76 76 76 76 40 40 40 40 40 40 40 40 40 40 76 76 76 76 76 76 76 76 76 76 76 76 76 76 76 76 76 76 76 76 76 76 76 76 76 76 76 76 76 76 76 76 76 76 76 76 76 76 76 76 76 76 76 76 76 76 76 76 76 76 40 114 167 167 167 167 167 167 167 167 167 167 167 167 167 167 114 114 114 114 114 114 114 114 114 114 114 114 114 114 114 114 114 114 114 114 76 76 76 76 114 76 76 76 76 76 76 76 76 76 114 114 114 114 76 76 76 76 76 76 76 114 114 114 114 114 114 114 114 114 114 114 76 114 114 114 76 76 76 76 76 114 76 114 114 76 114 114 76 114 114 114 114 114 114 76 76 114 114 114 114 114 114 114 114 114 114 114 114 114 76 76 76 76 114 114 114 114 114 114 114 76 76 76 76 76 76 76 76 76 76 76 76 76 76 76 76 40 40 40 114 114 114 114 114 114 114 114 167 167 114 76 76 76 76 114 114 114 114 114 76 76 76 76 76 76 40 40 40 40 40 40 40 76 40 40 76 76 76 76 76 76 40 40 40 40 40 40 40 76 40 40 40 76 76 40 40 40 40 40 76 114 114 167 167 167 167 114 114 114 114 114 114 114 167 167 167 167 167 167 167 167 167 167 167 167 167 167 167 167 167 167 167 167 167 167 167 167 167 167 167 167 167 167 167 167 167 167 167 167 167 167 167 167 167 167 167 167 167 167 167 167 167 167 167 167 167 167 167 167 167 167 167 167 167 167 167 167 167 167 167 167 167 167 167 167 167 167 167 167 167 167 167 167 114 114 114 114 76 76 76 76 76 40 40 40 40 40 76 76 76 76 40 76 76 76 76 76 114 114 167 167 167 167 167 167 167 114 76 40 40 40 40 40 40 40 40 40 40 40 40 40 40 40 40 40 40 40 40 40 40 40 40 40 40 40 40 40 40 40 40 40 40 40 40 40 40 40 76 76 114 114 114 114 114 114 114 114 114 114 114 114 114 114 114 114 114 114 114 114 114 114 114 114 114 114 114 114 114 114 114 114 114 114 114 114 114 114 114 114 114 114 114 114 114 114 114 114 114 114 114 
114 114 114 114 114 114 114 114 114 114 114 114 114 114 114 114 114 114 114 114 114 114 114 114 114 114 76 76 76 76 76 40 40 40 40 40 40 40 40 40 40 40 76 76 76 76 76 76 76 76 76 76 76 76 76 76 76 76 76 76 76 76 76 76 76 76 76 76 76 76 76 76 76 76 76 76 76 76 76 76 76 76 76 76 76 76 76 76 76 76 76 40 114 167 167 167 167 167 167 167 167 167 167 167 167 167 114 114 167 167 114 114 114 114 114 114 114 114 114 114 114 114 114 114 114 114 114 114 76 76 76 114 114 76 76 76 76 76 76 114 114 114 76 76 76 76 76 114 76 76 76 114 114 114 114 114 114 114 114 114 114 114 114 114 114 114 114 76 76 76 76 114 114 114 76 114 76 114 76 114 114 114 114 114 76 76 114 114 114 114 114 114 114 114 114 114 114 114 114 114 114 76 114 114 114 114 114 114 114 114 76 76 76 76 76 76 76 76 76 40 40 40 40 40 40 40 76 76 40 40 40 114 114 76 76 114 167 167 167 114 114 76 76 76 76 76 114 114 114 114 114 76 76 76 76 76 76 40 40 40 40 76 40 76 40 40 40 40 40 40 40 40 40 40 40 40 40 40 40 40 40 40 40 40 40 40 40 40 40 40 40 40 114 167 167 167 114 114 114 114 114 114 114 114 114 167 167 167 167 167 167 167 167 167 167 167 167 167 167 167 167 167 167 167 167 167 167 167 167 167 167 167 167 167 167 167 167 167 167 167 167 167 167 167 167 167 167 167 167 167 167 167 167 167 167 167 167 167 167 167 167 167 167 167 167 167 167 167 167 167 167 167 167 167 167 167 167 167 167 167 167 167 114 114 114 76 76 76 76 76 76 40 40 40 40 76 76 76 76 76 76 76 76 76 76 76 76 114 114 114 167 167 167 167 167 167 167 167 76 40 40 40 40 40 40 40 40 40 40 40 40 40 40 40 40 40 40 40 40 40 40 40 40 40 40 40 40 40 40 40 40 40 40 40 40 40 40 40 76 76 114 114 114 114 114 114 114 114 114 114 114 114 114 114 114 114 114 114 114 114 114 114 114 114 114 114 114 114 114 114 114 114 114 114 114 114 114 114 114 114 114 114 114 114 114 114 114 114 114 114 114 114 
114 114 114 114 114 114 114 114 114 114 114 114 114 114 114 114 114 114 114 114 114 114 114 114 114 114 76 76 76 76 40 40 40 40 40 40 40 40 40 40 40 76 76 76 76 76 76 76 76 76 76 76 76 76 76 76 76 76 76 76 76 76 76 76 76 76 76 76 76 76 76 76 76 76 76 76 76 76 76 76 76 76 76 76 76 76 76 76 76 76 76 40 114 167 167 167 167 167 167 167 114 167 167 167 167 114 114 114 167 167 114 114 167 114 114 114 76 114 114 114 114 114 167 167 114 114 76 76 76 76 76 76 76 76 76 76 76 76 114 114 114 114 114 76 76 76 76 76 76 76 76 114 114 114 114 114 114 114 114 114 76 114 114 114 114 114 76 76 76 114 114 114 114 114 114 76 114 114 114 114 114 76 114 114 114 76 76 114 114 114 114 114 76 114 114 114 114 114 114 76 40 76 114 114 114 114 114 114 76 114 76 76 76 40 40 76 76 76 76 40 40 40 40 40 40 40 40 40 40 40 40 76 114 114 114 114 114 114 114 114 114 76 76 114 76 76 76 76 76 76 76 76 76 40 40 40 76 76 76 76 76 76 40 40 40 40 40 40 40 40 76 40 40 40 40 40 40 40 40 40 40 40 40 40 40 40 40 40 40 40 40 76 167 167 167 167 114 114 114 114 114 167 167 167 167 167 167 167 167 167 167 167 167 167 167 167 167 167 167 167 167 167 167 167 167 167 167 167 167 167 167 167 167 167 167 167 167 167 167 167 167 167 167 167 167 167 167 167 167 167 167 167 167 167 167 167 167 167 167 167 167 167 167 167 167 167 167 167 167 167 167 167 167 167 167 167 167 167 167 167 114 114 114 76 76 76 76 40 76 76 40 40 76 40 76 76 76 76 76 76 76 76 76 76 76 76 114 114 114 167 167 167 167 167 167 167 167 114 76 40 40 40 40 40 40 40 40 40 40 40 40 40 40 40 40 40 40 40 40 40 40 40 40 40 40 40 40 40 40 40 40 40 40 40 40 40 40 40 76 76 114 114 114 114 114 114 114 114 114 114 114 114 114 114 114 114 114 114 114 114 114 114 114 114 114 114 114 114 114 114 114 114 114 114 114 114 114 114 114 114 114 114 114 114 114 114 114 114 114 114 114 114 
167 114 114 114 114 114 114 114 114 114 114 114 114 114 114 114 114 114 114 114 114 114 114 114 114 114 76 76 76 76 76 40 40 40 40 40 40 40 76 40 40 40 40 76 76 76 76 76 76 76 76 76 76 76 76 76 76 76 76 76 76 76 76 76 76 76 76 76 76 76 76 76 76 76 76 76 76 76 76 76 76 76 76 76 76 76 76 76 76 76 76 40 114 167 167 167 167 167 167 167 167 167 167 167 167 167 167 167 114 167 167 114 114 114 114 114 76 114 114 114 114 114 167 167 114 114 76 76 76 76 76 76 76 114 76 76 76 76 114 114 76 76 76 76 76 76 76 76 76 114 114 114 114 114 114 76 114 114 114 114 114 114 114 114 76 76 76 76 76 114 114 114 114 76 114 114 76 114 114 114 114 76 76 76 76 114 114 114 114 114 114 114 114 114 114 114 114 114 114 40 40 76 114 114 114 114 114 114 76 76 76 76 40 40 76 76 76 76 76 40 40 40 40 76 40 40 40 40 76 40 40 76 76 76 114 114 114 114 76 76 76 114 76 76 76 76 76 40 76 40 40 76 40 40 40 40 40 40 76 76 76 40 40 40 40 76 40 40 40 40 40 40 40 40 40 40 40 40 40 40 40 40 40 40 40 40 40 40 40 40 40 114 167 167 167 114 114 114 114 114 167 167 167 167 167 167 167 167 167 167 167 167 167 167 167 167 167 167 167 167 167 167 167 167 167 167 167 167 167 167 167 167 167 167 167 167 167 167 167 167 167 167 167 167 167 167 167 167 167 167 167 167 167 167 167 167 167 167 167 167 167 167 167 167 167 167 167 167 167 167 167 167 167 167 167 167 167 114 114 114 114 76 76 40 76 40 76 40 76 76 76 76 76 76 76 40 76 76 76 76 76 76 76 76 76 114 114 114 114 114 167 167 167 167 167 167 114 76 40 40 40 40 40 40 40 40 40 40 40 40 40 40 40 40 40 40 40 40 40 40 40 40 40 40 40 40 40 40 40 40 40 40 40 40 40 40 40 76 76 114 114 114 114 114 114 114 114 114 114 114 114 114 114 114 114 114 114 114 114 114 114 114 114 114 114 114 114 114 114 114 114 114 114 114 114 114 114 114 114 114 114 114 114 114 114 114 114 114 114 114 114 114 
167 114 114 114 114 114 114 114 114 114 114 114 114 114 114 114 114 114 114 114 114 114 114 114 114 114 76 76 76 76 76 40 40 40 40 40 40 76 76 76 76 76 76 76 76 76 76 76 76 76 76 76 76 76 76 76 76 76 76 76 76 76 76 76 76 76 76 76 76 76 76 76 76 76 76 76 76 76 76 76 76 76 76 76 76 76 76 76 76 76 76 40 76 167 167 167 167 167 167 167 167 167 167 114 167 167 167 167 114 114 114 167 114 114 76 114 114 114 114 76 114 114 114 114 76 76 76 76 76 76 76 76 76 114 114 114 76 114 114 76 76 76 40 76 76 76 76 114 114 114 114 114 76 114 114 114 114 114 114 114 114 114 114 76 76 76 76 76 114 114 114 76 76 114 114 114 114 114 114 114 76 76 76 76 114 114 114 114 114 114 114 114 114 114 76 114 114 76 76 76 76 76 114 114 114 114 76 76 76 76 40 40 40 76 76 76 76 76 40 40 76 76 76 76 76 76 76 40 76 76 76 114 76 76 76 76 76 76 76 76 76 114 76 76 76 76 40 40 40 40 40 40 40 40 40 40 40 76 76 76 76 40 40 40 40 76 76 40 40 40 40 40 40 40 40 40 40 40 40 40 40 40 40 40 40 40 40 40 40 114 167 167 167 114 114 76 114 114 114 167 167 167 167 167 167 167 167 167 167 167 167 167 167 167 167 167 167 167 167 167 167 167 167 167 167 167 167 167 167 167 167 167 167 167 167 167 167 167 167 167 167 167 167 167 167 167 167 167 167 167 167 167 167 167 167 167 167 167 167 167 167 167 167 167 167 167 167 167 167 167 167 167 167 167 167 114 114 114 76 76 76 76 76 76 40 40 76 76 76 76 40 76 76 76 40 40 76 76 76 76 76 76 76 76 114 114 167 114 167 167 167 167 167 167 167 114 76 40 40 40 40 40 40 40 40 40 40 40 40 40 40 40 40 40 40 40 40 40 40 40 40 40 40 40 40 40 40 40 40 40 40 40 40 40 40 40 40 76 76 114 114 114 114 114 114 114 114 114 114 114 114 114 114 114 114 114 114 114 114 114 114 114 114 114 114 114 114 114 114 114 114 114 114 114 114 114 114 114 114 114 114 114 114 114 114 114 114 114 114 114 114 114 
167 114 114 114 114 114 114 114 114 114 114 114 114 114 114 114 114 114 114 114 114 114 114 114 114 114 76 76 76 76 76 40 40 40 40 40 40 40 76 40 76 76 76 76 76 76 76 76 76 76 76 76 76 76 76 76 76 76 76 76 76 76 76 76 76 76 76 76 76 76 76 76 76 76 76 76 76 76 76 76 76 76 76 76 76 76 76 76 76 76 76 40 40 167 167 167 167 167 167 167 167 167 167 167 167 167 167 167 167 114 114 114 114 76 76 114 114 76 76 76 114 114 114 114 76 76 76 76 76 76 76 76 76 76 76 114 76 114 114 76 76 76 76 76 76 76 76 114 114 114 114 114 114 114 114 114 76 114 114 114 114 114 114 76 76 76 114 114 114 76 114 114 76 114 114 114 114 114 114 114 114 76 76 76 114 114 114 114 114 114 114 114 114 114 114 76 76 76 76 76 114 114 114 114 114 114 76 76 76 40 40 76 76 76 76 76 76 76 40 76 76 114 76 76 76 76 76 40 40 76 76 76 76 40 76 76 76 76 76 114 76 76 76 76 76 40 40 40 40 40 40 40 40 40 40 76 76 76 76 76 40 40 40 40 40 40 76 40 40 40 40 40 40 40 40 40 40 40 40 40 40 40 40 40 40 40 40 76 114 167 167 167 114 114 76 114 114 114 167 167 167 167 167 167 167 167 167 167 167 167 167 167 167 167 167 167 167 167 167 167 167 167 167 167 167 167 167 167 167 167 167 167 167 167 167 167 167 167 167 167 167 167 167 167 167 167 167 167 167 167 167 167 167 167 167 167 167 167 167 167 167 167 167 167 167 167 167 167 167 167 167 167 167 114 114 76 76 76 76 40 40 40 40 40 40 40 40 76 76 76 76 76 76 76 76 76 76 76 76 76 76 76 114 114 114 114 167 167 167 167 167 167 167 167 114 76 40 40 40 40 40 40 40 40 40 40 40 40 40 40 40 40 40 40 40 40 40 40 40 40 40 40 40 40 40 40 40 40 40 40 40 40 40 40 40 40 40 76 76 114 114 114 114 114 114 114 114 114 114 114 114 114 114 114 114 114 114 114 114 114 114 114 114 114 114 114 114 114 114 114 114 114 114 114 114 114 114 114 114 114 114 114 114 114 114 114 114 114 114 114 114 114 
114 114 114 114 114 114 114 114 114 114 114 114 114 114 114 114 114 114 114 114 114 114 114 114 114 114 76 76 76 76 76 40 40 40 40 40 40 40 76 40 40 40 40 76 76 76 76 76 76 76 76 76 76 76 76 76 76 76 76 76 76 76 76 76 76 76 76 76 76 76 76 76 76 76 76 76 76 76 76 76 76 76 76 76 76 76 76 76 76 76 76 76 40 167 167 167 167 167 167 167 167 167 167 167 167 167 167 167 167 114 114 114 114 114 114 114 76 76 114 114 114 114 114 76 76 76 76 76 76 76 76 76 76 76 76 114 76 76 76 76 76 76 76 114 76 114 76 114 114 114 114 114 114 114 76 114 114 76 114 114 114 76 76 76 76 76 114 114 114 114 114 114 76 76 76 76 114 114 114 114 76 76 76 114 114 114 114 114 114 114 114 114 114 114 114 76 76 40 76 114 114 114 114 114 114 114 76 76 40 76 76 76 114 114 76 76 76 76 76 114 114 114 114 76 76 76 76 40 40 40 40 76 76 40 76 40 40 76 76 76 76 76 40 40 40 76 76 40 40 40 40 40 40 40 76 76 76 40 40 40 40 40 40 40 40 40 76 40 40 40 40 40 40 40 40 40 40 40 40 40 40 40 40 40 76 114 114 167 167 167 114 114 114 114 114 114 114 167 167 167 167 167 167 167 167 167 167 167 167 167 167 167 167 167 167 167 167 167 167 167 167 167 167 167 167 167 167 167 167 167 167 167 167 167 167 167 167 167 167 167 167 167 167 167 167 167 167 167 167 167 167 167 167 167 167 167 167 167 167 167 167 167 167 167 167 167 167 167 167 167 167 114 114 76 76 40 40 40 40 40 40 40 40 76 40 40 40 76 76 76 76 76 76 76 76 76 76 76 76 76 114 114 114 114 114 167 167 167 167 167 167 114 114 76 40 40 40 40 40 40 40 40 40 40 40 40 40 40 40 40 40 40 40 40 40 40 40 40 40 40 40 40 40 40 40 40 40 40 40 40 40 40 40 40 40 40 76 76 114 114 114 114 114 114 114 114 114 114 114 114 114 114 114 114 114 114 114 114 114 114 114 114 114 114 114 114 114 114 114 114 114 114 114 114 114 114 114 114 114 114 114 114 114 114 114 114 114 114 114 114 114 114 
114 114 114 114 114 114 114 114 114 114 114 114 114 114 114 114 114 114 114 114 114 114 114 114 114 114 76 76 76 76 76 40 40 40 40 40 40 40 40 40 40 40 40 76 76 76 76 76 76 76 76 76 76 76 76 76 76 76 76 76 76 76 76 76 76 76 76 76 76 76 76 76 76 76 76 76 76 76 76 76 76 76 76 76 76 76 76 76 76 76 76 40 40 114 167 167 167 167 167 167 167 167 167 167 167 167 167 167 167 114 114 114 114 114 114 76 76 114 114 114 114 114 114 76 76 114 76 76 76 76 76 76 76 76 76 114 114 76 76 76 76 76 76 76 76 114 76 114 114 114 114 76 114 114 76 114 114 114 114 76 114 76 76 76 114 114 114 114 114 114 114 114 114 114 114 114 114 114 114 76 76 76 114 114 114 114 114 114 114 114 114 114 76 76 76 76 76 76 76 76 114 114 114 114 114 76 76 40 40 76 114 114 76 76 76 76 76 76 76 114 114 114 76 76 76 76 40 76 40 40 40 76 76 40 40 40 76 76 76 76 40 76 40 40 40 40 40 40 40 40 40 40 40 76 76 40 40 40 40 40 40 40 40 40 40 40 40 40 40 40 40 40 40 40 40 40 40 40 40 40 40 40 40 40 76 114 167 167 114 114 114 114 114 114 114 114 167 167 167 167 167 167 167 167 167 167 167 167 167 167 167 167 167 167 167 167 167 167 167 167 167 167 167 167 167 167 167 167 167 167 167 167 167 167 167 167 167 167 167 167 167 167 167 167 167 167 167 167 167 167 167 167 167 167 167 167 167 167 167 167 167 167 167 167 167 167 167 167 167 114 114 76 40 40 76 76 40 40 40 76 76 76 76 76 40 40 76 76 76 76 76 76 76 76 76 76 76 76 76 114 114 114 114 114 167 167 167 167 167 167 114 76 40 40 40 40 40 40 40 40 40 40 40 40 40 40 40 40 40 40 40 40 40 40 40 40 40 40 40 40 40 40 40 40 40 40 40 40 40 40 40 40 40 40 40 40 76 76 114 114 114 114 114 114 114 114 114 114 114 114 114 114 114 114 114 114 114 114 114 114 114 114 114 114 114 114 114 114 114 114 114 114 114 114 114 114 114 114 114 114 114 114 114 114 114 114 114 114 114 114 114 114 
114 114 114 114 114 114 114 114 114 114 114 114 114 114 114 114 114 114 114 114 114 114 114 114 114 114 76 76 76 76 76 40 40 40 40 40 40 40 40 40 40 40 40 76 76 76 76 76 40 76 40 76 76 76 76 76 76 76 76 76 76 76 76 76 76 76 76 76 76 76 76 76 76 76 76 76 76 76 76 76 76 76 76 76 76 76 76 76 76 76 76 76 40 76 167 167 167 167 167 167 167 167 167 167 167 167 167 167 167 114 114 114 114 76 76 76 76 76 76 76 76 76 114 76 76 76 76 114 76 76 76 76 76 76 76 76 114 76 76 76 76 114 76 76 114 114 114 114 76 114 114 114 76 114 114 114 114 114 114 76 76 76 76 76 76 76 76 114 114 114 114 114 114 114 114 76 76 76 76 114 76 114 114 114 114 114 114 114 114 114 114 114 114 76 76 76 76 114 114 114 76 114 76 76 76 76 76 40 76 76 114 114 76 40 76 76 76 76 76 76 76 76 76 76 76 40 40 40 76 76 40 40 40 40 40 76 76 76 76 40 76 76 40 40 40 40 40 40 40 76 76 40 76 76 40 40 40 40 40 40 40 40 40 40 40 40 40 40 40 40 40 40 40 40 40 40 40 40 40 40 40 40 40 40 114 167 167 114 114 114 76 76 114 167 167 167 167 167 167 167 167 167 167 167 167 167 167 167 167 167 167 167 167 167 167 167 167 167 167 167 167 167 167 167 167 167 167 167 167 167 167 167 167 167 167 167 167 167 167 167 167 167 167 167 167 167 167 167 167 167 167 167 167 167 167 167 167 167 167 167 167 167 167 167 167 167 167 167 114 76 76 40 40 76 76 40 40 40 76 76 76 76 76 76 76 76 76 76 76 76 76 76 76 76 76 76 76 114 114 114 114 167 167 167 167 167 167 167 167 114 76 40 40 40 40 40 40 40 40 40 40 40 40 40 40 40 76 40 40 40 40 40 40 40 40 40 40 40 40 40 40 40 40 40 40 40 40 40 40 40 40 40 40 40 40 40 76 114 114 114 114 114 114 114 114 114 114 114 114 114 114 114 114 114 114 114 114 114 114 114 114 114 114 114 114 114 114 114 114 114 114 114 114 114 114 114 114 114 114 114 114 114 114 114 114 114 114 114 114 114 114 114 
114 114 114 114 114 114 114 114 114 114 114 114 114 114 114 114 114 114 114 114 114 114 114 114 114 114 76 76 76 76 76 40 40 40 40 76 40 40 40 76 40 40 40 76 76 76 76 76 40 76 76 76 76 76 76 76 76 76 76 76 76 76 76 76 76 76 76 76 76 76 76 76 76 76 76 76 76 76 76 76 76 76 76 76 76 76 76 76 76 76 76 76 76 76 167 167 167 167 167 167 167 167 167 167 167 167 167 167 114 167 167 114 114 114 76 114 76 76 76 76 114 114 114 114 114 76 76 114 114 76 114 76 76 76 114 76 76 76 76 76 76 76 76 114 76 114 114 114 114 76 114 114 76 76 114 114 76 114 114 76 76 76 76 114 76 114 114 114 76 114 76 76 114 114 114 114 76 76 76 76 114 114 114 114 114 114 114 114 114 114 114 114 114 76 76 76 76 114 114 114 114 114 76 76 76 76 76 76 76 114 114 76 76 76 76 114 76 76 76 76 76 40 40 40 40 40 40 40 40 40 40 40 40 40 40 76 76 76 40 76 76 76 76 76 76 76 76 76 76 76 76 76 76 40 40 40 40 40 40 40 40 40 40 40 40 40 76 40 40 40 40 40 40 40 40 40 40 40 40 40 40 40 40 114 167 167 114 114 76 76 76 114 114 167 167 167 167 167 167 167 167 167 167 167 167 167 167 167 167 167 167 167 167 167 167 167 167 167 167 167 167 167 167 167 167 167 167 167 167 167 167 167 167 167 167 167 167 167 167 167 167 167 167 167 167 167 167 167 167 167 167 167 167 167 167 167 167 167 167 167 167 167 167 167 167 167 114 114 76 76 40 40 40 76 76 76 76 76 76 76 76 76 40 40 76 76 76 76 76 76 76 76 76 76 114 114 114 114 114 114 167 167 167 167 167 167 167 167 114 76 40 40 40 40 40 40 40 40 40 40 40 40 40 40 40 40 40 40 40 40 40 40 40 40 40 40 40 40 40 40 40 40 40 40 40 40 40 40 40 40 40 40 40 40 40 76 114 114 114 114 114 114 114 114 114 114 114 114 114 114 114 114 114 114 114 114 114 114 114 114 114 114 114 114 114 114 114 114 114 114 114 114 114 114 114 114 114 114 114 114 114 114 114 114 114 114 114 114 114 114 114 114 
114 114 114 114 114 114 114 114 114 114 114 114 114 114 114 114 114 114 114 114 114 114 114 114 114 114 76 76 76 76 76 40 40 40 40 40 40 40 40 40 76 76 76 76 76 76 76 76 76 76 76 76 76 76 76 76 76 76 76 76 76 76 76 76 76 76 76 76 76 76 76 76 76 76 76 76 76 76 76 76 76 76 76 76 76 76 76 76 76 76 76 40 76 76 167 167 167 167 167 167 167 167 167 167 167 167 167 167 167 167 114 114 114 76 76 114 76 76 76 114 114 114 76 114 114 76 76 76 76 76 114 76 76 76 76 76 76 40 76 76 76 76 76 76 76 114 114 114 114 114 114 114 114 114 76 76 114 76 76 76 114 76 76 114 114 114 114 114 114 114 114 114 76 114 76 114 114 76 76 114 114 114 114 114 114 114 114 114 114 114 114 76 76 76 76 76 114 76 76 114 76 114 76 76 76 40 76 114 114 114 76 76 76 76 76 76 76 40 40 40 40 40 40 40 40 40 40 40 40 40 40 40 40 76 76 76 76 76 76 76 76 76 40 76 76 76 76 76 76 76 76 40 40 40 76 76 76 40 40 40 40 40 40 40 40 40 114 40 40 40 40 40 40 40 40 40 40 40 40 40 40 76 167 167 167 114 114 76 76 76 114 167 167 167 167 167 167 167 167 167 167 167 167 167 167 167 167 167 167 167 167 167 167 167 167 167 167 167 167 167 167 167 167 167 167 167 167 167 167 167 167 167 167 167 167 167 167 167 167 167 167 167 167 167 167 167 167 167 167 167 167 167 167 167 167 167 167 167 167 167 167 167 167 167 167 114 114 76 76 76 76 40 40 76 76 76 76 76 76 76 76 76 76 76 40 40 76 76 76 76 76 76 114 114 114 114 114 114 167 167 167 167 167 167 167 167 167 167 114 40 40 40 40 40 40 40 40 40 40 40 40 40 40 40 76 40 40 40 40 40 76 40 40 40 40 40 40 40 40 40 40 40 40 40 40 40 40 40 40 40 40 40 40 40 76 76 114 114 114 114 114 114 114 114 114 114 114 114 114 114 114 114 114 114 114 114 114 114 114 114 114 114 114 114 114 114 114 114 114 114 114 114 114 114 114 114 114 114 114 114 114 114 114 114 114 114 114 114 114 114 114 114 
114 114 114 114 114 114 114 114 114 114 114 114 114 114 114 114 114 114 114 114 114 114 114 114 114 114 76 76 76 76 76 40 40 40 40 40 40 76 40 40 40 76 76 76 76 40 40 76 76 76 76 76 76 76 76 76 76 76 76 76 76 76 76 76 76 76 76 76 76 76 76 76 76 76 76 76 76 76 76 76 76 76 76 76 76 76 76 76 76 76 76 76 76 76 167 167 167 167 167 167 167 167 167 167 167 167 167 167 167 114 114 114 114 114 114 114 76 76 76 114 114 114 114 76 114 167 76 76 76 114 114 114 76 76 76 76 76 76 76 76 76 76 76 114 114 76 114 114 114 114 114 114 114 114 114 76 76 76 76 76 114 114 114 76 114 114 76 114 114 76 114 114 76 114 76 76 114 76 114 114 114 114 114 114 114 114 114 114 76 76 114 76 76 40 76 114 114 114 114 114 114 114 76 76 76 76 76 76 76 76 76 76 76 76 40 40 40 40 40 40 40 40 40 40 40 40 40 40 40 40 40 40 40 40 76 76 76 76 76 76 76 40 76 76 76 76 76 76 76 76 40 40 76 76 76 76 40 40 40 40 40 40 40 40 40 40 114 40 40 40 40 40 40 40 40 40 40 40 40 40 114 167 167 114 114 114 76 76 76 114 167 167 167 167 167 167 167 167 167 114 167 167 167 167 167 167 167 167 167 167 167 167 167 167 167 167 167 167 167 167 167 167 167 167 167 167 167 167 167 167 167 167 167 167 167 167 167 167 167 167 167 167 167 167 167 167 167 167 167 167 167 167 167 167 167 167 167 167 167 167 167 167 114 114 114 76 76 76 76 76 40 76 76 76 76 76 76 76 76 76 76 76 40 40 76 76 76 76 76 114 114 114 114 114 114 114 114 114 114 167 167 167 167 167 167 167 167 114 76 40 40 40 40 40 40 40 40 40 40 40 40 40 40 40 40 40 40 40 40 40 40 40 40 40 40 40 40 40 40 40 40 40 40 40 40 40 40 40 40 40 40 40 40 40 76 76 114 114 114 114 114 114 114 114 114 114 114 114 114 114 114 114 114 114 114 114 114 114 114 114 114 114 114 114 114 114 114 114 114 114 114 114 114 114 114 114 114 114 114 114 114 114 114 114 114 114 114 114 114 114 114 114 
114 114 114 114 114 114 114 167 114 114 114 114 114 114 114 114 114 114 114 114 114 114 114 114 114 76 76 76 76 76 76 40 40 40 40 40 40 76 40 40 76 76 76 76 76 76 76 76 40 76 76 76 76 76 76 76 76 76 76 76 76 76 76 76 76 76 76 76 76 76 76 76 76 76 76 76 76 76 76 76 76 76 76 76 76 76 76 76 76 76 76 76 76 76 114 167 167 167 167 167 167 167 167 167 167 167 167 167 167 114 114 114 114 114 114 76 76 76 76 114 114 114 114 76 76 114 114 76 76 76 76 114 76 76 76 76 76 76 76 76 76 114 114 114 114 114 76 114 114 114 114 76 114 114 114 76 76 114 114 114 76 76 76 76 114 114 76 114 114 114 114 76 76 114 76 76 76 76 114 114 114 114 114 114 114 114 114 114 76 76 76 76 76 76 76 76 114 114 114 114 114 114 114 76 76 76 76 76 76 76 76 40 76 76 40 40 40 40 40 40 40 40 40 40 40 40 40 40 40 40 40 40 40 76 76 76 76 76 76 76 40 40 40 40 40 40 40 76 76 40 40 76 76 76 76 76 40 40 40 40 76 40 40 40 40 40 76 40 40 40 40 40 40 40 40 40 40 40 40 114 167 167 167 114 114 76 76 76 114 167 167 167 167 167 167 167 167 167 114 114 167 167 167 167 167 167 167 167 167 167 167 167 167 167 167 167 167 167 167 167 167 167 167 167 167 167 167 167 167 167 167 167 167 167 167 167 167 167 167 167 167 167 167 167 167 167 167 167 167 167 167 167 167 167 167 167 167 167 167 167 114 114 76 76 76 76 76 76 114 76 76 76 76 76 76 76 76 76 76 40 76 76 76 76 76 76 76 114 114 114 114 114 114 114 114 114 114 114 114 114 114 167 167 167 167 114 114 76 40 40 40 40 40 40 40 40 40 40 40 40 40 40 40 40 40 40 40 40 40 40 40 40 40 40 40 40 40 40 40 40 40 40 40 40 40 40 40 40 40 40 40 40 40 76 76 114 114 114 114 114 114 114 114 114 114 114 114 114 114 114 114 114 114 114 114 114 114 114 114 114 114 114 114 114 114 114 114 114 114 114 114 114 114 114 114 114 114 114 114 114 114 114 114 114 114 114 114 114 114 114 114 114 
114 114 114 114 114 114 114 114 114 114 114 114 114 114 114 114 114 114 114 114 114 114 114 114 114 114 114 76 76 76 76 76 40 40 40 40 40 76 40 40 40 76 76 76 76 76 76 76 76 76 76 76 76 76 76 76 76 76 76 76 76 76 76 76 76 76 76 76 76 40 76 76 76 76 76 76 76 76 76 76 76 76 76 76 76 76 76 76 76 76 76 76 76 40 40 167 167 167 167 167 167 167 167 167 167 167 167 167 167 114 114 114 114 76 114 114 114 114 114 114 114 114 114 76 76 114 114 114 76 76 76 76 76 76 76 76 76 76 76 76 76 114 114 76 114 114 114 76 114 114 114 114 114 114 76 76 76 76 76 114 76 76 114 114 114 114 114 114 114 114 76 76 76 76 76 76 114 114 114 114 114 114 114 114 114 114 114 76 114 76 40 76 76 76 76 76 76 114 114 114 114 114 76 76 76 76 76 76 40 40 40 40 40 40 40 40 40 40 40 40 40 40 40 40 40 40 40 40 40 40 40 40 76 76 76 76 76 76 76 76 40 76 76 40 40 40 40 76 76 40 40 76 76 76 40 76 40 76 76 76 76 40 40 40 40 76 114 40 40 40 40 40 40 40 40 40 40 76 114 167 167 114 114 114 76 76 76 114 167 167 167 167 167 167 167 167 167 167 167 167 167 167 167 167 167 167 167 167 167 167 167 167 167 167 167 167 167 167 167 167 167 167 167 167 167 167 167 167 167 167 167 167 167 167 167 167 167 167 167 167 167 167 167 167 167 167 167 167 167 167 167 167 167 167 167 167 167 167 114 114 114 76 40 40 76 114 114 76 76 76 76 76 76 76 76 76 76 76 76 40 76 76 76 76 76 114 114 114 114 114 114 114 114 114 114 114 167 167 167 114 167 167 167 167 167 114 76 40 40 40 40 40 40 40 40 40 40 40 40 40 40 40 40 40 40 40 40 40 40 40 40 40 40 40 40 40 40 40 40 40 40 40 40 40 40 40 40 40 40 40 40 40 40 76 114 114 114 114 114 114 114 114 114 114 114 114 114 114 114 114 114 114 114 114 114 114 114 114 114 114 114 114 114 114 114 114 114 114 114 114 114 114 114 114 114 114 114 114 114 114 114 114 114 114 114 114 114 114 114 114 114 114 
114 114 114 114 114 114 114 114 114 114 114 114 114 114 114 114 114 114 114 114 114 114 114 114 114 114 114 76 76 76 76 40 40 40 40 40 40 40 40 40 40 40 76 76 40 40 76 76 76 76 76 76 76 76 76 76 76 76 76 76 76 76 76 76 76 76 76 76 76 76 76 76 76 76 76 76 76 76 76 76 76 76 76 76 76 76 76 76 76 76 76 76 76 76 76 167 167 167 167 167 167 167 167 167 167 167 167 167 167 167 114 114 114 76 114 114 114 114 114 114 76 76 114 114 76 76 114 114 114 114 76 76 76 76 76 76 76 76 76 76 114 114 114 76 76 114 114 114 114 114 114 114 114 76 76 76 76 76 114 76 114 76 114 76 114 114 114 114 76 76 76 76 76 76 76 114 114 114 114 114 114 76 114 114 114 114 114 76 76 76 40 76 114 76 114 114 76 76 114 114 114 76 76 76 76 76 40 40 40 40 40 40 40 76 76 76 76 40 76 40 40 40 40 40 40 40 40 40 40 40 40 76 76 76 76 76 76 76 76 40 40 40 40 40 40 40 40 40 76 76 40 76 76 40 40 40 76 76 76 40 40 40 40 40 40 76 76 40 40 40 40 40 40 40 40 40 76 114 167 167 114 114 114 76 76 114 114 167 167 167 167 167 167 167 167 167 167 167 167 167 167 167 167 167 167 167 167 167 167 167 167 167 167 167 167 167 167 167 167 167 167 167 167 167 167 167 167 167 167 167 167 167 167 167 167 167 167 167 167 167 167 167 167 167 167 167 167 167 167 167 167 167 167 167 167 167 114 114 76 76 76 40 40 40 76 114 76 76 76 114 76 76 76 76 76 76 76 76 76 76 76 114 114 114 114 114 114 114 114 114 114 114 114 114 114 114 114 114 114 167 167 167 167 114 114 40 40 40 40 40 40 40 40 40 40 40 40 40 40 40 40 40 40 40 40 40 40 40 40 40 40 40 40 40 40 40 40 40 40 40 40 40 40 40 40 40 40 40 40 40 40 40 76 76 114 114 114 114 114 114 114 114 114 114 114 114 114 114 114 114 114 114 114 114 114 114 114 114 114 114 114 114 114 114 114 114 114 114 114 114 114 114 114 114 114 114 114 114 114 114 114 114 114 114 114 114 114 114 114 114 114 114 
114 114 114 114 114 114 114 114 114 114 114 114 114 114 114 114 114 114 114 114 114 114 114 114 114 114 114 76 76 76 76 76 40 40 40 40 40 40 40 76 76 40 40 76 76 76 76 76 76 76 40 76 76 76 76 76 76 76 76 76 76 76 76 76 76 76 76 76 76 76 76 76 76 76 76 76 76 76 76 76 76 76 76 76 76 76 76 76 76 76 76 76 76 76 40 114 167 167 167 167 167 167 167 167 167 167 167 167 167 167 114 114 114 114 114 114 114 114 76 114 114 76 114 167 114 76 114 114 114 76 76 76 76 76 76 76 76 76 76 114 114 114 76 114 76 76 114 114 114 114 76 114 76 76 76 76 114 114 76 114 114 76 114 114 114 114 114 114 114 76 76 76 76 76 76 114 114 114 76 114 114 114 114 76 76 114 114 114 76 76 40 114 114 114 114 114 114 76 76 76 76 76 76 76 40 40 40 40 40 40 40 40 40 76 76 40 40 40 40 40 40 40 40 40 40 40 40 40 40 40 76 76 76 76 76 76 76 76 40 40 40 40 40 40 40 40 40 40 76 40 76 40 40 40 76 76 76 76 40 40 40 40 40 40 40 40 76 40 40 40 40 40 40 40 40 76 167 167 114 114 114 76 76 76 114 114 167 167 167 167 167 167 167 167 167 114 114 167 167 167 167 167 167 167 167 167 167 167 167 167 167 167 167 167 167 167 167 167 167 167 167 167 167 167 167 167 167 167 167 167 167 167 167 167 167 167 167 167 167 167 167 167 167 167 167 167 167 167 167 167 167 167 167 167 167 114 114 76 40 40 76 76 76 76 76 114 114 114 76 76 76 76 76 76 76 76 76 76 114 114 114 114 114 114 114 114 114 114 114 114 114 114 114 114 114 114 114 114 167 167 167 167 114 76 76 40 40 40 40 40 40 40 40 40 40 40 40 40 40 40 40 40 40 40 40 40 40 40 40 40 40 40 40 40 40 40 40 40 40 40 40 40 40 40 40 40 40 40 40 40 40 40 76 76 114 114 114 114 114 114 114 114 114 114 114 114 114 114 114 114 114 114 114 114 114 114 114 114 114 114 114 114 114 114 114 114 114 114 114 114 114 114 114 114 114 114 114 114 114 114 114 114 114 114 114 114 114 114 114 114 114 114 
114 114 114 114 114 114 167 114 114 114 114 114 114 114 114 114 114 114 114 114 114 114 114 114 114 114 76 76 76 76 76 40 40 40 40 40 40 40 76 76 40 76 76 76 76 76 76 76 76 76 76 76 76 76 76 76 76 76 76 76 76 76 76 76 76 76 76 76 76 76 76 76 76 76 76 76 76 76 76 76 76 76 76 76 76 76 76 76 76 76 76 76 40 76 40 76 167 167 167 167 167 167 167 167 167 114 167 167 167 114 114 114 114 114 114 76 76 114 76 76 114 114 76 114 167 114 76 76 114 114 76 76 76 76 76 76 76 76 76 114 114 114 114 114 114 76 76 114 114 76 76 76 76 76 76 114 114 114 76 76 76 76 76 114 114 76 114 114 114 76 76 76 76 76 76 114 114 114 114 114 114 114 114 114 76 114 76 114 76 76 40 76 76 114 114 114 114 114 76 76 76 40 40 76 40 40 40 40 40 76 76 76 76 76 40 40 40 40 40 40 40 40 40 40 40 40 40 40 40 76 76 114 76 76 76 76 76 76 40 40 40 40 40 40 40 40 40 76 76 76 40 40 40 40 76 76 76 40 40 40 40 40 40 40 40 76 76 40 40 40 40 40 40 40 76 167 167 114 114 114 76 76 76 114 114 167 167 167 167 167 167 167 167 167 167 167 167 167 167 167 167 167 167 167 167 167 167 167 167 167 167 167 167 167 167 167 167 167 167 167 167 167 167 167 167 167 167 167 167 167 167 167 167 167 167 167 167 167 167 167 167 167 167 167 167 167 167 167 167 167 167 167 114 114 114 76 40 40 40 40 76 76 76 76 76 76 114 114 114 76 114 114 114 76 114 114 114 114 114 114 114 114 114 114 114 114 114 114 114 114 114 114 114 114 114 114 114 167 167 167 167 114 76 40 40 40 40 40 40 40 40 40 40 40 40 40 40 40 40 40 40 40 40 40 40 40 40 40 40 40 40 40 40 40 40 40 40 40 40 40 40 40 40 40 40 40 40 40 40 40 40 76 76 76 114 114 114 114 114 114 114 114 114 114 114 114 114 114 114 114 114 114 114 114 114 114 114 114 114 114 114 114 114 114 114 114 114 114 114 114 114 114 114 114 114 114 114 114 114 114 114 114 114 114 114 114 114 114 114 114 114 114 
114 114 114 114 114 114 114 114 114 114 114 114 114 114 114 114 114 114 114 114 114 114 114 114 114 76 76 76 76 76 40 40 40 40 40 40 40 40 40 40 40 40 76 76 40 40 76 76 76 76 76 76 76 76 76 76 76 76 76 76 76 76 76 76 76 76 76 76 76 76 76 76 76 76 76 76 76 76 76 76 76 76 76 76 76 76 76 76 76 76 76 76 76 40 76 40 167 167 167 167 167 167 167 167 167 167 167 167 167 114 167 167 114 114 114 114 76 76 114 114 114 114 76 114 114 167 114 76 76 76 76 76 76 114 76 76 76 76 114 114 76 114 114 114 114 114 76 114 114 76 76 76 76 76 76 114 114 114 76 76 114 114 114 114 114 114 114 114 114 114 76 76 76 76 114 114 114 114 114 114 114 114 114 114 76 114 114 114 76 40 40 114 114 76 114 76 76 76 76 40 40 40 40 40 40 40 40 40 76 76 76 76 40 40 40 40 40 40 40 40 40 40 40 40 40 40 40 40 40 76 76 76 76 76 76 76 76 40 40 40 40 40 40 40 40 40 40 76 76 40 40 40 40 40 76 76 76 40 40 40 40 40 40 40 40 76 76 76 40 40 40 40 40 114 167 167 114 114 114 76 76 114 114 167 167 167 167 167 167 167 167 167 167 167 167 167 167 167 167 114 167 167 167 167 167 167 167 167 167 167 167 167 167 167 167 167 167 167 167 167 167 167 167 167 167 167 167 167 167 167 167 167 167 167 167 167 167 167 167 167 167 167 167 167 167 167 167 167 167 167 114 114 114 76 76 76 40 40 40 76 76 76 76 76 76 76 76 76 114 114 114 114 114 114 114 114 114 114 114 114 114 114 114 114 114 114 114 114 114 114 114 114 114 114 114 114 167 167 167 167 114 76 40 40 40 40 40 40 40 40 40 40 40 40 40 40 40 40 40 40 40 40 40 40 40 40 40 40 40 40 40 40 40 40 40 40 40 40 40 40 40 40 40 40 40 40 40 40 40 40 40 76 76 114 114 114 114 114 114 114 114 114 114 114 114 114 114 114 114 114 114 114 114 114 114 114 114 114 114 114 114 114 114 114 114 114 114 114 114 114 114 114 114 114 114 114 114 114 114 114 114 114 114 114 114 114 114 114 114 114 114 114 
114 114 114 114 114 114 114 114 114 114 114 114 114 114 114 114 114 114 114 114 114 114 114 114 114 114 114 76 76 76 76 76 40 40 40 40 76 40 40 40 40 40 76 76 76 76 76 40 76 76 40 76 76 76 76 76 76 76 76 76 76 76 76 76 76 76 76 76 76 76 76 76 76 76 76 76 76 76 76 76 76 76 76 76 76 76 76 76 76 76 76 76 76 40 76 40 114 167 167 167 167 167 167 167 167 167 167 167 167 167 167 167 114 114 114 114 76 76 114 114 114 114 76 76 114 114 114 76 76 76 76 40 76 114 76 76 76 114 114 114 76 114 114 114 76 114 114 76 114 76 76 76 76 114 76 76 76 76 114 76 114 76 76 76 114 114 114 114 114 76 114 76 76 114 114 114 76 114 114 114 114 114 114 114 114 114 114 114 114 76 40 114 114 114 76 76 76 40 40 40 40 40 40 40 40 40 40 76 76 76 76 40 40 40 40 40 40 40 40 40 40 40 40 40 40 40 40 40 76 76 76 76 76 76 76 40 40 40 40 40 40 40 40 40 40 40 76 76 76 40 40 40 40 76 76 40 40 40 40 40 40 40 40 40 40 76 40 76 40 40 40 40 114 167 167 114 114 76 76 76 114 114 167 167 167 167 167 167 167 167 167 167 167 167 167 167 167 167 167 167 167 167 167 167 167 167 167 167 167 167 167 114 167 167 167 114 167 114 167 167 167 167 167 167 167 167 167 167 167 167 167 167 167 167 167 167 167 167 167 167 167 167 167 167 167 167 167 167 167 114 76 76 40 40 40 76 76 40 40 40 76 76 76 76 76 76 76 76 114 114 114 114 114 114 114 114 114 114 114 114 114 114 114 114 114 114 114 114 114 114 114 114 114 167 167 167 167 167 167 167 114 40 40 40 40 40 40 40 40 40 40 40 40 40 40 40 40 40 40 40 40 40 40 40 40 40 40 40 40 40 40 40 40 40 40 40 40 40 40 40 40 40 40 40 40 40 40 40 40 40 76 76 76 114 114 114 114 114 114 114 114 114 114 114 114 114 114 114 114 114 114 114 114 114 114 114 114 114 114 114 114 114 114 114 114 114 114 114 114 114 114 114 114 114 114 114 114 114 114 114 114 114 114 114 114 114 114 114 114 114 114 114 
114 167 114 114 114 114 114 167 114 114 114 114 114 114 114 114 114 114 114 114 114 114 114 114 114 114 76 76 76 76 76 40 40 40 40 40 40 40 40 40 40 76 40 40 76 40 76 76 76 76 76 76 76 76 76 76 76 76 76 76 76 76 76 76 76 76 76 76 76 76 76 76 76 76 76 76 76 76 76 76 76 76 76 76 76 76 76 76 76 76 76 76 76 76 76 76 76 167 167 167 167 167 167 167 167 167 167 167 167 167 167 114 114 114 167 167 114 76 76 114 114 114 114 76 76 114 114 114 76 76 76 76 76 76 76 114 114 114 114 114 114 114 114 114 114 76 114 114 76 76 76 76 76 114 114 76 114 114 114 114 114 114 114 114 76 76 114 114 76 76 114 114 114 114 114 114 114 76 76 114 114 114 114 114 114 114 114 114 76 76 40 76 114 114 76 76 76 76 40 40 40 40 40 40 40 40 76 76 76 40 40 40 40 40 40 40 40 40 40 40 40 40 40 40 40 40 40 40 76 76 76 76 76 114 76 40 40 40 40 40 40 40 40 40 76 76 76 76 40 40 40 40 76 76 40 40 40 40 40 40 40 40 40 40 76 76 40 40 76 40 40 114 167 167 114 114 114 76 76 114 114 167 167 167 167 167 167 167 167 167 167 167 167 167 167 167 114 167 167 167 167 167 167 167 167 167 167 167 167 167 167 167 167 167 167 167 167 167 167 167 167 167 167 167 167 167 167 167 167 167 167 167 167 167 167 167 167 167 167 167 167 167 167 167 167 167 167 114 114 76 76 40 40 40 40 76 76 76 76 40 40 76 76 40 40 76 114 76 76 114 114 114 114 114 114 114 114 114 114 114 114 114 114 114 114 114 114 114 114 114 114 114 167 167 167 167 167 167 167 114 76 40 40 40 40 40 40 40 40 40 40 40 40 40 40 40 40 40 40 40 40 40 40 40 40 40 40 40 40 40 40 40 40 40 40 40 40 40 40 40 40 40 40 40 40 40 40 40 40 40 76 76 114 114 114 114 114 114 114 114 114 114 114 114 114 114 114 114 114 114 114 114 114 114 114 114 114 114 114 114 114 114 114 114 114 114 114 114 114 114 114 114 114 114 114 114 114 114 114 114 114 114 114 114 114 114 114 114 114 114 114 114 
114 114 114 114 114 114 114 114 114 114 114 114 114 114 114 114 114 114 114 114 114 114 114 114 114 114 114 76 76 76 76 40 40 40 40 40 40 40 40 40 40 40 40 40 76 76 76 76 40 76 76 76 76 76 76 76 76 76 76 76 76 76 76 76 76 76 76 76 76 76 76 76 76 76 76 76 76 76 76 76 76 76 76 76 76 76 76 76 76 76 76 76 76 76 76 76 40 114 167 167 167 167 167 167 167 167 167 167 167 167 167 167 167 114 114 114 167 114 76 76 114 114 167 114 76 76 114 76 114 76 76 76 76 76 76 114 114 114 114 114 114 114 76 114 114 76 76 76 76 76 76 76 114 76 114 76 76 114 114 114 114 76 114 114 76 76 76 76 76 76 76 76 114 114 114 114 114 114 114 114 114 76 76 114 114 114 114 114 76 76 40 76 114 76 76 76 40 40 40 40 40 40 40 40 76 76 76 40 40 40 40 40 40 40 40 40 40 40 40 40 40 40 40 40 40 40 40 40 76 76 76 40 76 76 76 40 40 40 40 40 40 40 40 76 76 114 76 40 40 40 40 40 76 40 40 40 40 40 40 40 40 40 40 40 114 76 40 40 40 76 114 167 167 114 114 76 76 76 114 114 167 167 167 167 167 167 167 167 167 167 167 167 167 167 167 167 167 167 167 167 167 167 167 167 167 167 167 167 167 114 167 167 167 167 114 167 167 167 167 167 114 167 167 167 167 167 167 167 167 167 167 167 167 167 167 167 167 167 167 167 167 167 167 167 167 114 114 76 40 40 40 40 40 40 40 76 76 76 76 76 76 76 76 76 40 76 114 114 114 114 114 114 114 114 114 114 114 114 114 114 114 114 114 114 114 114 114 114 114 114 167 167 167 167 167 167 167 114 76 40 40 40 40 40 40 40 40 40 40 40 40 40 40 40 40 40 40 40 40 40 40 40 40 40 40 40 40 40 40 40 40 40 40 40 40 40 40 40 40 40 40 40 40 40 40 40 40 40 40 40 76 76 114 114 114 114 114 114 114 114 114 114 114 114 114 114 114 114 114 114 114 114 114 114 114 114 114 114 114 114 114 114 114 114 114 114 114 114 114 114 114 114 114 114 114 114 114 114 114 114 114 114 114 114 114 114 114 114 114 114 114 114 
114 114 114 114 114 167 114 114 114 114 114 114 114 114 114 114 114 114 114 114 114 114 114 114 114 114 76 76 76 76 76 76 40 40 40 40 40 40 40 40 76 40 40 40 76 76 76 76 76 76 76 76 76 76 76 76 76 76 76 76 76 76 76 76 76 40 76 76 76 76 76 76 76 76 76 76 76 76 76 76 76 76 76 76 76 76 76 76 76 76 76 76 76 76 76 76 40 114 167 167 167 167 167 167 167 167 167 167 167 167 167 167 167 167 114 114 114 167 114 76 114 114 167 114 76 114 76 76 76 76 76 114 76 76 76 114 114 114 114 76 114 114 114 76 114 76 76 76 76 76 76 76 114 76 76 114 76 114 114 76 114 76 114 114 76 76 76 76 76 76 76 40 40 40 76 76 76 76 114 114 114 114 114 76 114 114 114 114 76 76 40 40 76 76 40 40 40 40 40 40 40 40 40 76 76 40 40 40 40 40 40 40 40 40 40 40 40 40 40 40 40 40 40 40 40 40 40 76 76 76 76 40 40 76 40 40 40 40 40 40 40 40 40 76 76 76 76 40 40 40 76 76 40 40 40 40 40 40 40 40 40 40 40 40 114 40 40 40 76 114 167 114 114 114 76 76 76 114 114 167 167 167 167 167 167 167 167 167 167 167 167 167 114 114 167 167 167 167 167 167 167 167 167 167 167 167 114 167 167 114 167 167 167 114 167 167 167 167 167 167 167 167 167 167 167 167 167 167 167 167 167 167 167 167 167 167 167 167 167 167 167 167 167 167 114 76 76 40 40 40 76 76 40 40 40 76 114 76 76 76 76 76 76 76 76 40 76 114 114 114 114 114 114 114 114 114 114 114 114 114 114 114 114 114 114 114 114 114 114 167 167 167 167 167 167 167 167 114 76 40 40 40 40 40 40 40 40 40 40 40 40 40 40 40 40 40 40 40 40 40 40 40 40 40 40 40 40 40 40 40 40 40 40 40 40 40 40 40 40 40 40 40 40 40 40 40 40 40 40 76 76 114 114 114 114 114 114 114 114 114 114 114 114 114 114 114 114 114 114 114 114 114 114 114 114 114 114 114 114 114 114 114 114 114 114 114 114 114 114 114 114 114 114 114 114 114 114 114 114 114 114 114 114 114 114 114 114 114 114 114 114 114 
114 114 114 114 114 114 114 114 167 114 114 114 114 114 114 114 114 114 114 114 114 114 114 114 114 114 76 76 76 76 76 76 40 40 40 40 40 40 40 40 76 40 40 40 76 76 76 76 76 76 76 76 76 76 76 76 76 76 76 76 76 76 76 76 76 76 76 76 76 76 76 76 76 76 76 76 76 76 76 76 76 76 76 76 76 76 76 76 76 76 76 76 76 76 76 76 40 76 167 167 167 167 167 167 167 167 167 167 167 167 167 167 167 167 114 114 114 167 167 114 76 114 114 167 114 76 76 76 76 76 76 114 76 76 114 114 114 114 114 114 114 114 114 114 76 76 76 76 76 76 114 76 76 114 76 114 114 76 76 76 114 114 114 76 76 114 76 76 76 76 114 114 114 76 76 40 40 40 40 76 76 114 114 114 114 114 114 114 76 76 40 40 40 76 40 40 40 40 40 40 40 40 40 76 40 40 40 40 40 40 40 40 40 40 40 40 40 40 40 40 40 40 40 40 40 40 40 76 76 76 40 40 40 40 40 40 40 40 40 40 40 76 76 76 76 40 76 76 76 76 76 76 40 40 40 40 40 40 40 40 40 40 40 40 114 40 40 114 167 114 114 114 76 76 76 114 114 167 167 167 114 167 167 167 167 167 167 167 167 167 167 167 167 167 167 167 167 167 167 167 167 167 167 167 167 167 167 167 167 167 114 167 167 167 167 114 114 114 167 167 167 167 167 167 167 167 167 167 167 167 167 167 167 167 167 167 167 167 167 167 167 167 114 114 76 40 40 40 40 76 76 76 40 40 40 76 114 114 76 76 76 76 76 76 76 76 76 114 114 114 114 114 114 114 114 114 114 114 114 114 114 114 114 114 167 114 114 167 167 167 167 167 167 167 167 167 114 76 40 40 40 40 40 40 40 40 40 40 40 40 40 40 40 40 40 40 40 40 40 40 40 40 40 40 40 40 40 40 40 40 40 40 40 40 40 40 40 40 40 40 40 40 40 40 40 40 40 40 40 76 76 114 114 114 114 114 114 114 114 114 114 114 114 114 114 114 114 114 114 114 114 114 114 114 114 114 114 114 114 114 114 114 114 114 114 114 114 114 114 114 114 114 114 114 114 114 114 114 114 114 114 114 114 114 114 114 114 114 114 114 114 114 
114 167 114 114 114 114 114 114 167 114 114 114 114 114 114 114 114 114 114 114 114 114 114 114 114 114 114 76 76 76 40 40 40 40 40 40 40 40 40 40 76 40 40 40 76 76 76 76 76 76 76 76 76 76 76 76 76 76 76 76 76 76 76 76 76 76 76 76 76 76 76 76 76 76 76 76 76 76 76 76 76 76 76 76 76 76 76 76 76 76 76 76 76 76 76 76 40 76 167 167 167 167 167 167 167 167 167 114 167 167 167 167 114 114 167 167 114 114 167 167 76 114 114 167 114 76 76 76 76 76 76 76 114 114 114 114 114 114 114 76 76 114 114 114 76 76 76 76 76 76 76 114 76 114 114 114 114 76 76 76 114 76 76 114 76 76 76 76 114 114 114 114 114 114 114 114 76 76 76 40 40 40 76 76 76 114 114 76 76 76 40 40 40 40 40 40 40 40 40 40 40 40 76 40 40 40 40 40 40 40 40 40 40 40 40 40 40 40 40 40 40 40 40 40 40 40 76 76 76 40 40 40 40 40 40 40 40 40 40 40 40 76 76 76 40 40 76 76 76 76 76 40 40 40 40 40 40 76 76 40 40 40 40 76 114 76 114 167 167 114 114 114 76 76 76 114 114 167 167 167 167 167 167 167 167 167 167 167 167 167 167 167 167 167 167 167 167 167 167 167 167 167 167 167 167 167 167 114 167 114 114 167 167 167 114 114 114 167 167 167 167 167 167 167 167 167 167 167 167 167 167 167 167 167 167 167 167 167 167 167 167 114 114 76 40 40 40 40 40 76 76 76 76 40 40 40 76 114 114 76 76 76 76 76 76 76 76 114 114 114 114 114 114 114 114 114 114 114 114 114 114 114 114 167 167 114 114 114 167 167 167 167 167 114 114 114 76 40 40 40 40 40 40 40 40 40 40 40 40 40 40 40 40 40 40 40 40 40 40 40 40 40 40 40 40 40 40 40 40 40 40 40 40 40 40 40 40 40 40 40 40 40 40 40 40 40 40 40 76 76 76 114 114 114 114 114 114 114 114 114 114 114 114 114 114 114 114 114 114 114 114 114 114 114 114 114 114 114 114 114 114 114 114 114 114 114 114 114 114 114 114 114 114 114 114 114 114 114 114 114 114 114 114 114 114 114 114 114 114 114 114 114 
114 114 114 114 114 114 114 114 114 114 114 114 114 114 114 114 114 114 114 114 114 114 114 114 114 114 76 76 76 76 76 76 40 40 40 40 40 40 40 40 76 40 40 40 40 40 40 40 76 76 76 76 76 76 76 76 76 76 76 76 76 76 76 76 76 76 76 76 76 76 76 76 76 76 76 76 76 76 76 76 76 76 76 76 76 76 76 76 76 76 76 76 76 76 76 76 76 76 114 167 167 167 167 167 167 167 167 167 167 167 167 167 114 114 114 167 167 114 114 167 114 76 114 114 114 76 76 76 76 76 114 76 76 114 114 114 114 114 114 114 114 114 114 114 76 76 76 76 76 76 76 114 114 76 114 114 114 76 76 76 114 76 76 114 114 76 76 76 114 114 114 114 114 114 114 114 114 114 114 76 76 40 40 40 76 76 114 114 114 76 76 40 40 40 40 40 40 40 40 40 40 40 40 40 40 40 40 40 40 40 40 40 40 40 40 40 40 40 40 40 40 40 40 40 40 40 76 76 76 40 40 40 40 40 40 40 40 40 40 40 76 76 40 40 40 76 76 76 76 76 40 40 40 40 40 40 114 76 40 40 40 40 40 76 114 114 167 167 114 76 76 76 114 114 114 114 167 167 167 167 167 167 167 167 167 167 167 167 167 167 167 167 167 167 167 167 167 167 167 114 114 167 167 167 167 167 114 114 167 114 114 167 167 167 114 114 167 167 167 167 167 167 167 167 167 167 167 167 167 167 167 167 167 167 167 167 167 167 167 114 114 76 76 40 40 40 40 40 40 76 76 76 76 76 40 40 40 114 114 114 76 76 76 76 114 76 76 76 76 114 114 114 114 114 114 114 114 114 114 114 114 114 114 167 167 114 114 114 167 167 167 167 114 114 76 40 40 40 40 40 40 40 40 40 40 40 40 40 40 40 40 40 40 40 40 40 40 40 40 40 40 40 40 40 40 40 40 40 40 40 40 40 40 40 40 40 40 40 40 40 40 40 40 40 40 40 40 40 76 76 76 114 114 114 114 114 114 114 114 114 114 114 114 114 114 114 114 114 114 114 114 114 114 114 114 114 114 114 114 114 114 114 114 114 114 114 114 114 114 114 114 114 114 114 114 114 114 114 114 114 114 114 114 114 114 114 114 114 114 114 114 114 
114 114 114 114 114 114 114 114 114 114 114 114 114 114 114 114 114 114 114 114 114 114 114 114 114 114 76 76 76 76 76 40 40 40 40 40 40 40 40 40 76 40 40 76 40 40 76 76 76 76 76 76 76 76 76 76 76 76 76 76 76 76 76 76 76 76 76 76 76 76 76 76 76 76 76 76 76 76 76 76 76 76 76 76 76 76 76 76 76 76 76 76 76 76 76 76 76 76 76 167 167 167 167 167 167 167 167 167 167 167 167 114 114 114 114 114 167 114 114 114 167 114 76 114 114 76 76 76 76 76 114 114 76 76 76 114 114 114 114 114 76 114 76 76 76 76 76 114 76 114 76 76 114 76 76 76 76 76 76 76 76 76 76 76 76 76 76 76 114 114 114 114 76 114 114 114 76 76 114 114 114 114 76 40 40 40 76 76 76 76 40 40 40 76 76 40 40 40 40 40 40 40 40 40 40 40 40 40 40 40 40 40 40 40 40 40 40 40 40 40 40 40 40 40 76 40 40 76 40 40 40 40 40 40 40 40 40 40 40 76 76 76 40 40 76 76 76 76 76 76 40 40 40 40 40 76 114 76 40 40 40 40 40 114 114 167 167 114 76 76 76 76 114 114 114 167 167 167 167 167 167 167 167 167 167 167 167 167 167 167 167 167 167 167 167 167 167 167 167 167 167 167 167 167 167 167 114 167 114 114 114 167 114 167 167 167 114 114 114 167 167 167 167 167 167 167 167 167 167 167 167 167 167 167 167 167 114 114 114 114 76 76 40 40 40 40 40 40 40 40 76 76 76 114 76 40 40 76 114 114 114 76 40 76 114 76 76 40 76 114 114 114 114 114 114 114 114 114 114 114 114 114 114 114 114 114 167 167 167 167 167 114 114 76 40 40 40 40 40 40 40 40 40 40 40 40 40 40 40 40 40 40 40 40 40 40 40 40 40 40 40 40 40 40 40 40 40 40 40 40 40 40 40 40 40 40 40 40 40 40 40 40 40 40 40 40 40 40 76 76 76 114 114 114 114 114 114 114 114 114 114 114 114 114 114 114 114 114 114 114 114 114 114 114 114 114 114 114 114 114 114 114 114 114 114 114 114 114 114 114 114 114 114 114 114 114 114 114 114 114 114 114 114 114 114 114 114 114 114 114 114 114 
167 167 114 114 114 114 114 114 114 114 114 114 114 114 114 114 114 114 114 114 114 114 114 114 114 114 114 76 76 76 76 40 40 40 40 40 40 40 40 40 76 76 76 76 76 76 76 76 76 76 76 76 76 76 76 76 76 76 76 76 40 76 76 76 76 76 76 76 76 76 76 76 76 76 76 76 76 76 76 76 76 76 76 76 76 76 76 76 76 76 76 76 76 76 76 76 76 76 40 114 167 167 167 167 167 167 167 167 167 167 167 114 114 114 114 114 167 167 114 76 167 114 76 76 76 76 76 76 114 76 114 114 114 114 76 76 114 114 114 76 114 76 76 76 76 76 114 76 76 114 76 76 114 114 76 76 114 76 76 76 76 76 76 76 76 76 76 114 76 114 114 114 114 114 114 114 114 40 76 76 76 76 114 76 76 40 40 40 40 40 40 40 40 40 40 40 40 40 40 40 40 40 40 40 40 40 40 40 40 40 40 40 76 76 40 40 40 40 40 40 40 40 40 40 40 40 40 76 40 40 40 40 40 40 40 40 40 40 40 76 76 40 40 40 76 76 76 76 40 40 40 40 40 40 76 114 76 40 40 40 40 40 76 167 114 76 114 114 76 76 76 114 114 167 167 167 167 167 167 167 167 167 167 167 167 167 167 167 167 167 167 167 167 167 167 167 167 167 167 167 167 167 167 167 114 167 114 114 167 114 114 114 167 167 167 167 114 114 114 114 167 167 167 167 167 167 167 167 167 167 167 167 167 167 167 114 114 114 114 76 76 40 76 40 76 76 40 40 40 40 40 76 76 76 76 76 40 40 76 114 114 114 76 76 114 114 76 76 76 76 114 114 114 114 114 114 114 114 114 114 114 114 114 114 114 167 167 167 167 114 114 76 40 40 40 40 40 40 40 40 40 40 40 40 40 40 40 40 40 40 40 40 40 40 40 40 40 40 40 40 40 40 40 40 40 40 40 40 40 40 40 40 40 40 40 40 40 40 40 40 40 40 40 40 40 40 40 76 76 76 114 114 114 76 114 76 114 76 114 114 114 114 114 114 114 114 114 114 114 114 114 114 114 114 114 114 114 114 114 114 114 114 114 114 114 114 114 114 114 114 114 114 114 114 114 114 114 114 114 114 114 114 114 114 114 114 114 114 114 114 114 114 
114 114 114 114 114 114 114 114 114 114 114 114 114 114 114 114 114 114 114 114 114 114 114 114 114 114 114 76 76 76 76 76 40 40 40 40 40 40 40 40 40 40 76 40 76 76 76 76 76 40 76 76 76 76 76 76 76 76 76 76 76 76 76 76 76 76 76 76 76 76 76 76 76 76 76 76 76 76 76 76 76 76 76 76 76 76 76 76 76 76 76 76 76 76 76 76 76 76 76 40 167 167 167 167 167 167 167 167 167 167 167 114 114 114 114 167 114 167 167 114 114 167 114 76 40 76 76 76 114 114 114 114 114 114 76 76 76 114 114 114 76 76 76 76 76 76 114 76 114 114 76 76 76 114 76 76 76 114 114 76 76 76 76 76 76 114 114 114 114 114 114 114 114 114 114 76 114 114 76 40 40 40 40 76 76 76 40 40 40 40 40 40 40 40 40 40 40 76 76 76 40 40 40 40 40 40 40 40 40 40 40 76 76 40 40 40 40 40 40 40 40 40 40 40 40 40 40 76 40 40 40 40 40 40 40 40 40 40 40 40 40 40 40 40 40 40 76 76 40 40 40 40 40 76 114 114 76 40 40 40 40 40 114 114 114 76 76 76 76 76 114 114 167 167 167 167 167 167 167 167 167 167 167 167 167 167 167 167 167 167 167 167 167 167 167 167 167 167 167 167 167 167 167 114 114 114 167 114 114 114 114 114 114 167 114 114 167 114 114 167 167 167 167 167 167 167 167 167 167 167 167 167 114 114 167 167 167 167 114 114 114 76 76 76 40 76 76 76 40 40 40 40 76 76 76 76 76 40 40 76 114 114 76 76 76 76 114 76 40 76 114 114 114 114 114 114 114 114 114 114 114 167 114 167 167 167 167 167 114 114 76 40 40 40 40 40 40 40 40 40 40 40 40 40 40 40 40 40 40 40 40 40 40 40 40 40 40 40 40 40 40 40 40 40 40 40 40 40 40 40 40 40 40 40 40 40 40 40 40 40 40 40 40 40 40 40 40 76 76 114 114 114 76 76 114 76 76 114 114 114 114 114 114 114 114 114 114 114 114 114 114 114 114 114 114 114 114 114 114 114 114 114 114 114 114 114 114 114 114 114 114 114 114 114 114 114 114 114 114 114 114 114 114 114 114 114 114 114 114 114 114 114 
114 114 114 114 114 114 114 114 114 114 114 114 114 114 114 114 114 114 114 114 114 114 114 114 114 114 114 76 76 76 76 76 40 40 40 40 40 40 40 40 40 40 76 40 76 76 76 76 76 76 76 76 76 76 76 76 76 76 76 76 76 76 76 76 76 76 76 76 76 76 76 76 76 76 76 76 76 76 76 76 76 76 76 76 76 76 76 76 76 76 76 76 76 76 76 76 76 76 76 40 114 167 167 167 167 167 167 167 167 167 167 167 114 114 114 167 114 114 167 167 114 167 114 114 76 76 76 76 114 114 114 114 114 114 114 76 76 76 76 76 76 76 76 76 76 76 114 76 76 114 76 76 76 76 114 76 76 76 76 114 76 76 114 114 76 114 114 114 114 114 114 114 114 114 114 76 76 76 76 76 40 40 40 40 40 40 40 40 40 40 40 40 40 40 40 40 76 76 40 40 40 40 40 40 40 40 40 40 40 40 76 76 40 40 40 40 40 40 40 40 40 40 40 76 76 40 40 40 40 40 40 40 40 40 40 40 40 40 40 76 40 40 40 40 40 40 76 40 40 40 40 40 40 114 114 76 76 40 40 40 40 76 114 114 76 76 76 76 114 114 114 167 167 167 167 167 167 167 167 167 167 167 167 167 167 167 167 167 167 167 167 167 167 167 167 167 167 167 167 167 167 167 167 114 114 114 114 114 114 114 167 167 167 167 114 114 167 114 114 167 167 167 167 167 167 167 167 167 167 167 167 167 114 167 167 167 167 167 167 114 114 114 76 76 40 40 76 76 76 76 40 40 40 76 40 40 76 76 40 40 114 114 76 76 76 76 76 76 76 76 76 114 114 114 114 114 114 114 114 114 114 167 167 167 167 167 167 114 76 76 40 40 40 40 40 40 40 40 40 40 40 40 40 40 40 40 40 40 40 40 40 40 40 40 40 40 40 40 40 40 40 40 40 40 40 40 40 40 40 40 40 40 40 40 40 40 40 40 40 40 40 40 40 40 40 40 40 76 76 76 114 114 76 114 76 76 76 76 114 114 114 114 114 114 114 114 114 114 114 114 114 114 114 114 114 114 114 114 114 114 114 114 114 114 114 114 114 114 114 114 114 114 114 114 114 114 114 114 114 114 114 114 114 114 114 114 114 114 114 114 114 114 
114 114 114 114 114 114 114 114 114 114 114 114 114 114 114 114 114 114 114 114 114 114 114 114 114 114 114 76 76 76 76 76 40 40 40 40 40 40 40 40 40 40 76 76 76 76 76 76 76 40 40 76 76 76 76 76 76 76 76 76 76 76 76 76 76 76 76 76 76 76 76 76 76 76 76 76 76 76 76 76 76 76 76 76 76 76 76 76 76 76 76 76 76 76 76 76 76 76 76 40 76 114 167 167 167 167 167 167 167 167 167 167 114 114 114 114 114 114 167 167 114 114 114 114 76 76 76 76 114 114 114 76 76 114 114 76 114 114 76 76 76 76 76 76 76 76 114 114 114 114 114 114 114 76 76 114 114 76 76 76 114 76 76 76 114 114 114 114 76 114 76 76 76 76 76 40 40 40 40 40 40 40 40 40 40 40 40 40 40 40 40 40 40 40 76 40 40 40 40 40 40 40 40 40 40 40 40 40 40 40 76 76 40 40 40 40 40 40 40 40 40 40 40 76 76 40 40 40 40 40 40 40 40 40 40 40 40 40 40 40 40 40 40 40 40 76 76 40 40 40 40 40 40 114 114 76 40 40 40 40 76 76 76 76 76 76 76 76 114 167 167 167 167 167 167 167 167 167 167 167 167 167 167 167 167 167 167 167 167 167 167 167 167 167 167 167 167 167 167 167 167 167 167 167 114 114 114 114 114 114 167 167 167 167 114 114 167 167 167 167 167 167 167 167 167 167 167 167 114 167 167 167 167 167 167 167 167 167 167 114 167 114 76 76 76 40 40 40 76 114 76 40 40 76 76 40 40 76 76 40 40 114 114 76 76 76 76 76 76 76 76 114 114 114 114 114 114 114 114 167 167 167 167 167 167 114 114 76 40 40 40 40 40 40 40 40 40 40 40 40 40 40 40 40 40 40 40 40 40 40 40 40 40 40 40 40 40 40 40 40 40 40 40 40 40 40 40 40 40 40 40 40 40 40 40 40 40 40 40 40 40 40 40 40 40 40 40 76 76 76 114 114 76 76 76 76 76 114 114 114 114 114 114 114 114 114 114 114 114 114 114 114 114 114 114 114 114 114 114 114 114 114 114 114 114 114 114 114 114 114 114 114 114 114 114 114 114 114 114 114 114 114 114 114 114 114 114 114 114 114 114 114 
114 114 167 114 114 114 114 114 114 114 114 114 114 114 114 114 114 114 114 114 114 114 114 114 114 114 114 76 76 76 76 76 40 40 40 40 40 40 40 40 76 76 76 76 76 76 40 40 76 76 76 76 76 76 76 76 76 76 76 76 76 76 76 76 76 76 76 76 76 76 76 76 76 76 76 76 76 76 76 76 76 76 76 76 76 76 76 76 76 76 76 76 76 76 76 76 76 76 76 76 40 76 167 167 167 167 167 167 167 167 167 167 167 114 114 114 114 114 114 167 167 114 114 40 40 76 76 114 114 114 76 76 114 114 114 114 76 76 76 76 76 76 76 76 76 114 76 114 114 114 114 114 114 114 76 76 114 114 76 76 76 114 76 76 76 114 114 114 76 76 40 40 40 40 76 76 76 76 76 76 40 40 76 40 40 40 76 40 40 40 40 40 40 40 76 40 40 40 40 40 40 40 40 40 40 40 40 40 40 76 76 76 40 40 40 40 40 40 40 40 40 40 40 40 76 40 40 40 40 40 40 40 40 40 40 40 40 40 40 40 40 40 40 40 40 76 76 40 40 40 40 40 40 114 114 40 40 40 76 76 114 76 76 76 76 76 76 76 167 167 167 167 167 167 167 167 167 167 167 167 167 167 167 167 167 167 167 167 167 167 167 167 167 167 167 167 167 167 167 167 167 167 167 167 114 114 114 114 114 114 167 167 167 167 167 167 167 167 167 167 167 167 167 167 167 167 167 114 167 167 167 167 167 167 167 167 167 167 167 167 114 114 76 76 76 76 76 40 40 76 76 76 40 40 76 76 76 40 76 76 40 76 114 114 76 76 76 76 76 76 114 114 114 114 114 114 167 167 167 167 167 167 167 114 114 114 76 40 40 40 40 40 40 40 40 40 40 40 40 40 40 40 40 40 40 40 40 40 40 40 40 40 40 40 40 40 40 40 40 40 40 40 40 40 40 40 40 40 40 40 40 40 40 40 40 40 40 40 40 40 40 40 40 40 40 40 76 76 76 114 114 114 76 76 76 76 76 114 114 114 114 114 114 114 114 114 114 114 114 114 114 114 114 114 114 114 114 114 114 114 114 114 114 114 114 114 114 114 114 114 114 114 114 114 114 114 114 114 114 114 114 114 114 114 114 114 114 114 114 114 114 114 
114 114 114 114 114 114 114 114 114 114 114 114 114 114 114 114 114 114 114 114 114 114 114 114 114 114 76 76 76 76 76 76 40 40 40 40 40 40 40 40 40 40 40 76 76 76 76 76 76 76 76 76 76 76 76 76 76 76 76 76 76 76 76 76 76 76 76 76 76 76 76 76 76 76 76 76 76 76 76 76 76 76 76 76 76 76 76 76 76 76 76 76 76 76 76 76 76 76 76 76 76 76 76 167 167 167 167 167 167 167 167 167 167 167 114 114 114 114 167 167 167 114 114 76 76 114 76 114 76 76 76 114 114 114 114 114 114 76 76 76 76 76 76 76 76 114 114 114 114 114 76 76 76 114 114 76 76 114 76 76 76 76 114 114 114 114 114 114 76 76 76 76 76 76 76 76 76 76 76 76 76 76 76 40 76 40 40 40 40 40 40 40 40 40 40 40 40 40 40 40 40 40 40 40 40 40 40 40 76 76 76 76 40 40 40 40 40 40 40 40 40 40 40 40 76 40 40 40 40 40 40 40 40 40 40 40 40 40 40 40 40 40 40 40 40 76 76 40 40 40 40 40 76 114 76 76 40 76 114 114 114 76 40 76 76 76 76 114 167 167 167 167 167 167 167 167 167 167 167 167 167 167 167 167 167 167 167 167 167 167 167 167 167 167 167 167 167 167 167 167 167 167 114 167 114 114 114 114 114 167 167 167 167 167 167 167 167 167 167 167 167 167 167 167 167 114 114 167 167 167 167 167 167 167 167 167 167 167 167 167 167 114 114 76 76 76 76 76 40 40 76 114 114 76 40 76 76 76 40 76 76 76 114 114 76 76 76 76 76 76 76 114 114 114 114 114 167 167 167 167 167 167 114 114 76 76 40 40 40 40 40 40 40 40 40 40 40 40 40 40 40 40 40 40 40 40 40 40 40 40 40 40 40 40 40 40 40 40 40 40 40 40 40 40 40 40 40 40 40 40 40 40 40 40 40 40 40 40 40 40 40 40 40 40 40 76 76 76 114 114 76 76 76 76 76 76 76 114 114 114 114 114 114 114 114 114 114 114 114 114 114 114 114 114 114 114 114 114 114 114 114 114 114 114 114 114 114 114 114 114 114 114 114 114 114 114 114 114 114 114 114 114 114 114 114 114 114 114 114 114 114 114 
114 114 114 114 114 114 114 114 114 114 114 114 114 114 114 114 114 114 114 114 114 114 114 114 114 114 114 76 76 76 76 40 40 40 40 40 40 40 40 40 40 40 40 76 76 76 76 76 76 40 76 76 76 76 76 76 76 76 76 76 76 76 76 76 76 76 76 76 76 76 76 76 76 76 76 76 76 76 76 76 76 76 76 76 76 76 76 76 76 76 76 76 76 76 76 76 76 76 76 76 76 76 40 114 167 167 167 167 167 167 167 167 167 167 167 167 114 167 167 167 114 114 114 76 76 114 114 76 76 76 114 114 114 114 114 114 114 76 76 76 76 76 76 76 114 76 114 114 114 114 114 114 76 76 114 114 76 76 114 76 76 76 76 114 114 114 76 76 114 114 76 76 76 76 76 76 76 76 76 76 76 76 76 76 76 40 40 40 40 40 40 76 40 40 40 40 40 40 40 40 40 40 40 40 40 40 40 40 76 76 76 76 40 40 40 40 40 40 40 40 40 40 40 40 40 40 40 40 40 40 40 40 40 40 40 40 40 40 40 40 40 40 40 40 40 76 76 40 40 40 40 40 76 76 76 76 114 114 114 114 114 76 40 76 76 114 76 114 167 167 167 167 167 167 167 167 167 167 167 167 167 167 167 167 167 167 167 167 114 167 167 167 167 114 167 167 167 167 167 167 167 167 114 114 114 167 114 114 167 167 167 167 167 167 167 167 167 167 167 167 167 167 167 167 167 167 167 167 167 167 167 167 167 167 167 167 167 167 167 167 167 114 114 114 76 76 76 76 76 40 40 40 114 114 76 76 76 76 40 76 76 40 76 114 114 76 76 76 76 76 76 114 114 114 114 114 114 167 167 167 114 114 114 76 40 40 40 40 40 40 40 40 40 40 40 40 40 40 40 40 40 40 40 40 40 40 40 40 40 40 40 40 40 40 40 40 40 40 40 40 40 40 40 40 40 40 40 40 40 40 40 40 40 40 40 40 40 40 40 40 40 40 40 40 40 76 76 76 114 114 76 76 76 76 76 76 114 114 114 114 114 114 114 114 114 114 114 114 114 114 114 114 114 114 114 114 114 114 114 114 114 114 114 114 114 114 114 114 114 114 114 114 114 114 114 114 114 114 114 114 114 114 114 114 114 114 114 114 114 114 114 114 
114 114 114 114 114 114 114 114 167 114 114 114 114 114 114 114 114 114 114 114 114 114 114 114 114 114 114 76 76 76 76 40 40 40 40 40 40 40 40 40 76 40 40 76 76 40 76 76 76 76 76 76 76 76 76 76 76 76 76 76 76 76 76 76 76 76 76 76 76 76 76 76 76 76 76 76 76 76 76 76 76 76 76 76 76 76 76 76 76 76 76 76 76 76 76 76 76 76 76 76 76 76 76 76 167 167 167 167 167 167 167 167 167 167 167 167 167 167 167 167 114 76 76 40 76 114 114 76 76 76 76 76 114 114 114 76 114 76 76 76 76 114 76 76 114 114 114 114 76 114 114 114 114 114 76 114 114 114 114 114 114 114 76 76 76 114 114 114 114 114 76 114 114 76 76 76 76 76 76 40 76 76 40 40 40 40 40 40 40 40 40 76 40 40 40 40 40 40 40 40 40 40 40 40 40 40 40 40 76 76 76 76 40 40 40 40 40 40 40 40 40 40 40 40 40 40 40 40 40 40 40 40 40 40 40 40 40 40 40 40 40 40 40 40 76 76 76 76 40 40 40 76 114 76 76 76 114 114 114 114 114 76 40 76 114 114 114 114 167 167 167 167 167 167 167 167 167 167 167 167 167 167 167 167 167 167 167 167 114 114 167 167 167 167 114 167 167 167 167 114 167 167 114 114 114 167 114 114 167 167 167 167 167 167 167 167 167 167 167 167 167 114 167 167 167 167 167 167 167 167 167 167 167 167 167 167 167 167 167 167 167 114 114 114 76 76 76 76 76 76 76 40 76 114 114 76 40 76 76 40 76 40 76 114 114 76 76 76 76 76 76 76 114 114 114 114 114 114 114 114 114 76 76 40 40 40 40 40 40 40 40 40 40 40 40 40 40 40 40 40 40 40 40 40 40 40 40 40 40 40 40 40 40 40 40 40 40 40 40 40 40 40 40 40 40 40 40 40 40 40 40 40 40 40 40 40 40 40 40 40 40 40 40 40 40 76 76 76 76 76 114 76 76 76 76 76 114 114 114 114 114 114 114 114 114 114 114 114 114 114 114 114 114 114 114 114 114 114 114 114 114 114 114 114 114 114 114 114 114 114 114 114 114 114 114 114 114 114 114 114 114 114 114 114 114 114 114 114 114 114 114 114 
114 114 114 114 114 114 114 114 114 114 114 114 114 114 114 167 114 114 114 114 114 114 114 114 114 114 76 76 76 76 76 76 40 40 40 40 40 40 40 40 40 40 40 76 76 40 76 76 76 76 40 76 76 76 76 76 76 76 76 76 76 76 76 76 76 76 76 76 76 76 76 76 76 76 76 76 76 76 76 76 76 76 76 76 76 76 76 76 76 76 76 76 76 76 76 76 76 76 76 76 76 76 76 40 76 167 167 167 167 167 167 167 167 167 167 167 167 167 167 114 114 76 40 76 114 114 114 114 76 76 76 76 76 114 114 76 76 76 76 76 76 114 114 76 114 114 114 76 76 76 114 114 114 114 76 76 114 114 76 76 114 114 114 114 76 40 76 114 114 114 114 114 76 76 76 40 40 40 40 40 76 40 40 40 40 40 40 40 40 76 40 76 76 40 40 40 40 40 40 40 40 40 40 40 40 40 40 40 76 76 76 40 40 40 40 40 40 40 40 76 40 40 40 40 40 40 40 40 40 40 40 40 76 76 76 76 76 40 76 76 40 40 40 40 76 76 40 40 40 40 40 76 76 76 40 76 114 114 76 114 76 40 40 76 167 167 114 114 167 167 167 167 167 167 167 167 167 167 167 167 167 167 167 167 167 167 167 167 114 167 167 167 167 167 114 167 114 167 167 114 167 167 114 167 114 167 167 114 114 167 167 167 167 167 167 167 167 167 167 167 114 167 167 167 167 167 167 167 167 167 167 167 167 167 167 167 167 167 167 167 167 167 114 114 114 76 76 40 76 76 76 40 40 40 114 114 76 40 76 40 40 40 40 76 114 114 76 76 76 76 76 76 114 114 114 114 114 114 114 114 76 40 40 40 40 40 40 40 40 40 40 40 40 40 40 40 40 40 40 40 40 40 40 40 40 40 40 40 40 40 40 40 40 40 40 40 40 40 40 40 40 40 40 40 40 40 40 40 40 40 40 40 40 40 40 40 40 40 40 40 40 40 40 40 40 76 114 76 76 76 76 76 76 76 76 76 114 114 114 114 114 114 114 114 114 114 114 114 114 114 114 114 114 114 114 114 114 114 114 114 114 114 114 114 114 114 114 114 114 114 114 114 114 114 114 114 114 114 114 114 114 114 114 114 114 114 114 114 114 114 114 114 
114 114 114 114 114 114 167 114 114 114 114 114 114 114 114 114 114 114 114 114 114 114 114 114 114 114 114 76 76 76 76 40 40 40 40 40 40 40 40 40 40 40 40 40 40 76 76 76 76 76 40 76 76 76 76 76 76 76 76 76 76 76 76 76 76 76 76 76 76 76 76 76 76 76 76 76 76 76 76 76 76 76 76 76 76 76 76 76 76 76 76 76 76 76 76 76 76 76 76 76 76 76 76 76 76 167 167 167 167 167 167 167 167 167 167 114 167 167 167 114 114 76 76 76 114 114 76 114 76 76 76 114 76 76 114 76 76 114 76 114 114 76 114 76 76 76 114 114 76 76 76 76 76 76 76 76 76 76 76 76 76 76 76 40 76 40 40 40 76 76 76 76 76 76 76 40 40 40 40 40 76 76 40 40 40 40 76 40 76 76 76 40 76 40 40 40 40 40 40 40 40 40 40 40 40 40 40 40 76 40 76 40 40 40 40 40 40 40 40 76 40 40 40 40 40 40 40 40 40 40 40 40 40 76 76 76 76 76 76 76 76 76 40 40 76 76 76 76 40 40 40 76 76 76 76 40 76 76 114 76 76 76 114 167 167 114 114 167 167 167 167 167 167 114 167 167 167 167 167 167 167 167 167 167 167 114 114 167 114 167 167 167 114 167 114 167 114 167 114 114 167 167 167 114 167 167 167 114 114 114 167 167 167 167 167 167 114 114 167 167 167 167 167 167 167 167 167 167 167 167 167 167 167 167 167 167 167 167 167 167 167 167 114 114 114 114 76 76 76 76 76 76 40 40 40 114 114 40 40 76 40 40 40 40 114 114 114 76 76 114 76 76 76 114 114 114 114 76 76 76 76 40 40 40 40 40 40 40 40 40 40 40 40 40 40 40 40 40 40 40 40 40 40 40 40 40 40 40 40 40 40 40 40 40 40 40 40 40 40 40 40 40 40 40 40 40 40 40 40 40 40 40 40 40 40 40 40 40 40 40 40 40 40 40 76 76 114 114 76 76 76 76 76 76 76 76 114 114 114 114 114 114 114 114 114 114 114 114 114 114 114 114 114 114 114 114 114 114 114 114 114 114 114 114 114 114 114 114 114 114 114 114 114 114 114 114 114 114 114 114 114 114 114 114 114 114 114 114 114 114 114 114 
114 114 114 114 114 114 114 114 114 114 114 114 114 114 114 114 114 114 114 114 114 114 114 114 114 114 114 76 114 76 76 76 40 40 40 40 40 40 40 40 40 40 40 40 40 40 76 40 76 76 76 76 76 76 76 40 76 76 76 76 76 76 76 76 76 76 76 76 76 76 76 76 76 76 76 76 76 76 76 76 76 76 76 76 76 76 76 76 76 76 76 76 76 76 76 76 76 76 76 76 76 76 76 76 40 76 167 167 167 167 167 167 167 167 167 167 167 167 167 167 114 76 114 167 114 114 114 76 76 76 76 76 76 76 76 76 76 76 76 114 114 76 114 114 76 76 114 114 76 76 76 76 76 76 76 76 76 76 76 114 114 114 114 114 114 76 76 76 40 40 76 40 76 40 40 76 40 40 40 40 40 40 40 40 76 40 40 40 76 76 76 76 40 40 40 40 40 40 40 40 40 40 40 40 40 40 40 40 76 40 76 76 40 40 40 40 40 40 40 40 40 40 40 40 40 40 40 40 40 40 40 40 40 40 40 40 40 40 40 40 40 40 40 76 76 76 40 40 76 40 40 76 76 76 76 76 76 76 114 114 76 76 167 167 114 114 114 167 167 167 167 167 114 114 167 167 167 167 167 167 167 167 167 114 114 114 114 114 114 114 167 167 114 167 114 167 114 167 114 114 167 167 167 114 114 167 114 167 167 167 167 167 167 167 114 167 167 167 167 167 167 167 167 167 167 167 167 167 167 167 167 167 167 167 167 167 167 167 167 167 167 167 167 114 114 114 76 76 76 76 76 76 40 40 40 40 114 114 40 40 40 40 40 40 76 76 76 76 76 114 76 76 76 114 114 114 114 76 76 76 76 76 40 40 40 40 40 40 40 40 40 40 40 40 40 40 40 40 40 40 40 40 40 40 40 40 40 40 40 40 40 40 40 40 40 40 40 40 40 40 40 40 40 40 40 40 40 40 40 40 40 40 40 40 40 40 40 40 40 40 40 40 40 76 76 76 114 114 76 76 76 76 76 76 114 114 114 114 114 114 114 114 114 114 114 114 114 114 114 114 114 114 114 114 114 114 114 114 114 114 114 114 114 114 114 114 114 114 114 114 114 114 114 114 114 114 114 114 114 114 114 114 114 114 114 114 114 114 114 114 114 114 
167 114 114 114 114 114 114 114 114 114 114 114 114 114 114 114 114 114 114 114 114 114 114 114 114 114 114 76 76 76 40 40 40 40 40 40 40 40 40 40 40 40 76 76 76 76 76 40 76 76 76 76 76 76 76 76 76 76 76 76 76 76 76 76 76 76 76 76 76 76 76 76 76 76 76 76 76 76 76 76 76 76 76 76 76 76 76 76 76 76 76 76 76 76 76 76 76 76 76 76 76 76 76 76 76 76 167 167 167 167 167 167 167 167 167 167 167 167 167 114 114 76 114 167 114 76 114 114 76 76 76 76 76 76 76 76 76 76 76 76 76 114 114 114 76 76 76 76 76 76 76 76 76 76 76 76 114 114 114 76 114 114 114 114 114 114 114 76 76 76 76 40 40 40 40 40 40 40 40 40 40 40 40 76 76 40 40 40 76 40 40 76 40 40 40 40 40 40 40 40 40 40 40 40 40 40 40 40 76 40 40 76 40 40 40 40 40 40 40 40 40 40 40 40 40 40 40 40 40 40 40 40 40 40 40 40 40 40 40 40 40 40 40 40 40 40 40 40 40 40 40 40 76 76 40 76 76 114 114 76 76 76 114 114 114 114 114 167 167 167 167 114 114 114 167 167 167 167 167 167 167 167 114 114 114 114 114 114 114 114 114 167 167 114 114 114 114 167 114 167 167 167 167 167 167 114 114 167 167 167 114 114 114 114 114 167 167 167 167 167 167 167 167 167 167 167 167 167 167 167 167 167 167 167 167 167 167 167 167 167 167 167 167 114 114 114 76 76 76 76 40 40 76 40 40 40 76 114 114 40 76 40 40 40 40 76 114 76 76 76 114 114 76 114 114 114 114 76 76 76 76 76 40 40 40 40 40 40 40 40 40 40 40 40 40 40 40 40 40 40 40 40 40 40 40 40 40 40 40 40 40 40 40 40 40 40 40 40 40 40 40 40 40 40 40 40 40 40 40 40 40 40 40 40 40 40 40 40 40 40 40 40 40 76 76 76 114 76 76 76 76 76 76 76 76 114 114 114 114 114 114 114 114 114 114 114 114 114 114 114 114 114 114 114 114 114 114 114 114 114 114 114 114 114 114 114 114 114 114 114 114 114 114 114 114 114 114 114 114 114 114 114 114 114 114 114 114 114 114 114 114 114 
114 114 114 167 114 114 114 114 114 114 114 114 114 167 114 114 114 114 114 114 114 114 114 114 114 114 114 76 76 76 76 40 40 40 40 40 40 40 40 40 40 40 76 76 76 76 76 76 76 76 76 76 76 76 76 76 76 76 76 76 76 76 76 76 76 76 76 76 76 76 76 76 76 76 76 76 76 76 76 76 76 76 76 76 76 76 76 76 76 76 76 76 76 76 76 76 76 76 76 76 76 76 76 76 76 76 114 167 167 167 167 167 167 167 167 167 167 167 167 114 114 114 76 114 114 76 76 76 114 76 76 76 76 76 76 76 76 76 76 76 76 114 76 114 76 76 76 76 76 76 76 76 76 76 76 114 114 114 114 76 76 114 76 76 114 114 114 114 114 76 76 40 40 40 40 40 40 40 40 40 40 40 40 76 40 40 40 40 76 40 40 40 40 40 40 40 40 40 40 40 40 40 40 40 40 40 40 40 40 40 40 76 40 40 40 40 40 40 40 40 40 40 40 40 40 40 40 40 40 40 40 40 40 40 40 40 40 40 40 40 40 40 40 40 40 40 40 40 40 40 40 40 76 76 40 40 76 76 76 76 76 76 76 114 114 114 114 114 167 167 167 114 114 114 167 167 167 114 167 167 167 114 114 114 167 114 114 114 114 167 167 167 114 114 114 114 114 167 114 167 167 114 114 167 167 114 114 167 167 114 114 114 114 167 167 167 167 167 167 167 167 167 167 167 167 167 167 167 167 167 167 167 167 167 167 167 167 167 167 167 167 167 167 114 114 114 76 76 76 76 40 40 40 76 40 40 40 40 76 40 76 76 40 40 40 76 114 76 76 76 114 114 114 114 114 114 114 76 76 76 76 76 40 40 40 40 40 40 40 40 40 40 40 40 40 40 40 40 40 40 40 40 40 40 40 40 40 40 40 40 40 40 40 40 40 40 40 40 40 40 40 40 40 40 40 40 40 40 40 40 40 40 40 40 40 40 40 40 40 40 40 40 76 76 76 76 76 76 114 114 76 76 76 76 114 114 114 114 114 114 114 114 114 114 114 114 114 114 114 114 114 114 114 114 114 114 114 114 114 114 114 114 114 114 114 114 114 114 114 114 114 114 114 114 114 114 114 114 114 114 114 114 114 114 114 114 114 114 114 114 114 114 
167 167 114 114 114 114 114 114 114 114 114 114 114 167 114 114 114 114 114 114 114 114 114 114 114 114 114 76 76 76 76 40 40 40 40 40 40 40 40 40 40 40 40 76 76 76 76 76 40 40 40 76 76 76 76 76 76 76 76 76 76 76 76 76 76 76 76 76 76 76 76 76 76 76 76 76 76 76 76 76 76 76 76 76 76 76 76 76 76 76 76 76 76 76 76 76 76 76 76 76 76 76 76 76 40 76 114 167 167 167 167 167 167 167 167 167 167 167 167 114 167 114 114 114 114 76 76 76 114 76 76 76 76 76 76 76 76 76 76 114 76 114 76 76 76 76 76 76 76 76 76 76 76 114 114 114 114 114 114 76 76 76 76 40 40 76 114 76 114 76 76 76 40 40 40 40 40 40 40 40 40 40 40 40 40 40 40 40 76 40 40 40 40 40 40 40 40 40 40 40 40 40 40 40 40 40 40 40 40 40 40 76 40 40 40 40 40 40 40 40 40 40 40 40 40 40 40 40 40 40 40 40 40 40 40 40 40 40 40 40 40 40 40 40 40 40 40 40 40 76 76 40 76 76 40 40 76 40 76 76 76 76 76 114 114 114 114 114 167 167 167 114 114 167 167 167 167 167 167 167 114 114 114 167 167 114 114 114 114 167 167 114 167 114 167 167 167 167 167 167 114 114 114 167 167 114 114 167 114 114 114 114 167 167 167 167 167 167 167 167 167 167 167 167 167 167 167 167 167 167 167 167 167 167 167 167 167 167 167 167 167 167 167 167 114 114 114 76 76 76 76 76 40 76 76 40 40 40 40 76 40 40 40 40 40 40 76 114 76 76 76 114 114 114 114 114 114 76 76 76 76 40 40 40 40 40 40 40 40 40 40 40 40 40 40 40 40 40 40 40 40 40 40 40 40 40 40 40 40 40 40 40 40 40 40 40 40 40 40 40 40 40 40 40 40 40 40 40 40 40 40 40 40 40 40 40 40 40 40 40 40 76 76 76 76 114 114 76 114 76 76 76 76 76 114 114 114 114 114 114 114 114 114 114 114 114 114 114 114 114 114 114 114 114 114 114 114 114 114 114 114 114 114 114 114 114 114 114 114 114 114 114 114 114 114 114 114 114 114 114 114 114 114 114 114 114 114 114 114 114 114 114 
114 114 114 114 114 114 114 114 114 114 114 114 114 114 114 114 114 114 114 114 114 114 114 114 114 114 114 76 76 76 76 76 40 40 40 40 40 40 40 40 40 40 76 76 76 76 76 76 76 76 76 76 76 76 76 76 76 76 76 76 76 76 76 76 76 76 76 76 76 76 76 76 76 76 76 76 76 76 76 76 76 76 76 76 76 76 76 76 76 76 76 76 76 76 76 76 76 76 76 76 76 76 76 76 76 76 114 167 167 167 167 167 167 167 167 167 167 167 167 167 167 167 114 76 76 76 114 76 76 114 76 76 76 76 76 76 76 76 76 76 76 114 76 76 76 76 76 114 76 76 76 76 114 114 114 114 114 76 114 114 114 76 40 40 76 76 76 114 114 76 76 76 40 40 40 40 40 40 40 40 40 40 40 40 40 40 40 40 76 76 40 40 76 40 40 40 40 40 40 40 40 40 40 40 40 40 40 40 40 40 40 76 76 76 76 40 40 40 40 40 40 40 40 40 40 40 40 40 40 40 40 40 40 40 40 40 40 40 40 40 40 40 40 40 40 40 40 40 76 114 76 40 76 76 40 40 76 114 114 76 114 114 114 114 114 167 167 167 167 167 167 167 167 167 167 167 167 167 167 114 114 114 114 114 114 114 114 114 114 167 167 114 167 167 167 167 167 167 167 167 114 114 167 167 167 114 114 114 114 114 114 167 167 167 167 167 167 167 167 167 167 167 167 167 167 167 167 167 167 167 167 167 167 167 167 167 167 167 167 167 167 167 167 167 114 114 114 76 76 76 76 76 40 40 40 40 40 40 40 40 76 40 76 40 40 40 40 114 76 114 76 76 114 114 114 114 114 76 76 76 76 40 40 40 40 40 40 40 40 40 40 40 40 40 40 40 40 40 40 40 40 40 40 40 40 40 40 40 40 40 40 40 40 40 40 40 40 40 40 40 40 40 40 40 40 40 40 40 40 40 40 40 40 40 40 40 40 40 40 40 40 76 76 76 114 114 114 76 76 76 76 76 76 76 114 114 114 114 114 114 114 114 114 114 114 114 114 114 114 114 114 114 114 114 114 114 114 114 114 114 114 114 114 114 114 114 114 114 114 114 114 114 114 114 114 114 114 114 114 114 114 114 114 114 114 114 114 114 114 114 114 114 
114 114 114 114 114 114 167 114 114 114 114 114 114 114 114 114 114 114 114 114 114 114 114 114 114 76 114 76 76 76 76 76 40 40 40 40 40 40 40 40 40 40 40 40 40 76 76 76 40 76 76 76 76 76 76 76 76 76 76 76 76 76 76 76 76 76 76 76 76 76 76 76 76 76 76 76 76 76 76 76 76 76 76 76 76 76 76 76 76 76 76 76 76 76 76 76 76 76 76 76 76 76 76 76 76 76 114 167 167 167 167 167 167 167 167 167 167 167 167 167 114 114 114 76 76 76 76 76 76 114 76 76 76 76 76 76 76 76 114 114 114 76 76 76 76 76 76 114 76 76 76 114 114 114 114 114 114 114 114 114 114 114 76 40 76 76 76 76 76 76 76 76 40 40 40 40 40 40 40 40 40 40 40 40 40 40 40 40 76 76 40 40 40 40 40 40 40 40 40 40 40 40 40 40 40 40 40 40 40 40 40 76 76 76 76 40 40 40 40 40 40 40 40 40 40 40 40 40 40 40 40 40 40 40 40 40 40 40 40 40 40 40 40 40 40 76 76 76 76 76 76 40 76 76 40 40 114 114 114 76 114 167 167 114 114 167 167 167 167 167 167 167 167 167 167 167 167 167 167 114 114 114 114 114 114 114 114 114 114 167 167 114 167 167 167 167 114 167 114 114 114 114 167 167 114 114 114 114 114 167 167 167 167 167 167 167 167 167 167 167 167 167 167 167 167 167 167 167 167 167 167 167 167 167 167 167 167 167 167 167 167 167 167 167 114 114 114 76 76 76 76 76 40 76 40 40 40 40 40 40 76 76 76 40 40 76 40 76 76 76 76 76 114 114 114 114 114 76 76 76 76 40 40 40 40 40 40 40 40 40 40 40 40 40 40 40 40 40 40 40 40 40 40 40 40 40 40 40 40 40 40 40 40 40 40 40 40 40 40 40 40 40 40 40 40 40 40 40 40 40 40 40 40 40 40 40 40 40 40 40 40 76 76 114 114 114 114 76 114 114 76 76 76 114 114 114 114 114 114 114 114 114 114 114 114 114 114 114 114 114 114 114 114 114 114 114 114 114 114 114 114 114 114 114 114 114 114 114 114 114 114 114 114 114 114 114 114 114 114 114 114 114 114 114 114 114 114 114 114 114 114 114 
114 167 114 114 114 114 114 114 114 114 114 114 114 114 114 114 114 114 114 114 114 114 114 114 114 114 114 76 76 76 76 40 40 40 40 40 40 40 40 40 40 76 76 40 76 76 76 76 76 76 76 76 76 76 76 76 76 76 76 40 76 76 76 76 76 76 76 76 76 76 76 76 76 76 76 76 76 76 76 76 76 76 76 76 76 76 76 76 76 76 76 76 76 76 76 76 76 76 76 76 76 76 76 76 76 76 114 167 167 167 167 167 167 167 167 167 167 167 167 167 114 114 76 76 76 114 76 76 76 76 114 114 76 76 76 76 114 76 76 76 76 76 76 76 76 76 76 76 76 114 114 114 114 76 114 114 114 76 76 114 76 76 76 40 76 76 76 76 76 40 40 40 40 40 76 76 40 40 40 40 40 40 40 40 40 40 40 40 40 40 40 40 40 40 40 40 40 40 40 40 40 40 40 40 40 40 40 40 40 40 40 40 40 76 76 40 76 40 40 40 40 40 40 40 40 40 40 40 40 40 40 40 40 40 40 40 40 40 40 40 40 40 40 40 40 76 76 114 76 40 76 76 76 76 40 76 167 114 76 76 167 167 167 167 114 167 167 167 167 167 167 167 167 167 167 167 167 167 167 114 114 114 114 114 114 114 114 114 114 114 114 114 167 167 167 167 114 167 114 114 114 114 114 114 114 114 114 114 167 167 167 167 167 167 167 167 167 167 167 167 167 167 167 167 167 167 167 167 167 167 167 167 167 167 167 167 167 167 167 167 167 167 167 114 114 114 114 114 76 76 76 76 40 40 40 40 40 40 40 40 40 76 76 40 40 40 40 76 114 76 76 76 76 114 114 114 114 114 76 76 76 40 40 40 40 40 40 40 40 40 40 40 40 40 40 40 40 40 40 40 40 40 40 40 40 40 40 40 40 40 40 40 40 40 40 40 40 40 40 40 40 40 40 40 40 40 40 40 40 40 40 40 40 40 40 40 40 40 40 40 76 76 76 114 114 114 114 76 76 76 76 76 114 114 114 114 114 114 114 114 114 114 114 114 114 114 114 114 114 114 114 114 114 114 114 114 114 114 114 114 114 114 114 114 114 114 114 114 114 114 114 114 114 114 114 114 114 114 114 114 114 114 114 114 114 114 114 114 114 114 114 114 
114 114 114 114 114 114 114 114 114 167 114 114 167 114 114 114 114 114 114 114 114 114 114 114 114 114 114 114 76 76 76 76 40 40 40 40 40 40 40 40 40 40 40 76 76 76 76 76 76 76 76 76 76 76 76 76 76 76 76 76 76 76 76 76 76 76 76 76 76 76 76 76 76 76 76 76 76 76 76 76 76 76 76 76 76 76 76 76 76 76 76 76 76 76 76 76 76 76 76 76 76 76 76 76 76 76 114 167 167 167 167 167 167 167 167 167 167 167 167 114 114 114 76 76 76 76 76 114 76 76 76 76 76 114 114 76 114 76 76 76 76 76 76 76 76 76 76 114 114 114 114 114 76 114 114 114 114 114 76 76 76 76 76 40 76 76 76 76 76 76 40 40 40 40 40 40 40 40 40 40 40 40 40 40 40 40 40 40 40 40 40 40 40 40 40 40 40 76 76 40 40 40 40 40 40 40 40 40 40 40 40 76 76 76 76 76 40 40 40 40 40 40 40 40 40 40 40 40 40 40 40 40 40 40 40 40 40 40 40 40 40 40 40 40 40 76 114 76 40 40 40 76 76 114 76 76 167 114 76 114 114 167 167 167 167 167 167 167 167 167 167 167 167 167 167 167 167 114 114 114 114 114 114 114 114 114 114 114 114 114 114 114 167 167 167 167 167 167 114 114 114 114 114 114 114 167 167 167 167 167 167 167 167 167 167 167 167 167 167 167 167 167 167 167 167 167 167 167 167 167 167 167 167 167 167 167 167 167 167 167 167 167 167 167 114 114 114 76 76 76 76 76 40 40 40 40 40 40 40 40 40 40 40 40 40 40 40 40 114 114 76 76 76 114 114 114 114 114 76 76 40 40 40 40 40 40 40 40 40 40 40 40 40 40 40 40 40 40 40 40 40 40 40 40 40 40 40 40 40 40 40 40 40 40 40 40 40 40 40 40 40 40 40 40 40 40 40 40 40 40 40 40 40 40 40 40 40 40 40 40 76 76 76 114 114 114 76 76 76 76 76 114 114 114 114 114 114 114 114 114 114 114 114 114 114 114 114 114 114 114 114 114 114 114 114 114 114 114 114 114 114 114 114 114 114 114 114 114 114 114 114 114 114 114 114 114 114 114 114 114 114 114 114 114 114 114 114 114 114 114 114 114 
114 114 114 167 114 114 114 167 114 114 114 114 114 114 114 114 114 114 114 114 114 114 114 114 114 114 114 76 76 76 76 76 40 40 40 40 40 40 40 40 40 40 40 76 40 40 76 76 40 76 76 76 76 76 76 76 76 76 76 76 76 76 76 76 76 76 76 76 76 76 76 76 76 76 76 76 76 76 76 76 76 76 76 76 76 76 76 76 76 76 76 76 76 76 76 76 76 76 76 76 76 76 76 76 76 76 114 167 167 167 167 167 167 167 167 167 167 167 167 114 76 76 76 76 76 76 114 114 76 76 76 76 76 76 76 76 76 76 76 76 76 76 76 76 76 76 76 114 114 114 76 76 114 114 114 114 114 114 76 76 76 76 76 76 40 76 76 40 40 40 40 40 40 76 40 40 40 40 40 40 40 40 40 40 40 40 40 40 40 40 40 40 40 40 40 40 40 40 76 40 40 40 40 40 40 40 40 40 40 40 40 40 76 76 76 114 76 40 40 40 40 40 40 40 40 40 40 40 40 40 40 40 40 40 40 40 40 40 40 40 40 40 40 76 76 76 76 76 40 40 40 76 114 114 76 76 114 114 76 114 167 167 114 167 167 167 167 167 167 167 167 167 167 167 167 167 167 167 114 114 114 114 114 114 114 114 114 114 114 114 114 114 167 167 167 167 114 114 114 114 114 114 114 114 167 167 167 167 167 167 167 167 167 167 167 167 167 167 167 167 167 167 167 167 167 167 167 167 167 167 167 167 167 167 167 167 167 167 167 167 167 167 167 167 114 114 114 76 76 76 76 76 76 40 40 40 40 40 40 40 40 40 76 40 40 40 40 40 76 114 114 76 76 114 114 114 114 114 76 40 40 40 40 40 40 40 40 40 40 40 40 40 40 40 40 40 40 40 40 40 40 40 40 40 40 40 40 40 40 40 40 40 40 40 40 40 40 40 40 40 40 40 40 40 40 40 40 40 40 40 40 40 40 40 40 40 40 40 40 76 76 76 114 114 114 114 114 114 76 76 76 114 114 114 114 114 114 114 114 114 114 114 114 114 114 114 114 114 114 114 114 114 114 114 114 114 114 114 114 114 114 114 114 114 114 114 114 114 114 114 114 114 114 114 114 114 114 114 114 114 114 114 114 114 114 114 114 114 114 114 114 114 
114 114 114 114 114 114 114 167 114 114 114 114 167 114 114 167 114 114 114 114 114 114 114 114 114 114 76 76 76 76 76 40 40 40 40 40 40 40 40 40 40 40 76 76 40 40 40 76 76 76 76 76 76 76 76 76 76 76 76 76 76 76 76 76 76 76 76 76 76 76 76 76 76 76 76 76 76 76 76 76 76 76 76 76 76 76 76 76 76 76 76 76 76 76 76 76 76 76 76 76 76 76 76 76 76 40 114 167 167 167 167 167 167 167 167 167 167 167 114 114 76 76 76 76 76 76 114 76 114 76 76 76 76 76 76 76 76 76 76 76 76 76 76 76 114 114 114 114 114 114 114 76 76 114 76 76 76 114 76 76 76 76 40 40 40 40 40 40 40 40 40 40 76 76 40 40 40 40 40 40 40 40 40 40 40 40 40 40 40 40 76 76 40 40 40 40 40 40 40 76 40 40 40 40 40 40 40 40 40 40 40 40 76 76 76 76 114 76 40 40 40 40 40 40 40 40 40 40 40 40 40 40 40 40 40 40 40 40 40 40 40 40 76 114 76 76 76 76 40 76 76 114 167 114 114 76 114 114 114 114 167 167 167 167 167 167 167 167 167 167 167 167 167 167 167 167 167 114 114 114 114 114 114 114 114 114 114 114 114 114 114 167 167 167 167 167 114 114 114 114 114 114 114 167 167 167 167 167 167 167 167 167 167 167 167 167 167 167 167 167 167 167 167 167 167 167 167 167 167 167 167 167 167 167 167 167 167 167 167 167 167 167 167 167 114 114 114 114 76 76 76 76 76 40 40 40 40 40 40 40 40 40 40 40 40 40 40 40 40 114 114 76 76 114 114 114 114 114 76 40 40 40 40 40 40 40 40 40 40 40 40 40 40 40 40 40 40 40 40 40 40 40 40 40 40 40 40 40 40 40 40 40 40 40 40 40 40 40 40 40 40 40 40 40 40 40 40 40 40 40 40 40 40 40 40 40 40 40 40 76 76 114 114 114 114 114 114 114 76 76 114 114 114 114 114 114 114 114 114 114 114 114 114 114 114 114 114 114 114 114 114 114 114 114 114 114 114 114 114 114 114 114 114 114 114 114 114 114 114 114 114 114 114 114 114 114 114 114 114 114 114 114 114 114 114 114 114 114 114 114 114 114 
167 114 114 114 114 114 114 114 114 114 114 114 114 114 114 114 114 114 114 114 114 114 114 114 114 114 114 114 76 76 76 40 40 40 40 40 40 40 40 40 40 40 76 76 76 76 76 76 76 76 76 76 76 76 76 76 76 76 76 76 76 76 76 76 76 76 76 76 76 76 76 76 76 76 76 76 76 76 76 76 76 76 76 76 76 76 76 76 76 76 76 76 76 76 76 76 76 76 76 76 76 76 76 76 76 76 76 167 167 167 167 167 167 167 167 167 167 114 114 76 76 76 76 76 76 76 114 76 76 76 76 76 76 76 76 114 76 76 76 76 76 76 76 76 76 114 114 114 76 114 114 114 114 114 76 76 76 76 114 114 76 76 40 40 40 40 40 40 40 40 40 40 40 40 40 40 40 40 40 40 40 40 40 40 40 40 40 40 40 40 40 40 40 40 40 40 40 40 40 40 40 40 40 40 40 40 40 40 40 40 40 40 40 76 76 76 114 76 76 40 40 40 40 40 40 40 40 40 40 40 40 40 40 40 40 40 40 40 40 40 40 76 114 114 76 76 76 76 76 76 114 167 114 114 114 76 114 114 114 167 167 167 167 167 167 167 167 167 167 167 167 167 167 167 167 167 114 114 114 114 114 114 114 114 114 114 114 114 167 114 167 167 167 167 167 167 114 114 114 114 114 167 167 167 167 167 167 167 167 167 167 167 167 167 167 167 167 167 167 167 167 167 167 167 167 167 167 167 167 167 167 167 167 167 167 167 167 167 167 167 167 167 167 167 167 114 114 114 114 76 76 76 76 40 40 40 40 40 40 40 40 40 40 40 40 40 40 40 40 114 114 114 76 114 114 114 114 114 76 40 40 40 40 40 40 40 40 40 40 40 40 40 40 40 40 40 40 40 40 40 40 40 40 40 40 40 40 40 40 40 40 40 40 40 40 40 40 40 40 40 40 40 40 40 40 40 40 40 40 40 40 40 40 40 40 40 40 40 40 76 76 114 114 114 114 114 76 114 76 76 114 114 114 114 114 114 114 114 114 114 114 114 114 114 114 114 114 114 114 114 114 114 114 114 114 114 114 114 114 114 114 114 114 114 114 114 114 114 114 114 114 114 114 114 114 114 114 114 114 114 114 114 114 114 114 114 114 114 114 114 114 114 
114 114 114 114 114 114 114 114 114 114 114 114 114 114 114 167 114 114 114 114 114 114 114 114 114 114 114 76 76 76 76 40 40 40 40 40 40 40 40 40 40 40 40 40 76 76 76 76 76 76 76 76 76 76 76 76 76 76 76 76 76 76 76 76 76 76 76 76 76 76 76 76 76 76 76 76 76 76 76 76 76 76 76 76 76 76 76 76 76 76 76 76 76 76 76 76 76 76 76 76 76 76 76 76 76 76 76 167 167 167 167 167 167 167 167 167 167 114 114 76 76 76 76 76 76 76 76 76 76 76 76 76 76 114 76 114 76 76 76 76 76 76 76 114 114 114 114 76 76 76 114 114 114 76 76 76 76 76 76 76 76 76 40 40 40 40 40 40 40 40 40 40 40 40 40 40 40 40 40 40 40 40 40 40 40 40 40 40 40 40 40 76 76 40 40 40 40 40 40 76 40 40 40 40 40 40 76 40 40 40 40 40 40 40 76 76 114 114 76 76 76 40 40 40 40 40 40 40 40 40 40 40 40 40 40 40 40 40 40 40 114 114 114 76 76 76 40 76 76 114 167 114 114 114 114 76 76 114 114 167 167 167 114 114 114 167 167 167 167 167 167 167 167 167 114 114 114 114 114 114 114 114 114 114 114 114 114 114 114 167 167 167 167 167 114 114 114 114 114 114 167 167 167 167 167 167 167 167 167 167 167 167 167 167 167 167 167 167 167 167 167 167 167 167 167 167 167 167 167 167 167 167 167 167 167 167 167 167 167 167 167 167 167 167 167 167 114 114 114 76 76 76 76 40 40 40 40 40 40 40 40 40 40 40 40 40 40 40 40 76 114 114 114 114 114 114 114 114 76 40 40 40 40 40 40 40 40 40 40 40 40 40 40 40 40 40 40 40 40 40 40 40 40 40 40 40 40 40 40 40 40 40 40 40 40 40 40 40 40 40 40 40 40 40 40 40 40 40 40 40 40 40 40 40 40 40 40 40 76 76 114 114 114 114 114 76 76 76 76 76 114 114 114 114 114 114 114 114 114 114 114 114 114 114 114 114 114 114 114 114 114 114 114 114 114 114 114 114 114 114 114 114 114 114 114 114 114 114 114 114 114 114 114 114 114 114 114 114 114 114 114 114 114 114 114 114 114 114 114 114 114 114 
114 114 114 114 114 114 114 114 114 114 114 114 114 114 114 114 114 114 114 114 114 114 114 114 114 114 114 76 76 76 76 76 40 40 40 40 40 40 40 40 40 40 40 40 76 76 76 40 76 76 76 76 76 76 76 76 76 76 76 76 76 76 76 76 76 76 76 76 76 76 76 76 76 76 76 76 76 76 76 76 76 76 76 76 76 76 76 76 76 76 76 76 76 76 76 76 76 76 76 76 76 76 76 76 76 76 76 167 167 167 167 167 167 167 167 167 167 114 76 76 76 76 76 76 76 76 76 76 76 76 76 76 76 76 76 76 76 76 76 76 76 114 114 76 76 76 76 76 76 76 76 114 76 76 76 76 114 114 76 76 76 40 40 40 40 40 40 40 40 40 40 40 40 40 40 40 40 40 40 40 40 40 40 40 40 40 40 40 40 40 40 40 40 40 40 40 40 40 40 40 40 40 40 40 40 40 76 40 40 40 40 40 40 40 40 76 114 114 76 76 76 76 76 76 76 76 40 40 40 40 40 40 40 40 40 40 40 40 40 76 114 114 114 76 76 76 40 76 114 167 114 114 114 114 114 76 76 76 114 167 167 167 167 114 114 167 167 167 167 167 167 167 167 167 114 114 114 114 114 114 114 114 114 114 114 114 114 167 114 167 167 167 167 114 114 114 114 114 114 167 167 167 167 167 167 167 167 167 167 167 167 167 167 167 167 167 167 167 167 167 167 167 167 167 167 167 167 167 167 167 167 167 167 167 167 167 167 167 167 167 167 167 167 167 167 167 114 114 114 76 76 76 76 76 40 40 40 40 40 40 40 40 40 40 40 40 40 40 40 76 114 114 76 114 114 114 114 114 76 40 40 40 40 40 40 40 40 40 40 40 40 40 40 40 40 40 40 40 40 40 40 40 40 40 40 40 40 40 40 40 40 40 40 40 40 40 40 40 40 40 40 40 40 40 40 40 40 40 40 40 40 40 40 40 40 40 40 40 76 76 114 114 114 114 114 114 76 76 76 114 114 114 114 114 114 114 114 114 114 114 114 114 114 114 114 114 114 114 114 114 114 114 114 114 114 114 114 114 114 114 114 114 114 114 114 114 114 114 114 114 114 114 114 114 114 114 114 114 114 114 114 114 114 114 114 114 114 114 114 114 114 114 
114 114 114 114 114 114 114 114 114 114 114 114 167 167 114 167 114 114 114 114 114 114 114 114 114 114 114 76 76 76 76 76 40 40 40 40 40 40 40 40 40 40 40 76 76 76 76 76 76 76 76 76 76 76 76 76 76 76 76 76 76 76 76 76 76 76 76 76 76 76 76 76 76 76 76 76 76 76 76 76 76 76 76 76 76 76 76 76 76 76 76 76 76 76 76 76 76 76 76 76 76 76 76 76 76 40 76 114 167 167 167 167 167 167 167 167 114 114 76 76 76 76 76 76 76 76 76 76 76 76 76 76 76 76 76 76 76 76 76 76 114 114 114 114 114 76 76 76 76 76 76 76 76 76 76 76 76 76 114 76 76 76 40 40 40 40 40 40 40 40 40 40 40 40 40 40 40 40 40 40 40 40 40 40 40 40 40 40 40 40 40 40 76 76 76 40 40 40 40 76 40 40 40 40 40 40 76 76 40 40 40 40 40 40 40 40 76 114 76 40 40 40 40 40 40 40 40 40 40 40 40 40 40 40 40 40 40 40 76 114 114 114 76 76 76 76 114 167 167 114 114 114 114 114 114 114 76 76 114 114 167 167 167 167 114 114 167 167 167 167 167 167 167 167 114 114 114 114 114 114 114 114 114 114 114 114 114 167 167 167 167 167 114 114 114 114 114 114 167 167 167 167 167 167 167 167 167 167 167 167 167 167 167 167 167 167 167 167 167 167 167 167 167 167 167 167 167 167 167 167 167 167 167 167 167 167 167 167 167 167 167 167 167 167 167 167 167 114 114 76 76 40 76 76 40 40 40 40 40 40 40 40 40 40 76 40 40 40 40 76 114 114 114 114 114 114 114 114 76 40 40 40 40 40 40 40 40 40 40 40 40 40 40 40 40 40 40 40 40 40 40 40 40 40 40 40 40 40 40 40 40 40 40 40 40 40 40 40 40 40 40 40 40 40 76 40 40 40 40 40 40 40 40 40 40 40 40 76 76 76 114 114 114 114 114 114 76 76 114 114 114 114 114 114 114 114 114 114 114 114 114 114 114 114 114 114 114 114 114 114 114 114 114 114 114 114 114 114 114 114 114 114 114 114 114 114 114 114 114 114 114 114 114 114 114 114 114 114 114 114 114 114 114 114 114 114 114 114 114 114 114 114 
114 114 114 114 114 114 114 114 114 114 114 114 114 114 114 114 167 114 114 114 114 114 114 114 114 114 114 76 76 76 76 40 40 40 40 40 40 40 40 40 40 40 40 76 76 76 76 76 76 76 76 76 76 76 76 76 76 76 76 76 76 76 76 76 76 76 76 76 76 76 76 76 76 76 76 76 76 76 76 76 76 76 76 76 76 76 76 76 76 76 76 76 76 76 76 76 76 76 76 76 76 76 76 76 76 76 76 76 167 167 167 167 167 167 167 167 114 76 76 76 76 76 76 76 76 76 76 76 76 76 76 76 76 76 76 76 76 76 76 114 114 76 114 114 76 76 114 76 40 76 76 76 76 76 76 76 76 76 76 76 76 76 40 40 40 40 40 40 40 40 40 40 40 40 40 40 40 40 40 40 40 40 40 40 40 40 40 40 40 40 40 40 40 40 40 40 40 40 40 40 40 40 40 40 40 40 76 76 40 40 40 40 40 40 40 40 76 114 76 40 40 40 40 40 40 40 40 40 40 40 40 40 40 40 40 40 40 76 114 114 114 76 76 76 76 114 167 167 167 114 114 114 114 114 114 114 76 76 76 114 114 167 167 167 114 114 167 167 167 167 167 114 167 167 114 114 114 114 114 114 114 114 114 114 114 114 114 114 167 167 114 114 114 114 114 114 114 114 167 167 114 167 167 167 167 167 167 167 167 167 167 167 167 167 167 167 167 167 167 167 167 167 167 167 167 167 167 167 167 167 167 167 167 167 167 167 167 167 167 167 167 167 167 167 167 167 167 114 114 76 76 76 76 76 76 40 40 40 40 40 40 40 40 40 40 40 40 40 40 40 76 114 114 114 114 114 114 114 76 40 40 40 40 40 40 40 40 40 40 40 40 40 40 40 40 40 40 40 40 40 40 40 40 40 40 40 40 40 40 40 40 40 40 40 40 40 40 40 40 40 40 40 40 40 40 40 40 40 40 40 40 40 40 40 40 40 40 76 76 114 114 114 114 76 76 114 76 76 114 114 114 114 114 114 114 114 114 114 114 114 114 114 114 114 114 114 114 114 114 114 114 114 114 114 114 114 114 114 114 114 114 114 114 114 114 114 114 114 114 114 114 114 114 114 114 114 114 114 114 114 114 114 114 114 114 114 114 114 114 114 114 114 
114 114 114 167 114 114 114 114 114 114 114 114 114 114 167 114 114 167 114 114 114 114 114 114 114 114 76 76 76 76 76 76 40 40 76 40 40 40 40 40 76 40 40 76 40 76 76 76 76 76 76 76 76 76 76 76 76 76 76 76 76 76 76 76 76 76 76 76 76 76 76 76 76 76 76 76 76 76 76 76 76 76 76 76 76 76 76 76 76 76 76 76 76 76 76 76 76 76 76 76 76 76 76 76 76 76 76 76 167 167 167 167 167 167 167 167 114 76 76 76 76 76 76 76 76 76 76 76 76 76 76 76 76 76 76 76 76 114 114 114 76 76 114 76 114 76 114 114 76 40 76 76 76 76 76 76 76 76 76 40 76 40 40 40 40 40 40 40 40 76 76 76 40 40 40 40 40 40 40 40 40 40 40 40 40 40 40 40 40 40 40 40 40 40 76 40 40 40 40 40 40 40 40 40 40 40 76 40 40 40 40 40 40 40 40 40 76 114 76 40 40 40 40 40 40 40 40 40 40 40 40 40 40 40 40 40 76 167 114 114 76 76 76 76 114 167 167 167 114 114 114 114 114 114 114 114 114 76 76 114 114 114 114 167 114 114 167 167 167 167 114 167 167 114 114 167 114 114 167 167 114 114 114 114 114 114 114 167 167 114 114 114 114 114 114 167 167 114 167 167 167 167 167 167 167 167 167 167 167 167 167 167 167 167 167 167 167 167 167 167 167 167 167 167 167 167 167 167 167 167 167 167 167 167 167 167 167 167 167 167 167 167 167 167 167 167 167 114 114 114 76 76 76 76 76 40 40 40 40 40 40 40 40 40 40 40 40 40 40 40 40 114 114 114 114 114 114 114 76 40 40 40 40 40 40 40 40 40 40 40 40 40 40 40 40 40 40 40 40 40 40 40 40 40 40 40 40 40 40 40 40 40 40 40 40 40 40 40 40 40 40 40 40 40 40 40 40 40 40 40 40 40 40 40 40 40 76 76 76 114 114 114 114 114 114 114 76 76 114 114 114 114 114 114 114 114 114 114 114 114 114 114 114 114 114 114 114 114 114 114 114 114 114 114 114 114 114 114 114 114 114 114 114 114 114 114 114 114 114 114 114 114 114 114 114 114 114 114 114 114 114 114 114 114 114 114 114 114 114 114 114 114 
114 114 114 114 114 114 114 114 114 114 114 114 114 114 114 114 114 114 114 114 114 114 114 114 114 114 114 114 76 76 76 76 40 40 76 40 40 40 40 76 76 40 40 40 40 76 76 76 40 40 76 76 76 76 76 76 76 76 76 76 76 76 76 76 76 76 76 76 76 76 76 76 76 76 76 76 76 76 76 76 76 76 76 76 76 76 76 76 76 76 76 76 76 76 76 76 76 76 76 76 76 76 76 76 76 76 76 76 114 167 167 167 167 167 167 167 114 76 76 76 76 76 76 76 76 76 76 76 76 76 76 76 76 76 76 76 114 114 114 76 76 76 76 76 76 114 114 76 76 76 76 76 76 76 76 76 76 40 40 40 40 40 40 40 40 40 40 40 40 76 40 40 40 40 40 40 40 40 40 40 40 40 40 40 40 40 40 40 40 40 40 40 40 40 40 40 40 40 40 40 40 40 40 40 40 40 76 40 40 40 40 40 40 40 40 40 76 114 114 40 40 40 40 40 40 40 40 40 40 40 40 40 40 40 40 76 114 114 114 76 76 76 76 114 114 167 167 114 114 114 114 114 114 114 114 114 114 114 114 114 114 114 114 114 114 167 167 167 167 167 114 167 167 114 114 114 114 114 114 114 114 114 114 114 114 167 114 167 114 114 114 114 114 114 114 114 114 114 167 167 167 167 167 167 167 167 167 167 167 167 167 167 167 167 167 167 167 167 167 167 167 167 167 167 167 167 167 167 167 167 167 167 167 167 167 167 167 167 167 167 167 167 167 167 167 167 167 114 114 114 76 76 76 76 76 40 40 40 40 40 40 40 40 40 40 40 40 40 40 40 40 114 114 114 114 114 114 114 76 76 40 40 40 40 40 40 40 40 40 40 40 40 40 40 40 40 40 40 40 40 40 40 40 40 40 40 40 40 40 40 40 40 40 40 40 40 40 40 40 40 40 40 40 40 40 40 40 40 40 40 40 40 40 40 40 40 76 76 76 114 114 76 76 114 114 76 114 114 114 114 114 114 114 114 114 114 114 114 114 114 114 114 114 114 114 114 114 114 114 114 114 114 114 114 114 114 114 114 114 114 114 114 114 114 114 114 114 114 114 114 114 114 114 114 114 114 114 114 114 114 114 114 114 114 114 114 114 114 114 114 114 114 
114 114 114 114 114 114 114 167 114 114 114 114 167 114 114 167 114 114 114 114 114 114 114 114 114 114 114 114 76 76 76 76 40 40 40 40 40 40 40 40 40 40 40 76 76 76 76 76 76 76 76 76 76 76 76 76 76 76 76 76 76 76 76 76 76 76 76 76 76 76 76 76 76 76 76 76 76 76 76 76 76 76 76 76 76 76 114 114 76 76 76 76 76 76 76 76 76 76 76 76 76 76 76 76 76 76 76 76 76 167 167 167 167 167 167 114 76 76 76 76 76 76 76 76 76 76 76 76 76 76 76 76 76 76 76 76 114 114 114 76 76 76 76 76 76 76 76 76 76 40 40 40 40 40 40 40 40 40 40 40 40 40 40 40 40 40 40 40 40 76 40 40 40 40 40 40 40 40 40 40 40 40 40 40 40 40 40 40 40 40 40 40 40 40 40 40 40 40 40 40 40 40 40 40 40 40 40 40 40 40 40 40 40 40 40 40 40 76 114 40 40 40 40 40 40 40 40 40 40 40 40 40 40 40 76 114 114 114 114 76 76 76 114 114 167 167 114 114 114 114 114 114 114 114 114 114 76 114 114 114 167 167 114 114 114 167 167 167 167 167 114 167 114 114 114 114 114 114 167 114 114 114 114 114 167 114 114 114 114 114 114 114 114 114 114 114 167 167 167 114 167 167 167 167 167 167 167 167 167 167 167 167 167 167 167 167 167 167 167 167 167 167 167 167 167 167 167 167 167 167 167 167 167 167 167 167 167 167 167 167 167 167 167 167 167 167 167 167 114 114 114 76 76 76 76 40 40 40 40 40 40 40 40 40 40 40 40 40 76 40 40 76 114 114 114 114 114 114 76 76 40 40 40 40 40 40 40 40 40 40 40 40 40 40 40 40 40 40 40 40 40 40 40 40 40 40 40 40 40 40 40 40 40 40 40 40 40 40 40 40 40 40 40 40 40 40 40 40 40 40 40 40 40 40 40 40 76 76 76 114 114 114 114 76 76 114 114 114 114 114 114 114 114 114 114 114 114 114 114 114 114 114 114 114 114 114 114 114 114 114 114 114 114 114 114 114 114 114 114 114 114 114 114 114 114 114 114 114 114 114 114 114 114 114 114 114 114 114 114 114 114 114 114 114 114 114 114 114 114 114 114 114 
114 114 114 114 114 114 114 114 114 114 114 114 114 114 114 114 114 114 114 114 114 114 114 114 114 114 114 76 76 76 76 40 76 40 40 40 40 40 40 40 40 40 40 76 40 76 76 76 76 76 76 76 76 76 76 76 76 76 76 76 76 76 76 76 76 76 76 76 76 76 76 76 76 76 76 76 76 76 76 76 76 76 76 76 76 114 114 114 76 76 76 76 76 76 76 76 76 76 76 76 76 76 76 76 76 76 76 76 76 114 167 167 167 167 167 114 76 114 76 76 76 76 76 114 114 76 76 76 76 76 76 76 76 76 76 114 76 114 114 76 76 114 76 76 40 40 40 40 40 40 40 40 40 40 76 76 40 40 76 76 76 76 76 76 40 40 40 40 76 76 40 40 40 40 40 40 40 40 40 40 40 40 40 40 40 40 40 40 40 40 40 40 40 40 40 40 40 40 40 40 40 40 40 40 40 40 76 76 40 40 40 76 40 40 40 40 40 40 114 76 40 40 40 40 40 40 40 40 40 40 40 40 40 76 114 114 114 114 76 76 76 114 167 167 114 114 114 114 114 114 114 114 114 114 114 114 114 114 114 167 167 114 114 114 114 167 167 167 167 167 167 167 114 114 114 114 114 114 114 114 114 114 114 167 114 114 114 114 114 114 114 114 114 167 167 167 114 167 167 167 167 167 167 167 167 167 167 167 167 167 167 167 167 167 167 167 167 167 167 167 167 167 167 167 167 167 167 167 167 167 167 167 167 167 167 167 167 167 167 167 167 167 167 167 167 167 167 114 114 114 114 76 76 76 76 40 40 40 40 40 40 40 40 40 40 40 40 40 76 40 40 76 114 114 114 114 114 114 76 76 40 40 40 40 40 40 40 40 40 40 40 40 40 40 40 40 40 40 40 40 40 40 40 40 40 40 40 40 40 40 40 40 40 40 40 40 40 40 40 40 40 40 40 40 40 40 40 40 40 40 40 40 40 40 40 40 76 76 114 114 114 114 114 114 76 76 114 114 114 114 114 114 114 114 114 114 114 114 114 114 114 114 114 114 114 114 114 114 114 114 114 114 114 114 114 114 114 114 114 114 114 114 114 114 114 114 114 114 114 114 114 114 114 114 114 114 114 114 114 114 114 114 114 114 114 114 114 114 114 114 114 114 
114 114 114 114 114 114 114 114 114 114 114 114 114 114 114 114 114 114 114 114 114 114 114 114 114 114 114 76 76 76 76 76 40 40 40 40 40 40 40 40 76 76 40 76 76 76 76 76 76 76 76 76 76 76 76 76 76 76 76 76 76 76 76 76 76 76 76 76 76 76 76 76 76 76 76 76 76 76 76 76 76 76 76 76 114 167 114 114 76 76 76 76 76 76 76 76 76 76 76 76 76 76 76 76 76 76 76 76 76 76 167 167 167 167 167 114 76 76 76 76 76 76 76 76 76 76 76 76 76 76 76 76 76 76 114 114 114 76 76 76 114 114 114 76 40 40 40 76 76 40 40 40 40 40 76 40 40 40 40 40 40 40 40 40 40 40 40 40 76 76 40 40 40 40 40 40 40 40 40 40 40 40 40 40 40 40 40 40 40 40 40 40 40 40 40 40 40 40 40 40 40 40 40 40 40 40 76 114 76 40 76 76 40 40 40 40 40 40 114 76 40 40 40 40 40 40 40 40 40 40 40 40 40 114 114 114 114 76 76 114 114 114 167 167 114 114 167 167 114 114 114 114 114 114 114 114 114 114 114 167 167 114 114 114 167 167 167 167 167 167 167 167 114 114 114 114 114 114 114 114 114 114 114 114 114 114 114 114 114 114 114 114 114 114 114 167 114 167 167 167 167 167 167 167 167 167 167 167 167 167 167 167 167 167 167 167 167 167 167 167 167 167 167 167 167 167 167 167 167 167 167 167 167 167 167 167 167 167 167 167 167 167 167 167 167 167 167 167 114 114 114 76 76 76 76 76 40 40 40 40 40 40 40 40 40 40 40 40 40 40 40 40 114 114 114 114 114 114 76 76 40 40 40 40 40 40 40 40 40 40 40 40 40 40 40 40 40 40 40 40 40 40 40 40 40 40 40 40 40 40 40 40 40 40 40 40 40 40 40 40 40 40 40 40 40 40 40 40 40 40 40 40 40 40 40 76 76 114 114 114 114 114 114 114 76 76 114 114 114 114 114 114 114 114 114 114 114 114 114 114 114 114 114 114 114 114 114 114 114 114 114 114 114 114 114 114 114 114 114 114 114 114 114 114 114 114 114 114 114 114 114 114 114 114 114 114 114 114 114 114 114 114 114 114 114 114 114 114 114 114 114 114 
114 114 114 114 114 114 114 114 114 114 114 114 114 114 114 114 114 114 114 114 114 114 114 114 114 114 114 76 76 76 76 76 76 40 40 40 40 40 40 40 40 40 40 76 40 76 40 40 76 76 76 76 76 76 76 76 76 76 76 76 76 76 76 76 76 76 76 76 76 76 76 76 76 76 76 76 76 76 76 76 76 76 76 114 114 114 76 76 76 76 76 76 76 76 76 76 76 76 76 76 76 76 76 76 76 76 76 76 76 76 167 167 167 167 167 114 76 76 76 76 76 76 76 76 76 76 76 76 76 76 76 76 76 76 114 114 114 76 76 76 76 114 114 114 114 114 76 76 76 76 76 40 40 40 40 40 40 40 40 40 40 40 40 40 40 40 40 40 76 76 40 40 40 40 40 40 40 40 40 40 40 40 40 40 40 40 40 40 40 40 40 40 40 40 40 40 40 40 40 40 40 40 40 40 40 40 76 76 76 76 76 76 40 40 40 40 40 40 114 76 40 40 40 40 40 40 40 40 40 40 40 40 114 114 114 114 76 76 76 114 114 167 167 114 114 114 167 167 114 114 114 114 114 114 114 114 114 114 114 114 114 114 114 167 167 167 167 167 167 167 167 167 114 114 114 114 114 114 114 167 114 114 114 114 114 114 114 114 114 114 114 114 114 114 167 167 167 167 167 167 167 167 167 167 167 167 167 167 167 167 167 167 167 167 167 167 167 167 167 167 167 167 167 167 167 167 167 167 167 167 167 167 167 167 167 167 167 167 167 167 167 167 167 167 167 167 167 167 114 114 114 76 76 76 76 40 40 40 40 40 40 40 40 40 40 40 40 40 40 76 40 40 114 114 114 114 114 114 76 76 76 40 40 40 40 40 40 40 40 40 40 40 40 40 40 40 40 40 40 40 40 40 40 40 40 40 40 40 40 40 40 40 40 40 40 40 40 40 40 40 40 40 40 40 40 40 40 40 40 40 40 40 40 40 40 76 76 114 114 114 114 114 114 114 76 114 114 114 114 114 114 114 114 114 114 114 114 114 114 114 114 114 114 114 114 114 114 114 114 114 114 114 114 114 114 114 114 114 114 114 114 114 114 114 114 114 114 114 114 114 114 114 114 114 114 114 114 114 114 114 114 114 114 114 114 114 114 114 114 114 114 114 
114 114 114 114 114 114 114 114 167 114 114 114 114 114 114 114 114 114 114 114 114 114 114 114 114 114 114 76 76 76 76 40 40 40 40 40 40 40 40 40 76 40 40 76 40 76 76 76 76 76 76 76 76 76 76 76 76 76 76 76 76 76 76 76 76 76 76 76 76 76 76 76 76 76 76 76 76 76 76 76 76 76 114 114 114 76 76 76 76 76 76 76 76 76 76 76 76 76 76 76 76 76 76 76 76 76 76 76 76 76 76 167 167 167 167 167 76 76 76 76 76 76 76 76 76 76 76 76 76 76 76 114 114 76 76 76 114 114 114 76 76 114 114 114 114 76 76 76 76 76 76 76 40 40 40 40 40 40 40 40 40 40 40 40 40 40 40 40 40 76 40 40 40 40 40 40 40 40 40 40 40 40 40 40 40 40 40 40 40 40 40 40 40 40 40 40 40 40 40 40 40 40 40 40 40 40 40 76 76 40 76 76 76 40 40 40 40 40 114 114 76 40 40 40 40 40 40 40 40 40 40 76 114 114 114 76 76 76 76 114 167 167 114 114 167 167 167 167 167 167 114 114 167 167 167 114 114 114 114 114 114 114 114 114 167 167 167 167 167 167 167 114 114 114 114 114 114 114 114 114 114 114 114 114 114 114 114 114 114 114 114 114 167 167 167 167 167 167 167 167 167 167 167 167 167 167 167 167 167 167 167 167 167 167 167 167 167 167 167 167 167 167 167 167 167 167 167 167 167 167 167 167 167 167 167 167 167 167 167 167 167 167 167 167 167 167 167 167 114 114 114 76 76 76 76 76 40 40 40 40 40 40 40 40 40 40 40 40 40 76 40 40 76 167 114 114 114 114 76 76 76 40 40 40 40 40 40 40 40 40 40 40 40 40 40 40 40 40 40 40 40 40 40 40 40 40 40 40 40 40 40 40 40 40 40 40 40 40 40 40 40 40 40 40 40 40 40 40 40 40 40 40 40 40 76 76 114 114 114 114 114 114 114 114 114 114 114 114 114 114 114 114 114 114 114 114 114 114 114 114 114 114 114 114 114 114 114 114 114 114 114 114 114 114 114 114 114 114 114 114 114 114 114 114 114 114 114 114 114 114 114 114 114 114 114 114 114 114 114 114 114 114 114 114 114 114 114 114 114 114 114 114 
114 114 114 114 114 114 114 114 167 114 167 167 114 114 167 114 167 114 114 114 114 114 114 114 114 114 114 76 76 76 76 76 76 40 40 40 76 40 40 40 40 40 76 76 76 76 40 40 76 76 76 76 76 76 76 76 76 76 76 76 76 76 76 76 76 76 76 76 76 76 76 76 76 76 76 76 76 76 76 76 76 76 114 114 76 76 76 76 76 76 76 76 76 76 76 76 76 76 76 76 76 76 76 114 76 76 76 76 76 76 40 114 167 167 167 167 114 76 76 76 76 76 76 76 76 76 76 76 114 76 114 114 114 76 76 76 76 114 114 76 76 76 114 76 76 76 76 76 76 76 76 76 76 76 40 40 40 40 40 40 40 40 40 40 40 40 40 40 40 76 40 40 40 40 40 40 40 40 40 40 40 40 40 40 40 40 40 40 40 40 40 40 40 40 40 40 40 40 40 40 40 40 40 40 40 40 40 76 76 40 76 76 76 76 40 40 40 40 114 114 114 76 40 40 40 40 40 40 40 40 76 167 114 76 76 76 76 114 114 167 167 114 114 114 167 167 114 167 167 167 167 114 114 167 167 114 114 114 114 114 114 114 114 114 167 167 167 167 167 167 167 114 114 114 114 114 114 114 114 114 114 114 114 114 114 114 114 114 114 114 114 114 114 167 167 114 167 167 167 167 167 167 167 167 167 167 167 167 167 167 167 167 167 167 167 167 167 167 167 167 167 167 167 167 167 167 167 167 167 167 167 167 167 167 167 167 167 167 167 167 167 167 167 167 167 167 167 167 167 114 114 76 76 76 76 76 40 40 40 40 40 40 40 40 40 40 40 40 40 76 40 40 40 114 114 114 114 114 76 76 76 40 40 40 40 40 40 40 40 40 40 40 40 40 40 40 40 40 40 40 40 40 40 40 40 40 40 40 40 40 40 40 40 40 40 40 40 40 40 40 40 40 40 40 40 40 40 40 40 40 40 40 40 40 76 76 114 114 114 114 114 114 76 76 114 114 114 114 114 114 114 114 114 114 114 114 114 114 114 114 114 114 114 114 114 114 114 114 114 114 114 114 114 114 114 114 114 114 114 114 114 114 114 114 114 114 114 114 114 114 114 114 114 114 114 114 114 114 114 114 114 114 114 114 114 114 114 114 114 114 114 114 
114 114 114 114 114 114 114 114 114 114 114 114 114 114 114 114 114 114 114 114 114 114 114 114 114 114 114 114 76 76 76 40 40 40 40 40 40 40 40 40 40 76 40 40 76 76 76 76 76 76 76 76 76 76 76 76 76 76 76 76 76 76 76 76 76 76 76 76 76 76 76 76 76 76 76 76 76 76 76 76 76 76 76 76 76 76 76 76 76 76 76 76 76 76 76 76 76 114 76 76 76 76 114 76 76 76 76 76 76 76 76 76 167 167 167 167 114 76 76 76 114 76 76 76 76 76 76 76 76 76 114 76 76 114 114 76 76 76 114 114 76 76 76 76 76 76 76 76 76 76 76 40 40 40 40 40 40 40 40 40 40 40 40 40 40 40 40 40 40 76 40 40 40 40 40 40 40 40 40 40 40 40 40 40 40 40 40 40 40 76 40 40 40 40 40 40 40 40 40 40 40 40 40 40 76 76 40 40 76 40 40 40 76 76 76 76 76 76 114 114 76 76 40 40 40 40 40 40 40 76 167 114 114 76 76 76 76 114 167 167 167 114 114 114 167 167 167 167 167 167 167 114 167 167 167 114 114 114 114 114 114 114 114 114 167 167 167 167 167 167 167 114 114 114 114 114 114 114 114 114 114 114 114 114 114 114 114 114 114 114 167 167 167 167 167 167 167 167 167 167 167 167 167 167 167 167 167 167 167 167 167 167 167 167 167 167 167 167 167 167 167 167 167 167 167 167 167 167 167 167 167 167 167 167 167 167 167 167 167 167 167 167 167 167 167 167 167 167 167 114 114 114 76 76 76 76 40 40 40 40 40 40 40 40 40 40 40 40 40 40 76 40 40 114 114 114 114 114 76 76 76 40 40 40 40 40 40 40 40 40 40 40 40 40 40 40 40 40 40 40 40 40 40 40 40 40 40 40 40 40 40 40 40 40 40 40 40 40 40 40 40 40 40 40 40 40 40 40 40 40 40 40 40 76 76 114 114 114 114 114 114 76 76 114 114 114 114 114 114 114 114 114 114 114 114 114 114 114 114 114 114 114 114 114 114 114 114 114 114 114 114 114 114 114 114 114 114 114 114 114 114 114 114 114 114 114 114 114 114 114 114 114 114 114 114 114 114 114 114 114 114 114 114 114 114 114 114 114 114 114 114 114 
114 114 114 114 114 114 114 114 114 114 114 114 114 114 114 114 114 114 114 114 114 114 114 114 114 114 114 114 76 76 76 76 40 40 40 40 40 76 40 40 40 40 40 40 76 76 76 76 76 76 76 76 76 76 76 76 76 76 76 76 76 76 76 76 76 76 76 76 76 76 76 76 76 76 76 76 76 76 76 76 76 76 76 76 76 76 76 76 76 76 76 76 76 76 76 76 76 114 76 76 76 76 76 76 76 76 76 76 76 76 76 76 167 167 167 167 114 76 114 114 76 76 76 76 76 76 76 76 114 114 114 114 76 76 114 114 76 76 76 76 114 76 76 76 76 76 76 76 76 76 40 40 40 40 40 40 40 40 40 40 40 40 40 40 40 40 40 40 40 76 76 40 40 40 40 40 40 40 40 40 40 40 40 40 40 40 40 40 40 40 40 40 40 40 40 40 40 40 40 40 40 40 40 40 40 76 76 40 76 76 40 40 40 40 40 40 40 40 76 167 76 40 40 40 40 40 40 40 76 114 114 114 76 76 76 114 114 114 114 114 114 114 114 114 114 167 167 167 167 167 167 167 167 167 167 114 114 114 76 114 114 114 114 114 167 167 167 167 167 167 167 114 114 114 114 114 114 114 114 114 114 114 114 114 114 114 114 114 114 114 167 114 167 167 167 167 167 167 114 167 167 167 167 167 167 167 167 167 167 167 167 167 167 167 167 167 167 167 167 167 167 167 167 167 167 167 167 167 167 167 167 167 167 167 167 167 167 167 167 167 167 167 167 167 167 167 167 167 167 114 114 114 76 76 76 76 76 40 40 40 40 40 40 40 40 40 40 40 40 40 76 40 40 114 114 114 114 114 76 76 76 40 40 40 40 40 40 40 40 40 40 40 40 40 40 40 40 40 40 40 40 40 40 40 40 40 40 40 40 40 40 40 40 40 40 40 40 40 40 40 40 40 40 40 40 40 40 40 40 40 40 40 40 76 76 114 114 114 114 114 114 76 76 114 114 114 114 114 114 114 114 114 114 114 114 114 114 114 114 114 114 114 114 114 114 114 114 114 114 114 114 114 114 114 114 114 114 114 114 114 114 114 114 114 114 114 114 114 114 114 114 114 114 114 114 114 114 114 114 114 114 114 114 114 114 114 114 114 114 114 114 114 
114 114 114 114 114 114 114 114 114 114 114 114 114 114 114 114 167 114 114 114 114 114 114 114 114 114 114 114 76 76 76 76 40 40 40 40 40 40 40 76 40 40 76 76 76 76 76 76 76 76 76 76 76 76 76 76 76 76 76 76 76 76 76 76 76 76 76 76 76 76 76 76 76 76 76 76 76 76 76 76 76 76 76 76 76 76 76 76 76 76 76 76 76 76 76 76 76 76 76 76 76 76 76 76 76 76 76 76 76 76 76 76 76 167 167 167 114 114 76 76 76 76 76 76 76 76 76 114 114 76 76 76 76 76 114 114 114 76 76 76 114 114 76 76 76 76 76 76 76 76 40 40 40 40 40 40 40 76 40 40 40 40 40 40 40 40 40 40 40 76 76 40 40 40 40 40 40 40 40 40 40 40 40 40 40 40 40 40 40 40 40 40 40 40 40 40 40 40 40 40 40 40 40 40 40 76 76 40 76 76 40 40 40 40 40 40 40 40 40 114 114 40 40 40 40 40 40 76 114 114 114 76 76 76 76 114 167 167 114 114 114 114 114 114 114 167 167 167 167 167 167 167 167 167 114 114 114 114 76 114 167 114 114 167 167 167 167 167 167 114 114 114 114 114 114 114 114 114 114 114 114 114 114 114 114 114 114 114 167 114 167 167 167 167 167 167 167 167 167 167 167 167 167 167 167 167 167 167 167 167 167 167 167 167 167 167 167 167 167 167 167 167 167 167 167 167 167 167 167 167 167 167 167 167 167 167 167 167 167 167 167 167 167 167 167 167 167 167 167 114 114 114 114 76 76 76 76 40 40 40 40 40 40 40 40 40 40 40 40 40 76 40 40 76 114 114 114 167 114 40 76 40 40 40 40 40 40 40 40 40 40 40 40 40 40 40 40 40 40 40 40 40 40 40 40 40 40 40 40 40 40 40 40 40 40 40 40 40 40 40 40 40 40 40 40 40 40 40 40 40 40 40 40 76 114 114 114 114 114 114 114 76 114 114 114 114 114 114 114 114 114 114 114 114 114 114 114 114 114 114 114 114 114 114 114 114 114 114 114 114 114 114 114 114 114 114 114 114 114 114 114 114 114 114 114 114 114 114 114 114 114 114 114 114 114 76 114 114 114 114 114 114 114 114 114 114 114 114 114 114 114 114 
114 114 114 114 114 114 114 114 114 114 167 114 114 114 114 114 114 114 114 114 114 114 114 114 114 114 114 114 76 76 76 76 40 40 40 40 40 40 40 40 76 40 76 76 76 76 76 76 76 76 76 76 76 76 76 76 76 76 76 76 76 76 76 76 76 76 76 76 76 76 76 76 76 76 76 76 76 76 76 76 76 76 76 114 76 76 76 76 76 76 76 76 76 76 76 76 76 76 76 76 76 76 114 114 76 76 76 76 76 76 76 76 76 114 167 167 114 114 114 76 76 76 76 76 76 76 76 114 114 114 76 76 76 114 114 76 114 114 76 76 76 114 76 76 40 76 76 76 76 40 40 40 40 40 40 40 40 76 40 40 40 40 40 40 40 40 40 40 40 40 76 76 40 40 40 40 40 40 40 40 40 40 40 40 40 40 40 40 40 40 40 40 40 40 40 40 40 40 40 40 40 40 40 40 40 76 76 40 40 40 40 40 40 40 40 40 40 40 40 76 114 76 40 40 40 40 76 114 114 114 114 76 76 76 114 114 114 114 114 114 114 114 167 167 114 167 167 167 167 167 167 167 167 167 167 114 114 114 76 114 167 114 167 167 167 167 167 167 167 114 114 114 114 114 114 114 114 114 114 114 114 114 114 114 114 114 114 167 167 114 167 167 167 167 167 167 167 167 167 167 167 167 167 167 167 167 167 167 167 167 167 167 167 167 167 167 167 167 167 167 167 167 167 167 167 167 167 167 167 167 167 167 167 167 167 167 167 167 167 167 167 167 167 167 167 167 167 167 167 114 114 114 114 76 76 76 76 76 40 40 40 40 40 40 40 40 40 40 40 40 76 76 40 40 114 114 114 167 114 40 76 40 40 40 40 40 40 40 40 40 40 40 40 40 40 40 40 40 40 40 40 40 40 40 40 40 40 40 40 40 40 40 40 40 40 40 40 40 40 40 40 40 40 40 40 40 40 40 40 40 40 40 76 76 76 114 114 114 114 114 114 76 114 114 114 114 114 114 114 114 114 114 114 114 114 114 114 114 114 114 114 114 114 114 114 114 114 114 114 114 114 114 114 114 114 114 114 114 114 114 114 114 114 114 114 114 114 114 114 114 114 114 114 114 114 114 114 114 76 76 114 114 114 114 114 114 114 114 114 114 114 114 
114 114 114 114 114 114 114 114 114 114 114 114 114 114 114 114 114 114 114 114 114 114 114 114 114 114 114 76 76 76 76 40 40 40 40 40 40 40 40 40 76 40 76 76 40 76 40 76 76 76 76 76 76 76 76 76 76 76 76 76 76 76 76 76 76 76 76 76 76 76 76 76 76 76 76 76 76 76 76 76 76 76 76 114 114 76 76 76 76 76 76 76 76 76 76 76 76 76 76 76 76 76 76 114 76 76 76 76 76 76 76 76 76 76 167 167 114 114 114 76 76 76 76 76 76 76 114 114 76 114 114 76 76 76 114 76 114 114 114 76 76 76 76 76 40 40 40 40 40 40 40 40 40 40 76 76 76 76 40 40 40 40 40 40 40 40 40 40 40 40 76 76 40 40 40 40 40 40 40 40 40 40 40 40 40 40 40 40 40 40 40 40 40 40 40 40 40 40 40 40 40 40 40 40 40 40 40 40 40 40 40 40 40 40 40 40 40 40 40 40 114 114 76 40 40 76 114 114 114 76 76 114 76 114 167 167 114 114 114 114 114 114 167 167 167 167 167 167 167 167 167 167 167 167 167 114 114 114 40 114 167 114 167 167 167 167 167 114 114 114 114 114 114 114 114 114 114 114 114 114 114 114 114 114 114 114 114 167 167 114 167 167 167 167 167 167 167 167 167 167 167 167 167 167 167 167 167 167 167 167 167 167 167 167 167 167 167 167 167 167 167 167 167 167 167 167 167 167 167 167 167 167 167 167 167 167 167 167 167 167 167 167 167 167 167 167 167 167 167 167 114 114 114 76 76 76 76 76 40 40 40 40 40 40 40 40 40 40 40 40 40 76 40 40 114 114 114 114 114 76 40 40 40 40 40 40 40 40 40 40 40 40 40 40 40 40 40 40 40 40 40 40 40 40 40 40 40 40 40 40 40 40 40 40 40 40 40 40 40 40 40 40 40 40 40 40 40 40 40 40 40 76 76 76 76 114 114 114 114 114 114 76 114 114 114 114 114 114 114 114 114 114 114 114 114 114 114 114 114 114 114 114 114 114 114 114 114 114 114 114 114 114 114 114 114 114 114 114 114 114 114 114 114 114 114 114 114 114 114 114 114 114 114 114 114 114 114 114 114 114 114 114 114 114 114 114 114 114 114 114 114 114 
114 114 114 114 114 114 114 114 114 114 114 114 114 114 114 114 114 114 114 114 114 114 114 114 114 114 114 76 76 76 76 76 40 40 40 40 40 40 40 40 40 40 76 76 40 40 40 76 76 76 76 76 76 76 76 76 76 76 76 76 76 76 76 76 76 76 76 76 76 76 76 76 76 76 76 76 76 76 76 76 76 76 76 76 114 76 76 76 76 76 76 76 76 76 76 76 76 114 114 114 114 114 76 76 76 76 76 76 76 76 76 76 76 76 114 167 114 76 76 76 114 114 76 76 76 114 114 76 76 114 114 114 114 76 114 114 114 114 114 114 76 76 76 76 76 40 40 40 40 40 40 40 40 40 76 76 76 40 40 40 40 40 40 40 40 40 40 40 40 40 40 40 76 40 40 40 40 40 40 40 40 40 40 40 40 40 40 40 40 40 40 40 40 40 40 40 40 40 40 76 40 40 40 40 40 40 40 40 40 40 40 76 40 40 40 40 40 40 40 40 76 114 76 40 40 114 167 114 76 76 76 76 114 114 114 114 114 114 114 114 114 114 114 167 167 167 167 167 167 167 167 167 167 167 167 114 114 114 76 76 114 114 167 167 167 167 114 114 114 114 114 114 114 114 114 114 114 114 114 114 114 114 114 114 114 114 114 167 167 167 167 114 114 167 167 167 167 167 167 167 167 167 167 167 167 167 167 167 167 167 167 167 167 167 167 167 167 167 167 167 167 167 167 167 167 167 167 167 167 167 167 167 167 167 167 167 167 167 167 167 167 167 167 167 167 167 167 167 167 167 114 114 114 76 76 76 76 76 40 40 40 40 40 40 40 40 40 40 40 40 40 76 40 40 114 114 114 114 114 76 40 40 40 40 40 40 40 40 40 40 40 40 40 40 40 40 40 40 40 40 40 40 40 40 40 40 40 40 40 40 40 40 40 40 40 40 40 40 40 40 40 40 40 40 40 40 40 40 40 40 40 76 76 76 76 114 114 114 114 114 114 114 114 114 114 114 114 114 114 114 114 114 114 114 114 114 114 114 114 114 114 114 114 114 114 114 114 114 114 114 114 114 114 114 114 114 114 114 114 114 114 114 114 114 114 114 114 114 114 114 114 114 114 114 114 114 114 114 114 114 114 114 114 114 114 114 114 114 114 114 114 114 
114 114 114 114 114 114 114 114 114 114 114 114 114 114 114 114 114 114 114 114 114 114 114 114 114 114 114 76 76 76 76 76 40 40 40 40 40 40 40 40 40 40 76 76 76 76 76 76 76 76 76 76 76 76 76 76 76 76 76 76 76 76 76 76 76 76 76 76 76 76 76 76 76 76 76 76 76 76 76 76 76 76 76 76 114 76 76 76 76 76 76 76 76 76 76 76 76 114 76 76 114 76 76 76 76 76 76 76 76 76 76 76 76 76 76 114 114 76 76 76 76 76 76 76 114 114 114 114 114 76 76 114 114 76 76 114 76 76 76 76 76 76 40 40 40 40 40 40 40 40 40 40 40 40 40 40 40 40 40 40 40 40 40 40 40 40 40 40 40 40 40 40 76 40 40 40 40 40 40 40 40 40 40 40 40 40 40 40 40 40 40 40 40 40 40 40 40 40 40 76 40 40 40 40 40 40 40 40 40 40 76 76 40 40 40 40 40 40 40 40 40 76 76 114 76 114 114 114 76 76 76 76 114 167 114 114 114 114 114 114 114 114 114 114 167 167 167 167 167 167 167 167 167 167 167 167 114 114 76 114 114 114 167 167 167 114 167 114 114 114 114 114 114 114 114 114 114 114 114 114 114 114 114 114 114 114 114 167 167 167 167 114 167 167 167 167 167 167 167 167 167 167 167 167 167 167 167 167 167 167 167 167 167 167 167 167 167 167 167 167 167 167 167 167 167 167 167 167 167 167 167 167 167 167 167 167 167 167 167 167 167 167 167 167 167 167 167 167 167 167 167 114 114 76 76 76 76 76 76 40 40 40 40 40 40 40 40 40 40 40 40 40 40 40 76 114 114 114 114 76 40 40 40 40 40 40 40 40 40 40 40 40 40 40 40 40 40 40 40 40 40 40 40 40 40 40 40 40 40 40 40 40 40 40 40 40 40 40 40 40 40 40 40 40 40 40 40 40 40 40 40 76 76 114 114 114 114 114 114 114 114 114 114 114 114 114 114 114 114 114 114 114 114 114 114 114 114 114 114 114 114 114 114 114 114 114 114 114 114 114 114 114 114 114 114 114 114 114 114 114 114 114 114 114 114 114 114 114 114 114 114 114 114 114 114 114 114 114 114 114 114 114 114 114 114 114 114 114 114 114 114 114 
114 114 114 114 114 114 114 114 167 114 114 114 114 114 114 114 114 114 114 114 114 114 114 114 114 114 114 76 76 76 76 76 40 40 40 40 40 40 40 40 40 76 40 40 40 40 76 76 76 40 76 76 76 76 76 76 76 76 76 76 76 76 76 76 76 76 76 76 76 76 76 76 76 76 76 76 76 76 76 76 76 76 76 76 76 76 76 76 76 76 76 76 76 76 76 114 76 114 76 76 76 76 114 76 114 76 114 76 76 114 114 114 114 114 114 114 114 76 76 76 76 76 76 76 114 114 114 114 114 114 114 114 114 114 76 76 76 76 76 76 76 76 40 40 40 40 40 40 40 40 40 40 40 40 40 40 40 40 40 40 40 40 40 40 40 40 40 40 40 40 40 40 40 40 76 40 40 40 76 76 40 40 40 40 40 40 40 40 40 40 40 40 40 40 40 40 40 40 40 40 40 40 40 40 40 40 40 40 40 40 76 76 40 40 40 40 40 40 40 40 40 76 40 114 114 114 114 76 76 76 76 114 167 167 114 114 114 114 114 114 114 114 114 114 114 114 167 167 167 167 167 167 167 167 167 167 167 114 114 114 167 167 167 167 114 114 114 114 114 114 114 114 114 114 114 114 114 167 114 114 114 114 114 114 114 114 167 167 167 167 167 167 167 167 167 167 167 167 167 167 167 167 167 167 167 167 167 167 167 167 167 167 167 167 167 167 167 167 167 167 167 167 167 167 167 167 167 167 167 167 167 167 167 167 167 167 167 167 167 167 167 167 167 167 167 167 167 167 167 167 167 114 114 76 76 76 76 76 76 40 40 40 40 40 40 40 40 40 40 40 40 40 40 40 76 114 114 114 167 76 76 76 40 40 40 40 40 40 40 40 40 40 40 40 40 40 40 40 40 40 40 40 40 40 40 40 40 40 40 40 40 40 40 40 40 40 40 40 40 40 40 40 40 40 40 40 40 40 40 40 76 76 76 114 114 114 114 114 76 76 114 114 114 114 114 114 114 114 114 114 114 114 114 114 114 114 114 114 114 114 114 114 114 114 114 114 114 114 114 114 114 114 114 114 114 114 114 114 114 114 114 114 114 114 114 114 114 114 114 114 114 114 114 114 114 114 114 114 114 114 114 114 114 114 114 114 114 114 114 114 114 114 
114 114 114 114 114 114 114 114 114 114 114 114 167 114 114 114 114 167 114 114 114 114 114 114 114 114 114 114 76 76 40 40 40 40 40 40 40 40 40 76 40 76 40 40 40 76 76 76 76 76 76 76 76 76 76 76 76 76 76 76 76 76 76 76 76 76 76 76 76 76 76 76 76 76 76 76 76 76 76 76 76 76 76 76 76 76 76 76 76 76 76 76 76 76 76 76 76 76 76 76 76 76 76 76 76 40 76 76 114 114 114 114 76 76 76 40 114 114 76 76 76 76 76 114 114 76 76 114 114 114 114 114 76 76 76 76 76 76 76 76 40 40 40 40 40 40 40 76 40 40 40 40 40 40 40 76 40 40 40 40 40 40 40 40 40 40 40 40 40 40 40 40 40 40 40 40 40 40 76 40 40 40 40 40 40 40 40 40 40 40 40 40 40 40 76 40 40 40 40 40 40 40 40 40 40 40 40 40 40 40 76 114 76 40 40 40 40 40 40 40 40 40 76 76 114 114 76 76 76 76 114 114 114 114 114 114 114 114 114 114 114 114 114 114 114 167 167 167 167 167 167 167 114 167 167 167 167 114 114 114 167 167 167 114 114 114 114 114 114 114 114 114 114 114 114 114 114 114 114 114 114 114 114 114 167 114 114 167 167 167 167 167 167 167 167 167 167 167 167 167 167 167 167 167 167 167 167 167 167 167 167 167 167 167 167 167 167 167 167 167 167 167 167 167 167 167 167 167 167 167 167 167 167 167 167 167 167 167 167 167 167 167 167 167 167 167 167 167 167 167 167 167 114 114 76 76 76 76 76 40 40 40 40 40 40 40 40 40 40 40 40 40 40 40 40 114 114 114 114 114 76 76 40 40 40 40 40 40 40 40 40 40 40 40 40 40 40 40 40 40 40 40 40 40 40 40 40 40 40 40 40 40 40 40 40 40 40 40 40 40 40 40 40 40 40 40 40 40 40 40 76 76 114 114 114 114 114 114 76 76 114 114 114 114 114 114 114 114 114 114 114 114 114 114 114 114 114 114 114 114 114 114 114 114 114 114 114 114 114 114 114 114 114 114 114 114 114 114 114 114 114 114 114 114 114 114 114 114 114 114 114 114 114 114 114 114 114 114 114 114 114 114 114 114 114 114 114 114 114 114 114 114 
114 114 114 114 114 114 114 114 114 114 114 114 114 114 114 114 114 114 114 114 114 114 114 114 114 114 114 76 76 76 76 76 40 40 40 40 40 40 40 40 40 40 40 40 76 76 76 40 76 76 76 76 76 76 76 76 76 76 76 76 76 76 76 76 76 76 76 76 76 76 76 76 76 76 76 76 76 76 76 76 76 76 76 76 76 76 76 76 76 76 76 76 76 76 76 76 76 76 76 76 76 76 76 40 76 76 76 76 76 114 114 114 76 76 40 76 76 114 76 76 76 76 114 114 114 76 76 114 114 114 76 76 76 76 76 76 76 76 40 40 40 40 40 40 40 40 40 40 40 40 40 40 40 40 40 76 76 40 40 40 40 40 40 40 40 40 40 40 40 40 40 40 40 40 40 40 76 76 76 40 40 40 40 40 40 40 40 40 40 40 40 40 40 40 76 40 40 40 40 40 76 40 40 40 40 40 40 40 40 40 76 76 40 40 40 40 40 40 40 40 40 40 76 76 40 76 76 76 76 114 167 114 114 114 114 114 114 114 114 114 114 114 114 114 114 114 167 167 167 167 167 167 167 167 167 167 167 114 114 167 167 114 114 167 114 114 114 114 114 114 114 114 114 114 114 167 114 114 167 114 114 167 114 114 167 114 114 167 114 167 167 167 167 167 167 167 167 167 167 167 167 167 167 167 167 167 167 167 167 167 167 167 167 167 167 167 167 167 167 167 167 167 167 167 167 167 167 167 167 167 167 167 167 167 167 167 167 167 167 167 167 167 167 167 167 167 167 167 167 167 167 114 114 114 76 76 76 76 76 40 40 40 40 40 40 40 40 40 40 40 40 40 40 40 40 114 114 167 114 114 76 76 40 40 40 40 40 40 40 40 40 40 40 40 40 40 40 40 40 40 40 40 40 40 40 40 40 40 40 40 40 40 40 40 40 40 40 40 40 40 40 40 40 40 40 40 40 40 40 40 76 76 114 114 114 114 114 114 76 76 114 114 114 114 114 114 114 114 114 114 114 114 114 114 114 114 114 114 114 114 114 114 114 114 114 114 114 114 114 114 114 114 114 114 114 114 114 114 114 114 114 114 114 114 114 114 114 114 114 114 114 114 114 114 114 114 114 114 114 114 114 114 114 114 114 114 114 114 114 114 114 114 
114 114 114 114 114 114 114 114 114 114 114 114 114 114 167 114 167 167 114 114 114 114 114 114 114 114 76 76 76 76 76 76 40 40 40 40 40 40 40 40 40 40 40 76 76 76 76 40 76 76 76 76 76 76 76 76 76 76 76 76 76 76 76 76 76 76 76 76 76 76 76 76 76 76 76 76 76 76 76 76 76 76 76 76 76 76 76 76 76 76 114 76 114 76 114 76 76 114 114 76 76 76 76 76 76 114 114 76 76 114 114 76 76 40 40 40 40 76 114 76 40 76 114 76 114 114 114 114 76 76 76 76 76 76 76 76 114 76 76 76 76 76 40 40 40 40 76 76 40 40 40 40 40 40 40 76 76 40 40 40 40 40 40 40 40 40 40 40 40 40 40 40 40 40 76 76 40 76 40 40 40 40 40 40 40 40 40 40 40 40 40 40 40 40 76 40 40 40 40 40 40 40 40 40 40 40 40 40 40 40 76 40 40 40 40 40 40 40 40 40 40 76 114 114 40 76 76 76 114 167 167 114 114 114 114 114 114 114 114 114 114 114 114 114 114 114 167 167 167 167 167 167 167 167 167 167 114 114 114 167 167 114 114 167 114 114 114 114 114 114 114 114 114 114 114 167 167 114 167 114 114 167 167 167 167 167 167 167 167 167 167 167 167 167 167 167 167 167 167 167 167 167 167 167 167 167 167 167 167 167 167 167 167 167 167 167 167 167 167 167 167 167 167 167 167 167 167 167 167 167 167 167 167 167 167 167 167 167 167 167 167 167 167 167 167 167 167 167 167 167 167 114 114 114 76 76 76 76 40 40 40 40 40 40 40 40 40 40 40 40 40 40 40 40 40 114 167 114 114 114 76 40 40 40 40 40 40 40 40 40 40 40 40 40 40 40 40 40 40 40 40 40 40 40 40 40 40 40 40 40 40 40 40 40 40 40 40 40 40 40 40 40 40 40 40 40 40 40 40 76 76 76 76 114 114 114 76 114 76 76 76 114 114 114 114 114 114 114 114 114 114 114 114 114 114 114 114 114 114 114 114 114 114 114 114 114 114 114 114 114 114 114 114 114 114 114 114 114 114 114 114 114 114 114 114 114 114 114 114 114 114 114 114 114 114 114 114 114 114 114 114 114 114 114 114 114 114 114 114 114 114 114 
114 114 114 114 114 114 114 114 114 114 114 167 167 114 167 114 167 114 114 114 114 114 114 114 114 114 114 76 76 76 76 76 76 40 40 40 40 40 40 40 40 40 40 40 76 76 76 76 76 76 76 76 76 76 76 76 76 76 76 76 76 76 76 76 76 76 76 76 76 76 76 76 76 76 76 76 76 76 76 76 76 76 76 76 76 76 76 76 76 76 76 114 76 76 76 114 114 114 76 76 76 76 76 114 114 76 76 114 114 76 40 40 40 40 76 114 114 114 114 76 76 76 76 114 114 114 114 76 76 76 114 76 76 76 76 76 114 76 76 76 76 76 40 40 40 40 76 76 40 40 40 40 40 40 40 76 76 40 40 40 40 40 40 40 40 40 40 40 40 40 40 40 40 76 76 76 40 40 40 40 40 40 40 40 40 40 40 40 40 40 40 40 40 40 40 40 40 40 40 40 40 76 76 40 40 40 40 40 40 40 40 40 40 40 40 40 40 40 40 40 76 114 114 76 76 40 76 114 114 167 114 114 114 114 114 167 114 114 114 114 114 114 114 114 114 167 167 167 167 167 167 167 167 167 167 167 114 114 167 167 114 167 167 114 114 114 114 114 114 114 114 114 114 114 114 167 167 114 167 114 114 167 167 114 167 167 167 167 167 167 167 167 167 167 167 167 167 167 167 167 167 167 167 167 167 167 167 167 167 167 167 167 167 167 167 167 167 167 167 167 167 167 167 167 167 167 167 167 167 167 167 167 167 167 167 167 167 167 167 167 167 167 167 167 167 167 167 167 167 167 167 114 114 114 76 76 76 76 40 40 40 40 40 40 40 40 40 40 40 40 40 40 40 40 40 76 114 167 114 114 76 40 76 40 40 40 40 40 40 40 40 40 40 40 40 40 40 40 40 40 40 40 40 40 40 40 40 40 40 40 40 40 40 40 40 40 40 40 40 40 40 40 40 40 40 40 40 40 76 76 76 114 114 114 114 114 76 114 76 76 114 114 114 114 114 114 114 114 114 114 114 114 114 114 114 114 114 114 114 114 114 114 114 114 114 114 114 114 114 114 114 114 114 114 114 114 114 114 114 114 114 114 114 114 114 114 114 114 114 114 114 114 114 114 114 114 114 114 114 114 114 114 114 114 114 114 114 114 114 114 114 114 
114 114 114 114 114 114 167 167 114 114 114 167 114 114 167 114 114 114 114 114 114 114 114 114 114 114 114 114 76 76 76 76 76 40 40 40 40 40 40 40 76 40 40 40 40 76 76 76 76 76 76 76 76 76 76 76 76 76 76 76 76 76 76 76 76 76 76 76 76 76 76 76 76 76 76 76 76 76 76 76 76 76 76 76 76 76 76 76 76 76 76 76 114 76 114 76 76 76 76 76 76 76 76 76 76 76 76 114 114 167 114 40 76 76 114 114 114 167 167 167 76 76 76 76 114 114 76 76 76 76 76 76 76 76 76 76 76 76 76 76 40 40 40 40 40 76 76 76 40 40 40 40 40 40 40 76 76 76 76 40 40 40 40 40 40 40 40 40 40 40 40 40 76 76 76 76 40 40 40 40 40 40 40 40 40 40 40 40 40 40 40 40 40 40 40 40 40 40 40 40 40 76 76 40 40 40 40 40 76 40 40 40 40 40 40 40 40 40 40 76 114 114 76 76 76 76 114 167 167 114 114 114 114 114 114 167 114 114 114 114 114 114 114 114 114 114 167 167 167 167 167 167 167 167 167 167 167 167 167 167 167 114 114 114 114 114 76 114 114 114 114 114 114 114 114 114 114 114 167 167 114 167 167 114 167 167 167 167 167 167 167 167 167 167 167 167 167 167 167 167 167 167 167 167 167 167 167 167 167 167 167 167 167 167 167 167 167 167 167 167 167 167 167 167 167 167 167 167 167 167 167 167 167 167 167 167 167 167 167 167 167 167 167 167 167 167 167 167 167 167 167 114 114 114 76 76 76 40 40 40 40 40 40 40 40 40 40 40 40 40 40 40 40 40 40 76 114 114 114 114 114 40 40 40 40 40 40 40 40 40 40 40 40 40 40 40 40 40 40 40 40 40 40 40 40 40 40 40 40 40 40 40 40 40 40 40 40 40 40 40 40 40 40 40 40 40 40 40 40 76 76 114 114 114 114 114 114 114 76 114 114 114 114 114 114 114 114 114 114 114 114 114 114 114 114 114 114 114 114 114 114 114 114 114 114 114 114 114 114 114 114 114 114 114 114 114 114 114 114 114 114 114 114 114 114 114 114 114 114 114 114 114 114 114 114 114 114 114 114 114 114 114 114 114 114 114 114 114 114 114 114 114 
114 114 114 114 114 114 114 114 167 167 114 114 114 114 167 114 167 114 114 114 114 114 114 114 114 114 114 76 76 76 76 76 40 40 40 40 40 40 40 40 76 76 76 76 76 76 76 76 76 76 76 76 76 76 76 76 76 76 76 76 76 76 76 76 76 76 76 76 76 76 76 76 76 76 76 76 76 76 76 76 76 76 76 76 76 76 76 76 76 76 76 76 76 76 76 114 114 76 76 114 114 114 76 76 114 76 76 114 114 167 167 114 114 114 114 114 114 167 167 167 114 76 76 76 76 76 76 76 114 114 76 76 76 76 76 114 114 76 76 40 40 40 40 40 40 40 76 40 40 40 40 40 40 40 40 76 76 76 40 40 40 40 40 40 40 40 40 40 40 40 40 76 76 76 40 40 40 40 40 40 40 40 40 40 40 40 40 40 40 40 40 40 40 76 40 40 40 40 40 40 40 76 40 40 40 40 40 40 76 40 40 40 40 40 40 40 40 40 76 114 114 76 76 76 76 76 167 167 167 114 114 114 167 114 114 167 167 114 114 114 114 114 114 114 167 167 167 167 167 167 167 167 167 167 167 167 167 167 167 167 114 114 76 76 76 76 76 114 76 114 114 114 114 114 114 114 114 114 114 114 114 167 167 167 167 167 167 167 167 167 167 167 167 167 167 167 167 167 167 167 167 167 167 167 167 167 167 167 167 167 167 167 167 167 167 167 167 167 167 167 167 167 167 167 167 167 167 167 167 167 167 167 167 167 167 167 167 167 167 167 167 167 167 167 167 167 167 167 167 167 167 114 114 114 76 76 76 40 40 40 40 40 40 40 76 40 40 40 40 40 40 40 76 40 40 76 114 167 114 114 114 76 40 40 40 40 40 40 40 40 40 40 40 40 40 40 40 40 40 40 40 40 40 40 40 40 40 40 40 40 40 40 40 40 40 40 40 40 40 40 40 40 40 40 40 40 40 40 76 76 114 114 114 114 76 114 76 76 76 76 114 114 114 114 114 114 114 114 114 114 114 114 114 114 114 114 114 114 114 114 114 114 114 114 114 114 114 114 114 114 114 114 114 114 114 114 114 114 114 114 114 114 114 114 114 114 114 114 114 114 114 114 114 114 114 114 114 114 114 114 114 114 114 114 114 114 114 114 114 114 114 114 
114 114 114 114 114 114 114 114 114 167 114 114 114 114 114 114 114 114 114 114 114 114 114 114 114 114 114 114 76 76 76 76 40 40 40 40 40 40 40 40 40 76 76 76 76 76 76 40 76 76 76 76 76 76 76 76 76 76 76 76 76 76 76 76 76 76 76 76 76 76 76 76 76 76 76 76 76 76 76 76 76 76 76 76 76 76 76 76 76 76 76 76 76 76 76 76 76 76 76 76 76 76 76 76 76 76 76 76 114 114 114 114 76 114 114 76 114 114 114 167 114 114 114 76 76 76 76 76 114 76 76 76 76 76 114 114 114 76 76 40 40 40 40 40 40 40 76 40 40 40 40 40 40 40 40 76 76 40 40 40 40 40 40 40 40 40 40 40 40 40 40 76 40 40 40 40 40 40 40 40 40 40 40 40 40 40 40 40 40 40 40 40 40 76 40 40 40 40 40 40 40 76 40 40 40 40 40 76 76 40 40 40 40 40 40 40 40 40 114 114 114 76 76 76 76 114 167 167 114 114 114 114 114 114 167 167 167 114 114 114 114 114 114 114 114 167 167 167 167 167 167 167 167 167 167 167 167 167 114 114 114 76 76 76 40 76 76 76 76 76 114 114 114 114 114 114 114 114 114 114 114 114 114 167 114 167 167 167 167 167 167 167 167 167 167 167 167 167 167 167 167 167 167 167 167 167 167 167 167 167 167 167 167 167 167 167 167 167 167 167 167 167 167 167 167 167 167 167 167 167 167 167 167 167 167 167 167 167 167 167 167 167 167 167 167 167 167 167 167 167 114 114 114 76 76 76 40 40 40 40 40 40 40 40 40 40 40 40 40 40 40 40 76 40 40 76 114 167 114 114 76 76 40 40 40 40 40 40 40 40 40 40 40 40 40 40 40 40 40 40 40 40 40 40 40 40 40 40 40 40 40 40 40 40 40 40 40 40 40 40 40 40 40 40 40 40 40 40 76 76 114 114 114 114 114 114 76 114 114 114 114 114 114 114 114 114 114 114 114 114 114 114 114 114 114 114 114 114 114 114 114 114 114 114 114 114 114 114 114 114 114 114 114 114 114 114 114 114 114 114 114 114 114 114 114 114 114 114 114 114 114 114 114 114 114 114 114 114 114 114 114 114 114 114 114 114 114 114 114 114 114 114 
114 114 114 114 167 167 167 167 114 114 114 114 167 114 114 114 114 114 114 114 114 114 114 114 114 114 114 114 76 76 76 40 76 40 40 40 40 40 40 40 40 40 76 40 40 76 76 40 76 40 76 76 76 76 76 76 76 76 76 76 76 76 76 76 76 76 76 40 40 76 76 76 76 76 76 76 76 76 76 76 76 76 76 76 76 76 76 76 76 76 76 76 76 76 76 76 76 76 76 114 76 76 114 114 114 167 114 76 114 114 76 76 40 40 76 76 76 114 76 76 114 114 76 76 76 76 76 76 76 114 76 76 76 76 76 76 114 76 40 40 40 40 40 40 76 76 76 40 40 40 40 40 40 40 40 76 114 40 40 40 40 40 40 40 40 40 40 40 40 40 40 40 40 40 40 40 40 40 40 40 40 40 40 40 40 40 40 40 40 40 40 40 40 76 40 40 40 40 40 40 76 76 40 40 40 40 40 76 40 40 40 40 40 40 40 40 40 114 114 114 114 76 76 76 114 167 167 114 114 167 114 114 114 167 167 167 167 114 114 114 114 114 114 114 114 167 167 167 167 167 167 167 167 167 167 167 167 114 114 76 76 40 40 40 76 76 76 76 76 76 76 76 76 76 76 76 76 76 114 114 114 114 114 114 167 167 167 167 167 167 167 167 167 167 167 167 167 167 167 167 167 167 167 167 167 167 167 167 167 167 167 167 167 167 167 167 167 167 167 167 167 167 167 167 167 167 167 167 167 167 167 167 167 167 167 167 167 167 167 167 167 167 167 167 167 167 167 167 114 114 114 114 76 76 76 40 40 40 40 40 40 40 40 40 40 40 40 40 40 40 40 40 76 40 40 76 114 167 167 114 76 76 76 40 40 40 40 40 40 40 40 40 40 40 40 40 40 40 40 40 40 40 40 40 40 40 40 40 40 40 40 40 40 40 40 40 40 40 40 40 40 40 40 40 40 40 40 76 76 76 114 114 114 114 114 114 76 114 76 114 114 114 114 114 114 114 114 114 114 114 114 114 114 114 114 114 114 114 114 114 114 114 114 114 114 114 114 114 114 114 114 114 114 114 114 114 114 114 114 114 114 114 114 114 114 114 114 114 114 114 114 114 114 114 114 114 114 114 114 114 114 114 114 114 114 114 114 114 114 114 114 114 
114 114 114 114 114 114 114 114 114 114 114 114 167 114 167 114 114 114 114 114 114 114 114 114 114 114 114 114 76 76 76 40 40 40 40 40 40 40 40 40 40 76 76 76 76 40 76 76 76 76 76 76 76 76 76 76 76 76 76 76 76 76 76 76 76 76 76 76 76 76 76 76 76 76 76 76 76 76 76 76 76 76 76 76 76 76 76 76 76 76 114 76 76 76 76 76 76 76 76 76 76 76 167 167 167 167 167 114 114 76 40 40 40 40 40 40 40 40 40 40 76 114 114 76 76 76 76 114 76 76 76 76 76 76 76 76 76 76 40 40 40 40 76 40 40 76 76 40 40 40 40 40 40 40 76 76 76 40 40 40 40 40 40 40 40 40 40 40 40 40 40 40 40 40 40 40 40 40 40 40 40 40 40 40 40 40 40 40 40 40 40 40 40 40 40 40 40 40 40 40 40 40 76 40 40 40 76 40 40 40 40 40 40 40 40 40 76 114 114 76 76 40 76 114 167 167 114 114 114 114 114 167 114 167 167 167 167 114 114 114 114 114 114 114 167 167 167 167 167 167 167 167 167 167 167 167 114 114 76 40 40 40 76 76 76 76 76 76 76 76 76 76 76 76 76 76 76 76 76 76 114 114 114 114 114 114 167 167 114 167 167 167 167 167 167 167 167 167 167 167 167 167 167 167 167 167 167 167 167 167 167 167 167 167 167 167 167 167 167 167 167 167 167 167 167 167 167 167 167 167 167 167 167 167 167 167 167 167 167 167 167 167 167 167 167 114 114 114 114 114 76 76 76 76 76 40 40 40 40 40 40 40 40 40 40 40 40 40 40 40 40 40 40 40 40 40 114 167 167 114 114 114 76 40 40 40 40 40 40 40 40 40 40 40 40 40 40 40 40 40 40 40 40 40 40 40 40 40 40 40 40 40 40 40 40 40 40 40 40 40 40 40 40 40 40 40 40 76 76 76 114 114 114 114 114 114 76 76 114 114 114 114 114 114 114 114 114 114 114 114 114 114 114 114 114 114 114 114 114 114 114 114 114 114 114 114 114 114 114 114 114 114 114 114 114 114 114 114 114 114 114 114 114 114 114 114 114 114 114 114 114 114 114 114 114 114 114 114 114 114 114 114 114 114 114 114 114 114 114 114 114 114 
114 114 114 114 114 114 114 114 114 114 114 114 114 114 114 114 167 114 114 114 114 114 114 114 114 114 114 114 76 76 76 76 40 40 40 40 40 40 76 40 40 40 40 40 40 40 76 76 76 76 76 76 76 76 76 76 76 76 76 76 76 76 76 76 76 76 76 76 76 76 76 76 76 76 76 76 76 76 76 76 76 76 76 76 76 76 76 76 76 76 76 76 76 76 76 76 76 76 76 114 76 114 167 167 167 114 114 114 114 76 40 40 40 40 40 40 40 40 40 40 114 114 114 114 114 114 76 114 76 76 76 76 76 76 76 40 40 40 40 40 40 40 76 40 40 76 40 40 40 40 40 40 40 40 76 76 76 40 40 40 40 40 40 40 40 40 40 40 40 40 40 40 40 40 40 40 40 40 40 40 40 40 40 40 40 40 40 40 40 40 40 40 40 40 40 40 40 40 40 40 76 40 76 40 40 40 76 40 40 40 40 40 40 40 40 76 114 114 76 76 76 76 114 114 167 167 114 114 167 114 114 167 167 167 167 167 167 114 114 114 114 114 114 114 167 167 167 167 167 167 167 167 167 167 167 114 114 76 40 40 76 76 76 76 114 114 76 76 76 76 76 76 76 76 76 40 40 76 76 76 76 76 76 114 114 114 114 114 167 167 167 167 167 167 167 167 167 167 167 167 167 167 167 167 167 167 167 167 167 167 167 167 167 167 167 167 167 167 167 167 167 167 167 167 167 167 167 167 167 167 167 167 167 167 167 167 167 167 167 167 167 167 167 167 114 114 114 114 114 114 114 76 76 76 76 40 40 40 40 40 40 40 40 40 40 40 40 40 40 40 40 40 40 40 40 40 76 114 114 114 114 114 76 40 40 40 40 40 40 40 40 40 40 40 40 40 40 40 40 40 40 40 40 40 40 40 40 40 40 40 40 40 40 40 40 40 40 40 40 40 40 40 40 40 40 40 40 76 76 114 114 114 114 114 114 114 76 114 114 114 114 114 114 114 114 114 114 114 114 114 114 114 114 114 114 114 114 114 114 114 114 114 114 114 114 114 114 114 114 114 114 114 114 114 114 114 114 114 114 114 114 114 114 114 114 114 114 114 114 114 114 114 114 114 114 114 114 114 114 114 114 114 114 114 114 114 114 114 114 114 114 114 
114 114 114 114 114 114 114 114 114 114 114 114 114 167 114 114 167 114 114 114 114 114 114 114 114 114 114 114 76 76 76 76 76 40 40 40 40 40 40 40 40 40 76 76 76 76 40 40 76 76 76 76 76 76 76 76 76 76 76 76 76 76 76 76 76 76 76 76 76 76 76 76 76 76 76 76 76 76 76 76 76 76 76 76 76 76 76 76 114 76 76 76 76 76 76 76 114 114 76 76 76 114 167 167 114 76 40 40 40 40 40 40 40 40 40 40 40 40 40 40 114 114 114 167 167 167 114 76 76 76 76 76 76 76 76 40 40 40 40 40 40 40 76 40 76 40 40 40 40 40 40 40 40 40 76 76 76 40 40 40 40 40 40 40 40 40 40 40 40 40 40 40 40 40 40 40 40 40 40 40 40 40 40 40 40 40 40 40 40 40 40 40 76 40 40 40 40 40 40 40 76 40 76 40 40 40 76 40 40 40 40 40 40 40 40 114 114 114 76 76 76 76 114 167 114 114 114 114 114 167 167 167 167 167 167 167 114 114 114 114 114 114 114 167 167 167 167 167 167 167 167 167 167 114 114 76 76 76 76 114 114 114 114 114 114 114 114 76 76 76 76 76 76 76 76 40 40 40 40 76 76 76 76 76 76 76 76 114 114 114 114 167 167 167 167 167 167 167 167 167 167 167 167 167 167 167 167 167 167 167 167 167 167 167 167 167 167 167 167 167 167 167 167 167 167 167 167 167 167 167 167 167 167 167 167 167 167 167 167 167 167 167 114 114 114 114 114 76 76 76 76 76 76 76 76 40 40 40 40 40 40 40 40 40 40 40 40 40 40 40 40 40 40 40 40 40 76 114 167 114 114 114 76 40 40 40 40 40 40 40 40 40 40 40 40 40 40 40 40 40 40 40 40 40 40 40 40 40 40 40 40 40 40 40 40 40 40 40 40 40 40 40 40 40 40 40 40 76 76 114 114 114 114 76 76 76 76 76 114 114 114 114 114 114 114 114 114 114 114 114 114 114 114 114 114 114 114 114 114 114 114 114 114 114 114 114 114 114 114 114 114 114 114 114 114 114 114 114 114 114 114 114 114 114 114 114 114 114 114 114 114 114 114 114 114 114 114 114 114 114 114 114 114 114 114 114 114 114 114 114 114 114 
114 114 114 114 114 114 114 114 114 114 114 114 114 167 114 114 114 114 114 114 114 114 114 114 114 114 114 114 76 76 76 76 76 40 40 40 40 40 76 76 40 40 40 76 76 76 76 76 76 40 76 76 76 76 76 76 76 76 76 76 76 76 76 76 76 76 76 76 76 76 76 76 76 76 76 76 76 76 76 76 76 76 76 76 76 76 76 76 76 76 76 76 76 76 76 76 76 114 76 76 76 114 167 167 114 76 40 40 40 40 40 40 40 40 40 40 40 40 40 76 76 76 114 167 167 167 114 76 76 76 76 40 40 76 76 40 40 40 40 40 40 40 40 40 76 40 40 40 40 40 40 40 40 40 76 76 114 40 40 40 40 40 40 40 40 40 40 40 40 40 40 40 40 40 40 40 40 40 40 40 40 40 40 40 40 40 40 40 40 40 40 40 76 76 76 40 40 40 40 40 40 40 76 40 40 40 76 40 40 40 40 40 40 40 76 114 114 76 76 40 76 114 167 167 114 114 114 114 114 167 167 167 167 167 167 167 114 114 114 114 114 114 114 167 167 167 167 167 167 167 167 167 114 114 114 76 76 114 114 114 114 114 114 114 114 114 114 114 114 114 114 76 76 76 76 76 40 40 40 40 40 40 40 40 40 76 76 76 114 114 114 114 114 167 167 167 167 167 167 167 167 167 167 114 167 167 167 167 167 167 167 167 167 167 167 167 167 167 167 167 167 167 167 167 167 167 167 167 167 167 167 167 167 167 167 167 167 167 114 114 114 114 114 114 76 76 76 76 40 76 40 76 40 40 40 40 40 40 40 76 40 40 40 40 40 40 40 40 40 40 40 40 40 40 40 40 76 114 114 114 114 76 114 40 40 40 40 40 40 40 40 40 40 40 40 40 40 40 40 40 40 40 40 40 40 40 40 40 40 40 40 40 40 40 40 40 40 76 40 40 40 40 40 40 40 40 76 76 76 114 114 114 114 114 76 114 114 114 114 114 114 114 114 114 114 114 114 114 114 114 114 114 114 114 114 114 114 114 114 114 114 114 114 114 114 114 114 114 114 114 114 114 114 114 114 114 114 114 114 114 114 114 114 114 114 114 114 114 114 114 114 114 114 114 114 114 114 114 114 114 114 114 114 114 114 114 114 114 114 114 114 114 
114 114 114 114 114 114 114 167 114 167 114 167 114 114 114 114 114 114 114 114 114 114 114 114 114 114 114 114 76 76 76 40 76 40 40 40 40 40 76 40 40 40 76 40 40 76 76 76 76 40 76 76 76 76 76 76 76 76 76 76 76 76 76 76 76 76 76 76 76 76 76 76 76 76 76 76 76 76 76 76 76 76 76 76 76 76 76 76 76 76 76 76 114 76 76 76 76 76 76 76 76 114 167 167 114 114 76 40 40 40 40 40 40 40 40 40 40 76 76 114 76 114 114 114 114 114 114 76 76 76 40 40 40 40 40 40 40 40 40 40 40 40 40 76 76 40 40 40 40 40 40 40 40 76 40 76 114 40 40 40 40 40 40 40 40 40 40 40 40 40 40 40 40 40 40 40 40 40 40 40 40 40 40 40 40 40 40 40 40 40 40 40 40 76 76 40 40 40 40 40 40 40 76 76 40 40 40 40 40 40 40 40 40 76 114 114 114 76 76 76 114 167 167 114 114 114 114 167 167 167 167 167 167 167 167 114 114 114 114 114 114 114 114 167 167 167 167 167 167 167 167 114 114 76 76 114 114 114 114 114 114 114 114 114 114 114 114 114 114 114 114 114 114 114 76 76 76 76 40 40 76 40 40 40 40 40 76 76 76 76 76 114 114 114 114 167 167 167 167 167 167 167 167 114 167 167 167 167 167 167 167 167 167 167 167 167 167 167 167 167 167 167 167 167 167 167 167 167 167 167 167 167 167 167 167 167 114 114 114 114 76 76 76 76 76 40 40 40 40 40 40 76 40 40 40 40 76 76 76 76 76 40 40 40 40 40 40 40 40 40 40 40 40 40 40 40 76 167 167 114 114 114 114 76 40 40 40 40 40 40 40 40 40 40 40 40 40 40 40 40 40 40 40 40 40 40 40 40 40 40 40 40 40 40 40 40 40 40 40 40 40 40 40 40 40 40 76 76 114 114 114 114 114 76 76 76 114 114 114 114 114 114 114 114 114 114 114 114 114 114 114 114 114 114 114 114 114 114 114 114 114 114 114 114 114 114 114 114 114 114 114 114 114 114 114 114 114 114 114 114 114 114 114 114 114 114 114 114 114 114 114 114 114 114 114 114 114 114 114 114 114 114 114 114 114 114 114 114 114 114 114 114 
114 114 114 114 114 114 114 114 114 167 114 167 167 114 167 114 167 114 114 114 114 114 114 114 114 114 114 76 76 76 76 76 40 40 40 40 40 40 40 40 40 40 76 76 40 40 76 76 76 76 76 76 76 76 76 76 76 76 76 76 76 76 76 76 76 76 76 76 76 76 76 76 76 76 76 76 76 76 76 76 76 76 76 76 76 76 76 76 76 76 76 76 76 76 76 76 76 76 114 114 76 114 114 114 114 114 114 40 40 40 40 40 40 40 40 40 40 40 76 76 76 114 114 76 40 76 76 76 76 40 40 40 40 40 40 40 40 40 40 40 76 76 40 76 40 40 40 40 40 40 40 40 76 40 40 76 76 76 40 40 40 40 40 40 40 40 40 40 40 40 40 40 40 40 40 40 40 40 40 40 40 40 40 40 40 40 40 40 40 40 40 40 40 40 76 76 40 40 40 76 40 40 40 76 40 40 40 40 40 40 40 40 40 114 167 114 76 76 76 114 167 167 114 114 114 114 114 167 167 167 167 167 167 167 167 114 114 114 114 114 114 114 167 167 167 167 167 167 167 167 114 114 76 76 76 114 114 114 114 114 114 114 114 114 114 114 114 114 114 114 114 114 114 114 114 76 76 76 76 76 76 76 40 40 40 40 40 40 40 40 76 76 76 114 114 114 167 167 114 114 114 114 167 167 167 167 167 167 167 167 167 167 167 167 167 167 167 167 167 167 167 167 167 167 167 167 167 167 167 167 167 167 167 114 114 114 114 114 76 76 76 76 40 76 40 40 76 40 76 40 76 76 114 76 76 76 76 76 76 76 76 40 40 40 40 40 40 40 40 40 40 40 40 40 40 40 76 167 114 114 114 76 76 76 40 40 40 40 40 40 40 40 40 40 40 40 40 40 40 40 40 40 40 40 40 40 40 40 40 40 40 40 40 40 40 40 40 40 40 40 40 40 40 40 40 40 76 76 114 114 114 114 114 114 114 114 114 114 114 114 114 114 114 114 114 114 114 114 114 114 114 114 114 114 114 114 114 114 114 114 114 114 114 114 114 114 114 114 114 114 114 114 114 114 114 114 114 114 114 114 114 114 114 114 114 114 114 114 114 114 114 114 114 114 114 114 114 114 114 114 114 114 114 114 114 114 114 114 114 114 114 114 
114 114 114 114 114 114 114 114 114 114 114 114 167 114 167 114 167 114 114 114 114 114 114 114 114 114 114 114 76 76 76 40 76 40 40 40 40 40 40 40 40 40 40 40 40 76 76 76 76 76 76 76 76 76 76 76 76 76 76 76 76 76 76 76 76 76 76 76 76 76 76 76 76 76 76 76 76 76 76 76 76 76 76 76 76 76 76 76 76 76 76 76 114 76 76 114 76 114 114 114 114 114 114 76 114 114 114 76 76 40 40 40 40 40 40 40 40 40 40 76 76 114 114 76 40 40 40 76 76 40 40 40 40 76 76 40 40 40 40 76 76 40 40 40 40 40 40 40 40 40 40 76 76 40 40 40 114 76 40 40 40 40 40 40 40 40 40 40 40 40 40 40 40 40 40 40 40 40 40 40 40 40 40 40 40 40 40 40 40 40 40 40 40 40 40 40 76 40 76 76 40 40 40 76 40 40 40 40 40 40 40 40 76 167 114 114 76 76 76 114 167 167 114 114 114 114 167 167 167 167 167 167 167 167 114 114 114 114 114 114 114 167 167 167 167 167 167 167 114 114 76 76 76 114 114 114 114 114 114 114 114 114 114 114 76 76 114 114 114 114 114 114 114 114 114 114 114 114 76 76 76 76 76 76 76 40 40 40 40 40 40 40 76 76 114 114 114 167 114 114 114 114 167 167 114 167 167 167 167 167 167 167 167 167 167 167 167 167 167 167 167 167 167 167 167 167 167 167 167 167 167 167 114 114 114 114 76 76 76 40 40 40 76 76 76 76 76 76 76 76 76 114 114 114 114 76 76 76 76 76 76 40 40 40 40 40 40 40 40 40 40 40 40 40 40 40 76 114 167 114 114 114 76 76 40 40 40 40 40 40 40 40 40 40 40 40 40 40 40 40 40 40 40 40 40 40 40 40 40 40 40 40 40 40 40 40 40 40 40 40 40 40 40 40 40 40 76 114 114 114 114 114 114 76 76 114 114 114 114 114 114 114 114 114 114 114 114 114 114 114 114 114 114 114 114 114 114 114 114 114 114 114 114 114 114 114 114 114 114 114 114 114 114 114 114 114 114 114 114 114 114 114 114 114 114 114 114 114 114 114 114 114 114 114 114 114 114 114 114 114 114 114 114 114 114 114 114 114 114 114 114 114 
114 114 114 114 114 114 114 114 114 114 167 114 167 114 114 114 167 114 114 114 114 114 114 114 114 114 114 114 76 76 76 76 40 40 40 40 40 40 40 40 40 40 40 76 76 76 76 76 76 76 76 76 76 76 76 76 76 76 76 76 76 76 76 76 76 76 76 76 76 76 76 76 76 76 76 76 76 76 76 76 76 76 76 76 76 76 76 76 76 76 76 76 76 76 76 76 114 114 114 114 114 114 114 114 114 114 114 76 40 40 40 40 40 40 40 40 40 40 76 76 76 76 76 76 76 76 40 76 40 40 40 40 40 76 40 40 40 40 40 76 40 40 40 40 40 40 40 40 40 40 40 76 40 40 40 40 114 76 40 40 40 40 40 40 40 40 40 40 40 40 40 40 40 40 40 40 40 40 40 40 40 40 40 40 40 40 40 40 40 40 40 40 40 40 40 40 40 76 114 76 40 40 40 76 76 40 40 40 40 40 40 40 114 114 114 114 76 76 114 167 167 114 114 114 114 114 167 167 167 167 167 167 167 167 114 114 114 114 114 167 114 167 167 167 167 167 167 114 114 76 76 76 76 114 114 114 76 114 114 114 114 114 114 114 114 76 76 114 114 114 114 114 114 114 76 114 114 114 76 76 76 76 76 76 76 76 76 76 76 76 40 76 76 76 114 114 114 167 114 114 114 114 114 167 167 114 114 167 167 167 167 167 167 167 167 167 167 167 167 167 167 167 167 167 167 167 167 167 167 167 114 167 114 114 114 76 76 76 76 40 76 76 76 114 76 76 76 76 114 76 76 114 114 76 76 76 76 76 76 76 40 40 40 40 40 40 40 40 40 40 40 40 40 40 40 40 76 114 167 114 114 114 76 76 40 40 40 40 40 40 40 40 40 40 40 40 40 40 40 40 40 40 40 40 40 40 40 40 40 40 40 40 40 40 40 40 40 40 40 40 40 40 40 40 40 76 76 114 114 114 114 76 114 76 76 114 114 114 114 114 114 114 114 114 114 114 114 114 114 114 114 114 114 114 114 114 114 114 114 114 114 114 114 114 114 114 114 114 114 114 114 114 114 114 114 114 114 114 114 114 114 114 114 114 114 114 114 114 114 114 114 114 114 114 114 114 114 114 114 114 114 114 114 114 114 114 114 114 114 114 114 114 
114 114 114 167 114 114 167 167 167 167 114 114 114 114 114 167 167 114 114 114 114 114 114 114 114 114 114 114 76 76 76 40 40 40 40 40 40 40 40 40 40 76 76 40 40 76 76 76 76 76 76 76 76 76 76 76 76 76 76 76 76 76 76 76 76 76 76 76 76 76 76 76 76 76 76 76 76 76 76 76 76 76 76 76 76 76 76 76 76 76 76 76 114 76 114 114 114 114 114 114 114 114 114 114 114 114 76 40 40 40 40 40 40 40 40 40 40 40 40 114 76 76 114 76 40 40 40 76 76 76 40 40 40 40 40 40 40 40 40 76 40 40 40 40 40 40 40 40 40 40 76 40 40 40 40 40 76 114 76 40 40 40 40 40 40 40 40 40 40 40 40 40 40 40 40 40 40 76 40 40 40 40 40 40 40 40 40 40 40 40 40 40 40 40 40 40 40 40 76 114 40 40 40 40 40 40 40 40 40 40 40 114 114 114 76 76 76 114 167 167 114 114 167 114 167 114 167 167 167 167 167 167 167 114 114 114 114 114 114 167 167 167 167 167 167 167 114 114 76 76 76 114 114 114 114 114 114 114 114 114 114 114 114 114 114 76 40 76 114 114 114 114 114 114 76 114 114 76 76 76 76 76 76 76 76 76 76 76 76 76 76 76 76 76 76 76 114 114 114 114 114 114 114 114 114 114 114 114 167 167 167 167 167 167 167 167 167 167 167 167 167 167 167 167 167 167 167 167 114 167 114 114 114 114 76 76 76 76 76 76 76 114 114 114 76 76 76 76 76 76 76 76 76 76 76 40 40 76 76 40 40 40 40 40 40 40 40 40 40 40 40 40 40 40 40 40 76 114 167 114 114 76 76 76 40 40 40 40 40 40 40 40 40 40 40 40 40 40 40 40 40 40 40 40 40 40 40 40 40 40 40 40 40 40 40 40 40 40 40 40 40 40 40 40 76 76 76 114 114 114 114 114 114 76 114 114 114 114 114 114 114 114 114 114 114 114 114 114 114 114 114 114 114 114 114 114 114 114 114 114 114 114 114 114 114 114 114 114 114 114 114 114 114 114 114 114 114 114 114 114 114 114 114 114 114 114 114 114 114 114 114 114 114 114 114 114 114 114 114 114 114 114 114 114 114 114 114 114 114 114 114 114 
114 114 114 114 114 114 114 167 114 114 114 114 114 114 114 114 114 114 114 114 114 114 114 114 114 114 114 114 76 76 76 76 40 40 40 40 40 40 40 40 76 40 40 40 76 76 76 76 76 76 76 76 76 76 76 76 76 76 76 76 76 76 76 76 76 76 76 76 76 76 76 76 76 76 76 76 76 76 76 76 76 76 76 76 76 76 76 76 76 76 76 76 76 114 114 114 114 114 114 114 114 114 114 114 76 167 114 76 40 40 40 76 76 76 40 40 40 40 40 76 76 76 114 114 76 40 40 40 76 76 76 40 40 40 40 40 40 40 76 76 76 76 40 40 40 40 40 40 40 76 76 40 40 40 40 40 76 114 76 40 40 40 114 40 40 40 40 76 40 40 40 40 40 40 40 40 40 76 76 76 40 40 40 40 40 40 40 40 40 40 40 40 40 40 40 40 40 40 40 40 76 40 40 40 40 40 40 40 40 40 76 114 114 76 76 76 114 167 167 167 114 114 114 114 114 167 167 167 167 167 167 167 167 114 114 114 114 114 114 114 167 167 167 167 167 114 76 76 76 76 76 76 76 76 114 114 76 114 114 114 114 114 114 114 76 76 40 76 114 114 114 114 76 76 76 114 114 76 76 76 76 114 114 76 76 76 76 76 76 76 76 76 76 76 76 114 114 114 114 114 114 114 114 114 114 114 114 114 114 114 167 167 167 167 167 167 167 167 167 167 167 167 167 167 167 167 167 167 167 114 114 114 114 114 76 76 114 114 76 76 76 76 76 76 76 76 76 76 40 76 76 76 76 76 76 40 40 76 40 40 40 40 40 40 40 40 40 40 40 40 40 40 40 40 40 40 76 114 167 114 114 76 76 76 76 40 40 40 40 40 40 40 40 40 40 40 40 40 40 40 40 40 40 40 40 40 40 40 40 40 40 40 40 40 40 40 40 40 40 40 40 40 40 40 76 76 114 114 114 114 114 114 76 76 114 114 114 114 114 114 114 114 114 114 114 114 114 114 114 114 114 114 114 114 114 114 114 114 114 114 114 114 114 114 114 114 114 114 114 114 114 114 114 114 114 114 114 114 114 114 114 114 114 114 114 114 114 114 114 114 114 114 114 114 114 114 114 114 114 114 114 114 114 114 114 114 114 114 114 114 114 114 
114 114 114 114 114 114 114 167 114 114 114 114 114 114 167 167 114 167 114 114 114 114 114 114 114 114 114 76 76 76 76 76 76 40 40 40 40 40 40 76 40 76 76 76 76 76 76 76 76 76 76 76 76 76 76 76 76 76 76 76 76 76 76 76 76 76 76 76 76 76 76 76 76 76 76 76 76 76 76 76 76 76 76 76 76 76 76 76 76 76 76 76 114 114 114 114 114 114 114 114 114 114 114 114 114 167 167 114 76 40 40 76 167 114 76 40 40 40 76 76 76 76 114 114 114 76 40 40 40 40 40 40 40 40 40 40 40 40 76 76 76 76 40 40 40 40 40 40 76 76 76 40 40 40 40 40 40 76 114 40 40 40 40 40 40 40 40 40 40 40 40 40 40 40 40 40 40 76 76 76 40 40 40 40 40 40 40 40 40 40 40 40 40 40 40 40 40 40 40 40 40 76 40 40 40 40 40 40 40 76 114 114 76 76 76 114 167 167 167 114 114 114 114 114 167 167 167 167 167 167 167 167 167 114 114 114 114 114 167 167 167 167 167 167 114 76 40 76 76 76 76 76 76 76 76 76 76 76 76 76 76 76 76 76 76 40 40 40 76 114 114 76 76 40 40 76 76 76 76 76 76 114 114 76 76 76 114 76 76 76 76 76 76 76 76 114 114 114 114 114 114 114 114 114 114 114 114 114 114 167 167 167 167 167 167 167 167 167 167 167 167 167 167 167 167 167 167 167 167 114 114 114 114 114 114 76 114 114 76 76 76 76 76 76 40 40 40 40 40 40 40 40 40 40 40 40 40 40 40 40 40 40 40 40 40 40 40 40 40 40 40 40 40 40 40 40 76 114 167 114 114 76 76 76 76 40 40 40 40 40 40 40 40 40 40 40 40 40 40 40 40 40 40 40 40 40 40 40 40 40 40 40 40 40 40 40 40 40 40 40 40 40 40 40 76 76 114 114 114 114 114 114 76 76 114 114 114 114 114 114 114 114 114 114 114 114 114 114 114 114 114 114 114 114 114 114 114 114 114 114 114 114 114 114 114 114 114 114 114 114 114 114 114 114 114 114 114 114 114 114 114 114 114 114 114 114 114 114 114 114 114 114 114 114 114 114 114 114 114 114 114 114 114 114 114 114 114 114 114 114 114 114 
114 114 114 114 167 167 114 167 114 114 114 114 114 167 167 167 114 167 114 114 114 114 114 114 114 114 114 114 76 76 76 76 40 40 40 40 40 40 40 40 40 40 76 76 76 76 76 76 76 76 76 76 76 76 76 76 76 76 76 76 76 76 76 76 76 76 76 76 76 76 76 76 76 76 76 76 76 76 76 76 76 76 76 76 76 76 76 76 76 76 76 76 114 114 114 114 114 114 114 114 114 114 114 114 114 167 167 167 167 167 76 76 114 114 114 114 76 76 76 76 76 76 76 114 114 114 76 40 76 76 40 40 40 40 40 40 40 40 76 76 40 40 40 40 40 40 40 76 76 76 76 40 40 40 40 40 40 40 76 76 40 40 40 40 40 40 76 40 40 40 40 40 40 40 40 40 40 76 76 76 76 40 40 40 40 40 40 40 40 40 40 40 40 40 40 40 40 40 40 40 40 40 76 40 40 40 40 40 40 114 114 114 76 76 76 167 167 167 114 114 114 114 114 114 167 167 167 167 167 167 167 167 167 167 114 114 114 114 114 167 167 167 114 114 76 40 76 76 76 76 76 76 76 76 76 76 76 76 76 76 76 76 76 76 40 40 40 40 76 76 76 76 76 40 40 40 76 40 40 76 76 114 114 76 76 114 114 114 114 76 76 114 76 76 76 114 114 114 114 114 114 114 114 114 114 114 114 114 114 167 167 167 167 167 167 167 167 167 167 167 167 167 167 167 167 167 167 167 114 114 114 114 114 114 76 76 76 76 76 40 40 40 40 40 40 40 40 40 40 40 40 40 40 40 40 40 40 40 40 40 40 40 40 40 40 40 40 40 40 40 40 40 40 40 40 40 40 114 167 167 114 76 76 76 76 40 40 40 40 40 40 40 40 40 40 40 40 40 40 40 40 40 40 40 40 40 40 40 40 40 40 40 40 40 40 40 40 40 40 40 40 40 40 40 76 76 114 114 114 114 114 114 76 114 114 114 114 114 114 114 114 114 114 114 114 114 114 114 114 114 114 114 114 114 114 114 114 114 114 114 114 114 114 114 114 114 114 114 114 114 114 114 114 114 114 114 114 114 114 114 114 114 114 114 114 114 114 114 114 114 114 114 114 114 114 114 114 114 114 114 114 114 114 114 114 114 114 114 114 114 114 114 
114 167 114 167 167 114 167 167 114 114 114 114 114 114 167 167 114 167 114 114 114 114 114 114 114 114 114 76 76 76 76 76 76 40 40 40 40 40 40 40 40 40 40 40 76 76 76 76 76 76 76 76 76 76 76 76 76 76 76 76 76 76 76 76 76 76 76 76 76 76 76 76 76 76 76 76 76 76 76 76 76 76 76 76 76 76 76 76 76 114 114 114 114 114 114 114 114 114 114 114 114 114 114 114 114 114 167 167 167 167 114 167 167 114 114 114 114 114 114 76 40 76 76 76 76 76 40 40 40 40 40 40 40 40 40 76 76 76 76 76 40 40 40 40 40 40 40 40 76 76 40 40 40 40 40 40 40 40 40 76 40 40 40 40 40 40 40 76 40 40 40 40 40 40 40 40 40 40 40 76 76 40 40 40 40 40 40 40 40 40 40 40 40 40 40 40 40 40 40 40 40 40 40 40 40 40 40 40 76 114 114 76 76 76 114 167 167 114 114 114 114 114 167 167 167 167 167 167 167 167 167 167 167 167 114 167 114 167 167 167 167 114 114 76 40 76 76 76 76 76 76 76 76 76 76 76 40 40 40 40 40 40 40 40 40 40 40 40 40 40 40 40 40 40 40 40 40 40 40 76 76 114 76 76 76 114 114 114 114 76 114 114 114 76 114 114 114 114 114 114 114 114 114 114 114 114 114 114 114 167 167 167 167 167 167 167 167 167 167 167 167 167 167 167 167 167 167 114 114 114 114 76 76 76 76 76 40 40 40 40 40 40 40 40 40 40 40 40 40 40 40 40 40 40 40 40 40 40 40 40 40 40 40 40 40 40 40 40 40 40 40 40 40 40 40 40 40 114 114 114 114 114 76 76 76 40 40 40 40 40 40 40 76 40 40 40 40 40 40 40 40 40 40 40 40 40 40 40 40 40 40 40 40 40 40 40 40 40 40 40 40 40 40 76 76 76 114 114 114 114 114 114 76 114 114 114 114 114 114 114 114 114 114 114 114 114 114 114 114 114 114 114 114 114 114 114 114 114 114 114 114 114 114 114 114 114 114 114 114 114 114 114 114 114 114 114 114 114 114 114 114 114 114 114 114 114 114 114 114 114 114 114 114 114 114 114 114 114 114 114 114 114 114 114 114 114 114 114 114 114 114 114 
114 114 114 114 167 114 167 167 114 114 114 114 114 114 167 167 114 114 114 114 114 114 114 114 114 114 114 114 76 76 76 76 40 40 40 40 40 40 40 40 40 40 40 40 40 76 76 76 76 76 76 76 76 76 76 76 76 76 76 76 76 76 76 76 76 76 76 76 76 76 76 76 76 76 76 76 76 76 76 76 76 76 76 76 76 76 76 76 114 114 114 114 114 114 114 114 114 114 114 114 114 114 114 114 114 114 114 114 114 114 114 114 167 114 114 114 76 76 40 40 40 40 40 40 40 40 40 40 40 40 40 40 40 40 40 40 76 76 76 40 40 40 40 40 40 40 40 40 76 76 40 40 40 40 40 40 40 40 40 76 40 40 40 40 40 40 40 76 40 40 40 40 40 40 40 40 40 40 40 76 76 76 40 40 40 40 40 40 40 40 40 40 40 40 40 40 40 40 40 40 40 40 40 40 40 40 40 76 114 114 76 76 76 114 167 167 114 114 114 114 114 114 167 167 167 167 167 167 167 167 167 167 114 114 167 114 114 167 167 167 114 114 76 40 76 76 76 76 76 76 76 40 40 40 40 40 40 40 40 40 40 40 40 40 40 40 40 40 40 40 40 40 40 40 40 40 40 40 40 40 76 76 76 76 114 114 114 114 114 114 114 114 114 114 114 114 114 114 114 114 114 114 114 114 114 114 114 114 114 167 167 167 167 167 167 167 167 167 167 167 167 167 167 167 167 167 167 114 114 76 76 76 40 40 40 40 40 40 40 40 40 40 40 40 40 40 40 40 40 40 40 40 40 40 40 40 40 40 40 40 40 40 40 40 40 40 40 40 40 40 40 40 40 40 40 40 40 114 114 167 114 114 76 76 76 40 40 40 40 40 40 40 40 40 40 40 40 40 40 40 40 40 40 40 40 40 40 40 40 40 40 40 40 40 40 40 40 40 40 40 40 40 40 76 76 114 114 114 114 114 114 76 76 114 114 114 114 114 114 114 114 114 114 114 114 114 114 114 114 114 114 114 114 114 114 114 114 114 114 114 114 114 114 114 114 114 114 114 114 114 114 114 114 114 114 114 114 114 114 114 114 114 114 114 114 114 114 114 114 114 114 114 114 114 114 114 114 114 114 114 114 114 114 114 114 114 114 114 114 114 114 114 
114 114 114 114 114 114 114 114 114 167 167 167 114 167 167 167 114 114 114 114 114 114 114 114 114 114 114 114 76 76 76 76 76 40 40 40 40 40 40 40 76 40 40 76 76 76 76 76 76 76 76 76 76 76 76 76 76 76 76 76 76 76 76 76 76 76 76 76 76 76 76 76 76 76 76 76 76 76 76 76 76 76 76 76 76 76 114 114 114 114 114 114 114 114 114 114 114 114 114 114 114 114 114 114 114 114 114 114 76 76 76 76 114 114 114 76 40 40 40 40 40 40 40 40 40 40 40 40 40 40 40 40 40 40 40 40 76 76 76 40 40 40 40 76 40 76 40 40 76 76 40 40 40 40 40 40 40 40 40 40 76 40 40 40 40 40 40 76 40 40 40 40 40 40 40 40 40 40 40 76 76 76 76 40 40 40 40 40 40 40 40 40 40 40 40 40 40 40 40 40 40 40 40 40 40 40 40 114 167 114 76 76 76 114 167 167 114 114 167 167 114 114 167 167 167 167 167 167 167 167 167 167 167 114 167 114 167 167 167 114 76 76 40 40 76 76 76 76 76 40 40 40 40 40 40 40 40 40 40 40 40 40 40 40 40 40 40 40 40 40 40 40 40 40 40 40 40 40 40 40 40 40 40 76 114 114 114 114 114 114 114 114 114 114 114 114 114 114 114 114 114 114 114 114 114 114 114 114 167 167 167 167 167 167 167 167 167 167 167 167 167 167 167 167 167 167 114 114 114 76 76 40 40 40 40 40 40 40 40 40 40 40 40 40 40 40 40 40 40 40 40 40 40 40 40 40 40 40 40 40 40 40 40 40 40 40 40 40 40 40 40 40 40 40 40 40 40 114 114 167 114 114 76 76 76 76 40 40 40 40 40 40 40 40 40 40 40 40 40 40 40 40 40 40 40 40 40 40 40 40 40 40 40 40 40 40 40 40 40 40 40 40 40 76 114 114 114 114 114 114 114 114 114 114 114 114 114 114 114 114 114 114 114 114 114 114 114 114 114 114 114 114 114 114 114 114 114 114 114 114 114 114 114 114 114 114 114 114 114 114 114 114 114 114 114 114 114 114 114 114 114 114 114 114 114 114 114 114 114 114 114 114 114 114 114 114 114 114 114 114 114 114 114 114 114 114 114 114 114 114 114 114 
114 114 114 114 114 114 114 114 114 114 114 114 114 114 114 114 114 114 114 167 114 114 114 114 114 114 114 114 114 76 76 76 40 40 40 40 40 40 40 40 40 40 40 76 76 76 76 76 76 76 76 76 76 76 76 76 76 76 76 76 76 76 76 76 76 76 76 76 76 76 76 76 76 76 76 76 76 76 76 76 76 76 114 114 114 114 114 167 114 76 76 114 114 114 114 114 114 114 114 114 114 114 114 114 114 114 114 114 76 76 76 76 76 114 114 76 76 40 40 40 40 40 40 40 40 40 40 40 40 40 40 40 40 40 76 76 76 76 40 40 40 40 40 40 40 76 40 40 76 76 40 40 40 40 40 40 40 76 40 40 40 76 40 40 40 40 40 76 40 40 40 40 40 40 40 40 40 40 40 40 76 114 76 76 76 40 40 40 40 40 40 40 40 40 40 40 40 40 40 40 40 40 40 40 40 40 76 167 114 76 76 76 114 167 167 114 114 114 167 167 114 167 167 167 167 167 167 167 167 167 167 167 167 167 114 114 167 167 114 76 40 40 40 40 40 40 40 40 40 40 40 40 40 40 40 40 40 40 40 40 40 40 40 40 40 40 40 40 40 40 40 40 40 40 40 40 40 40 40 40 40 40 40 40 76 76 114 114 114 114 114 114 114 114 114 114 114 114 114 114 114 114 114 114 114 114 114 114 114 114 167 167 167 167 167 167 167 167 167 167 167 167 167 167 167 114 114 76 76 76 40 40 40 40 40 40 40 40 40 40 40 40 40 40 40 40 40 40 40 40 40 40 40 40 40 40 40 40 40 40 40 40 40 40 40 40 40 40 40 40 40 40 40 40 40 40 40 114 114 167 114 114 76 76 76 40 40 40 40 40 40 40 40 40 40 40 40 40 40 40 40 40 40 40 40 40 40 40 40 40 40 40 40 40 40 40 40 40 40 40 40 40 40 76 114 114 114 114 114 114 114 76 76 114 114 114 114 114 114 114 114 114 114 114 114 114 114 114 114 114 114 114 114 114 114 114 114 114 114 114 114 114 114 114 114 114 114 114 114 114 114 114 114 114 114 114 114 114 114 114 114 114 114 114 114 114 114 114 114 114 114 114 114 114 114 114 114 114 114 114 114 114 114 114 114 114 114 114 114 114 114 114 
114 114 167 114 114 167 167 114 114 114 167 167 167 114 114 167 114 114 114 114 114 114 114 114 114 114 114 114 76 76 76 76 40 40 40 40 40 40 40 40 40 40 40 40 76 76 76 40 76 76 76 76 76 76 76 76 76 76 76 76 76 76 76 76 76 76 76 76 76 76 76 76 76 76 76 76 76 76 76 76 76 76 114 114 114 114 167 167 167 114 114 114 114 114 114 114 114 114 114 114 114 114 114 114 114 114 114 114 114 76 76 76 40 76 76 76 40 40 40 40 40 40 40 40 40 40 40 76 76 76 76 40 76 76 76 76 76 76 76 40 40 40 40 40 76 40 40 76 76 76 40 40 40 40 40 40 40 40 40 40 40 76 40 40 40 40 76 76 40 40 40 40 40 40 40 40 40 40 40 40 40 76 114 76 76 76 40 40 40 40 40 40 40 40 40 40 40 40 40 40 40 40 40 40 40 40 114 114 76 76 40 114 167 167 167 114 114 114 114 114 114 167 167 167 167 167 167 167 167 167 167 167 167 114 167 167 167 114 114 76 40 40 40 40 76 76 40 40 40 40 40 40 40 40 40 40 40 40 40 40 40 40 40 40 40 40 40 40 40 40 40 40 40 40 40 40 40 40 40 40 40 40 40 40 40 76 76 114 114 114 114 114 114 114 114 114 114 114 114 114 114 114 114 114 114 114 114 114 114 114 167 167 167 167 167 167 167 167 167 167 167 167 167 167 114 114 76 76 40 40 40 40 40 40 40 40 40 40 40 40 40 40 76 40 40 40 40 40 40 40 40 40 40 40 40 40 40 40 40 40 40 40 40 40 40 40 40 40 40 40 40 40 40 40 40 40 40 114 114 167 114 114 76 40 76 76 40 40 40 40 40 40 40 40 40 40 40 40 40 40 40 40 40 40 40 40 40 40 40 40 40 40 40 40 40 40 40 40 40 40 40 40 40 76 114 114 114 114 114 114 114 76 114 114 114 114 114 114 114 114 114 114 114 114 114 114 114 114 114 114 114 114 114 114 114 114 114 114 114 114 114 114 114 114 114 114 114 114 114 114 114 114 114 114 114 114 114 114 114 114 114 114 114 114 114 114 114 114 114 114 114 114 114 114 114 114 114 114 114 114 114 114 114 114 114 114 114 114 114 114 114 114 
114 114 167 114 114 167 167 114 114 167 114 114 167 167 114 114 114 114 114 114 114 114 114 114 114 114 114 114 76 76 76 76 40 40 40 40 40 40 40 40 40 40 40 76 76 76 76 76 76 76 76 76 76 76 76 76 76 76 76 76 76 76 76 76 76 76 76 76 76 76 76 76 76 76 76 76 76 76 76 76 76 76 114 114 114 167 167 167 114 76 114 114 114 114 114 114 114 114 114 114 114 114 114 114 114 114 114 76 76 76 40 40 40 40 40 76 76 40 40 40 40 40 40 40 40 40 76 76 76 76 76 40 40 76 76 76 76 40 76 76 40 40 76 76 40 40 40 76 76 76 40 40 40 40 40 40 40 40 40 40 40 40 40 40 40 40 40 114 40 40 40 40 40 40 40 40 40 40 40 40 40 40 76 76 76 76 76 76 40 40 40 40 40 40 40 40 40 40 40 40 40 40 40 40 40 114 167 114 76 76 114 167 167 167 114 114 114 114 114 114 167 167 167 167 167 167 167 167 167 167 167 167 167 167 167 167 114 76 76 40 76 40 40 40 40 40 40 40 40 40 40 40 40 40 40 40 40 40 40 40 40 40 40 40 40 40 40 40 40 76 114 114 76 76 40 40 40 40 40 40 40 40 40 40 40 40 76 76 114 114 76 114 114 114 114 114 114 114 114 114 114 114 114 114 114 114 114 114 114 114 167 167 167 167 167 167 167 167 167 167 167 167 167 167 114 76 40 40 40 40 40 40 40 40 40 40 40 40 40 40 40 76 114 76 76 40 40 40 40 40 40 40 40 40 40 40 40 40 40 40 40 40 40 40 40 40 40 40 40 40 40 40 40 40 40 40 40 114 114 167 114 114 76 40 40 76 40 40 40 40 40 40 40 40 40 40 40 40 40 40 40 40 40 40 40 40 40 40 40 40 40 40 40 40 40 40 40 40 40 40 40 76 76 76 114 114 114 114 114 114 114 114 114 114 114 114 114 114 114 114 114 114 114 114 114 114 114 114 114 114 114 114 114 114 114 114 114 114 114 114 114 114 114 114 114 114 114 114 114 114 114 114 114 114 114 114 114 114 114 114 114 114 114 114 114 114 114 114 114 114 114 114 114 114 114 114 114 114 114 114 114 114 114 114 114 114 114 114 114 114 114 114 
114 114 167 114 114 167 167 114 167 167 114 114 167 167 114 114 167 114 114 114 114 114 114 114 114 114 114 114 76 76 76 76 76 40 40 40 40 40 40 40 40 76 76 76 76 76 40 40 76 76 76 76 76 76 76 76 76 76 76 76 76 76 76 76 76 76 76 76 76 76 76 76 76 76 76 76 76 76 40 76 114 167 167 114 167 167 167 167 114 76 114 114 114 114 114 114 114 114 114 114 114 114 114 114 114 114 114 76 40 40 40 40 40 40 40 76 76 40 40 40 40 40 40 40 40 76 76 76 76 40 40 40 40 76 76 40 40 40 40 76 40 40 40 76 40 40 76 76 114 76 40 40 40 40 40 40 40 40 40 40 40 40 40 76 40 40 40 114 40 40 40 40 40 40 40 40 40 40 40 40 40 40 40 76 76 76 76 76 76 76 40 40 40 40 40 40 40 40 40 40 40 40 40 40 76 114 114 76 76 40 114 167 167 167 114 114 167 114 114 114 167 167 167 167 167 167 167 167 167 167 167 167 167 167 167 114 76 76 40 40 76 40 40 40 40 40 40 40 40 40 40 40 40 40 40 40 40 40 40 40 40 40 40 40 40 40 40 76 40 114 167 167 167 114 76 76 40 40 40 40 40 40 40 40 40 40 40 76 114 114 114 114 76 114 114 114 114 114 114 114 114 114 114 114 114 114 114 114 114 114 114 167 167 167 167 167 167 167 167 167 167 167 114 114 76 76 40 40 40 40 40 40 40 40 40 40 40 76 114 40 40 114 114 114 114 76 76 40 40 40 40 40 40 40 40 40 40 40 40 40 40 40 40 40 40 40 40 40 40 40 40 40 40 40 40 40 40 114 114 167 114 114 76 40 40 76 76 40 40 40 40 40 40 40 40 40 40 40 40 40 40 40 40 40 40 40 40 40 40 40 40 40 40 40 40 40 40 40 40 40 40 76 76 114 114 114 114 114 114 114 114 114 114 114 114 114 114 114 114 114 114 114 114 114 114 114 114 114 114 114 114 114 114 114 114 114 114 114 114 114 114 114 114 114 114 114 114 114 114 114 114 114 114 114 114 114 114 114 114 114 114 114 114 114 114 114 114 114 114 114 114 114 114 114 114 114 114 114 114 114 114 114 114 114 114 114 114 114 114 114 114 114 
114 114 167 114 114 167 167 114 167 167 114 114 167 167 167 167 167 114 114 114 114 114 114 114 114 114 114 114 76 76 76 76 76 40 40 40 40 40 40 40 76 40 40 40 76 76 76 76 76 76 76 76 76 76 76 76 76 76 76 76 76 76 76 76 76 76 76 76 76 76 76 76 76 76 76 76 76 76 76 114 167 167 167 167 167 167 167 114 76 76 114 114 114 114 114 114 114 114 114 114 114 114 114 114 76 76 76 114 114 76 40 40 40 40 40 40 40 40 40 40 40 40 40 40 76 76 76 40 40 40 40 40 76 76 76 40 40 40 40 76 76 40 40 40 40 40 76 114 76 76 40 40 40 40 40 40 40 40 40 40 40 40 40 76 76 40 40 114 76 40 40 40 40 40 40 40 40 40 40 40 40 40 40 40 76 76 76 40 76 76 76 76 40 40 40 40 40 40 40 40 40 40 40 40 114 114 76 76 76 114 167 167 114 114 114 114 114 114 114 114 167 167 114 167 167 167 167 167 167 167 167 167 167 167 114 76 40 40 40 40 76 40 40 40 40 40 40 40 40 40 40 40 40 40 40 40 40 40 40 40 40 40 40 40 40 40 40 76 114 114 167 167 167 167 114 114 114 40 40 40 40 40 40 40 40 40 40 76 76 76 114 114 76 76 114 114 114 114 114 114 114 114 114 114 114 114 114 114 114 114 114 167 167 167 167 167 167 167 167 167 167 167 114 76 76 40 40 40 40 40 40 40 40 40 40 40 40 76 114 114 40 76 167 114 114 114 76 40 40 40 40 40 40 40 40 40 40 40 40 40 40 40 40 40 40 40 40 40 40 40 40 40 40 40 40 40 40 114 114 114 114 114 76 40 40 76 76 40 40 40 40 40 40 40 40 40 40 40 40 40 40 40 40 40 40 40 40 40 40 40 40 40 40 40 40 40 40 40 40 40 40 76 76 114 114 114 114 114 114 114 114 114 114 114 114 114 114 114 114 114 114 114 114 114 114 114 114 114 114 114 114 114 114 114 114 114 114 114 114 114 114 114 114 114 114 114 114 114 114 114 114 114 114 114 114 114 114 114 114 114 114 114 114 114 114 114 114 114 114 114 114 114 114 114 114 114 114 114 114 114 114 114 114 114 114 114 114 114 114 114 114 114 
114 114 167 167 167 167 167 167 114 167 167 167 167 167 114 167 114 114 114 114 114 114 114 114 114 114 114 114 76 76 76 76 76 40 40 40 40 40 40 76 40 40 40 76 76 76 76 76 76 76 76 76 76 76 76 76 76 76 76 76 76 76 76 76 76 76 76 76 76 76 76 76 76 40 76 76 76 40 76 167 167 167 167 167 167 167 167 114 114 114 114 114 114 114 114 114 114 114 114 114 114 114 76 76 114 114 114 76 40 40 40 40 76 40 40 40 40 40 40 40 40 40 40 76 114 76 40 40 40 40 40 40 76 40 40 40 40 40 40 40 76 76 40 40 40 40 76 76 76 40 40 40 40 40 40 40 40 40 40 40 40 40 40 40 40 40 40 76 76 40 40 40 40 40 40 40 40 40 40 40 40 40 40 40 40 40 40 40 40 40 76 76 76 40 40 40 40 40 40 40 40 40 40 76 167 114 76 76 76 114 167 167 114 114 167 114 114 167 114 114 167 167 167 167 167 167 167 167 167 167 167 167 167 114 76 40 40 76 76 76 76 76 40 40 40 40 40 40 40 40 40 40 40 40 40 40 40 40 40 40 40 40 40 40 76 76 40 40 76 114 167 167 167 167 167 167 167 114 76 40 40 40 40 76 76 40 40 76 76 76 76 76 76 114 114 76 114 114 114 114 114 114 114 114 114 114 114 114 114 114 167 167 167 167 167 167 167 167 167 167 167 114 76 76 40 40 40 40 40 40 40 40 40 40 40 40 40 40 114 114 40 40 167 114 114 114 76 76 40 40 40 40 40 40 40 40 40 40 40 40 40 40 40 40 40 40 40 40 40 40 40 40 40 40 40 40 40 114 114 114 114 114 76 40 40 76 76 40 40 40 76 40 40 40 40 40 40 40 40 40 40 40 40 40 40 40 40 40 40 40 40 40 40 40 40 40 40 40 40 40 40 76 76 114 114 114 114 114 114 114 114 114 114 114 114 114 114 114 114 114 114 114 114 114 114 114 114 114 114 114 114 114 114 114 114 114 114 114 114 114 114 114 114 114 114 114 114 114 114 114 114 114 114 114 114 114 114 114 114 114 114 114 114 114 114 114 114 114 114 114 114 114 114 114 114 114 114 114 114 114 114 114 114 114 114 114 114 114 114 114 114 114 
114 114 167 167 167 167 167 114 114 167 167 167 167 114 114 167 114 114 114 114 114 114 114 114 114 114 114 114 76 76 76 76 76 40 40 40 40 40 40 40 76 76 76 76 40 76 76 76 76 76 76 76 76 76 76 76 76 76 76 76 76 76 76 76 76 76 76 76 76 76 76 76 76 40 76 76 76 76 40 114 167 167 114 167 167 167 114 114 76 76 114 114 114 114 114 114 114 114 114 114 114 76 40 40 76 76 76 76 76 76 40 76 76 40 40 40 40 40 40 40 40 40 76 76 76 40 40 40 40 40 40 76 76 40 40 40 40 40 40 40 40 76 76 76 40 76 76 76 76 40 40 40 40 40 40 40 40 40 40 40 40 40 40 40 40 40 40 76 114 40 40 40 40 40 40 40 40 40 40 40 40 40 40 40 40 40 40 40 40 40 40 40 40 40 40 40 40 40 40 40 40 40 40 114 114 114 76 76 76 167 167 114 114 114 167 114 167 167 167 167 114 167 167 167 167 167 167 167 167 167 167 167 114 76 40 40 40 76 76 40 76 40 40 40 40 40 40 40 40 40 40 40 76 40 40 40 40 40 40 40 40 40 40 40 40 76 40 40 40 76 167 167 167 167 167 167 167 114 114 76 40 40 40 114 114 76 76 76 76 76 76 76 76 76 76 76 114 114 114 114 114 114 114 114 114 114 114 114 114 114 167 167 167 167 167 167 167 167 167 167 114 114 76 40 40 40 40 40 40 40 40 40 40 40 40 40 40 40 40 76 40 76 114 114 114 114 114 76 76 40 40 40 40 40 40 40 40 40 40 40 40 40 40 40 40 40 40 40 40 40 40 40 40 40 40 40 40 76 114 114 167 114 114 76 40 40 40 76 40 40 40 40 40 40 40 40 40 40 40 40 40 40 40 40 40 40 40 40 40 40 40 40 40 40 40 40 40 40 40 40 40 76 76 114 114 114 114 114 114 114 114 114 114 114 114 114 114 114 114 114 114 114 114 114 114 114 114 114 114 114 114 114 114 114 114 114 114 114 114 114 114 114 114 114 114 114 114 114 114 114 114 114 114 114 114 114 114 114 114 114 114 114 114 114 114 114 114 114 114 114 114 114 114 114 114 114 114 114 114 114 114 114 114 114 114 114 114 114 114 114 114 114 
114 114 167 167 167 114 167 167 114 167 114 114 167 167 114 167 114 167 114 114 114 114 114 114 114 114 114 114 76 76 76 76 40 40 40 40 40 40 40 40 40 76 76 76 76 76 76 76 76 76 76 76 76 76 76 76 76 76 76 76 76 76 76 76 76 76 76 76 76 76 76 40 76 76 76 76 76 76 76 114 167 167 114 167 167 114 114 76 76 76 114 114 114 114 114 114 114 114 114 114 114 76 40 76 76 114 114 76 76 40 40 40 40 40 40 40 40 40 40 40 40 76 76 40 40 40 40 40 40 40 76 76 40 40 40 40 40 40 40 40 76 76 76 76 40 40 76 76 40 40 40 40 40 40 40 40 40 40 40 40 40 40 40 40 40 40 40 40 114 40 40 40 40 40 40 40 40 40 40 40 40 40 40 40 40 40 40 40 40 40 40 40 40 40 40 40 40 40 40 40 40 40 76 114 114 76 76 76 167 167 167 114 114 167 167 167 167 167 167 167 167 167 167 167 167 167 167 167 167 167 167 114 114 76 40 76 76 76 40 40 40 40 40 40 40 40 40 40 40 40 40 40 76 76 40 40 40 76 76 40 40 40 40 40 40 76 40 40 40 76 167 167 167 167 167 167 167 167 114 114 76 40 40 76 114 114 76 40 76 76 76 76 76 76 76 114 114 114 114 114 114 114 114 114 114 114 114 114 114 167 167 167 167 167 167 167 167 167 167 167 114 76 76 40 40 40 40 40 40 40 40 40 40 40 40 40 40 40 76 40 40 40 114 114 114 114 114 76 76 40 40 40 40 40 40 40 40 40 40 40 40 40 40 40 40 40 40 40 40 40 40 40 40 40 40 40 40 76 114 114 167 114 114 76 40 40 76 76 40 40 40 40 40 40 40 40 40 40 40 40 40 40 40 40 40 40 40 40 40 40 40 40 40 40 40 40 40 40 40 40 76 76 76 114 114 114 114 114 114 114 114 114 114 114 114 114 114 114 114 114 114 114 114 114 114 114 114 114 114 114 114 114 114 114 114 114 114 114 114 114 114 114 114 114 114 114 114 114 114 114 114 114 114 114 114 114 114 114 114 114 114 114 114 114 114 114 114 114 114 114 114 114 114 114 114 114 114 114 114 114 114 114 114 114 114 114 114 114 114 114 114 114 
114 114 167 167 167 114 114 167 114 114 114 114 167 167 114 114 167 167 114 114 114 114 114 114 114 114 114 114 76 76 76 76 40 40 40 40 40 40 40 40 76 76 76 40 76 76 76 76 76 76 76 76 76 76 76 76 76 76 76 76 76 76 76 76 76 76 76 76 76 76 76 76 76 76 76 76 76 76 76 76 114 167 167 167 167 167 167 114 76 114 114 114 114 114 114 114 114 114 114 114 114 76 76 76 114 114 114 76 40 40 40 40 40 40 40 40 40 40 40 40 40 76 76 40 40 40 40 40 40 40 76 40 40 40 40 40 40 40 40 40 76 76 76 40 76 40 76 76 76 40 40 40 40 40 40 40 40 40 40 40 40 40 40 40 40 40 40 40 114 76 40 40 40 40 40 40 40 40 40 40 40 40 40 40 40 40 40 40 40 40 40 40 40 40 40 40 40 40 76 76 40 40 114 114 76 76 76 114 167 167 167 114 114 114 114 167 167 114 167 167 167 167 167 167 167 167 167 167 167 167 167 114 76 40 76 76 76 76 76 76 40 40 40 40 40 40 40 40 40 40 40 76 76 76 40 40 40 40 76 76 40 40 40 40 76 114 76 40 40 114 167 167 167 167 167 167 167 167 167 114 76 76 40 40 76 114 76 76 76 76 76 76 76 76 76 76 76 76 114 114 114 114 114 114 114 114 114 114 114 167 167 167 167 167 167 167 167 167 167 167 114 76 76 40 40 76 40 40 40 40 76 40 40 40 40 40 76 40 40 40 40 76 167 114 114 114 76 76 76 40 40 40 40 40 40 40 40 40 40 40 40 40 40 40 40 40 40 40 40 40 40 40 40 40 40 40 40 76 114 114 167 114 114 76 40 40 76 76 40 40 40 40 40 40 40 40 40 40 40 40 40 40 40 40 40 40 40 40 40 40 40 40 40 40 40 40 40 40 40 40 76 114 114 114 114 114 114 114 114 76 114 114 114 114 114 114 114 114 114 114 114 114 114 114 114 114 114 114 114 114 114 114 114 114 114 114 114 114 114 114 114 114 114 114 114 114 114 114 114 114 114 114 114 114 114 114 114 114 114 114 114 114 114 114 114 114 114 114 114 114 114 114 114 114 114 114 114 114 114 114 114 114 114 114 114 114 114 114 114 114 114 114 
167 114 167 167 114 167 167 114 114 114 114 167 167 167 114 114 114 114 114 114 114 114 114 114 114 114 114 114 76 76 76 76 76 40 40 40 40 40 40 76 76 76 40 76 76 76 76 40 76 76 76 76 76 76 76 76 76 76 76 76 76 76 76 76 76 76 76 76 76 76 76 76 76 76 76 76 76 76 40 40 114 167 114 114 167 167 167 167 167 114 114 114 114 114 114 114 114 114 114 114 114 76 76 114 114 114 114 76 40 40 76 76 40 40 40 40 40 76 40 40 76 40 40 40 40 40 40 40 40 40 40 40 40 40 40 40 40 40 40 40 76 76 76 40 40 40 76 114 76 40 40 40 40 40 40 40 40 40 40 40 40 40 40 40 40 40 40 40 76 76 40 40 40 40 40 40 40 40 40 40 40 40 40 40 40 40 40 40 40 40 40 40 40 40 40 40 40 40 40 40 40 76 114 114 76 76 114 167 167 114 114 114 114 114 114 114 114 114 167 167 167 167 167 167 167 167 167 167 167 167 114 76 40 76 76 76 76 76 76 76 40 40 40 40 40 40 40 40 40 40 40 40 76 114 76 40 40 40 76 76 76 76 76 76 76 40 40 40 76 167 167 167 167 167 167 167 167 167 167 167 114 76 40 40 76 114 114 76 76 76 76 76 76 76 76 76 76 114 114 114 114 114 114 114 114 114 114 114 114 167 167 167 167 167 167 167 167 167 167 114 114 76 40 40 76 76 76 40 40 40 76 76 40 40 40 40 76 76 40 40 40 114 114 114 114 114 76 76 76 40 40 40 40 40 40 40 40 40 40 40 40 40 40 40 40 40 40 40 40 40 40 40 76 40 40 40 40 76 114 114 167 114 114 76 40 40 76 76 40 40 40 40 76 40 40 40 40 40 40 40 40 40 40 40 40 40 40 40 40 40 40 40 40 40 40 40 40 40 40 76 76 114 114 114 114 114 114 114 76 114 114 114 114 114 114 114 114 114 114 114 114 114 114 114 114 114 114 114 114 114 114 114 114 114 114 114 114 114 114 114 114 114 114 114 114 114 114 114 114 114 114 114 114 114 114 114 114 114 114 114 114 114 114 114 114 114 114 114 114 114 114 114 114 114 114 114 114 114 114 114 114 114 114 114 114 114 114 114 114 114 114 114 
114 114 167 167 114 167 114 114 114 114 114 114 167 167 167 167 167 167 114 114 114 114 114 114 114 114 114 76 76 76 76 76 76 40 40 40 40 40 40 76 40 40 40 76 76 76 76 76 76 76 76 76 76 76 76 76 76 76 76 76 76 76 76 76 76 76 76 76 76 76 76 76 76 76 76 76 40 40 40 40 114 167 76 40 76 114 167 167 167 167 114 114 114 114 114 114 114 114 114 114 114 76 76 114 114 114 76 40 40 40 40 40 40 40 40 40 40 76 76 76 40 40 40 40 40 40 40 40 40 40 40 40 40 40 40 40 40 40 40 40 76 76 76 40 40 76 76 114 40 40 40 40 40 40 40 40 40 40 40 40 40 40 40 40 40 40 40 40 76 76 76 40 40 40 40 40 40 40 40 40 40 40 40 40 40 40 40 40 40 40 40 40 40 40 40 40 40 40 40 40 76 76 76 40 40 76 114 167 114 114 114 114 76 76 114 114 114 167 167 167 167 167 167 167 167 167 167 167 167 114 76 76 76 76 76 76 76 76 76 76 76 76 76 76 76 40 40 40 40 76 76 40 76 76 114 76 40 40 40 40 76 40 76 76 40 40 40 76 114 167 167 167 167 167 167 167 167 167 167 114 114 76 76 40 76 114 114 114 76 76 76 76 76 76 76 76 114 114 114 114 114 114 114 114 114 114 114 114 114 167 167 167 167 167 167 167 167 167 167 114 76 76 76 76 76 114 114 76 40 40 40 76 76 76 76 40 40 40 40 40 76 114 167 114 114 114 114 76 40 40 40 40 40 40 40 40 40 40 40 40 40 40 40 40 40 40 40 40 40 40 40 40 76 40 40 40 40 40 114 114 167 114 114 76 40 40 76 76 40 40 40 40 40 40 40 40 40 40 40 40 40 40 40 40 40 40 40 40 40 40 40 40 40 40 40 40 40 40 40 76 76 114 114 114 114 114 114 114 114 114 114 114 114 114 114 114 114 114 114 114 114 114 114 114 114 114 114 114 114 114 114 114 114 114 114 114 114 114 114 114 114 114 114 114 114 114 114 114 114 114 114 114 114 114 114 114 114 114 114 114 114 114 114 114 114 114 114 114 114 114 114 114 114 114 114 114 114 114 114 114 114 114 114 114 114 114 114 114 114 114 114 114 
114 114 167 167 114 114 114 114 167 167 167 167 167 167 167 167 114 167 114 114 114 114 114 114 114 114 114 114 114 76 76 76 76 40 40 40 40 40 40 76 40 76 76 76 76 76 76 76 76 76 76 76 76 76 76 76 76 76 76 76 76 76 76 76 76 76 76 76 76 76 76 76 76 76 76 76 40 40 40 40 114 167 114 40 40 40 40 76 167 167 167 167 114 114 114 114 114 114 114 76 76 76 40 40 76 40 40 40 40 40 76 40 40 40 40 40 40 76 76 76 40 40 40 40 40 40 40 40 40 40 40 40 40 40 40 40 40 40 40 40 76 76 76 40 40 76 114 114 40 40 40 40 40 40 40 40 40 40 40 40 40 40 40 40 40 40 40 40 40 76 76 40 40 40 40 40 40 40 40 40 40 40 40 40 40 40 40 40 40 40 40 40 40 40 40 40 40 40 40 40 76 114 76 40 40 76 114 114 114 76 114 114 114 167 167 167 167 167 167 167 167 167 167 167 167 167 167 167 114 76 76 76 76 76 76 114 114 114 76 76 76 76 76 76 76 40 40 40 40 40 76 76 76 76 76 114 76 40 40 40 40 76 76 40 40 40 40 114 167 167 167 167 167 167 167 167 167 167 167 114 114 114 114 76 76 76 114 114 76 76 76 76 114 76 76 76 76 76 114 114 114 114 114 114 114 114 114 114 167 167 167 167 167 167 167 167 167 167 167 114 76 76 76 76 76 114 114 76 76 40 40 76 76 40 40 40 40 40 40 76 114 167 114 114 114 114 114 76 40 40 40 40 40 40 40 40 40 40 40 40 40 40 40 40 40 40 40 40 40 40 40 40 76 40 40 40 40 40 114 114 167 114 114 76 40 40 40 76 40 40 40 40 40 40 40 40 40 40 40 40 40 40 40 40 40 40 40 40 40 40 40 40 40 40 40 40 40 40 40 76 76 114 114 114 114 114 114 114 114 114 114 114 114 114 114 114 114 114 114 114 114 114 114 114 114 114 114 114 114 114 114 114 114 114 114 114 114 114 114 114 114 114 114 114 114 114 114 114 114 114 114 114 114 114 114 114 114 114 114 114 114 114 114 114 114 114 114 114 114 114 114 114 114 114 114 114 114 114 114 114 114 114 114 114 114 114 114 114 114 114 114 114 
114 114 167 167 114 114 114 167 167 167 167 167 167 167 167 167 114 167 167 114 114 114 114 114 114 114 114 114 114 76 76 76 76 40 76 40 40 40 40 40 40 76 76 76 76 76 76 76 76 76 76 76 76 76 76 76 76 76 76 76 76 76 76 76 76 76 76 76 76 76 76 76 76 76 40 40 40 40 40 40 40 167 167 76 40 40 40 40 76 167 167 167 167 167 167 114 114 114 114 76 40 40 40 40 40 40 40 40 40 40 40 40 40 40 40 40 76 76 40 40 40 40 40 40 40 40 40 40 40 40 40 40 40 76 40 40 40 40 40 40 76 114 76 76 40 76 114 114 76 40 40 40 40 40 40 40 40 40 40 40 40 40 40 40 40 40 40 40 40 76 76 40 40 40 40 40 40 40 40 40 40 40 40 40 40 40 40 40 40 40 40 40 40 40 40 40 40 40 40 76 114 114 76 40 76 114 167 114 114 114 114 167 114 167 167 167 167 167 167 167 167 167 167 167 167 167 167 114 76 76 76 76 76 76 76 114 114 114 114 114 114 114 76 76 76 76 40 40 40 40 40 76 76 76 76 76 76 76 40 40 40 40 40 40 76 76 114 167 167 167 167 167 167 167 167 167 167 167 114 114 114 114 114 114 76 76 114 114 114 76 76 76 76 76 76 114 76 76 114 114 114 114 114 114 114 114 114 114 167 167 167 167 167 167 167 167 167 167 167 114 76 76 76 76 76 76 114 114 114 40 40 40 40 40 40 40 40 40 76 114 167 114 114 114 114 114 76 76 76 40 40 40 40 40 40 40 40 40 40 40 40 40 40 40 40 40 40 40 40 40 40 40 76 40 40 40 40 40 114 114 167 114 114 114 40 40 40 76 40 40 40 40 40 40 40 40 40 40 40 40 40 40 40 40 40 40 40 40 40 40 40 40 40 40 40 40 40 40 40 76 114 114 114 114 114 114 114 114 114 114 114 114 114 114 114 114 114 114 114 114 114 114 114 114 114 114 114 114 114 114 114 114 114 114 114 114 114 114 114 114 114 114 114 114 114 114 114 114 114 114 114 114 114 114 114 114 114 114 114 114 114 114 114 114 114 114 114 114 114 114 114 114 114 114 114 114 114 114 114 114 114 114 114 114 114 114 114 114 114 114 114 114 
114 114 167 167 114 114 167 167 114 114 167 167 167 167 167 167 114 167 114 114 114 114 114 114 114 114 114 114 114 76 76 76 76 40 76 40 40 40 40 40 76 76 76 76 76 76 76 76 76 76 76 76 76 76 76 76 76 76 76 76 76 76 76 76 76 76 76 76 76 114 76 40 40 40 40 40 40 40 40 40 40 76 167 76 76 114 167 167 114 167 167 167 167 167 167 167 114 114 114 76 40 40 40 40 40 40 40 40 40 40 40 40 40 40 40 76 76 40 40 40 40 40 40 40 40 40 40 40 40 40 40 40 40 40 40 40 40 40 40 40 76 76 76 76 40 76 76 114 76 40 40 40 40 40 40 40 40 40 40 40 40 40 40 40 40 40 40 40 40 40 40 40 40 40 40 40 40 40 40 40 40 40 40 40 40 40 40 40 40 40 40 40 40 40 40 40 40 40 76 114 114 76 40 40 114 167 114 114 114 114 167 167 114 167 167 167 167 167 167 167 167 167 167 167 167 167 114 76 76 76 76 76 76 76 76 76 76 114 114 114 114 114 114 114 76 76 76 40 40 40 40 76 76 76 76 76 114 114 76 76 76 40 76 76 114 167 167 167 167 167 167 167 167 167 167 167 167 167 114 114 114 114 114 114 76 76 114 114 114 114 114 114 76 76 76 114 114 114 114 114 114 114 114 114 114 114 114 114 167 167 167 167 167 167 167 167 167 167 167 114 76 76 76 76 76 76 114 114 114 114 76 40 40 40 40 40 76 114 167 167 167 114 114 114 114 114 76 76 76 40 40 40 40 40 40 40 40 40 40 40 40 40 40 40 40 40 40 40 40 40 40 40 76 40 40 40 40 40 114 114 167 167 114 114 76 40 40 76 40 40 40 40 40 40 40 40 40 40 40 40 40 40 40 40 40 40 40 40 40 40 40 40 40 40 40 40 40 40 40 76 114 114 114 114 114 114 114 114 114 114 114 114 114 114 114 114 114 114 114 114 114 114 114 114 114 114 114 114 114 114 114 114 114 114 114 114 114 114 114 114 114 114 114 114 114 114 114 114 114 114 114 114 114 114 114 114 114 114 114 114 114 114 114 114 114 114 114 114 114 114 114 114 114 114 114 114 114 114 114 114 114 114 114 114 114 114 114 114 114 114 114 114 
114 167 114 167 167 114 167 167 114 114 167 167 167 167 167 167 167 167 114 114 114 114 114 114 114 114 114 114 76 76 76 76 76 40 76 40 40 40 40 40 76 76 76 76 76 76 76 76 76 76 76 76 76 76 76 76 76 76 76 76 76 76 76 76 76 76 76 114 76 76 40 40 40 40 40 40 40 40 40 40 40 76 167 114 76 114 167 167 114 114 167 167 167 167 167 167 114 114 76 40 40 40 40 40 40 40 40 40 40 40 40 40 40 40 76 40 40 40 40 40 40 40 40 40 40 40 40 40 40 40 40 40 40 40 40 40 40 76 40 76 76 76 76 76 40 40 76 114 76 40 40 40 40 40 40 40 40 40 40 40 40 40 40 40 40 40 40 40 40 40 40 40 40 40 40 40 40 40 40 40 40 40 40 40 40 40 40 40 40 40 40 40 40 40 40 40 40 40 114 114 76 76 76 114 167 167 114 114 114 114 167 167 114 167 167 167 167 167 167 167 167 167 167 167 167 114 76 76 76 114 114 76 76 114 114 76 114 114 114 114 114 114 114 114 114 76 76 76 76 76 76 76 76 114 114 114 114 114 114 114 114 114 114 114 167 167 167 167 167 167 167 167 167 167 167 167 167 114 114 114 114 114 114 114 114 76 76 114 114 114 114 76 76 76 76 114 114 114 114 114 114 114 114 114 114 114 114 114 167 167 167 167 167 167 167 167 167 167 167 114 76 76 76 40 76 76 76 76 76 114 114 76 76 76 114 114 114 114 167 114 114 114 114 114 114 76 76 76 76 76 40 40 40 40 40 40 40 40 40 40 40 40 40 40 40 40 40 40 40 40 40 40 76 40 40 40 40 40 114 114 167 167 114 114 76 40 40 40 40 40 76 40 40 40 40 40 40 40 40 40 40 40 40 40 40 40 40 40 40 40 40 40 40 40 40 40 40 40 76 76 114 114 114 114 114 114 114 114 114 114 114 114 114 114 114 114 114 114 114 114 114 114 114 114 114 114 114 114 114 114 114 114 114 114 114 114 114 114 114 114 114 114 114 114 114 114 114 114 114 114 114 114 114 114 114 114 114 114 114 114 114 114 114 114 114 114 114 114 114 114 114 114 114 114 114 114 114 114 114 114 114 114 114 114 114 114 114 114 114 114 114 114 
114 167 114 114 167 167 167 167 167 167 167 167 167 167 114 114 114 114 114 114 114 114 114 114 114 114 114 114 76 76 76 76 76 40 40 40 40 40 40 40 76 76 76 76 76 76 76 76 76 76 76 76 76 76 76 76 76 76 76 76 76 76 76 76 76 76 114 114 76 40 40 40 40 40 40 40 40 40 40 40 76 114 167 167 114 114 114 114 167 167 167 167 167 167 167 114 114 40 40 40 40 40 40 40 40 40 40 40 40 40 40 40 40 76 76 40 40 40 40 40 76 76 40 40 40 40 40 76 40 40 40 40 40 40 76 76 40 40 40 76 76 76 40 40 40 76 76 114 76 40 40 40 40 40 40 40 40 40 40 40 40 40 40 40 40 40 40 40 40 40 40 40 40 40 40 40 40 40 40 40 40 40 40 40 40 40 40 40 40 40 40 40 40 40 40 40 40 76 114 114 76 76 76 114 167 167 114 114 114 114 114 167 167 167 167 167 167 167 167 167 167 167 167 114 114 76 76 76 76 114 114 114 114 114 76 76 114 114 114 114 114 114 114 114 114 114 114 76 76 76 76 76 40 76 76 114 114 114 114 114 114 114 114 114 167 167 114 167 167 167 167 167 167 167 167 167 167 167 114 114 114 114 114 114 76 76 114 114 114 114 114 76 76 114 76 114 114 114 114 114 114 114 114 114 114 114 114 114 114 167 167 167 167 167 167 167 167 167 167 114 114 76 76 76 76 76 76 76 76 114 114 114 114 114 114 114 114 114 114 114 114 114 114 114 76 76 76 76 76 40 40 40 40 40 40 40 40 40 40 40 40 40 40 40 40 40 40 40 40 40 40 40 40 40 40 40 40 40 114 114 167 167 114 114 76 40 40 40 40 40 76 40 40 40 40 40 40 40 40 40 40 40 40 40 40 40 40 40 40 40 40 40 40 40 40 40 40 40 76 76 114 114 114 114 114 76 76 114 114 114 114 114 114 114 114 114 114 114 114 114 114 114 114 114 114 114 114 114 114 114 114 114 114 114 114 114 114 114 114 114 114 114 114 114 114 114 114 114 114 114 114 114 114 114 114 114 114 114 114 114 114 114 114 114 114 114 114 114 114 114 114 114 114 114 114 114 114 114 114 114 114 114 114 114 114 114 114 114 114 114 114 114 
114 167 114 114 167 167 167 167 167 167 167 167 167 167 167 167 167 167 167 114 114 114 114 114 114 114 114 114 76 76 76 76 76 76 40 40 40 40 40 76 40 76 76 76 76 76 76 76 76 76 76 76 76 76 76 76 76 76 76 76 76 76 76 76 76 40 40 40 40 40 40 40 40 76 40 40 40 76 76 114 114 167 167 167 114 76 114 167 167 167 167 167 167 167 114 76 40 40 40 40 40 40 40 40 40 40 40 40 40 40 40 40 76 76 76 76 76 40 40 40 40 40 40 40 40 40 76 40 40 76 76 76 76 40 40 76 40 40 40 76 76 76 76 40 40 76 76 114 76 76 40 40 40 40 40 40 40 40 40 40 40 40 40 40 40 40 40 40 40 40 40 40 40 40 40 40 40 40 40 40 40 40 40 40 40 40 40 40 40 40 40 40 40 40 40 40 40 114 114 76 40 76 114 167 167 167 114 114 114 114 167 167 167 167 167 167 167 167 167 167 167 167 114 76 76 40 76 114 114 114 76 114 114 114 114 114 114 114 114 114 114 114 114 114 114 114 114 114 114 76 76 76 76 40 40 76 76 114 114 114 114 114 114 114 114 114 167 167 114 167 167 167 167 167 167 167 167 167 167 114 114 114 114 114 76 114 114 114 114 114 114 114 114 76 76 76 76 114 114 114 114 114 114 114 114 114 114 114 114 167 167 167 167 167 167 167 167 167 167 114 114 114 114 114 76 114 76 76 76 114 114 114 114 114 114 114 114 114 114 114 114 76 76 76 76 76 76 40 40 40 40 40 40 40 40 40 40 40 40 40 40 40 40 40 40 40 40 40 40 40 40 40 40 40 40 40 40 40 114 114 114 167 114 114 76 40 40 40 40 40 76 40 40 40 40 40 40 40 40 40 40 40 40 40 40 40 40 40 40 40 40 40 40 40 40 40 40 76 76 76 114 114 114 114 114 114 114 114 114 114 114 114 114 114 114 114 114 114 114 114 114 114 114 114 114 114 114 114 114 114 114 114 114 114 114 114 114 114 114 114 114 114 114 114 114 114 114 114 114 114 114 114 114 114 114 114 114 114 114 114 114 114 114 114 114 114 114 114 114 114 114 114 114 114 114 114 114 114 114 114 114 114 114 114 114 114 114 114 114 114 114 76 
114 114 167 167 114 167 167 167 167 167 167 167 167 167 167 167 114 167 114 114 114 114 114 114 114 114 114 114 76 76 76 76 76 40 40 40 40 40 76 76 76 76 76 76 76 76 76 76 76 76 76 76 76 76 76 76 76 76 76 76 76 76 76 40 40 40 40 40 40 40 40 40 76 114 114 76 114 114 114 114 114 114 167 167 167 114 114 167 167 167 167 167 114 76 40 40 40 40 40 76 76 40 40 40 40 40 40 40 40 40 40 76 114 76 76 76 76 40 40 40 40 40 40 40 40 40 76 40 40 40 76 76 76 40 40 40 76 40 40 76 114 76 76 40 40 40 114 114 76 76 76 40 40 40 40 40 40 40 40 40 40 40 40 40 40 40 40 40 40 40 40 40 40 40 40 40 40 40 40 40 40 40 40 40 40 40 40 40 40 40 40 40 40 40 40 40 76 167 76 40 40 76 167 167 167 114 114 114 114 114 167 167 167 167 167 167 167 167 167 167 167 114 114 76 76 76 76 76 76 114 114 76 114 114 114 114 114 114 114 114 114 114 114 114 114 114 114 114 76 76 76 76 76 76 114 114 76 76 76 114 114 76 114 114 114 114 114 114 114 114 167 167 114 114 167 167 167 167 167 167 167 167 167 167 114 114 114 114 114 114 114 114 114 76 76 114 114 76 114 114 114 114 114 114 114 114 114 114 167 167 167 167 167 167 167 167 167 167 167 114 167 167 167 114 114 114 114 114 114 114 114 114 76 76 114 114 114 114 114 114 114 114 76 114 76 76 76 40 40 40 40 40 76 40 40 40 40 40 40 40 40 40 40 40 40 40 40 40 40 40 40 40 40 40 40 40 40 40 114 114 114 167 114 114 76 40 40 40 40 76 76 40 40 40 40 40 40 40 40 40 40 40 40 40 40 40 40 40 40 40 40 40 40 40 40 40 76 76 76 114 114 114 114 76 114 76 114 114 114 114 114 114 114 114 114 114 114 114 114 114 114 114 114 114 114 114 114 114 114 114 114 114 114 114 114 114 114 114 114 114 114 114 114 114 114 114 114 114 114 114 114 114 114 114 114 114 114 114 114 114 114 114 114 114 114 114 114 114 114 114 114 114 114 114 114 114 114 114 114 114 114 114 114 114 114 114 114 114 114 114 114 76 
114 167 114 167 114 167 167 167 167 167 167 167 167 167 167 167 167 167 114 114 114 114 114 114 114 114 114 114 76 76 76 76 76 40 76 40 76 40 76 76 76 76 76 76 76 76 76 76 76 76 76 76 76 76 76 76 76 76 76 76 114 114 76 40 40 40 40 40 40 40 40 40 40 76 114 114 114 114 114 114 114 114 114 167 167 114 167 167 167 114 114 76 40 40 40 40 40 40 40 40 76 40 40 40 40 40 40 40 76 76 76 114 114 76 76 76 40 40 40 40 40 40 40 40 40 76 76 40 40 40 40 76 40 76 40 40 76 76 40 40 114 114 76 40 40 76 114 114 76 76 76 40 40 40 40 40 40 40 40 40 40 40 40 40 40 40 40 40 40 40 40 40 40 40 40 40 40 40 40 40 40 40 40 40 40 40 40 40 40 40 40 40 40 40 40 76 114 114 76 76 76 114 167 167 167 114 114 167 114 167 167 167 167 167 167 167 167 167 167 167 114 114 76 76 76 76 76 114 114 114 114 114 114 114 114 114 114 114 114 114 114 114 114 114 114 114 114 114 114 114 114 114 114 114 114 76 76 76 76 76 76 76 76 76 76 114 114 114 76 76 114 114 114 76 114 114 114 114 114 114 167 114 167 167 114 114 114 114 114 76 114 114 114 114 114 114 114 114 114 114 114 114 114 114 114 114 114 114 114 114 167 167 167 167 167 167 167 167 167 114 114 114 114 114 114 114 114 114 114 114 114 114 76 76 76 76 76 76 76 76 76 40 40 40 40 40 40 40 40 40 40 40 76 76 76 40 40 40 40 40 40 40 40 40 40 40 40 40 40 40 40 40 40 40 40 40 40 40 114 114 114 167 114 114 114 76 40 40 40 76 76 40 40 40 40 40 40 40 40 40 40 40 40 40 40 40 40 40 40 40 40 40 40 40 40 40 76 76 76 114 114 114 114 114 114 76 114 114 114 114 114 114 114 114 114 114 114 114 114 114 114 114 114 114 114 114 114 114 114 114 114 114 114 114 114 114 114 114 114 114 114 114 114 114 114 114 114 114 114 114 114 114 114 114 114 114 114 114 114 114 114 114 114 114 114 114 114 114 114 114 114 114 114 114 114 114 114 114 114 114 114 114 114 114 114 114 114 114 114 114 114 114 
167 114 114 167 114 167 167 167 167 167 167 167 167 167 167 167 167 167 114 114 114 114 114 114 114 114 114 114 114 76 76 76 76 40 40 40 40 40 40 40 76 76 76 76 76 76 76 76 76 76 76 76 76 76 76 76 76 76 76 76 167 114 40 40 40 40 40 40 40 40 40 76 76 114 114 114 114 114 114 114 114 114 114 114 114 114 114 114 114 114 76 40 40 40 40 40 40 40 40 40 40 76 40 40 40 40 76 76 114 76 76 76 40 40 40 40 40 40 40 40 40 40 40 40 40 76 76 40 40 76 76 76 40 76 40 40 40 76 76 76 76 114 76 40 40 76 114 114 40 76 76 40 40 40 40 40 40 40 40 40 40 40 40 40 40 40 40 40 40 40 40 40 40 40 40 40 40 40 40 40 40 40 40 40 40 40 40 40 40 40 40 40 40 40 40 114 114 76 40 76 76 167 167 114 114 114 114 114 167 167 167 167 167 167 167 167 167 167 167 114 76 76 76 76 76 76 114 114 114 114 114 114 114 114 114 114 114 114 114 114 114 114 114 114 114 114 114 114 114 114 114 114 114 114 114 76 76 76 76 114 76 76 76 76 114 114 114 76 76 40 76 76 40 40 76 114 114 114 114 114 167 114 114 114 114 114 114 114 114 76 114 114 114 114 114 114 114 114 114 114 114 114 114 114 114 114 114 114 114 167 167 167 167 167 167 167 167 167 167 167 114 114 114 114 114 114 114 114 114 114 76 76 76 76 76 76 76 76 76 76 76 40 40 40 40 40 40 40 40 40 76 40 76 76 76 40 40 40 40 40 40 40 40 40 40 40 40 40 40 40 40 40 40 40 40 40 40 40 114 114 114 167 114 114 114 76 40 40 40 76 40 40 40 40 40 40 40 40 40 40 40 40 40 40 40 40 40 40 40 40 40 40 40 40 40 40 76 76 76 114 114 114 114 114 114 114 114 114 114 114 114 114 114 114 114 114 114 114 114 114 114 114 114 114 114 114 114 114 114 114 114 114 114 114 114 114 114 114 114 114 114 114 114 114 114 114 114 114 114 114 114 114 114 114 114 114 114 114 114 114 114 114 114 114 114 114 114 114 114 114 114 114 114 114 114 114 114 114 114 114 114 114 114 114 114 114 114 114 114 114 114 114 
114 114 114 167 114 167 167 114 167 167 167 167 167 167 167 167 167 167 114 114 167 114 114 114 114 114 114 114 114 76 76 76 76 76 76 76 76 40 76 76 76 76 76 76 76 76 76 76 76 76 76 76 76 76 76 76 76 76 76 76 167 76 40 40 40 40 40 40 40 40 40 76 167 167 114 114 114 76 76 114 114 114 76 76 76 114 167 167 114 76 40 40 40 40 40 40 40 40 40 40 40 76 76 40 76 76 76 76 76 76 40 40 40 40 40 40 40 40 40 40 40 40 40 40 40 76 76 40 40 40 76 76 76 40 40 40 40 40 76 76 76 114 76 76 76 76 114 114 40 40 76 76 40 40 76 40 40 40 40 40 40 40 40 40 40 40 40 40 40 40 40 40 40 40 40 40 40 40 40 40 40 40 40 40 40 40 40 40 40 40 40 40 40 40 76 114 114 76 76 76 114 167 167 114 114 114 114 114 167 167 167 167 167 167 167 167 167 167 114 114 76 76 76 76 76 114 114 114 114 114 114 114 114 114 114 114 114 114 114 114 114 114 114 114 114 114 114 114 114 114 114 114 114 114 114 76 76 76 114 114 76 76 76 114 114 114 114 114 76 76 114 114 114 76 76 114 114 114 114 114 114 114 114 114 114 114 114 114 76 76 76 114 114 114 114 114 114 114 114 114 114 114 114 114 114 114 114 114 114 167 167 167 167 167 167 167 167 167 167 167 114 114 114 114 114 114 114 76 114 114 76 76 76 76 76 76 76 76 76 76 76 76 40 40 76 40 40 40 76 76 76 40 40 76 76 40 40 40 40 40 40 40 40 40 40 40 40 40 40 40 40 40 40 40 40 40 40 40 114 114 114 167 167 114 114 76 76 40 40 40 40 40 40 40 40 40 40 40 40 40 40 40 40 40 40 40 40 40 40 40 40 40 40 40 40 76 76 114 114 114 114 114 114 114 114 114 114 114 114 114 114 114 114 114 114 114 114 114 114 114 114 114 114 114 114 114 114 114 114 114 114 114 114 114 114 114 114 114 114 114 114 114 114 114 114 114 114 114 114 114 114 114 114 114 114 114 114 114 114 114 114 114 114 114 114 114 114 114 114 114 114 114 114 114 114 114 114 114 114 114 114 114 114 76 114 114 76 114 114 114 114 114 
114 114 114 167 114 167 167 114 167 167 167 167 167 167 167 167 167 167 114 114 167 114 114 114 114 114 114 114 76 76 76 76 76 40 40 40 76 40 40 76 76 76 76 76 76 76 76 76 76 76 76 76 76 76 76 76 76 76 76 76 167 76 40 40 40 40 40 40 76 114 114 114 114 167 114 114 114 114 76 76 76 76 76 114 167 167 114 114 40 40 40 40 40 40 40 40 40 40 40 40 40 76 114 76 76 40 40 40 40 40 40 40 40 76 76 40 40 40 40 40 40 40 40 40 40 76 76 40 40 40 76 76 76 40 40 40 76 76 40 76 76 76 76 76 76 76 76 114 76 40 40 76 76 76 76 40 40 40 40 40 40 40 40 40 40 40 40 40 40 40 40 40 40 40 40 40 40 40 40 40 40 40 40 40 40 40 40 40 40 40 40 40 40 40 114 114 76 76 76 76 167 167 114 114 114 167 114 114 167 167 167 167 167 167 167 167 167 114 114 76 40 76 76 76 76 114 114 114 114 114 114 114 114 114 114 114 114 114 114 114 114 114 114 114 114 114 114 114 114 114 114 114 114 114 114 114 76 114 114 114 114 76 76 114 114 114 114 114 114 76 76 114 114 76 114 114 114 114 114 114 114 114 114 114 114 114 114 114 76 76 76 114 114 114 114 114 76 114 114 114 114 114 114 114 114 114 114 114 114 114 167 167 167 167 167 167 167 167 167 167 167 114 114 114 114 114 114 114 114 114 114 114 76 114 76 114 76 76 76 76 114 76 76 40 76 76 40 40 76 76 40 76 40 76 76 40 40 40 40 40 40 40 40 40 40 40 40 40 40 40 40 40 40 40 40 40 40 40 114 114 114 167 167 114 114 76 76 40 40 40 76 40 40 40 40 40 40 40 40 40 40 40 40 40 40 40 40 40 40 40 40 40 40 40 40 40 76 76 114 114 114 76 76 114 114 114 114 114 114 114 114 114 114 114 114 114 114 114 114 114 114 114 114 114 114 114 114 114 114 114 114 114 114 114 114 114 114 114 114 114 114 114 114 114 114 114 114 114 114 114 114 114 114 114 114 114 114 114 114 114 114 114 114 114 114 114 114 114 114 114 114 114 114 114 114 114 114 114 114 114 114 114 114 114 114 114 76 114 114 114 114 114 
114 167 114 114 114 167 167 167 167 167 167 167 167 167 167 167 167 167 167 114 114 114 114 114 114 114 114 114 76 76 76 76 76 76 40 40 76 40 76 76 76 76 76 76 76 76 76 76 76 76 76 76 76 76 76 76 76 76 76 76 114 114 40 40 40 40 40 76 114 114 114 114 114 167 114 114 76 76 76 76 76 76 76 114 114 114 76 40 40 40 40 40 40 40 40 40 40 40 40 40 40 40 76 114 114 76 40 40 40 40 40 40 76 76 40 40 40 40 40 40 40 40 40 40 40 40 76 40 40 40 76 76 76 76 40 40 40 40 76 76 76 76 76 76 76 76 76 76 40 40 40 76 114 76 40 40 40 40 40 40 40 40 40 40 40 40 40 40 40 40 40 40 40 40 40 40 40 40 40 40 40 40 40 40 40 40 40 40 40 40 40 40 40 114 114 114 76 76 76 114 167 114 114 114 114 167 114 114 167 167 167 167 167 167 167 167 167 114 76 40 40 76 76 76 76 114 114 114 114 114 114 114 114 114 114 114 114 114 114 114 114 114 114 114 114 114 114 114 114 114 114 114 114 114 114 114 114 114 114 114 114 114 114 114 114 114 114 114 114 76 114 114 114 114 114 114 114 114 114 114 114 114 114 114 114 114 114 114 114 76 114 114 114 114 114 114 114 114 114 114 114 114 114 114 114 114 114 114 114 167 167 167 167 167 167 167 167 167 167 167 167 114 114 114 114 114 114 114 114 114 114 114 76 114 114 114 114 76 114 76 76 114 76 76 76 76 40 40 76 76 76 76 76 76 76 76 40 40 40 40 40 40 40 40 40 40 40 40 40 40 40 40 40 40 40 40 40 40 114 114 114 167 167 114 114 76 76 40 40 40 76 40 40 40 40 40 40 40 40 40 40 40 40 76 40 40 40 40 40 40 40 40 40 40 40 76 114 114 114 114 114 114 114 114 114 114 114 114 114 114 114 114 114 114 114 114 114 114 114 114 114 114 114 114 114 114 114 114 114 114 114 114 114 114 114 114 114 114 114 114 114 114 114 114 114 114 114 114 114 114 114 114 114 114 114 114 114 114 114 114 114 114 114 114 114 114 114 114 114 114 114 114 114 114 114 114 114 114 114 114 114 114 114 114 114 114 76 114 114 114 114 114 
114 167 114 114 114 167 167 167 114 167 167 167 167 167 167 167 167 167 167 114 114 114 114 114 114 114 114 114 114 76 76 76 76 40 40 40 76 40 40 40 76 76 76 76 76 76 76 76 76 76 76 76 76 76 76 76 76 76 76 76 114 114 40 40 40 40 40 76 114 76 76 76 76 114 114 76 76 114 114 114 76 76 76 76 40 40 40 40 40 40 40 40 40 40 40 40 40 40 40 40 40 40 40 76 114 114 76 40 40 40 40 76 114 76 40 40 40 40 40 40 40 40 40 40 40 40 76 40 40 40 40 76 76 76 40 40 40 40 76 76 40 76 76 76 114 76 76 76 76 76 114 114 76 40 40 40 40 40 40 40 40 40 40 40 40 40 40 40 40 40 40 40 40 40 40 40 40 40 40 40 40 40 40 40 40 40 40 40 40 40 40 40 76 167 114 76 76 76 76 167 167 114 114 114 167 167 167 114 167 167 167 167 167 167 167 167 114 76 40 76 76 76 76 76 76 114 114 114 114 114 114 114 114 114 114 114 114 114 114 114 114 114 114 114 114 114 114 114 114 114 114 114 114 114 114 114 114 114 114 114 114 114 114 114 114 114 114 114 114 114 114 114 114 114 114 114 114 114 114 114 114 114 114 114 114 114 114 114 114 76 114 114 114 114 114 114 114 114 114 114 114 114 114 114 114 114 114 114 167 167 167 167 167 167 167 167 167 167 167 167 167 167 167 114 114 114 114 114 114 114 114 114 114 114 114 114 76 76 76 76 76 76 76 76 76 76 76 76 76 76 76 76 76 76 76 76 40 40 40 40 40 40 40 40 40 40 40 40 40 40 40 40 40 40 40 40 40 40 114 114 114 167 167 114 114 114 76 40 40 40 76 40 40 40 40 40 40 40 40 40 40 40 40 76 40 40 40 40 40 40 40 40 40 40 40 76 114 114 114 114 114 114 76 114 114 114 114 114 114 114 114 114 114 114 114 114 114 114 114 114 114 114 114 114 114 114 114 114 114 114 114 114 114 114 114 114 114 114 114 114 114 114 114 114 114 114 114 114 114 114 114 114 114 114 114 114 114 114 114 114 114 114 114 114 114 114 114 114 114 114 114 114 114 114 114 114 114 114 114 114 114 114 114 114 114 76 114 114 114 114 114 114 
114 167 114 114 167 167 114 114 167 167 167 167 167 167 167 167 167 167 167 167 114 114 114 114 114 114 114 114 114 76 76 76 76 40 40 40 76 40 76 76 40 76 76 76 76 76 76 76 76 76 76 76 76 76 76 76 76 76 76 76 76 167 114 76 76 114 114 76 76 114 76 76 76 76 114 114 114 114 76 76 40 40 40 40 40 40 40 40 40 40 40 40 40 40 40 40 40 40 40 40 40 40 40 40 114 114 114 114 40 40 76 114 76 76 76 76 76 76 40 40 40 40 40 40 40 40 76 40 40 40 40 76 76 76 76 40 40 40 76 76 40 40 76 76 114 114 76 114 76 114 76 76 40 40 40 40 40 40 40 40 40 40 40 40 40 40 40 40 40 40 40 40 40 40 40 40 40 40 40 40 40 40 40 40 40 40 40 40 40 40 40 40 114 114 114 76 76 76 114 167 167 114 114 114 167 167 167 167 167 167 167 167 167 167 167 114 76 40 76 76 76 76 76 76 76 114 114 114 114 114 114 114 114 114 114 114 114 114 114 114 114 114 114 114 114 114 114 114 114 114 114 114 114 114 114 114 114 114 114 114 114 114 114 114 114 114 114 114 114 114 114 114 114 114 114 114 114 114 114 114 114 114 114 114 114 114 114 114 114 114 114 114 114 114 114 114 114 114 114 114 114 114 114 114 114 114 114 114 114 167 167 167 167 167 167 167 167 167 167 167 167 167 167 114 114 114 114 114 114 114 114 114 114 114 114 114 114 114 114 114 76 76 76 76 76 76 76 76 76 76 76 76 76 76 76 40 40 40 40 40 40 40 40 40 40 40 40 40 40 40 40 40 40 40 40 40 40 40 76 114 114 167 167 114 76 114 76 40 40 40 76 40 40 40 40 40 40 40 40 40 40 40 40 40 40 40 40 40 40 40 40 40 40 40 40 76 114 114 114 114 114 114 114 114 114 114 114 114 114 114 114 114 114 114 114 114 114 114 114 114 114 114 114 114 114 114 114 114 114 114 114 114 114 114 114 114 114 114 114 114 114 114 114 114 114 114 114 114 114 114 114 114 114 114 114 114 114 114 114 114 114 114 114 114 114 114 114 114 114 114 114 114 114 114 114 114 114 114 114 114 114 114 114 114 114 76 114 114 114 114 114 167 
114 114 114 114 114 114 167 167 167 167 167 167 167 167 167 167 167 167 167 167 167 114 114 114 114 114 114 114 114 76 76 76 76 40 76 76 40 40 40 76 76 40 76 76 76 76 76 76 76 76 76 76 76 76 76 76 76 76 76 76 76 114 167 114 114 114 167 114 114 114 114 114 114 167 114 114 76 40 40 40 40 40 40 40 40 40 40 76 40 40 40 40 40 40 40 40 40 40 40 40 40 40 40 40 40 76 114 114 114 114 114 114 76 114 76 76 114 76 76 40 40 40 40 40 40 40 76 76 40 40 40 40 76 76 76 40 40 40 76 76 40 40 76 76 76 76 76 76 114 76 76 76 40 40 40 40 40 40 40 40 40 40 40 40 40 40 40 40 40 40 40 40 40 40 40 40 40 40 40 40 40 40 40 40 40 40 40 40 40 40 40 114 114 114 76 76 76 114 167 167 167 114 114 167 167 167 167 167 167 167 167 167 167 167 114 76 40 76 76 76 76 76 76 76 114 76 114 114 114 114 114 114 114 114 114 114 114 114 114 114 114 114 114 114 114 114 114 114 114 114 114 114 114 114 114 114 114 114 114 114 114 114 114 114 114 114 114 114 114 114 114 114 114 114 167 114 114 114 114 114 114 114 114 114 114 114 114 114 114 114 114 114 114 114 114 114 114 114 114 114 114 114 114 114 114 114 114 114 114 114 167 167 167 167 167 167 167 167 167 167 167 167 167 167 114 114 114 114 114 114 114 114 114 114 114 114 114 114 114 114 76 76 76 76 76 76 76 76 76 76 76 76 76 76 40 76 40 40 40 40 40 40 40 40 40 40 40 40 40 40 40 40 40 40 40 40 40 40 76 114 114 114 167 114 76 114 76 40 40 40 40 40 40 40 40 40 40 40 40 40 40 40 40 40 40 40 40 40 40 40 40 40 40 40 76 76 114 114 114 114 114 114 114 76 114 114 114 114 114 114 114 114 114 114 114 114 114 114 114 114 114 114 114 114 114 114 114 114 114 114 114 114 114 114 114 114 114 114 114 114 114 114 114 114 114 114 114 114 114 114 114 114 114 114 114 114 114 114 114 114 114 114 114 114 114 114 114 114 114 114 114 114 114 114 114 114 114 114 114 114 114 114 76 114 76 76 114 114 114 114 114 167 
167 167 167 167 167 167 167 167 167 167 167 167 167 167 167 167 167 167 167 114 167 114 114 114 114 114 114 114 114 76 76 76 76 40 40 40 40 40 40 76 76 76 76 76 76 76 76 76 76 76 76 76 76 76 76 76 76 76 76 76 76 76 167 114 76 76 114 114 167 167 114 114 114 114 76 76 76 40 40 40 40 40 40 40 40 40 76 76 40 40 40 40 40 40 40 40 40 40 40 40 40 40 40 40 40 40 76 114 114 114 114 76 76 76 76 76 76 76 40 40 40 40 40 40 40 40 76 76 40 40 40 40 76 114 76 76 76 76 76 40 40 40 40 76 76 76 76 76 114 76 76 76 76 76 40 40 40 40 40 40 40 40 40 40 40 40 40 40 40 40 40 40 40 40 40 40 40 40 40 40 40 40 40 40 40 40 40 40 40 40 40 114 114 76 76 76 76 114 167 167 167 167 167 167 114 167 167 167 167 167 167 167 167 114 76 40 40 76 76 76 76 76 76 114 114 114 114 114 114 114 114 114 114 114 114 114 114 114 114 114 114 114 114 114 114 114 114 114 114 114 114 114 114 114 114 114 114 114 114 114 114 114 114 114 114 114 114 114 114 114 114 114 114 114 114 114 114 167 114 114 114 114 114 114 114 114 114 114 114 114 114 114 114 114 114 114 114 114 114 114 114 114 114 114 114 114 114 114 114 114 167 167 167 167 167 167 167 167 167 167 167 167 167 167 167 114 114 114 114 114 114 114 114 114 114 114 114 114 114 114 114 114 114 114 76 76 76 76 76 76 76 76 76 76 76 76 40 40 40 40 40 40 40 40 40 40 40 40 40 40 40 40 40 40 40 40 40 40 76 114 114 114 167 114 76 114 76 40 40 40 40 76 40 40 40 40 40 40 40 40 40 40 40 40 40 40 40 40 40 40 40 40 40 40 76 76 114 114 114 76 114 114 114 76 114 114 114 114 114 114 114 114 114 114 114 114 114 114 114 114 114 114 114 114 114 114 114 114 114 114 114 114 114 114 114 114 114 114 114 114 114 114 114 114 114 114 114 114 114 114 114 114 114 114 114 114 114 114 114 114 114 114 114 114 114 114 114 114 114 114 114 114 114 114 114 114 114 114 114 114 76 114 114 76 114 114 114 114 114 114 167 167 
114 114 114 114 114 167 167 114 167 167 167 167 167 167 167 167 167 167 167 167 114 114 114 114 114 114 114 114 114 76 76 76 76 76 40 40 40 40 40 76 76 76 76 76 76 76 76 76 76 76 76 76 76 76 76 76 76 76 76 76 76 76 114 167 114 114 114 114 114 114 114 114 114 76 76 76 40 40 40 40 40 40 40 40 40 76 40 40 40 40 40 40 40 40 40 40 40 40 40 40 40 40 40 40 40 40 76 76 76 76 76 76 76 40 76 76 76 40 40 40 40 40 40 40 40 40 40 76 40 40 40 40 40 76 114 114 76 76 40 40 40 76 40 40 76 76 40 76 114 76 40 40 40 76 40 40 40 40 40 40 40 40 40 40 40 40 40 40 40 40 40 40 40 40 40 40 40 40 40 40 40 40 40 40 40 40 40 40 40 40 114 114 114 76 76 76 114 114 114 114 167 167 167 167 167 167 167 167 167 167 167 167 114 76 40 76 76 76 76 76 76 76 76 114 76 114 114 114 114 114 114 114 114 114 114 114 114 114 114 114 114 114 114 114 114 114 114 114 114 114 114 114 114 167 114 114 114 114 114 114 114 114 114 114 114 114 167 167 114 114 167 167 167 114 114 114 167 167 114 114 167 114 114 114 114 114 114 114 114 114 114 114 114 114 114 114 114 114 114 114 114 114 114 114 114 114 114 114 114 114 167 167 167 167 167 167 167 167 167 167 167 167 167 167 167 114 114 114 114 114 114 114 114 114 114 114 114 114 114 114 114 114 114 114 76 76 76 76 76 76 76 76 76 76 76 76 40 40 40 40 40 40 40 40 40 40 40 40 40 40 40 40 40 40 40 40 40 40 76 114 114 114 167 114 114 114 76 40 40 40 40 76 40 40 40 40 40 40 40 40 40 40 40 40 40 40 40 40 40 40 40 40 40 40 76 76 114 114 114 114 114 114 114 114 114 114 114 114 114 114 114 114 114 114 114 114 114 114 114 114 114 114 114 114 114 114 114 114 114 114 114 114 114 114 114 114 114 114 114 114 114 114 114 114 114 114 114 114 114 114 114 114 114 114 114 114 114 114 114 114 114 114 114 114 114 114 114 114 114 114 114 114 114 114 114 114 114 114 114 114 76 114 114 76 114 114 114 114 114 167 167 167 
114 167 167 114 114 167 167 114 167 167 167 167 167 167 167 167 167 167 167 114 167 114 114 114 114 114 114 114 114 76 76 76 76 76 76 40 40 40 76 76 76 76 76 76 76 76 76 76 76 76 76 76 76 76 76 76 76 76 114 76 76 76 76 114 114 114 114 114 114 114 76 76 40 76 76 76 76 40 40 40 40 40 40 40 76 76 40 40 40 40 40 40 40 40 40 40 76 40 40 40 40 40 40 40 40 40 76 40 40 76 76 76 76 76 76 40 40 40 40 40 40 40 40 40 40 40 40 40 40 76 40 40 40 40 76 114 114 76 76 40 40 76 76 76 76 76 40 76 76 76 40 40 40 40 40 40 40 40 40 40 40 40 40 40 40 40 40 40 40 40 40 40 40 40 40 40 40 40 40 40 40 40 40 40 40 40 40 40 40 76 114 114 76 76 76 76 114 167 167 167 167 167 167 167 167 167 167 167 167 167 167 114 76 40 40 76 76 76 76 76 76 76 76 114 114 114 114 114 114 114 114 114 114 114 114 114 114 114 114 114 114 114 114 114 167 114 114 114 114 114 114 167 167 167 167 167 114 114 114 167 114 114 114 114 167 167 167 167 167 114 167 167 114 114 114 114 167 167 114 114 167 114 114 114 114 114 114 114 114 114 114 114 114 114 114 114 114 114 114 114 114 114 114 114 114 114 114 114 114 114 167 167 167 167 167 167 167 167 167 167 167 167 167 167 167 167 114 114 114 114 114 114 114 114 114 114 114 114 114 114 114 114 76 76 76 76 76 76 76 76 76 76 76 76 76 76 40 40 40 40 40 40 40 40 40 40 40 40 40 40 40 40 40 40 40 40 40 40 40 114 114 114 167 114 114 114 76 40 40 40 40 40 40 40 40 40 40 40 40 40 40 40 40 40 40 40 40 40 40 40 40 40 40 76 76 114 114 114 114 76 114 76 114 114 114 114 114 114 114 114 114 114 114 114 114 114 114 114 114 114 114 114 114 114 114 114 114 114 114 114 114 114 114 114 114 114 114 114 114 114 114 114 114 114 114 114 114 114 114 114 114 114 114 114 114 114 114 114 114 114 114 114 114 114 114 114 114 114 114 114 114 114 114 114 114 114 114 114 114 114 114 114 114 114 114 114 114 114 114 114 167 167 
114 167 167 167 114 167 167 167 167 167 167 167 167 167 167 167 167 167 167 167 114 114 114 114 114 114 114 114 114 76 76 76 76 40 40 40 40 40 76 76 40 76 76 76 76 76 76 76 76 76 76 76 76 76 76 76 76 76 114 76 76 76 76 76 76 114 114 114 76 76 76 76 76 76 76 76 40 40 40 40 40 40 40 76 76 40 40 40 40 40 40 40 40 40 40 40 76 40 40 40 40 40 40 40 76 76 76 40 40 40 40 40 40 40 76 40 40 40 40 40 40 40 40 40 40 40 40 40 40 40 40 40 40 40 40 76 114 114 114 76 114 76 76 76 40 40 40 76 40 40 40 76 76 76 40 40 40 40 40 40 40 40 40 40 40 40 40 40 40 40 40 40 40 40 40 40 40 40 40 40 40 40 40 40 40 40 40 40 40 114 114 76 76 76 76 114 114 114 114 114 167 167 167 167 167 167 167 167 167 167 114 76 40 40 76 76 76 76 76 76 76 76 76 114 114 114 114 114 114 114 114 114 114 114 114 114 114 114 114 114 114 114 114 167 167 167 114 114 114 114 114 167 167 167 167 167 167 114 114 114 167 114 114 114 167 114 167 167 167 114 114 114 167 114 114 114 167 114 114 114 114 114 114 114 114 114 114 114 114 114 114 114 114 114 114 114 114 114 114 114 114 114 114 114 114 114 114 114 114 114 167 167 167 167 167 167 167 167 167 167 167 167 167 114 167 167 114 114 114 114 114 114 114 114 114 114 114 114 114 114 114 114 114 76 114 76 76 76 76 76 76 76 76 76 76 76 76 40 40 40 40 40 40 40 40 40 40 40 40 40 40 40 40 40 40 76 40 40 76 114 114 114 167 114 114 114 76 40 40 40 40 40 40 40 40 40 40 40 40 40 40 40 40 40 40 40 40 40 40 40 40 40 40 76 76 76 114 114 114 114 114 114 114 114 114 114 114 114 114 114 114 114 114 114 114 114 114 114 114 114 114 114 114 114 114 114 114 114 114 114 114 114 114 114 114 114 114 114 114 114 114 114 114 114 114 114 114 114 114 114 114 114 114 114 114 114 114 114 114 114 114 114 114 114 114 114 114 114 114 114 114 114 114 114 114 114 114 114 114 114 114 114 114 114 114 114 114 167 167 167 167 167 
114 114 167 114 114 114 167 167 167 167 167 167 167 167 167 167 167 114 167 114 114 114 114 114 114 114 114 114 114 76 76 76 76 76 76 40 40 40 40 76 40 76 76 76 76 76 76 76 76 76 76 76 76 76 76 76 76 76 76 76 76 76 76 76 76 76 114 76 76 76 40 76 76 76 76 40 40 40 40 40 40 76 76 76 40 40 40 40 40 40 40 40 40 40 40 40 40 40 40 40 40 76 76 76 76 76 76 76 40 40 40 40 40 40 76 40 40 40 40 40 40 40 40 40 40 40 40 40 40 76 76 40 40 40 40 40 76 114 114 114 114 76 76 76 40 40 40 76 40 40 76 114 76 76 40 40 40 40 40 40 40 40 40 40 40 40 40 40 40 40 40 40 40 40 40 40 40 40 40 40 40 40 40 40 40 40 40 40 76 114 114 76 40 76 76 114 167 114 114 167 167 167 167 167 167 167 167 167 167 167 76 40 40 40 76 76 76 76 76 76 76 76 114 114 114 76 114 114 114 114 114 114 114 114 114 114 114 114 114 114 114 114 114 167 167 167 167 167 114 114 167 167 167 167 167 167 167 167 114 114 114 114 114 114 167 114 167 167 167 114 114 114 114 114 114 114 167 114 114 114 114 114 114 114 114 114 114 114 114 114 114 114 114 114 114 114 114 114 114 114 114 114 114 114 114 114 114 114 114 114 167 167 167 167 167 167 167 167 167 167 167 167 167 167 167 167 114 114 114 114 114 114 114 114 114 114 114 114 114 114 114 114 114 114 114 76 76 76 76 76 76 76 76 76 40 76 76 40 40 40 40 40 40 40 40 40 40 40 40 40 40 40 76 40 40 40 40 40 40 114 114 114 167 114 114 114 76 40 40 40 40 76 40 40 40 40 40 40 40 40 40 40 40 40 40 40 40 40 40 40 40 40 40 76 76 76 114 114 114 76 114 76 114 114 114 114 114 114 114 114 114 114 114 114 114 114 114 114 114 114 114 114 114 114 114 114 114 114 114 114 114 114 114 114 114 114 114 114 114 114 114 114 114 114 114 114 114 114 114 114 114 114 114 114 114 114 114 114 114 114 114 114 114 114 114 114 114 114 114 114 114 114 114 114 114 114 114 114 76 76 114 114 114 114 114 167 167 167 167 167 167 167 
114 114 114 167 167 167 167 167 167 167 167 167 167 167 167 167 167 167 167 167 114 114 114 114 114 114 114 114 114 76 76 76 76 76 76 40 40 76 40 76 76 76 76 76 76 76 76 76 76 76 76 76 76 76 76 76 76 76 76 76 76 76 76 76 114 76 76 76 76 76 76 76 76 76 40 40 40 40 40 76 76 76 76 40 40 40 40 40 40 40 40 40 40 40 40 76 76 40 40 40 76 76 76 76 40 76 76 76 40 40 40 40 40 76 76 40 40 40 40 40 40 40 40 40 40 40 40 40 40 76 76 40 40 40 40 40 40 76 76 114 114 76 40 40 40 40 40 76 40 76 114 114 76 40 40 40 40 40 40 40 40 40 40 40 40 40 40 40 40 40 40 40 40 40 40 40 40 40 40 40 40 40 40 40 40 40 40 40 114 114 114 76 76 76 114 167 167 114 167 167 167 167 167 167 167 167 167 167 167 114 40 40 40 40 40 76 76 76 76 76 76 114 114 114 114 114 114 114 114 114 114 114 114 114 114 114 114 114 114 114 114 114 114 114 167 167 167 167 167 114 167 167 167 167 167 167 167 167 114 114 114 114 167 114 167 114 167 167 114 167 114 114 167 167 114 167 167 114 114 114 114 114 114 114 114 114 114 114 114 114 114 114 114 114 114 114 114 114 114 114 114 114 114 114 114 114 114 114 114 114 167 167 167 167 167 167 167 167 167 167 167 167 167 167 167 167 114 114 114 114 114 114 114 114 114 114 114 114 114 114 114 114 114 76 114 76 114 76 76 76 76 76 76 76 76 76 76 40 40 40 40 40 40 40 40 40 40 40 40 40 40 40 40 40 40 40 40 40 40 114 114 114 114 114 114 114 76 40 40 40 40 40 40 40 40 40 40 40 40 40 40 40 40 40 40 40 40 40 40 40 40 40 76 76 114 114 114 114 114 76 114 76 114 114 114 114 114 114 114 114 114 114 114 114 114 114 114 114 114 114 114 114 114 114 114 114 114 114 114 114 114 114 114 114 114 114 114 114 114 114 114 114 114 114 114 114 114 114 114 114 114 114 114 114 114 114 114 114 114 114 114 114 114 114 114 114 114 114 114 114 114 114 114 114 114 114 114 114 114 76 114 114 114 114 114 167 167 167 167 167 167 167 
114 114 114 114 167 167 114 114 167 167 114 167 167 167 167 114 167 167 167 167 114 114 114 114 114 114 114 114 114 76 76 76 76 40 40 40 76 76 76 40 76 76 76 76 76 76 76 76 76 76 76 76 76 76 76 76 76 76 76 76 76 76 76 76 76 76 76 76 76 76 76 114 76 40 40 76 114 114 114 114 114 76 40 40 40 40 40 40 40 40 40 40 40 40 40 76 40 40 40 40 76 76 76 76 40 76 76 40 40 40 40 40 76 76 76 40 40 40 40 40 40 40 40 40 40 40 76 76 76 76 114 40 40 40 40 40 40 40 40 40 76 76 76 40 40 40 40 76 76 114 114 40 40 40 40 40 40 40 40 40 40 40 40 40 40 40 40 40 40 40 40 40 40 40 40 40 40 40 40 40 40 40 40 40 40 40 40 114 114 114 76 76 76 76 114 167 114 114 167 167 167 167 167 167 167 167 167 167 114 76 40 40 40 76 76 76 76 76 114 76 76 114 114 114 114 114 114 114 114 114 114 114 114 114 114 114 114 114 114 114 114 114 114 114 114 167 114 114 167 114 167 167 167 167 167 167 114 167 167 167 167 167 167 167 167 114 167 167 114 167 114 167 167 167 167 167 167 167 167 167 114 114 114 114 114 114 114 114 114 114 114 114 114 114 114 114 114 114 114 114 114 114 114 114 114 114 114 114 114 114 114 167 167 167 167 167 167 167 167 167 167 167 167 167 114 167 167 167 114 114 114 114 114 114 114 114 114 114 114 114 114 114 114 114 76 76 114 76 76 76 76 76 76 76 76 76 76 40 40 40 40 40 40 40 40 40 40 40 40 40 40 40 76 40 40 40 40 40 40 114 114 114 114 114 114 114 76 40 40 40 40 40 40 40 40 40 40 40 40 40 40 40 40 40 40 40 40 40 40 40 40 40 76 76 76 114 114 114 114 76 76 114 114 114 114 114 114 114 114 114 114 114 114 114 114 114 114 114 114 114 114 114 114 114 114 114 114 114 114 114 114 114 114 114 114 114 114 114 114 114 114 114 114 114 114 114 114 114 114 114 114 114 114 114 114 114 114 114 114 114 114 114 114 114 114 114 114 114 76 114 114 114 114 114 114 114 114 114 114 114 114 114 114 114 114 167 167 167 167 167 167 167 
114 114 114 114 114 114 167 167 167 167 167 114 167 167 167 167 167 167 167 114 114 114 114 114 114 114 114 114 114 76 76 76 76 76 76 40 40 40 76 76 76 76 76 76 76 76 76 76 76 76 76 76 76 76 76 76 76 76 76 76 76 76 114 76 76 40 76 76 114 167 167 114 76 76 114 114 114 114 114 114 114 76 76 40 40 40 40 40 40 40 40 40 40 40 40 76 76 40 40 40 76 76 76 40 76 76 76 40 40 40 76 76 76 76 40 40 40 40 40 40 40 40 40 40 40 40 40 40 76 76 114 76 40 40 76 76 40 40 40 40 40 76 114 114 76 76 76 114 114 114 76 40 40 40 40 40 40 40 40 40 40 40 40 40 40 40 40 40 40 40 40 40 40 40 40 40 40 40 40 40 40 40 40 40 40 40 76 114 114 76 76 76 76 76 167 167 114 167 167 167 167 114 167 167 167 167 167 114 76 40 40 40 40 76 76 76 76 76 76 76 76 76 114 114 114 114 114 114 114 114 114 114 114 114 114 114 114 114 114 114 114 114 114 114 114 114 167 167 167 167 167 167 167 167 167 114 114 114 167 167 167 167 167 167 167 167 167 167 114 114 114 167 167 167 167 167 167 167 167 114 114 114 114 114 114 114 114 114 114 114 114 114 114 114 114 114 114 114 114 114 114 114 114 114 114 114 114 114 114 114 114 167 167 167 167 167 167 167 167 167 167 167 167 114 114 167 114 114 114 114 114 114 114 114 114 114 114 114 114 114 114 114 114 114 114 114 114 114 76 114 76 76 76 76 76 76 76 40 40 40 40 40 40 40 40 40 40 40 40 40 40 40 40 40 40 40 40 40 40 114 114 114 114 114 114 114 114 76 40 40 40 40 40 40 40 40 40 40 40 40 40 40 40 40 40 40 40 40 40 40 40 40 76 76 114 114 114 114 114 114 114 114 114 114 114 114 114 114 114 114 114 114 114 114 114 114 114 114 114 114 114 114 114 114 114 114 114 114 114 114 114 114 114 114 114 114 114 114 114 114 114 114 114 114 114 114 114 114 114 114 114 114 114 114 114 114 114 114 114 114 114 114 114 114 114 114 114 114 114 114 114 114 114 114 114 114 114 114 114 114 114 114 114 114 114 167 167 167 167 167 167 167 
114 114 114 114 114 167 167 167 167 114 167 167 167 167 167 167 167 167 167 167 114 114 114 114 114 114 114 114 114 76 76 76 40 76 76 40 40 40 40 40 76 76 76 76 76 76 76 76 76 76 76 76 76 76 76 76 76 76 76 76 76 76 114 76 76 76 114 114 114 167 167 114 114 114 114 114 114 114 76 76 76 40 40 40 40 40 40 40 40 40 40 40 40 40 40 76 76 40 40 40 76 76 76 76 76 40 76 40 40 76 76 76 76 40 40 40 40 40 40 40 40 40 40 40 40 40 40 40 40 40 76 114 76 76 76 76 76 76 40 40 76 40 40 114 114 114 114 114 114 76 40 40 40 76 76 76 40 40 40 40 40 40 40 40 40 40 40 40 40 40 40 40 40 40 40 40 40 40 40 40 40 40 40 40 40 40 114 114 114 76 76 76 76 114 167 167 114 167 167 167 167 167 167 167 167 167 114 76 40 40 40 40 40 76 76 76 76 76 76 76 114 114 114 114 114 114 114 114 114 114 114 114 114 114 114 114 114 114 114 114 114 114 114 114 114 167 167 167 167 167 167 167 167 167 167 167 114 114 167 167 167 167 167 167 167 167 167 167 167 114 114 167 167 167 167 167 167 167 114 114 114 114 114 114 114 114 114 114 114 114 114 114 114 114 114 114 114 114 114 114 114 114 114 114 114 114 114 114 114 114 114 167 167 167 167 167 167 167 167 167 167 167 167 167 167 114 114 114 114 114 114 114 114 114 114 114 114 114 114 114 114 114 114 76 114 114 76 114 76 114 76 76 76 76 76 76 40 40 40 40 40 40 40 40 40 40 40 40 40 40 40 40 40 40 40 40 40 40 40 114 114 114 167 114 114 114 114 76 40 40 40 40 40 40 40 40 40 40 40 40 40 40 40 40 40 40 40 40 40 40 40 76 76 76 114 114 114 114 114 76 114 114 114 114 114 114 114 114 114 114 114 114 114 114 114 114 114 114 114 114 114 114 114 114 114 114 114 114 114 114 114 114 114 114 114 114 114 114 114 114 114 114 114 114 114 114 114 114 114 114 114 114 114 114 114 114 114 114 114 114 114 114 114 114 114 114 114 114 114 114 114 114 114 114 114 114 114 114 114 114 114 114 167 167 167 167 167 167 167 167 167 167 
114 114 114 114 167 167 167 167 167 167 167 167 167 167 167 167 167 167 167 114 167 114 114 114 114 114 114 114 114 76 76 76 76 76 76 40 76 40 76 76 76 76 76 76 76 76 76 76 76 76 76 76 76 76 76 76 114 114 114 114 114 114 114 114 114 114 167 114 114 114 114 114 114 114 76 76 76 76 40 40 40 40 40 40 40 40 40 40 40 40 40 40 40 40 76 76 40 40 40 40 76 76 76 76 76 40 76 76 76 76 76 40 40 40 40 40 40 40 40 40 40 40 40 40 40 40 40 40 40 40 40 40 76 76 76 76 76 76 76 76 40 40 40 40 76 114 114 76 76 40 40 40 76 76 76 76 76 40 40 40 76 40 40 40 40 40 40 40 40 40 40 40 40 40 40 40 40 40 40 40 40 40 40 40 40 76 114 114 76 76 76 76 114 167 167 114 167 167 167 167 167 167 167 167 167 167 76 40 40 40 40 40 40 76 76 76 76 76 76 76 114 114 114 114 114 114 114 114 114 114 114 114 114 114 114 114 114 114 114 114 114 114 114 114 114 167 167 167 167 167 167 167 167 167 167 167 167 167 114 114 167 167 167 167 167 167 167 167 167 167 167 167 167 167 167 167 167 114 114 114 167 114 114 114 114 114 114 114 114 114 114 114 114 114 114 114 114 114 114 114 114 114 114 114 114 114 114 114 114 114 114 167 167 167 167 167 167 167 167 167 167 167 167 167 167 114 114 114 114 114 114 114 114 114 114 114 114 114 114 114 114 114 114 114 114 114 76 114 76 114 76 76 76 76 76 76 40 40 40 40 40 40 40 40 40 40 40 40 40 40 40 40 40 40 40 40 40 40 40 76 114 114 114 114 114 114 114 76 40 40 40 40 40 40 40 40 40 40 40 40 40 40 40 40 40 40 40 40 40 40 40 76 76 76 114 114 114 114 114 114 114 114 114 114 114 114 114 114 114 114 114 114 114 114 114 114 114 114 114 114 114 114 114 114 114 114 114 114 114 114 114 114 114 114 114 114 114 114 114 114 114 114 114 114 114 114 114 114 114 114 114 114 114 114 114 114 114 114 114 114 114 114 114 114 114 114 114 114 114 114 114 114 114 114 76 114 114 114 114 114 114 114 167 167 167 167 167 167 167 167 167 167 
114 114 114 114 167 167 167 114 167 167 167 167 167 167 167 167 167 167 167 114 114 114 114 114 114 114 114 114 114 76 76 76 76 40 40 40 76 76 76 76 76 76 76 76 76 76 76 76 76 76 76 76 76 114 114 114 114 114 114 114 167 114 114 114 114 114 114 114 114 114 114 76 40 40 40 40 40 40 40 40 40 40 40 40 40 40 40 40 40 40 40 40 40 40 76 76 40 40 40 76 76 76 76 40 40 40 76 76 76 76 76 76 40 40 40 40 40 40 40 40 40 40 40 40 40 40 40 40 40 40 76 40 40 40 40 76 76 76 114 114 114 114 76 40 40 40 40 40 40 40 40 40 76 114 114 76 76 76 40 40 40 40 40 40 40 40 40 40 40 40 40 40 40 40 40 40 40 40 40 40 40 40 40 40 40 114 114 114 76 76 76 76 114 167 167 114 167 167 167 167 167 167 167 167 167 114 76 40 40 40 40 40 76 76 76 76 76 76 114 76 76 114 114 114 114 114 114 114 114 114 114 114 114 114 114 114 114 114 114 114 114 114 114 167 167 167 114 114 167 167 167 167 167 167 167 167 167 167 167 167 167 167 167 167 167 167 167 167 167 167 167 167 167 167 167 167 167 167 167 114 114 114 114 114 114 114 114 114 114 114 114 114 114 114 114 114 114 114 114 114 114 114 114 114 114 114 114 114 114 114 114 167 167 167 167 167 167 167 167 167 167 167 167 167 167 114 114 114 114 114 114 114 114 114 114 114 114 114 114 114 114 114 114 114 114 114 76 114 76 114 76 76 76 76 76 76 40 40 40 40 40 40 40 40 40 40 40 40 40 40 40 40 40 40 40 40 40 40 40 114 114 114 114 114 114 114 114 114 40 40 40 40 40 40 40 40 40 40 40 40 40 40 40 40 40 40 40 40 40 40 40 76 76 114 114 114 114 114 114 114 114 114 114 114 114 114 114 114 114 114 114 114 114 114 114 114 114 114 114 114 114 114 114 114 114 114 114 114 114 114 114 114 114 114 114 114 114 114 114 114 114 114 114 114 114 114 114 114 114 114 114 114 114 114 114 114 114 114 114 114 114 114 114 114 114 114 114 114 114 114 114 114 114 114 76 114 114 114 114 114 114 167 167 167 167 167 167 167 167 167 167 167 
114 114 114 167 167 167 167 167 167 167 167 167 114 167 167 167 167 167 167 167 114 114 114 114 114 114 114 114 114 114 76 76 76 40 40 40 76 40 40 76 40 76 76 76 76 76 76 76 76 76 76 114 114 114 114 114 114 114 114 114 114 114 76 114 76 76 114 114 114 114 76 40 40 40 40 40 40 40 40 40 40 40 40 40 40 40 40 40 40 40 40 40 40 40 76 40 76 40 40 76 76 76 40 40 76 76 76 76 76 76 40 76 40 40 40 40 40 40 40 40 40 40 40 40 40 40 40 40 40 40 40 76 40 40 40 40 76 76 76 76 114 114 76 76 40 40 40 40 40 40 40 40 76 114 114 76 76 76 76 76 40 40 40 40 40 40 40 40 40 40 40 40 40 40 40 40 40 40 40 40 40 40 40 40 40 114 114 76 76 76 76 76 114 114 114 167 167 167 167 167 167 167 167 167 114 76 40 40 40 40 40 40 76 76 76 76 76 76 76 114 114 76 114 114 114 114 114 114 114 114 114 114 114 114 114 114 114 114 114 114 114 114 114 167 167 114 114 114 167 167 167 167 167 167 167 167 167 167 167 167 167 167 167 167 167 167 167 167 167 167 167 167 167 167 167 167 167 114 114 114 114 114 114 114 114 114 114 114 114 114 114 114 114 114 114 114 114 114 114 114 114 114 114 114 114 114 114 114 114 114 114 167 167 167 167 167 167 167 167 167 167 167 167 167 167 167 114 114 114 114 114 114 114 114 114 114 114 114 114 114 114 114 114 114 114 114 76 114 76 114 76 76 76 76 76 76 40 40 40 40 40 40 40 40 40 40 40 40 40 40 40 40 40 40 40 40 40 40 40 76 114 114 114 114 76 114 114 114 76 40 40 40 40 40 40 40 40 40 40 40 40 40 40 40 40 40 40 40 40 40 40 76 76 114 114 114 114 114 114 114 114 114 114 114 114 114 114 114 114 114 114 114 114 114 114 114 114 114 114 114 114 114 114 114 114 114 114 114 114 114 114 114 114 114 114 114 114 114 114 114 114 114 114 114 114 114 114 114 114 114 114 114 114 114 114 114 114 114 114 114 114 114 114 114 114 114 114 114 114 114 114 114 114 114 76 114 114 114 114 114 167 167 167 167 167 167 167 167 167 167 167 167 
114 114 114 167 167 167 167 167 114 167 167 167 167 167 167 167 167 167 167 114 167 114 114 114 114 114 114 114 114 76 76 76 76 76 76 40 76 40 76 76 40 76 76 76 76 76 76 76 76 114 114 114 114 114 114 76 76 76 76 76 76 76 76 76 76 76 76 76 76 76 40 40 40 40 40 40 40 40 40 40 40 40 40 40 40 40 40 40 40 40 40 40 76 76 76 76 40 40 40 76 76 40 40 76 114 76 76 76 76 40 40 40 40 40 40 40 40 40 40 40 40 40 40 40 40 40 40 40 40 40 40 40 76 76 40 40 40 40 40 40 76 76 76 40 40 40 40 40 40 40 40 40 76 114 114 76 76 76 76 76 40 40 40 40 40 40 40 40 40 40 40 40 40 40 40 40 40 40 40 40 40 40 40 40 114 114 114 76 76 76 76 114 167 114 114 167 167 167 167 167 167 167 167 114 76 40 40 40 40 40 40 40 76 76 76 76 76 76 76 76 114 114 114 114 114 114 114 114 114 114 114 114 114 114 114 114 114 114 114 114 114 114 114 114 167 114 167 167 167 167 167 167 167 167 167 167 167 167 167 167 167 167 167 167 167 167 167 167 167 167 167 167 167 167 167 167 114 114 114 114 114 114 114 114 114 114 114 114 114 114 114 114 114 114 114 114 114 114 114 114 114 114 114 114 114 114 114 114 114 114 114 167 167 167 167 167 167 167 167 167 167 167 167 167 114 114 114 114 114 114 114 114 114 114 114 114 114 114 114 114 114 114 114 114 114 114 114 114 76 114 76 76 76 76 76 76 40 40 40 40 40 40 40 40 40 40 40 40 40 40 40 40 40 40 40 40 40 40 40 76 114 114 114 114 76 114 114 114 76 40 40 40 40 40 40 40 40 40 40 40 40 40 40 40 40 40 40 40 40 40 40 76 114 114 114 114 114 114 114 114 114 114 114 114 114 114 114 114 114 114 114 114 114 114 114 114 114 114 114 114 114 114 114 114 114 114 114 114 114 114 114 114 114 114 114 114 114 114 114 114 114 114 114 114 114 114 114 114 114 114 114 114 114 114 114 114 114 114 114 114 114 114 114 114 114 114 114 114 114 114 114 76 76 114 76 114 114 114 114 167 167 167 167 167 167 167 167 167 167 167 167 167 
114 114 114 167 167 167 167 167 114 114 167 167 167 167 167 167 167 167 167 167 114 114 114 114 114 114 114 114 114 76 76 76 76 76 76 40 40 40 76 76 40 76 76 76 76 76 76 76 76 114 114 114 114 76 76 76 76 76 76 76 76 76 76 76 114 76 40 40 40 40 40 40 40 40 40 76 40 40 40 40 40 40 40 40 40 40 40 40 40 40 40 40 76 40 40 40 40 76 76 76 76 40 76 76 114 76 76 76 40 40 40 40 40 40 40 40 40 40 40 40 40 40 40 40 40 40 40 40 40 40 40 40 40 76 76 40 40 40 40 40 40 40 40 40 40 40 40 40 40 40 40 76 76 76 114 114 76 76 76 40 40 40 40 40 40 40 40 40 40 40 40 40 40 40 40 40 40 40 40 40 40 40 40 76 114 114 76 76 76 76 114 167 167 114 167 167 167 167 167 167 167 167 114 76 40 40 40 40 40 40 40 40 40 76 76 76 76 76 76 76 76 114 114 76 76 76 114 114 114 114 114 114 114 114 114 114 114 114 114 114 114 114 114 114 114 114 167 167 167 167 167 167 167 167 167 167 167 167 167 167 167 167 167 167 167 167 167 167 167 167 167 167 167 114 167 167 114 114 114 114 114 114 114 114 114 114 114 114 114 114 114 114 114 114 114 114 114 114 114 114 114 114 114 114 114 114 114 114 114 114 114 167 167 167 167 167 167 167 167 167 167 167 167 167 114 114 114 114 114 114 114 114 114 114 114 114 114 114 114 114 114 114 114 114 114 114 114 114 76 114 76 76 76 76 76 76 40 40 40 40 40 40 40 40 40 40 40 40 40 40 40 40 40 40 40 40 40 40 40 76 114 114 114 114 76 76 114 114 76 40 40 40 40 40 40 40 40 40 40 40 40 40 40 40 40 40 40 40 40 40 76 76 114 114 114 114 114 114 114 114 114 114 114 114 114 114 114 114 114 114 114 114 114 114 114 114 114 114 114 114 114 114 114 114 114 114 114 114 114 114 114 114 114 114 114 114 114 114 114 114 114 114 114 114 114 114 114 114 114 114 114 114 114 114 114 114 114 114 114 114 114 114 114 114 114 114 114 114 114 114 114 114 114 114 114 114 114 114 167 167 167 167 167 167 167 167 167 167 167 167 167 167 
114 114 114 114 167 167 114 114 167 167 167 114 114 167 167 167 114 167 167 114 114 114 114 114 114 114 114 114 114 76 76 76 76 76 40 40 76 40 76 40 40 76 76 76 76 76 76 114 114 76 76 76 76 76 76 76 76 76 76 76 76 76 76 76 114 76 76 40 40 40 40 40 40 40 40 40 40 40 40 40 40 40 40 40 40 40 40 40 40 40 40 76 40 40 40 40 40 40 76 76 76 76 114 76 76 40 76 76 76 40 40 40 40 40 40 40 40 40 40 40 40 40 40 40 40 40 40 40 40 40 40 40 40 40 40 76 76 40 40 40 40 76 40 40 40 40 40 40 40 40 40 76 40 76 114 114 76 76 76 40 40 40 40 40 40 40 40 40 40 40 40 40 40 40 40 40 40 40 40 40 40 40 40 114 114 114 76 76 76 76 114 167 167 114 167 167 167 167 167 167 167 167 114 40 40 40 40 40 40 40 40 40 40 76 76 76 76 76 76 114 114 114 114 114 114 76 114 114 114 114 114 114 114 114 114 114 114 114 114 114 114 114 114 114 114 114 114 167 114 167 167 167 167 167 167 167 167 167 167 167 167 167 167 167 167 114 167 167 114 114 167 167 167 114 167 167 114 114 114 114 114 114 114 114 114 114 114 114 114 114 114 114 114 114 114 114 114 114 114 114 114 114 114 114 114 114 114 114 114 114 114 114 167 167 167 167 167 167 167 167 167 167 167 167 114 114 114 114 114 114 114 114 114 114 114 114 114 114 114 114 114 114 114 114 114 114 114 114 76 114 76 76 76 76 76 76 40 40 40 40 40 40 40 40 40 40 40 40 40 40 40 40 40 40 40 40 40 40 40 76 114 114 114 114 76 76 114 114 114 40 40 40 40 40 40 40 40 40 40 40 40 40 40 40 40 40 40 40 40 40 76 76 114 114 114 114 114 114 114 114 114 114 114 114 114 114 114 114 114 114 114 114 114 114 114 114 114 114 114 114 114 114 114 114 114 114 114 114 114 114 114 114 114 114 114 114 114 114 114 114 114 114 114 114 114 114 114 114 114 114 114 114 114 114 114 114 114 114 114 114 114 114 114 114 114 114 114 114 114 114 114 76 114 114 114 114 114 114 167 167 167 167 167 167 167 167 167 167 167 167 167 167 
114 114 167 167 167 167 114 114 167 114 167 167 167 167 167 167 167 167 114 114 114 114 114 114 114 114 114 114 76 114 76 76 76 76 40 40 76 76 76 76 76 76 76 76 76 76 76 76 76 76 76 76 76 76 76 76 76 114 114 114 114 76 76 76 76 76 76 76 76 76 76 40 76 40 40 40 40 40 40 40 40 40 40 40 40 40 40 40 40 76 76 76 76 40 40 40 40 76 76 76 76 114 76 76 40 40 40 40 76 76 40 40 40 40 40 40 40 40 40 40 40 40 40 40 40 40 40 40 40 40 40 40 40 40 40 40 76 76 40 40 40 76 40 40 40 40 40 40 40 40 40 76 40 76 114 114 114 76 76 76 76 40 40 40 40 40 40 40 40 40 40 40 40 40 40 40 40 40 40 40 40 40 76 167 114 76 76 114 76 76 167 167 167 167 167 167 167 114 167 167 167 114 76 40 40 40 40 40 40 40 40 76 76 76 76 76 76 76 76 76 114 114 114 114 114 114 114 114 114 114 114 114 114 114 114 114 114 114 114 114 114 114 114 114 114 114 167 167 167 167 167 167 167 167 167 167 167 167 167 167 167 167 167 167 167 167 167 114 114 167 167 114 167 114 114 114 114 114 114 114 114 114 114 114 114 114 114 114 114 114 114 114 114 114 114 114 114 114 114 114 114 114 114 114 114 114 114 114 114 114 114 114 167 167 167 167 167 167 167 167 167 167 167 167 114 114 114 114 114 114 114 114 114 114 114 114 114 114 114 114 114 114 114 114 114 114 114 114 114 114 76 76 76 76 76 40 40 40 40 40 40 40 40 40 40 40 40 40 40 40 76 76 40 40 40 40 40 40 40 76 114 114 114 114 76 76 114 114 114 40 40 40 40 40 40 40 40 40 40 40 40 40 40 40 40 40 40 40 40 76 76 76 114 114 114 114 114 114 114 114 114 114 114 114 114 114 114 114 114 114 114 114 114 114 114 114 114 114 114 114 114 114 114 114 114 114 114 114 114 114 114 114 114 114 114 114 114 114 114 114 114 114 114 114 114 114 114 114 114 114 114 114 114 114 114 114 114 114 114 114 114 114 114 114 114 114 114 114 114 114 114 114 76 114 114 114 114 167 167 167 167 167 167 167 167 167 167 167 167 167 167 167 
114 114 114 114 114 114 167 114 167 114 167 167 167 167 167 167 114 167 114 114 114 114 114 114 114 114 114 114 76 114 76 76 76 76 40 40 40 40 40 76 40 76 76 76 76 76 76 76 76 76 76 76 76 76 76 76 76 76 76 76 76 76 76 76 40 40 40 40 76 40 76 76 76 76 76 40 40 76 40 40 40 40 40 40 40 40 40 40 40 76 76 76 40 40 40 40 40 76 114 76 76 76 76 76 40 40 40 40 40 76 40 40 40 40 40 40 40 40 40 40 40 40 40 40 40 40 40 40 40 40 40 40 40 40 40 40 40 40 76 40 40 40 40 40 40 40 40 40 40 40 40 76 76 76 114 114 76 76 76 114 76 40 40 40 40 40 40 40 40 40 40 40 40 40 40 40 40 40 40 40 40 40 114 114 76 76 76 114 76 114 167 167 167 167 167 167 167 167 167 167 114 76 40 40 40 40 40 40 40 40 40 40 40 76 76 76 76 76 76 76 114 114 114 114 114 114 114 114 114 114 114 114 114 114 114 114 114 114 114 114 114 114 114 114 114 114 167 167 114 114 167 167 167 167 167 167 167 167 167 167 167 167 167 167 167 167 167 167 114 114 167 167 114 114 114 167 114 114 114 114 114 114 114 114 114 114 114 114 114 114 114 114 114 114 114 114 114 114 114 114 114 114 114 114 114 114 114 114 114 114 114 167 167 167 167 167 167 167 167 167 167 167 167 167 114 114 114 114 114 114 114 114 114 114 114 114 114 114 114 114 114 114 114 114 114 76 76 76 76 76 76 76 76 76 76 76 40 40 40 40 40 40 40 40 40 40 40 40 40 40 76 76 40 40 40 40 40 40 40 76 114 114 114 114 114 114 114 114 114 40 40 40 40 40 40 40 40 40 76 40 40 40 40 40 40 40 40 40 40 76 76 114 114 114 114 114 114 114 114 114 114 114 114 114 114 114 114 114 114 114 114 114 114 114 114 114 114 114 114 114 114 114 114 114 114 114 114 114 114 114 114 114 114 114 114 114 114 114 114 114 114 114 114 114 114 114 114 114 114 114 114 114 114 114 114 114 114 114 114 114 114 114 114 114 114 114 114 76 114 76 114 76 76 114 114 114 167 167 167 167 167 167 167 167 167 167 167 167 167 167 167 167 
114 114 114 114 114 114 167 167 114 114 167 167 167 167 114 167 114 167 114 114 114 114 114 114 114 114 114 114 114 114 76 76 76 76 40 40 40 40 40 76 40 76 76 76 76 76 76 76 76 76 76 76 76 76 76 76 76 76 76 76 76 76 40 40 76 40 40 40 40 76 40 40 40 40 40 40 40 40 40 40 40 40 40 40 40 40 40 40 76 76 76 40 40 40 40 40 40 76 114 76 40 40 76 76 40 40 40 40 40 40 40 40 40 40 40 40 40 40 40 40 40 40 40 40 40 40 40 40 40 40 40 40 40 40 40 40 40 40 40 40 40 40 40 40 40 40 40 40 40 40 40 40 76 76 114 76 76 76 114 114 76 40 40 40 40 40 40 40 40 40 40 40 40 40 40 40 40 40 40 40 40 76 114 114 76 76 76 76 76 167 167 167 114 167 167 167 167 167 167 167 76 40 40 40 40 40 40 40 40 40 40 40 76 76 76 76 76 76 76 76 76 114 114 114 114 114 114 114 114 114 114 114 114 114 114 114 114 114 114 114 114 114 114 114 114 114 114 114 114 114 167 167 167 167 167 167 167 167 167 167 167 167 167 167 167 167 167 167 167 114 167 167 167 114 114 167 114 114 114 114 114 114 114 114 114 114 114 114 114 114 114 114 114 114 114 114 114 114 114 114 114 114 114 114 114 114 114 114 114 114 114 114 114 167 167 167 167 167 167 167 167 167 167 167 114 114 114 114 114 114 114 114 114 114 114 114 114 114 114 114 114 114 114 114 114 114 114 114 76 114 76 76 76 76 76 40 40 40 40 40 40 40 40 40 40 40 40 40 40 40 40 40 40 40 40 40 40 40 40 40 114 114 114 114 114 76 114 114 114 76 40 76 40 40 40 40 40 40 40 40 40 40 40 40 40 40 40 40 40 76 76 114 114 76 114 114 114 114 114 114 114 114 114 114 114 114 114 114 114 114 114 114 114 114 114 114 114 114 114 114 114 114 114 114 114 114 114 114 114 114 114 114 114 114 114 114 114 114 114 114 114 114 114 114 114 114 114 114 114 114 114 114 114 114 114 114 114 114 114 114 114 114 114 114 114 114 114 76 114 114 114 114 114 114 114 114 167 167 167 167 167 167 167 167 167 167 167 167 167 167 167 167 
114 114 114 114 114 167 167 114 114 114 167 167 167 114 114 167 167 167 167 114 114 114 114 114 114 114 114 114 114 76 76 76 76 76 40 40 40 40 40 76 76 76 76 76 76 76 76 76 76 76 76 76 76 76 76 76 76 76 76 76 76 76 40 76 76 40 40 40 40 40 40 76 76 76 40 40 40 76 76 76 40 40 40 40 40 40 76 76 76 76 40 40 40 40 40 40 40 76 114 114 40 40 76 76 40 40 40 40 40 76 40 40 40 40 40 40 40 40 40 40 40 40 40 40 40 40 40 40 40 40 40 40 40 40 40 40 40 40 40 40 40 40 40 40 40 40 40 40 40 40 40 40 76 76 76 76 76 114 114 76 76 40 40 40 40 40 40 40 40 40 40 40 40 40 40 40 40 40 40 40 40 114 114 76 76 76 76 76 114 167 167 167 167 167 167 167 167 167 167 114 40 40 40 40 40 40 40 40 40 40 40 40 76 76 76 76 76 76 76 76 76 76 114 114 114 114 114 114 114 114 114 114 114 114 114 114 114 114 114 114 114 114 114 114 114 114 114 114 114 114 114 114 114 167 167 167 167 167 167 167 167 167 167 167 167 167 167 167 167 114 167 167 167 167 114 114 114 114 114 114 114 114 114 114 114 114 114 114 114 114 114 114 114 114 114 114 114 114 114 114 76 76 76 114 114 114 114 114 114 114 114 114 114 167 167 167 167 167 167 167 167 167 167 114 114 114 114 114 114 114 114 114 114 114 114 114 114 114 114 114 114 114 114 114 114 114 114 76 76 76 76 76 76 76 76 40 40 40 40 40 40 40 40 40 40 40 40 40 40 40 40 76 40 40 40 40 40 40 40 40 114 167 114 114 114 76 114 114 114 76 40 40 40 40 40 40 40 40 40 40 40 40 40 40 40 40 40 40 40 76 114 114 114 76 114 114 114 114 114 114 114 114 114 114 114 114 114 114 114 114 114 114 114 114 114 114 114 114 114 114 114 114 114 114 114 114 114 114 114 114 114 114 114 114 114 114 114 114 114 114 114 114 114 114 114 114 114 114 114 114 114 114 114 114 114 114 114 114 114 114 114 114 114 114 114 114 114 114 114 76 114 114 114 114 114 167 167 167 167 167 167 167 167 167 167 167 167 167 167 167 167 167 
114 114 114 114 114 167 167 114 114 114 114 167 167 114 114 167 167 167 167 114 114 114 114 114 114 114 114 114 114 76 76 76 76 76 76 40 40 40 40 76 76 76 76 76 76 76 76 76 76 76 76 76 76 76 76 76 76 76 76 76 76 76 40 40 76 76 76 76 40 40 76 76 76 40 40 40 76 114 76 76 40 40 40 40 76 76 76 76 40 40 40 40 40 40 40 40 76 76 76 114 76 40 76 76 76 40 40 40 76 40 40 40 40 40 40 40 40 40 40 40 40 40 40 40 40 40 40 40 40 40 40 40 40 40 40 40 40 40 40 40 40 40 40 40 40 40 40 40 40 40 76 76 40 76 114 76 40 114 167 114 114 76 76 40 40 40 40 40 40 40 40 40 40 40 40 40 40 40 40 40 76 114 114 76 76 76 76 76 167 167 167 167 167 167 167 167 167 167 114 76 40 40 40 40 40 40 40 40 40 40 40 40 40 76 76 76 76 114 114 114 114 114 114 114 114 114 114 114 114 114 114 114 114 114 114 114 114 114 114 114 114 114 114 114 114 114 114 114 114 114 114 114 114 167 167 114 167 167 167 167 167 167 167 167 167 167 167 167 114 114 167 167 167 167 114 114 114 114 114 114 114 114 114 114 114 114 114 114 114 114 114 114 114 114 114 114 114 114 114 114 114 114 114 114 114 114 114 114 114 114 114 114 114 167 167 167 167 167 167 167 167 167 167 114 114 114 114 114 114 114 114 114 114 114 114 114 114 114 114 114 114 114 114 114 114 114 114 114 114 76 76 76 76 76 76 40 40 40 40 40 40 40 40 40 40 40 40 40 40 40 40 40 40 40 40 40 40 40 40 40 76 114 114 114 114 76 114 114 114 76 40 40 40 40 40 40 40 40 40 40 40 40 40 40 40 40 40 40 76 76 114 114 114 114 114 114 114 114 114 114 114 114 114 114 114 114 114 114 114 114 114 114 114 114 114 114 114 114 114 114 114 114 114 114 114 114 114 114 114 114 114 114 114 114 114 114 114 114 114 114 114 114 114 114 114 114 114 114 114 114 114 114 114 114 114 114 114 114 114 114 114 114 114 114 114 114 114 114 114 76 114 114 114 114 114 167 167 167 167 167 167 167 167 167 167 167 167 167 167 167 167 167 
114 114 114 114 114 167 167 167 114 114 114 114 167 114 114 167 114 167 114 114 114 114 114 114 114 114 114 114 114 114 76 76 76 76 76 40 40 40 40 40 76 76 76 76 76 76 76 76 76 76 76 76 76 76 76 76 76 76 76 76 76 76 40 40 40 76 76 76 76 114 114 76 40 40 40 40 76 76 76 40 40 40 40 40 76 76 76 76 40 40 40 40 40 40 40 40 40 40 76 114 114 40 40 40 76 40 40 40 40 40 40 40 40 40 40 40 40 40 40 40 40 40 40 40 40 40 40 40 40 40 40 40 40 40 40 40 40 40 40 40 40 40 40 76 40 40 40 40 40 40 76 76 76 114 114 40 40 76 114 114 114 114 76 40 40 40 40 40 40 40 40 40 40 40 40 40 40 40 40 40 114 114 76 76 76 76 76 114 167 167 114 167 167 167 167 167 167 167 114 40 40 40 40 40 40 40 40 40 40 40 40 40 76 76 76 76 76 76 114 114 114 114 114 114 114 114 114 114 114 114 114 114 114 114 114 114 114 114 114 114 114 114 114 114 114 114 114 114 114 114 167 167 114 167 167 167 167 167 167 167 167 167 167 167 167 167 167 167 114 167 167 114 167 114 114 114 114 114 114 114 114 114 114 114 114 114 114 114 114 114 114 114 114 114 114 114 114 114 114 114 114 114 114 114 114 114 114 114 114 114 114 114 114 167 167 167 167 167 167 167 167 167 167 114 114 114 114 114 114 114 114 114 114 114 114 114 114 114 114 114 114 114 114 114 114 114 114 76 114 114 76 76 76 76 76 40 40 40 40 40 40 40 40 40 40 40 40 40 40 40 40 40 40 40 40 40 40 40 40 40 76 114 114 114 114 76 114 114 114 114 40 40 40 40 40 40 40 40 40 40 40 40 40 40 40 40 40 40 76 76 114 114 114 114 114 114 114 114 114 114 114 114 114 114 114 114 114 114 114 114 114 114 114 114 114 114 114 114 114 114 114 114 114 114 114 114 114 114 114 114 114 114 114 114 114 114 114 114 114 114 114 114 114 114 114 114 114 114 114 114 114 114 114 114 114 114 114 114 114 114 114 114 114 114 114 114 114 114 114 114 114 114 114 114 114 167 167 167 167 167 167 167 167 167 167 167 167 167 167 167 167 167 
114 114 114 114 114 114 167 167 167 114 114 114 114 114 167 167 114 167 114 114 114 114 114 114 114 114 114 114 114 76 76 76 40 76 76 40 40 40 40 40 76 76 76 76 76 76 76 76 76 76 76 76 76 76 76 76 76 76 76 76 76 40 40 40 114 114 114 114 114 76 76 40 40 40 40 76 76 76 40 40 40 40 40 76 76 76 40 40 40 40 40 40 40 40 40 40 40 40 40 114 76 76 40 40 76 40 40 40 40 40 40 40 40 40 40 40 40 40 40 40 40 40 40 40 40 40 40 40 40 40 40 40 40 40 40 40 40 76 40 40 40 40 40 76 40 40 40 40 40 40 40 76 76 76 76 40 40 40 76 167 114 114 114 76 40 40 40 40 40 40 40 40 40 40 40 40 40 40 40 76 114 114 76 76 76 114 76 167 167 167 167 167 167 167 167 167 167 114 76 40 40 40 40 40 40 40 40 40 40 40 40 76 76 76 76 76 76 76 76 76 114 114 114 114 114 114 114 114 114 114 114 114 114 114 114 114 114 114 114 114 114 114 114 114 114 114 114 114 114 114 114 114 167 167 167 167 167 167 167 167 167 167 167 167 167 167 167 167 167 167 167 167 114 114 114 114 114 114 114 114 114 114 114 114 114 114 114 114 114 114 114 114 114 114 114 114 114 114 114 114 114 114 114 114 114 114 114 114 114 114 114 114 167 167 167 167 167 167 167 167 167 167 167 114 114 114 114 114 114 114 114 114 114 114 114 114 114 114 114 114 114 114 114 114 76 114 76 76 76 76 76 76 76 76 76 40 40 40 40 40 40 40 40 40 40 40 40 40 40 40 40 40 40 40 40 40 40 40 40 40 76 114 114 114 114 76 114 114 114 114 76 40 40 40 40 40 40 40 40 40 40 40 40 40 40 40 40 40 76 114 114 114 114 114 114 114 114 114 114 114 114 114 114 114 114 114 114 114 114 114 114 114 114 114 114 114 114 114 114 114 114 114 114 114 114 114 114 114 114 114 114 114 114 114 114 114 114 114 114 114 114 114 114 114 114 114 114 114 114 114 114 114 114 114 114 114 114 114 114 114 114 114 114 114 114 114 114 114 114 114 114 114 114 167 167 167 167 167 167 167 167 167 167 167 167 167 167 167 167 167 167 167 
114 114 114 114 114 114 167 114 167 114 114 114 114 114 167 167 114 167 114 114 114 114 114 114 114 114 114 114 114 114 76 76 76 76 40 40 40 40 40 76 76 76 76 76 40 76 76 76 76 76 76 76 76 76 76 76 76 76 76 76 76 40 76 114 114 114 76 114 76 40 40 40 40 40 76 76 76 76 40 40 40 40 76 76 76 40 40 40 40 40 40 40 40 40 40 40 40 40 40 76 114 76 76 40 76 76 40 40 40 40 40 40 40 40 40 40 40 40 40 40 40 40 40 40 40 40 40 40 40 40 40 40 40 40 40 40 40 76 76 40 40 40 40 40 40 40 40 40 40 40 40 76 114 76 76 76 76 40 40 114 114 114 114 114 76 40 40 40 40 40 40 40 40 40 40 40 40 40 40 114 114 114 76 76 76 76 76 167 167 167 167 167 167 167 167 167 167 76 40 40 40 40 40 40 40 40 40 40 40 40 40 40 76 76 76 76 76 76 76 76 114 114 114 114 114 114 114 114 114 114 114 114 114 114 114 114 114 114 114 114 114 114 114 114 114 114 114 114 114 114 114 114 114 167 167 167 167 167 167 167 167 167 167 167 114 167 167 167 167 114 114 114 114 114 114 114 114 114 114 114 114 114 114 114 114 114 114 114 114 114 114 114 114 114 114 114 114 114 114 114 114 76 114 114 114 114 114 114 114 114 114 114 114 167 167 167 167 167 167 167 167 167 167 114 114 114 114 114 114 114 114 114 114 114 114 114 114 114 114 114 114 114 114 114 114 114 114 76 114 114 76 76 76 40 40 40 40 40 40 40 40 40 40 40 40 40 40 40 40 40 76 76 76 40 40 40 40 40 40 40 76 114 114 114 114 76 114 114 76 76 76 40 40 40 40 40 40 40 40 40 40 40 40 40 40 40 40 40 76 76 114 114 114 114 114 114 114 114 114 114 114 114 114 114 114 114 114 114 114 114 114 114 114 114 114 114 114 114 114 114 114 114 114 114 114 114 114 114 114 114 114 114 114 114 114 114 114 114 114 114 114 114 114 114 114 114 114 114 114 114 114 114 114 114 114 114 114 114 114 114 114 114 114 114 114 114 114 114 114 114 114 114 114 167 167 167 167 167 167 167 167 167 167 167 167 167 167 167 167 167 167 167 
114 114 114 167 167 167 114 114 167 114 167 114 167 114 167 167 114 114 114 114 114 114 114 114 114 114 114 114 114 76 76 76 76 40 40 40 40 40 76 40 76 76 76 114 76 76 76 76 76 76 76 76 76 76 76 76 76 76 76 114 76 114 114 114 114 76 76 40 40 40 40 40 40 76 76 76 76 40 40 40 40 76 76 76 40 40 40 40 40 40 40 40 40 40 40 40 40 40 40 76 76 76 76 40 40 114 40 40 40 40 40 40 40 40 40 40 40 40 40 40 40 40 40 40 40 40 40 40 40 40 40 40 40 40 40 40 40 40 40 40 40 40 40 40 40 40 40 40 40 40 40 76 76 76 114 114 76 40 40 76 76 40 114 167 114 114 40 40 40 40 40 40 40 40 40 40 40 40 40 114 114 76 76 76 76 76 114 167 167 167 167 167 167 167 167 167 114 40 40 40 40 40 40 40 40 40 40 40 40 40 40 40 76 76 76 76 76 76 76 76 76 114 114 114 114 114 114 114 114 114 114 114 114 114 114 114 114 114 114 114 114 114 114 114 114 114 114 114 114 114 114 114 114 114 167 114 167 167 167 167 167 167 167 167 167 167 167 167 167 167 167 167 114 114 114 114 114 114 114 114 114 114 114 114 114 114 114 114 114 114 114 114 114 114 114 114 114 76 114 114 114 114 114 114 114 114 114 114 114 114 114 114 167 114 167 167 167 167 167 167 167 167 167 167 114 114 114 114 114 114 114 114 114 114 114 114 114 114 114 114 114 114 114 76 114 114 114 76 76 76 76 76 76 76 40 40 40 40 40 40 40 40 40 40 40 40 40 40 40 40 40 76 40 40 40 40 40 40 40 40 76 114 114 114 114 76 76 114 114 114 76 40 40 40 40 40 40 40 40 40 40 40 40 40 40 40 40 76 76 114 114 114 114 114 114 114 76 114 114 114 114 114 114 114 114 114 114 114 114 114 114 114 114 114 114 114 114 114 114 114 114 114 114 114 114 114 114 114 114 114 114 114 114 114 114 114 114 114 114 114 114 114 114 114 114 114 114 114 114 114 114 114 114 114 114 114 114 114 114 114 114 114 114 114 114 114 114 114 114 114 114 114 167 167 167 167 167 167 167 167 167 167 167 167 167 167 167 167 167 167 167 167 
114 114 114 114 114 114 167 167 114 114 114 114 114 114 114 114 114 114 114 114 114 114 114 114 114 114 114 114 114 76 76 76 76 40 40 40 40 40 40 40 76 76 114 114 76 76 76 76 76 76 76 76 76 76 76 114 114 114 114 114 114 114 114 76 76 40 40 40 40 40 40 40 76 114 114 76 76 40 40 40 76 76 76 40 40 40 76 40 40 76 76 40 40 40 40 40 40 40 40 76 76 114 76 40 40 114 40 40 40 40 40 40 40 40 40 40 40 40 40 40 40 40 40 40 40 40 40 40 40 40 40 40 40 40 40 40 40 40 40 40 40 40 40 40 40 40 40 40 40 40 76 76 76 76 114 114 76 76 40 40 76 40 76 167 167 114 76 40 40 40 40 40 40 40 40 40 40 40 76 114 76 76 76 76 114 114 167 167 167 167 167 167 167 167 167 114 76 40 40 40 40 40 40 40 40 40 40 40 40 40 40 40 76 40 76 76 76 76 76 76 76 114 114 114 114 114 114 114 114 114 114 114 114 114 114 114 114 114 114 114 114 114 114 114 114 114 114 114 114 114 114 114 114 114 167 114 167 167 167 167 167 167 167 167 114 167 167 114 114 167 167 167 114 114 114 114 114 114 114 114 114 114 114 114 114 114 114 114 114 114 114 114 114 114 114 114 114 114 114 114 114 114 114 114 114 114 114 114 114 114 114 114 114 167 167 167 167 167 167 167 167 167 167 167 114 114 114 114 114 114 114 114 114 114 114 114 114 114 114 114 114 114 114 76 76 114 114 76 76 76 76 76 76 76 40 40 40 40 40 40 40 40 40 40 40 40 40 40 40 40 40 76 40 40 40 40 40 40 40 40 76 114 114 114 114 76 76 114 114 114 76 40 40 40 40 40 40 40 40 40 40 40 40 40 40 40 40 76 76 114 114 114 114 114 114 76 114 114 114 114 114 114 114 114 114 114 114 114 114 114 114 114 114 114 114 114 114 114 114 114 114 114 114 114 114 114 114 114 114 114 114 114 114 114 114 114 114 114 114 114 114 114 114 114 114 114 114 114 114 114 114 114 114 114 114 114 114 114 114 114 114 114 114 114 114 114 76 114 114 114 114 114 167 167 167 167 167 167 167 167 167 167 167 167 167 167 167 167 167 167 167 167 
114 114 167 114 114 114 114 114 114 114 114 114 114 114 167 167 114 114 114 114 114 114 114 114 114 114 114 114 114 76 76 76 76 40 40 40 40 40 40 40 76 76 114 114 76 76 76 76 76 76 76 76 76 76 114 114 114 114 114 114 114 76 40 40 40 40 40 40 40 40 40 76 114 114 114 76 40 40 40 76 76 76 40 40 40 40 40 76 40 76 76 40 40 40 40 40 40 76 76 76 76 114 76 40 40 114 76 40 40 40 40 40 40 40 40 40 40 40 40 40 40 40 40 40 40 40 40 40 40 40 40 40 40 40 40 40 40 40 40 40 76 76 40 40 40 40 40 40 40 76 76 76 76 114 114 114 114 76 40 40 40 40 76 114 114 114 114 40 40 40 40 40 40 40 40 40 40 76 114 114 76 76 76 76 114 114 167 167 167 167 167 167 167 167 167 114 40 40 40 40 40 40 40 40 40 40 40 40 40 40 40 40 76 76 76 76 76 76 76 76 76 114 114 114 114 114 114 114 114 114 114 114 114 114 114 114 114 114 114 114 114 114 114 114 114 114 114 114 114 114 167 114 114 114 114 114 114 167 167 167 114 114 114 167 167 167 167 114 114 114 114 114 167 167 114 114 114 114 114 114 114 114 114 114 114 114 114 114 114 114 114 114 114 114 114 114 114 114 114 114 114 114 114 114 114 114 114 114 114 114 114 114 114 167 167 167 167 167 167 167 167 167 167 167 114 114 114 114 114 114 114 114 114 114 114 114 114 114 114 114 114 114 114 114 114 76 76 76 76 76 76 76 76 40 40 40 40 40 40 40 40 40 40 40 40 40 40 40 40 40 40 76 76 40 40 40 40 40 40 40 76 114 114 114 114 76 76 167 114 114 114 76 40 40 40 40 40 40 40 40 40 40 40 40 40 40 40 76 114 76 114 114 114 114 114 114 114 114 114 114 114 114 114 114 114 114 114 114 114 114 114 114 114 114 114 114 114 114 114 114 114 114 114 114 114 114 114 114 114 114 114 114 114 114 114 114 114 114 114 114 114 114 114 114 114 114 114 114 114 114 114 114 114 114 114 114 114 114 114 114 114 114 114 114 76 76 76 114 114 114 114 167 167 167 167 167 167 167 167 167 167 167 167 167 167 167 167 167 167 167 167 167 
114 114 114 114 114 114 114 114 114 114 114 114 114 114 114 114 114 114 114 114 114 114 114 114 114 114 114 114 114 76 76 76 76 40 40 40 40 40 40 40 76 114 114 76 76 76 76 76 76 76 76 76 114 114 114 114 167 114 114 76 76 76 40 40 40 40 40 40 40 40 76 76 114 114 76 40 40 40 76 76 76 40 40 40 40 40 40 40 76 76 76 40 40 40 40 40 40 76 114 76 76 76 76 40 40 76 114 40 40 40 40 40 40 40 40 40 40 40 40 40 40 40 40 40 40 40 40 40 40 40 40 40 40 40 40 40 40 40 40 40 40 40 76 40 40 40 40 40 76 76 76 40 114 114 114 114 114 76 76 40 40 40 76 76 114 114 76 76 40 40 40 40 40 40 40 40 40 114 114 114 76 76 76 76 114 114 167 167 167 167 167 167 167 167 114 76 40 40 40 40 40 40 40 40 40 76 76 40 40 40 40 40 40 76 76 76 76 76 76 76 76 76 114 114 114 114 114 114 114 114 114 114 114 114 114 114 114 114 114 114 114 114 114 114 114 114 114 114 114 114 114 114 114 114 114 114 114 114 167 167 114 114 114 114 114 167 167 114 114 114 114 114 114 114 114 114 114 114 114 114 114 114 114 114 114 114 114 114 114 114 114 114 114 114 114 114 114 114 114 114 114 76 114 114 114 114 114 114 114 114 114 114 114 167 167 167 167 167 167 167 167 167 167 167 114 114 114 114 114 114 114 114 114 114 114 114 114 114 114 114 114 114 114 114 114 114 76 114 76 76 76 76 76 40 40 40 40 40 40 40 40 40 40 40 40 40 40 40 40 40 40 76 76 40 40 40 40 40 40 40 40 114 114 114 114 114 76 114 114 114 114 40 40 40 40 40 40 40 40 40 40 40 40 40 40 40 76 76 114 114 114 114 114 114 114 114 114 114 114 114 114 114 114 114 114 114 114 114 114 114 114 114 114 114 114 114 114 114 114 114 114 114 114 114 114 114 114 114 114 114 114 114 114 114 114 114 114 114 114 114 114 114 114 114 114 114 114 114 114 114 114 114 114 114 76 114 114 114 114 114 114 114 114 114 114 114 114 114 114 114 114 167 167 167 167 167 167 167 167 167 167 167 167 167 167 167 167 167 167 167 167 167 
114 114 114 114 114 167 114 167 114 114 114 114 114 114 114 114 114 114 114 114 114 114 114 114 114 114 114 114 114 76 76 76 76 76 40 40 40 40 40 40 40 114 114 76 76 40 40 76 76 76 114 114 114 114 114 114 76 76 76 76 76 76 40 40 40 40 40 40 40 76 76 76 114 114 76 40 40 76 76 76 40 40 40 40 40 40 40 40 76 76 40 40 40 40 40 40 40 76 114 76 40 76 114 76 40 40 114 76 40 40 40 40 40 40 40 40 40 40 40 40 40 40 40 40 40 40 40 40 40 40 40 40 40 40 40 40 76 76 76 40 40 40 76 40 40 40 76 76 76 40 76 76 114 167 114 167 167 114 76 40 40 40 40 76 76 76 76 40 40 40 40 40 40 40 40 40 40 114 114 76 76 76 76 76 114 167 167 167 167 167 167 167 167 114 76 40 40 40 40 40 40 40 40 40 40 40 40 40 40 40 40 40 76 76 76 76 76 76 76 76 76 114 114 114 114 114 114 114 114 114 114 114 114 114 114 114 114 114 114 114 114 114 114 114 114 114 114 114 114 114 114 114 114 114 114 114 114 114 114 114 114 114 114 114 114 114 114 167 167 167 114 114 114 114 114 114 114 114 114 114 114 114 114 114 114 114 114 114 114 114 114 114 114 114 114 114 114 114 114 114 114 114 114 114 114 114 114 114 114 114 114 114 114 114 167 167 167 167 167 167 167 167 167 167 167 114 114 114 114 114 114 114 114 114 114 114 114 114 114 114 114 114 114 114 114 114 114 114 114 76 76 76 76 40 40 40 40 40 40 40 40 40 40 40 40 40 40 40 40 40 40 40 40 40 40 40 40 40 40 40 40 114 114 114 114 114 76 114 114 114 114 76 40 40 40 40 40 40 40 40 40 40 40 40 40 40 76 76 114 114 114 114 114 114 114 114 114 114 114 114 114 114 114 114 114 114 114 114 114 114 114 114 114 114 114 114 114 114 114 114 114 114 114 114 114 114 114 114 114 114 114 114 114 114 114 114 114 114 114 114 114 114 114 114 114 114 114 114 114 114 114 114 114 114 114 114 114 114 114 114 114 114 114 114 114 114 114 114 114 114 167 167 167 167 167 167 167 167 167 167 167 167 167 167 167 167 167 167 167 167 167 167 
114 114 114 114 114 167 114 167 114 114 114 114 114 114 114 114 114 114 114 114 114 114 114 114 114 114 114 114 114 76 76 76 76 76 40 40 40 40 40 40 40 76 114 114 114 40 40 76 76 114 114 114 114 114 76 76 40 76 76 114 76 76 40 40 40 40 40 40 40 76 76 114 76 76 40 76 76 76 40 40 40 40 40 40 40 40 40 40 76 76 40 40 76 76 40 40 40 76 76 76 40 76 114 76 40 40 114 114 40 40 40 40 40 40 40 40 40 40 40 40 40 40 40 40 40 40 40 40 40 40 40 40 40 40 40 76 76 76 76 76 76 40 40 40 40 40 76 76 40 40 76 76 167 167 114 167 167 114 76 40 40 40 40 76 114 114 76 40 40 40 40 40 40 40 40 40 76 114 76 76 76 76 76 76 114 167 167 167 167 167 167 167 114 76 40 40 40 40 40 40 40 40 40 40 40 76 76 40 40 40 40 40 40 76 76 76 76 76 76 76 114 114 114 114 114 114 114 114 114 114 114 114 114 114 114 114 114 114 114 114 114 114 114 114 114 114 114 114 114 114 114 114 114 114 114 114 114 114 114 114 114 114 114 114 114 114 114 114 114 114 114 114 114 114 114 114 114 114 114 114 114 114 114 114 114 114 114 114 114 114 114 114 114 114 114 114 76 114 114 114 114 114 114 114 114 114 114 114 114 114 114 114 114 114 114 167 167 167 167 167 167 167 167 167 167 114 114 114 114 114 114 114 114 114 114 114 114 114 114 114 114 114 114 114 114 114 76 76 76 76 76 76 76 40 40 40 40 40 40 40 40 40 40 40 40 40 40 40 40 40 40 40 40 40 40 40 40 40 40 40 40 76 114 114 114 114 76 114 114 76 76 76 40 40 40 40 40 40 40 40 40 40 40 40 40 40 76 76 114 114 114 114 114 114 114 114 114 114 114 114 114 114 114 114 114 114 114 114 114 114 114 114 114 114 114 114 114 114 114 114 114 114 114 114 114 114 114 114 114 114 114 114 114 114 114 114 114 114 114 114 114 114 114 114 114 114 114 114 114 114 114 114 114 114 114 114 114 114 114 114 114 114 114 114 114 114 114 114 114 114 167 167 167 167 167 167 167 167 167 167 167 167 167 167 167 167 167 167 167 167 167 167 
114 114 114 114 114 167 114 167 114 114 114 114 114 114 114 114 114 167 167 114 114 114 114 114 114 114 114 114 114 114 76 76 76 76 40 40 40 40 40 40 40 40 114 114 114 76 76 76 114 114 114 114 76 76 76 76 76 76 114 76 76 40 40 40 40 40 40 76 76 76 76 76 76 40 40 76 76 76 40 40 40 40 40 40 40 40 40 76 76 40 40 76 76 40 40 40 76 114 76 76 40 76 114 76 40 40 76 114 76 40 40 40 40 40 40 40 40 40 40 40 40 40 40 40 40 40 40 40 40 40 40 40 40 40 40 76 114 76 76 76 76 40 40 40 40 40 40 76 76 76 76 76 114 167 167 167 167 114 76 40 40 40 40 40 76 76 40 40 40 40 40 40 40 40 40 40 114 114 76 76 76 76 76 114 167 167 167 167 167 167 167 167 76 40 40 40 40 40 40 40 40 40 40 40 40 76 76 40 40 40 40 76 76 76 76 76 76 76 76 76 76 76 114 114 114 114 114 114 114 114 114 114 114 114 114 114 114 114 114 114 114 114 114 114 114 114 114 114 114 114 114 114 114 114 114 114 114 114 114 114 114 114 114 114 114 114 114 114 114 114 114 114 167 114 114 114 114 114 114 114 114 114 114 114 114 114 114 114 114 114 114 114 114 114 114 114 114 114 114 114 76 114 76 114 114 114 114 114 114 114 114 114 114 114 114 167 167 167 167 167 167 167 167 167 167 114 114 114 114 114 114 114 114 114 114 114 114 114 114 114 114 114 114 114 114 114 76 76 76 76 76 76 40 40 40 40 40 40 40 40 40 40 40 40 40 40 40 40 40 40 40 40 40 40 40 40 40 40 40 40 40 76 114 114 114 114 76 114 114 76 114 76 40 40 40 40 40 40 40 40 40 40 40 40 40 40 76 76 114 114 114 114 114 114 114 114 114 114 114 114 114 114 114 114 114 114 114 114 114 114 114 114 114 114 114 114 114 114 114 114 114 114 114 114 114 114 114 114 114 114 114 114 114 114 114 114 114 114 114 114 114 114 114 114 114 114 114 114 114 114 114 114 114 114 114 114 114 114 114 114 114 114 114 114 114 114 114 114 114 167 167 167 167 167 167 167 167 167 167 167 167 167 167 167 167 167 167 167 167 167 167 167 
114 114 167 114 114 167 114 167 114 114 114 114 114 167 167 167 167 114 114 114 114 114 114 114 114 114 114 114 114 114 76 76 76 76 40 40 40 40 40 40 76 40 76 76 114 114 114 76 114 114 76 76 76 76 76 76 114 114 114 76 76 40 40 40 40 40 76 114 114 76 76 76 40 40 40 76 76 40 40 40 40 40 40 40 40 40 76 76 40 40 40 76 76 40 40 40 76 76 76 76 40 76 114 114 40 40 40 114 76 40 40 40 40 40 40 40 40 40 40 40 40 40 40 40 40 40 40 40 40 40 40 40 40 40 40 40 76 114 114 114 76 40 40 40 40 40 40 76 76 114 76 76 76 114 167 167 167 114 114 76 40 40 40 40 76 76 40 40 40 40 40 40 40 40 40 76 114 76 76 76 76 76 76 114 167 167 167 167 167 167 167 76 40 40 40 40 40 40 40 40 40 40 40 40 40 76 76 40 40 40 40 76 76 76 76 76 76 76 76 76 76 76 114 114 114 114 114 114 114 114 114 114 114 114 114 114 114 114 114 114 114 114 114 114 114 114 114 114 114 114 114 114 114 114 114 114 114 114 114 114 114 114 114 114 167 114 114 114 114 114 114 114 114 114 114 114 114 114 114 114 114 114 114 114 114 114 114 114 114 114 114 114 114 114 114 114 114 114 114 114 76 114 76 114 76 114 114 114 114 114 114 114 114 114 114 167 167 167 167 167 167 167 167 167 167 114 114 114 114 114 114 114 114 114 114 114 114 114 114 114 114 76 114 114 76 114 114 76 76 76 76 76 76 76 40 40 40 40 40 40 40 40 40 40 40 40 40 40 40 40 40 40 76 40 40 40 40 40 40 40 40 76 114 114 114 114 76 114 114 76 114 76 40 40 40 40 40 40 40 40 40 40 40 40 40 40 76 114 114 114 114 114 114 114 114 114 114 114 114 114 114 114 114 114 114 114 114 114 114 114 114 114 114 114 114 114 114 114 114 114 114 114 114 114 114 114 114 114 114 114 114 114 114 114 114 114 114 114 114 114 114 114 114 114 114 114 114 114 114 114 114 114 114 114 114 114 114 114 114 114 76 114 114 114 114 114 114 114 167 167 167 167 167 167 167 167 167 167 167 167 167 167 167 167 167 167 167 167 167 167 167 167 
114 114 114 114 114 114 114 167 114 114 114 114 167 114 114 114 114 114 114 114 114 114 114 114 114 114 114 114 76 114 76 76 76 76 40 40 40 40 40 40 40 76 76 76 76 114 114 114 76 76 76 76 76 76 76 76 76 76 76 76 76 76 40 40 40 40 40 76 76 76 76 40 40 40 40 76 40 40 40 40 40 40 40 40 40 76 76 40 40 40 76 76 76 40 40 40 76 76 76 76 76 76 114 114 76 40 40 76 114 40 40 40 40 40 40 40 40 40 40 40 40 40 40 40 40 40 40 40 40 40 40 40 40 40 40 40 40 40 76 76 40 40 40 40 76 114 40 76 76 76 76 40 40 76 167 167 167 114 114 76 40 40 40 40 40 40 40 40 40 40 40 40 40 40 40 114 114 76 76 76 114 76 114 167 167 167 167 167 167 167 76 40 40 40 40 40 40 40 40 40 40 40 40 40 40 76 76 76 40 40 40 40 40 76 76 76 76 76 76 76 114 76 114 114 114 114 114 114 114 114 114 114 114 114 114 114 114 114 114 114 114 114 114 114 114 114 114 114 114 114 114 114 114 114 114 114 114 114 114 114 114 114 114 114 114 114 114 114 114 114 114 114 167 114 114 114 114 114 114 114 114 114 114 114 114 114 114 114 114 114 114 76 114 114 114 114 114 114 76 76 114 114 114 76 76 114 114 114 114 114 114 114 114 114 114 167 167 167 167 167 167 167 167 167 167 114 114 114 114 114 114 114 114 114 114 114 114 114 114 114 114 114 114 76 76 114 76 76 76 76 40 76 40 40 40 40 40 40 40 40 40 40 40 40 40 40 40 40 40 40 40 40 40 40 40 40 40 40 40 40 40 76 114 114 114 114 114 76 114 114 114 114 40 40 40 40 40 40 40 40 40 40 40 40 40 76 76 114 114 114 114 114 114 114 114 114 114 114 114 114 114 114 114 114 114 114 114 114 114 114 114 114 114 114 114 114 114 114 114 114 114 114 114 114 114 114 114 114 114 114 114 114 114 114 114 114 114 114 114 114 114 114 114 114 114 114 114 114 114 114 114 114 114 114 114 114 114 114 114 76 114 114 114 114 114 114 114 114 167 167 167 167 167 167 167 167 167 167 167 167 167 167 167 167 167 167 167 167 167 167 167 167 
114 114 114 167 114 114 167 167 167 167 167 114 114 114 114 167 114 114 114 114 114 114 114 114 114 114 114 114 76 114 76 76 40 40 40 40 40 40 40 40 40 76 76 40 76 76 76 76 76 76 76 76 76 76 76 76 76 76 76 114 76 76 40 40 40 40 40 76 76 76 76 40 40 40 40 76 40 40 40 40 40 40 40 40 40 40 40 40 40 76 76 76 40 40 40 40 76 76 40 76 76 76 114 114 76 40 40 40 76 40 40 40 40 40 40 40 40 40 40 40 40 40 40 40 40 40 40 40 40 40 40 40 40 40 40 40 40 40 40 76 40 40 40 40 114 114 76 76 76 76 76 40 40 40 76 114 114 114 114 76 40 40 40 40 40 40 40 40 40 40 40 40 40 40 76 114 114 76 76 114 76 76 114 167 167 167 167 167 167 114 76 40 40 40 40 40 40 40 40 40 40 40 40 40 40 76 76 40 40 40 40 76 76 76 76 76 76 76 76 76 76 76 114 76 114 114 114 114 114 114 114 114 114 114 114 114 114 114 114 114 114 114 114 114 114 114 114 114 114 114 114 114 114 114 114 114 114 114 114 114 114 114 114 114 114 114 114 114 114 114 114 114 114 114 114 114 114 114 114 114 114 114 114 114 114 114 114 114 76 114 114 114 114 114 114 114 114 114 114 114 114 114 114 114 76 114 114 114 114 114 114 114 114 114 114 167 114 167 167 167 167 167 167 167 167 114 114 114 114 114 114 114 114 114 114 114 114 114 114 114 114 114 114 114 76 114 76 76 76 76 76 76 40 40 40 40 40 40 40 40 40 40 40 40 40 40 40 40 40 40 40 40 40 40 40 40 40 40 40 40 40 40 114 114 114 114 114 76 114 114 114 114 76 40 40 40 40 40 40 40 40 40 40 40 40 76 114 114 114 114 114 114 114 114 114 114 114 114 114 114 114 114 114 114 114 114 114 114 114 114 114 114 114 114 114 114 114 114 114 114 114 114 114 114 114 114 114 114 114 114 114 114 114 114 114 114 114 114 114 114 114 114 114 114 114 114 114 114 114 114 114 114 114 114 114 114 114 114 114 114 76 76 76 76 114 114 114 114 167 167 167 167 167 167 167 167 167 167 167 167 167 167 167 167 167 167 167 167 167 167 167 167 
114 114 167 167 114 114 167 167 167 167 167 167 114 114 167 167 167 167 114 114 114 114 114 114 114 114 114 114 76 76 76 76 76 76 40 40 40 40 40 40 40 40 76 76 40 40 76 76 76 76 76 114 114 114 76 76 76 114 114 114 76 76 40 40 40 40 40 76 76 76 76 40 40 76 76 40 76 76 40 40 40 40 40 76 76 76 40 40 40 76 76 40 76 76 40 40 76 76 40 40 76 76 114 114 76 40 40 40 76 76 40 40 40 40 40 40 40 40 40 40 40 40 40 40 40 40 40 40 40 40 40 40 40 76 76 76 76 40 40 76 40 40 40 40 114 114 114 76 76 76 76 40 76 40 40 40 40 40 40 40 40 40 40 40 40 40 40 40 40 40 40 40 40 40 76 114 76 76 114 76 76 114 114 167 167 167 114 114 167 76 40 40 40 40 40 40 40 40 40 40 40 40 40 40 40 76 76 76 40 40 40 40 40 40 76 76 76 76 76 76 76 76 114 76 114 114 114 114 114 114 114 114 114 114 114 114 114 114 114 114 114 114 114 114 114 114 114 114 114 114 114 114 114 114 114 114 114 114 114 114 114 114 114 114 114 114 114 114 114 114 114 114 114 114 114 114 114 114 114 114 114 114 114 114 114 114 114 114 76 76 114 114 114 114 114 114 114 114 114 114 114 114 114 114 114 114 114 114 114 114 114 114 114 114 167 167 167 167 167 167 167 167 167 167 167 114 114 114 114 114 114 114 114 114 114 114 114 114 114 114 114 114 114 114 76 76 76 76 76 76 76 40 40 40 40 40 40 40 40 40 40 40 40 40 40 40 40 40 40 40 40 40 40 40 40 40 40 40 40 40 40 40 114 114 114 114 114 76 114 114 114 114 76 40 40 40 40 40 40 40 40 40 40 40 40 76 114 114 114 114 114 114 114 114 114 114 114 114 114 114 114 114 114 114 114 114 114 114 114 114 114 114 114 114 114 114 114 114 114 114 114 114 114 114 114 114 114 114 114 114 114 114 114 114 114 114 114 114 114 114 114 114 114 114 114 114 114 114 114 114 114 114 114 114 114 114 114 114 114 114 114 114 114 114 114 114 114 167 167 167 167 167 167 167 167 167 167 167 167 167 167 167 167 167 167 167 167 167 167 167 167 167 
114 114 114 114 114 114 167 114 114 167 167 167 167 114 167 167 167 167 167 114 114 114 114 114 114 114 114 114 76 76 76 76 76 76 40 40 40 40 40 40 40 76 76 76 76 76 76 76 76 76 76 76 76 114 114 114 114 76 76 76 76 40 40 40 40 40 40 76 40 76 40 40 40 76 76 76 76 76 40 40 40 40 76 76 76 40 40 40 40 76 76 40 76 76 40 40 76 76 40 40 76 76 114 114 76 40 40 40 76 76 40 40 40 40 40 40 40 40 40 40 40 40 40 40 40 40 40 40 40 40 40 40 40 40 76 76 76 40 40 40 40 40 40 76 76 76 76 76 114 114 76 40 40 40 40 40 40 40 40 40 40 40 40 40 40 40 40 40 40 40 40 40 40 40 114 114 76 76 76 76 114 114 167 167 167 114 76 114 76 40 40 40 40 40 40 40 40 40 40 40 40 40 40 40 40 76 76 76 40 40 40 76 40 40 76 76 76 76 76 76 76 76 76 114 114 114 114 114 114 114 114 114 114 114 114 114 114 114 114 114 114 114 114 114 114 114 114 114 114 114 114 114 114 114 114 114 114 114 114 114 114 114 114 114 114 114 114 114 114 114 114 114 114 114 114 114 114 114 114 114 114 114 114 114 114 76 76 76 76 76 114 114 114 114 114 114 114 114 114 114 114 114 114 114 114 114 114 114 114 114 114 114 114 114 167 167 167 167 167 167 167 167 167 167 167 114 114 114 114 114 114 114 114 114 114 114 114 114 114 114 114 114 114 114 114 76 76 76 76 76 76 40 40 40 40 40 40 40 40 40 40 40 40 40 40 40 40 40 40 40 40 40 40 40 40 40 40 40 40 40 40 40 76 114 114 114 114 114 114 114 114 114 76 40 40 40 40 40 40 40 40 40 40 40 76 76 114 114 114 114 114 114 114 114 114 114 114 114 114 114 114 114 114 114 114 114 114 114 114 114 114 114 114 114 114 114 114 114 114 114 114 114 114 114 114 114 114 114 114 114 114 114 114 114 114 114 114 114 114 114 114 114 114 114 114 114 114 114 114 114 114 114 114 114 114 114 114 114 114 114 76 76 114 114 114 114 114 167 167 167 167 167 167 167 167 167 167 167 167 167 167 167 167 167 167 167 167 167 167 167 167 167 
114 114 114 114 114 167 114 114 114 114 167 167 167 167 114 114 167 167 167 114 114 114 114 114 114 114 114 114 76 76 76 76 76 40 40 40 40 40 40 40 40 40 76 76 76 76 76 76 114 114 76 76 40 76 76 114 76 76 76 76 76 40 40 40 40 40 76 76 40 40 40 40 76 76 76 40 76 40 40 40 40 76 76 40 40 40 40 40 76 76 76 40 40 40 40 40 76 40 40 40 76 76 76 114 76 40 40 40 40 114 40 40 40 40 40 40 40 40 40 40 40 40 40 40 40 40 40 40 40 40 40 40 40 40 76 40 40 40 40 40 40 76 76 167 167 114 76 40 40 40 40 40 40 76 114 114 76 40 40 40 40 40 40 40 40 40 40 40 40 40 40 76 76 76 114 76 76 76 76 76 114 167 167 167 114 76 76 114 114 76 40 40 40 40 40 40 40 40 40 40 40 40 40 40 40 76 76 40 40 40 40 76 76 40 76 76 76 76 76 76 76 76 76 114 114 114 114 114 114 114 114 114 114 114 114 114 114 114 114 114 114 114 114 114 114 114 114 114 114 114 114 114 114 114 114 114 114 114 114 114 114 114 114 114 114 114 114 114 114 114 114 114 114 114 114 114 114 114 114 114 114 114 114 114 114 76 76 76 76 76 114 114 114 114 114 114 114 114 114 114 114 114 114 114 114 114 114 114 114 114 114 114 114 114 167 167 167 167 167 167 167 167 167 167 167 114 114 114 114 114 114 114 114 114 114 114 114 114 114 114 114 114 114 76 76 76 76 76 76 76 40 40 40 40 40 40 40 40 40 40 40 40 40 40 40 40 40 40 40 40 40 40 40 40 40 40 40 40 40 40 40 40 76 114 114 114 114 114 114 114 114 114 76 40 40 40 40 40 40 40 40 40 40 76 76 76 114 114 114 114 114 114 114 114 114 114 114 114 114 114 114 114 114 114 114 114 114 114 114 114 114 114 114 114 114 114 114 114 114 114 114 114 114 114 114 114 114 114 114 114 114 114 114 114 114 114 114 114 114 114 114 114 114 114 114 114 114 114 114 114 114 114 114 114 114 114 114 114 114 114 76 114 114 114 114 114 167 167 167 167 167 167 167 167 167 167 167 167 167 167 167 167 167 167 167 167 167 167 167 167 167 167 
114 114 114 114 167 167 167 167 167 114 114 114 114 114 167 114 167 167 167 114 114 114 114 114 114 114 114 114 76 76 76 76 76 76 40 40 40 40 40 40 76 76 40 40 76 76 76 114 114 76 76 76 76 76 76 76 76 76 76 76 76 40 40 40 40 76 76 76 40 40 40 76 76 76 76 40 40 40 40 40 76 76 40 40 40 40 40 40 114 76 40 40 40 40 40 40 114 76 40 40 76 76 76 114 114 76 40 40 40 114 76 40 40 40 40 40 40 40 40 40 40 40 40 40 40 40 40 40 40 40 40 40 40 40 40 40 40 40 114 76 40 76 76 167 167 167 167 114 76 76 76 40 76 76 76 76 40 40 40 40 40 40 40 40 40 40 40 40 40 40 76 114 114 76 76 76 76 76 76 40 76 114 114 114 114 114 114 114 76 76 40 40 40 40 40 40 40 40 40 40 40 40 40 40 40 76 76 76 40 40 40 76 76 76 76 76 76 76 76 114 76 76 76 114 114 114 114 114 114 114 114 114 114 114 114 114 114 114 114 114 114 114 114 114 114 114 114 114 114 114 114 114 114 114 114 114 114 114 114 114 114 114 114 114 114 114 114 114 114 114 114 114 114 114 114 114 114 114 114 114 114 114 114 114 76 76 76 76 114 114 114 114 114 114 114 114 114 114 114 114 114 114 114 114 114 114 114 114 114 114 114 114 114 114 167 167 167 167 167 167 167 167 167 167 167 114 114 114 114 114 114 114 114 114 114 114 114 114 114 114 114 114 114 76 76 76 76 76 76 76 40 40 40 40 40 40 40 40 40 40 40 40 40 40 40 40 40 40 40 40 40 40 40 40 40 40 40 40 40 40 40 40 76 114 114 114 114 114 114 114 114 76 76 40 40 40 40 40 40 40 40 40 40 76 76 114 114 114 114 114 114 114 114 114 114 114 114 114 114 114 114 114 114 114 114 114 114 114 114 114 114 114 114 114 114 114 114 114 114 114 114 114 114 114 114 114 114 114 114 114 114 114 114 114 114 114 114 114 114 114 114 114 114 114 114 114 114 114 114 114 114 114 114 114 114 114 114 114 114 76 114 114 114 114 114 114 167 167 167 167 167 167 167 167 167 167 167 167 167 167 167 167 167 167 167 167 167 167 167 167 167 167 
114 114 114 114 114 114 167 167 114 114 114 114 114 114 114 167 167 167 167 167 114 114 114 114 114 114 114 114 76 76 76 76 76 40 40 40 40 40 40 40 40 76 76 76 76 114 114 76 76 76 76 76 76 76 76 76 76 76 76 76 40 40 40 40 40 40 40 40 40 40 40 76 76 76 76 40 40 40 40 40 40 40 40 40 40 40 40 76 114 76 40 40 40 40 40 40 114 76 40 40 40 76 76 114 114 76 40 40 40 76 114 40 40 40 40 40 40 40 40 40 40 40 40 40 40 40 40 40 40 40 40 40 76 40 40 40 40 40 114 167 40 40 40 76 76 114 167 167 167 114 114 76 76 40 40 40 40 40 40 40 40 40 40 40 40 40 40 40 40 76 114 114 114 114 76 76 76 76 76 76 40 40 76 76 114 114 114 114 76 40 40 40 40 40 40 40 40 40 40 40 40 40 40 40 40 76 76 76 76 40 40 40 40 40 76 76 76 76 76 76 76 76 76 114 114 114 114 114 114 114 114 114 114 114 114 114 114 114 114 114 114 114 114 114 114 114 114 114 114 114 114 114 114 114 114 114 114 114 114 114 114 114 114 114 114 114 114 114 114 114 114 114 114 114 114 114 114 114 114 114 114 114 114 114 114 76 76 76 76 114 114 114 114 114 114 114 114 114 114 114 114 114 114 114 114 114 114 114 114 114 114 114 114 114 167 167 167 167 167 167 167 167 167 167 167 114 114 114 114 114 114 114 114 114 114 114 114 114 114 114 114 76 114 76 76 76 76 76 76 76 40 40 40 40 40 40 40 40 40 40 40 40 40 40 40 40 40 40 40 40 40 40 40 40 40 40 40 40 40 40 40 40 76 114 114 114 114 114 114 114 114 76 76 40 40 40 40 40 40 40 40 40 40 76 76 114 114 114 114 114 114 114 114 114 114 114 114 114 114 114 114 114 114 114 114 114 114 114 114 114 114 114 114 114 114 114 114 114 114 114 114 114 114 114 114 114 114 114 114 114 114 114 114 114 114 114 114 114 114 114 114 114 114 114 114 114 114 114 114 114 114 114 114 114 114 114 114 114 114 76 76 114 114 114 114 167 167 167 167 167 167 167 167 167 167 167 167 167 167 167 167 167 167 167 167 167 167 167 167 167 167 167 
114 114 114 167 114 114 167 167 114 114 167 167 114 114 114 167 167 167 167 167 114 114 114 114 114 114 114 114 76 114 76 76 76 40 40 40 40 40 40 40 76 76 114 114 114 114 76 76 76 76 76 76 76 76 76 76 76 76 76 76 40 40 76 40 40 76 76 76 40 40 40 76 76 76 40 40 40 40 76 40 40 40 40 40 40 40 40 114 76 76 40 40 40 40 76 76 114 76 76 40 40 114 114 76 114 76 40 40 40 40 114 40 40 40 40 40 40 40 40 40 40 40 40 40 40 40 40 40 40 40 40 40 76 40 76 76 114 114 76 167 114 40 40 40 40 40 40 76 114 76 40 40 40 40 40 40 40 40 40 40 40 40 40 40 40 40 40 40 76 167 114 114 114 114 114 114 114 114 76 76 76 76 114 114 114 167 114 114 76 76 40 40 40 40 40 40 40 40 40 40 40 40 40 40 40 76 76 76 40 76 76 40 40 76 76 76 76 76 76 76 114 114 114 114 114 114 114 114 114 114 114 114 114 114 114 114 114 114 114 114 114 114 114 114 114 114 114 114 114 114 114 114 114 114 114 114 114 114 114 114 114 114 114 114 114 114 114 114 114 114 114 114 114 114 114 114 114 114 114 114 114 114 114 114 114 76 76 76 76 114 114 114 114 114 114 114 114 114 114 114 114 114 114 114 114 114 114 76 76 114 114 114 114 114 114 167 167 167 167 167 167 167 167 167 167 114 114 114 114 114 114 114 114 114 114 114 114 114 114 114 76 76 76 76 76 76 76 76 76 76 40 40 40 40 40 40 40 40 40 40 40 40 40 40 40 40 40 40 40 40 40 40 40 40 40 40 40 40 40 40 40 40 76 114 114 114 114 114 114 114 114 76 76 76 40 40 40 40 40 40 40 40 40 76 114 114 114 114 114 114 114 114 114 114 114 114 114 114 114 114 114 114 114 114 114 114 114 114 114 114 114 114 114 114 114 114 114 114 114 114 114 114 114 114 114 114 114 114 114 114 114 114 114 114 114 114 114 114 114 114 114 114 114 114 114 114 114 114 114 114 114 114 114 114 114 114 114 114 114 76 76 114 114 114 114 114 167 167 167 167 167 167 167 167 167 167 167 167 167 167 167 167 167 167 167 167 167 167 167 167 167 167 
114 114 114 114 167 167 114 167 167 167 167 167 167 167 114 114 114 114 167 114 114 114 114 114 114 114 114 114 114 114 114 76 76 40 40 40 40 40 40 76 76 114 114 114 114 76 76 76 76 76 76 76 76 76 76 76 76 76 76 40 40 76 40 40 40 40 76 76 40 40 76 76 76 76 76 40 40 76 40 40 40 40 40 40 40 40 76 114 76 40 40 40 40 40 40 76 114 76 40 40 40 76 114 114 114 76 40 40 40 40 76 76 40 40 40 40 40 40 40 40 40 40 40 40 40 40 40 40 40 40 40 40 40 40 40 76 114 114 114 114 76 40 40 40 40 40 40 40 40 40 40 40 40 40 40 40 40 40 40 40 40 40 40 40 40 40 40 40 114 114 114 114 114 114 114 114 114 114 167 114 114 114 167 167 167 114 114 76 40 40 40 40 40 40 40 40 40 40 40 40 40 40 40 40 40 76 76 76 40 40 76 40 40 76 76 76 76 76 76 76 76 76 114 114 114 114 114 114 114 114 114 114 114 114 114 114 114 114 114 114 114 114 114 114 114 114 114 114 114 114 114 114 114 114 114 114 114 114 114 114 114 114 114 114 114 114 114 114 114 114 114 114 114 114 114 114 114 114 114 114 114 114 114 114 114 76 76 76 114 114 114 114 114 114 114 114 114 114 114 114 114 114 114 114 114 114 114 114 114 114 76 114 114 114 114 114 167 167 167 167 167 167 167 167 114 114 114 114 114 114 114 114 114 114 114 114 114 114 114 114 76 114 76 76 76 76 76 76 40 40 40 40 40 40 40 40 40 40 40 40 40 40 40 40 40 40 40 76 40 40 40 40 40 40 40 40 40 40 40 40 40 40 40 114 114 114 114 114 114 114 114 114 76 76 40 40 40 40 40 40 40 40 40 76 114 114 114 114 114 114 114 114 114 114 114 114 114 114 114 114 114 114 114 114 114 114 114 114 114 114 114 114 114 114 114 114 114 114 114 114 114 114 114 114 114 114 114 114 114 114 114 114 114 114 114 114 114 114 114 114 114 114 114 114 114 114 114 114 114 114 114 114 114 114 114 114 114 114 114 114 114 114 114 114 167 167 167 167 167 167 167 167 167 167 167 167 167 167 167 167 167 167 167 167 167 167 167 167 167 167 167 167 
114 114 114 114 114 167 114 114 167 114 114 114 114 167 167 167 114 114 167 114 114 114 114 114 114 114 114 114 114 76 76 76 76 76 76 40 40 40 76 76 114 114 114 76 76 76 76 76 76 76 76 76 76 76 76 76 76 76 76 76 40 40 40 40 40 40 76 76 40 76 76 76 76 76 40 40 40 40 40 40 40 40 40 40 40 40 76 76 40 40 40 40 40 40 40 76 76 76 40 40 40 40 76 114 114 76 40 40 40 40 76 114 40 40 40 40 40 40 40 40 40 40 40 40 40 40 40 40 40 40 40 40 40 40 40 40 40 40 40 40 40 40 40 40 40 40 40 76 76 76 76 40 40 40 40 40 40 40 40 40 40 40 40 40 40 40 40 76 114 114 114 114 114 114 114 114 114 114 167 167 167 114 167 167 114 76 76 40 40 40 40 40 40 40 40 40 40 40 40 40 40 40 40 40 40 76 76 76 76 76 40 40 76 76 76 76 76 76 76 114 76 114 114 114 114 114 114 114 114 114 114 114 114 114 114 114 114 114 114 114 114 114 114 114 114 114 114 114 114 114 114 114 114 114 114 114 114 114 114 114 114 114 114 114 114 114 114 114 114 114 114 114 114 114 114 114 114 114 114 114 114 114 114 114 114 76 76 114 114 114 114 114 114 114 114 114 114 114 114 114 114 114 114 114 114 114 76 114 114 114 114 114 114 114 114 114 167 167 167 167 167 167 167 114 114 114 114 114 114 114 114 114 114 114 114 114 114 114 114 114 114 76 114 76 76 76 76 76 40 40 40 40 40 40 40 40 40 40 40 40 40 40 40 40 40 40 40 40 40 40 40 40 40 40 40 40 40 40 40 40 40 40 40 114 114 114 114 114 114 114 76 114 76 76 40 40 40 40 40 40 40 40 76 76 114 114 114 114 114 114 114 114 114 114 114 114 114 114 114 114 114 114 114 114 114 114 114 114 114 114 114 114 114 114 114 114 114 114 114 114 114 114 114 114 114 114 114 114 114 114 114 114 114 114 114 114 114 114 114 114 114 114 114 114 114 114 114 114 114 114 114 114 114 114 114 114 114 114 114 114 114 114 114 114 167 167 167 167 167 167 167 167 167 167 167 167 167 167 167 167 167 167 167 167 167 167 167 167 167 167 167 167 
114 114 114 167 114 167 114 114 114 114 114 114 167 167 114 114 167 167 167 167 114 114 114 114 114 114 114 114 114 76 76 76 76 40 40 40 76 76 76 76 114 76 76 76 76 40 76 76 76 76 76 76 76 76 76 76 76 76 76 40 40 40 40 40 40 40 76 76 40 76 76 76 76 40 40 40 40 40 40 40 40 40 40 40 40 40 76 76 40 40 40 40 40 40 40 40 76 76 76 40 40 40 76 114 114 114 40 40 40 40 76 114 76 40 40 40 40 40 40 40 40 40 40 40 40 40 40 40 40 40 40 40 40 40 40 40 40 40 40 40 40 40 40 40 40 40 40 40 76 76 76 76 40 40 40 40 40 40 40 40 40 40 40 40 40 40 40 114 114 114 114 114 167 167 114 114 114 114 114 114 114 114 167 114 114 76 76 40 40 40 40 40 40 40 40 40 40 40 40 40 40 40 40 40 40 76 76 76 40 40 40 40 76 76 76 76 76 76 76 76 76 76 76 114 114 114 114 114 114 114 114 114 114 114 114 114 114 114 114 114 114 114 114 114 114 114 114 114 114 114 114 114 114 114 114 114 114 114 114 114 114 114 114 114 114 114 114 114 114 114 114 114 114 114 114 114 114 114 114 114 114 114 114 114 114 76 76 76 114 114 114 114 114 114 76 76 76 76 76 76 76 114 76 114 114 114 114 114 114 114 76 114 114 114 114 114 114 167 167 167 167 167 167 114 114 114 114 114 114 114 114 114 114 114 114 114 114 114 114 76 76 114 76 76 76 76 76 40 40 40 40 40 40 40 40 40 40 40 40 40 40 40 40 40 40 40 40 40 40 40 40 40 40 40 40 40 40 40 40 40 40 40 40 76 114 114 167 114 114 76 76 114 114 76 40 40 40 40 40 40 40 40 76 76 114 114 114 114 114 114 114 114 114 114 114 114 114 114 114 114 114 114 114 114 114 114 114 114 114 114 114 114 114 114 114 114 114 114 114 114 114 114 114 114 114 114 114 114 114 114 114 114 114 114 114 114 114 114 114 114 114 114 114 114 114 114 114 114 114 114 114 114 114 114 114 114 114 114 114 114 114 114 114 114 167 167 167 167 167 167 167 167 167 167 167 167 167 167 167 167 167 167 167 167 167 167 167 167 167 167 167 167 
114 114 114 114 167 167 167 114 167 114 114 114 114 114 114 167 167 167 114 167 167 114 114 114 114 114 114 114 114 114 76 76 76 76 76 76 76 114 76 76 76 76 76 40 76 76 76 76 76 76 76 76 76 76 76 76 76 76 76 40 40 40 40 40 40 40 76 76 76 76 40 76 76 76 76 40 40 40 40 40 40 40 40 40 76 114 114 40 40 40 40 40 40 40 40 40 76 76 76 76 40 40 76 114 114 114 76 40 40 40 40 114 114 40 40 40 40 40 40 40 40 40 40 40 40 40 76 40 40 40 40 40 40 40 40 40 40 40 40 40 40 40 40 40 40 40 40 40 76 40 40 40 40 40 40 40 40 40 40 40 40 40 40 40 40 40 40 167 167 114 167 114 167 114 114 114 167 167 167 167 114 114 114 76 76 76 40 40 40 40 40 40 40 40 40 40 40 40 40 40 40 40 40 40 40 76 76 76 76 76 76 40 76 76 76 76 76 76 76 76 76 114 114 114 114 114 114 114 114 114 114 114 114 114 114 114 114 114 114 114 114 114 114 114 114 114 114 114 114 114 114 114 114 114 114 114 114 114 114 114 114 114 114 114 114 114 114 114 114 114 114 114 114 114 114 114 114 114 114 114 114 114 114 114 114 76 76 76 114 114 114 114 114 76 76 40 40 40 40 40 40 40 76 76 76 76 114 114 114 114 76 76 114 114 114 114 114 167 167 167 167 167 114 114 114 114 114 114 114 114 114 114 114 114 114 114 114 114 114 76 76 114 76 76 76 76 76 40 40 40 40 40 40 40 40 40 40 40 40 40 40 40 40 40 40 40 40 40 40 40 40 40 40 40 40 40 40 40 40 40 40 40 40 76 114 114 114 114 114 76 76 114 114 76 40 40 40 40 40 40 40 40 76 114 114 114 114 114 114 114 114 114 114 114 114 114 114 114 114 114 114 114 114 114 114 114 114 114 114 114 114 114 114 114 114 114 114 114 114 114 114 114 114 114 114 114 114 114 114 114 114 114 114 114 114 114 114 114 114 114 114 114 114 114 114 114 114 114 114 114 114 114 114 114 114 114 114 114 114 114 114 114 114 114 167 167 167 167 167 167 167 167 167 167 167 167 167 167 167 167 167 167 167 167 167 167 167 167 167 167 167 167 
114 114 114 114 167 167 114 167 114 114 114 114 114 167 167 167 167 167 114 114 167 114 114 114 114 114 114 114 114 114 76 76 76 76 76 76 40 40 40 40 40 40 76 40 76 76 76 76 76 76 76 76 76 76 76 76 76 76 40 40 40 40 40 40 40 40 76 76 76 40 40 76 76 76 76 40 40 40 40 40 40 40 40 76 114 114 76 40 40 40 40 40 40 40 40 40 76 76 40 76 76 40 76 76 114 167 76 40 40 40 40 114 114 40 40 40 40 40 40 40 40 40 40 40 40 40 76 40 40 40 40 40 40 40 40 40 40 40 40 40 40 40 40 40 76 167 114 76 40 40 76 40 40 40 40 40 40 40 40 40 40 40 40 40 40 40 76 167 114 114 167 114 167 114 167 167 167 167 167 114 114 114 114 76 40 40 40 40 40 40 40 40 40 40 40 40 40 40 40 40 40 40 40 40 40 76 76 76 76 76 40 76 76 76 76 76 76 76 76 76 76 76 114 76 114 114 114 114 114 114 114 114 114 114 114 114 114 114 114 114 114 114 114 114 114 114 114 114 114 114 114 114 114 114 114 114 114 114 114 114 114 114 114 114 114 114 114 114 114 114 114 114 114 114 114 114 114 114 114 114 114 114 114 114 114 114 76 76 114 114 76 114 114 76 76 40 40 40 40 40 40 40 76 76 40 40 76 76 76 114 114 114 114 114 114 114 114 114 167 167 167 167 114 114 114 114 114 114 114 114 114 114 114 114 114 114 114 114 114 114 114 114 114 76 76 76 40 40 40 40 40 40 40 40 40 40 40 40 40 40 40 40 40 40 40 40 40 40 40 40 40 40 40 40 40 40 40 40 40 40 40 40 40 76 114 114 114 114 114 76 76 114 114 76 76 40 40 40 40 40 40 40 76 114 114 114 114 114 114 114 114 114 114 114 114 114 114 114 114 114 114 114 114 114 114 114 114 114 114 114 114 114 114 114 114 114 114 114 114 114 114 114 114 114 114 114 114 114 114 114 114 114 114 114 114 114 114 114 114 114 114 114 114 114 114 114 114 114 114 114 114 114 114 114 114 114 114 114 114 114 114 114 114 167 167 167 167 167 167 167 167 167 167 167 167 167 167 167 167 167 167 167 167 167 167 167 167 167 167 167 167 167 
114 167 114 114 114 114 114 114 114 114 114 167 167 167 114 114 167 167 114 114 114 114 114 114 114 114 114 114 114 114 76 76 76 76 76 40 40 40 40 40 40 40 76 76 76 76 76 76 76 76 76 76 76 76 76 76 76 76 40 40 40 40 40 40 40 76 76 40 40 40 76 114 114 76 40 40 40 40 40 40 40 40 40 76 114 114 76 40 40 40 40 40 40 40 40 40 76 76 76 76 76 40 76 76 114 167 114 40 40 40 40 76 114 40 40 40 40 40 40 40 40 40 40 40 40 40 40 40 40 40 40 40 40 40 40 40 40 40 40 40 40 40 40 40 114 167 167 114 40 40 40 40 40 40 40 40 40 40 40 40 40 40 40 40 40 40 114 114 114 114 167 167 167 167 114 167 167 167 167 167 167 114 76 76 40 40 40 40 40 40 40 40 40 40 40 40 40 40 40 40 40 40 40 40 40 76 76 76 76 40 76 76 76 76 76 76 76 76 76 76 114 114 114 76 114 114 114 114 114 114 114 114 114 114 114 114 114 114 114 114 114 114 114 114 114 114 114 114 114 114 114 114 114 114 114 114 114 114 114 114 114 114 114 114 114 114 114 114 114 114 114 114 114 114 114 114 114 114 114 114 114 114 114 114 114 114 114 76 76 114 76 114 114 76 76 76 76 40 40 76 76 76 76 76 76 76 76 40 76 76 76 114 114 114 114 114 114 114 167 167 167 167 167 114 114 114 114 114 114 114 114 114 114 114 114 114 114 76 114 114 114 76 76 114 76 76 40 40 40 40 40 40 40 40 40 40 40 40 40 40 40 40 40 40 40 40 40 76 40 40 40 40 40 40 40 40 40 40 40 40 40 40 40 76 114 114 167 114 114 76 76 114 114 76 76 40 40 40 40 40 40 76 76 114 114 114 114 114 114 114 114 114 114 114 114 114 114 114 114 114 114 114 114 114 114 114 114 114 114 114 114 114 114 114 114 114 114 114 114 114 114 114 114 114 114 114 114 114 114 114 114 114 114 114 114 114 114 114 114 114 114 114 114 114 114 114 114 114 114 114 114 114 114 114 114 114 114 114 114 76 114 114 114 167 167 167 167 167 167 167 167 167 167 167 167 167 167 167 167 167 167 167 167 167 167 167 167 167 167 167 167 167 
114 114 114 114 114 114 114 114 167 167 167 114 114 114 114 114 114 114 114 114 114 114 114 114 114 114 114 114 114 114 76 76 76 76 40 40 40 76 76 40 40 76 76 40 76 76 76 76 76 76 76 76 76 76 76 76 76 76 40 40 40 40 40 40 40 76 76 40 40 76 76 114 114 76 40 40 40 40 40 40 40 40 40 76 114 76 40 76 40 40 40 76 40 40 40 40 76 76 76 40 40 76 76 76 76 114 114 76 40 40 40 76 114 76 40 40 40 40 40 40 40 40 40 40 40 40 40 40 40 40 40 40 40 40 40 40 40 40 40 40 76 76 40 40 76 114 114 114 76 40 40 40 40 40 40 40 40 40 40 40 40 40 40 40 40 76 114 114 114 114 114 167 167 167 167 167 167 167 167 167 167 76 40 40 40 40 40 40 40 40 40 40 40 40 40 40 40 40 40 40 40 40 40 40 40 76 76 76 76 76 40 76 76 76 76 76 76 76 76 76 76 76 114 76 114 114 114 114 114 114 114 114 114 114 114 114 114 114 114 114 114 114 114 114 114 114 114 114 114 114 114 114 114 114 114 114 114 114 114 114 114 114 114 114 114 114 114 114 114 114 114 114 114 114 114 114 114 114 114 114 114 114 114 114 114 114 114 76 76 76 114 114 114 114 114 114 114 114 114 114 76 114 114 114 76 76 76 76 76 76 76 76 76 76 114 114 114 114 167 167 167 167 114 114 114 114 114 114 114 114 114 114 114 114 114 114 114 114 76 114 76 76 76 76 76 40 40 40 40 40 40 40 40 40 40 40 40 40 40 40 40 40 40 40 40 40 40 40 40 40 40 40 40 40 40 40 40 40 40 40 40 40 40 40 114 114 114 114 114 114 76 114 114 76 76 40 40 40 40 40 76 76 114 114 114 114 114 114 114 114 114 114 114 114 114 114 114 114 114 114 114 114 114 114 114 114 114 114 114 114 114 114 114 114 114 114 114 114 114 114 114 114 114 114 114 114 114 114 114 114 114 114 114 114 114 114 114 114 114 114 114 114 114 114 114 114 114 114 114 114 114 114 114 114 114 114 114 114 114 114 114 114 114 167 167 167 167 167 167 167 167 167 167 167 167 167 167 167 167 167 167 167 167 167 167 167 167 167 167 167 167 167 
114 114 114 114 114 114 114 114 114 114 114 114 114 114 167 167 167 167 167 114 114 114 114 114 114 114 114 114 114 114 76 76 76 76 40 40 40 40 76 40 76 40 76 40 76 76 76 76 76 76 76 76 76 76 76 76 76 76 40 40 76 76 40 40 40 40 76 40 40 76 114 114 76 76 40 40 40 40 40 40 40 40 76 76 76 40 40 40 76 40 76 76 40 40 40 40 40 76 76 40 40 76 76 76 76 114 114 76 40 40 40 76 114 76 40 40 40 40 40 40 40 40 76 76 40 40 40 40 40 40 40 40 40 40 40 40 40 40 40 40 40 76 76 76 76 76 40 40 40 40 40 40 40 40 40 40 40 40 40 40 40 40 40 40 40 76 114 114 114 114 114 114 167 167 114 167 167 167 167 167 114 76 40 40 40 40 40 40 40 40 40 40 40 40 40 40 40 40 40 40 40 40 40 40 40 76 76 76 76 76 40 76 76 76 76 76 76 76 76 76 76 76 114 114 114 114 114 114 114 114 114 114 114 114 114 114 114 114 114 114 114 114 114 114 114 114 114 114 114 114 114 114 114 114 114 114 114 114 114 114 114 114 114 114 114 114 114 114 114 114 114 114 114 114 114 114 114 114 114 114 114 114 114 114 114 114 114 76 76 76 114 114 76 114 114 114 114 114 114 114 114 114 114 114 76 114 114 76 76 76 76 76 76 76 114 114 114 167 167 167 167 167 114 114 114 114 114 114 114 114 114 114 114 114 114 114 114 114 114 76 76 76 76 76 76 40 40 40 40 40 40 40 40 40 40 40 40 40 40 40 40 40 40 40 40 40 40 40 40 40 40 40 40 40 40 40 40 40 40 40 40 40 40 40 114 114 167 114 114 114 76 114 114 76 76 40 40 40 40 40 40 76 114 114 114 114 114 114 114 114 114 114 114 114 114 114 114 114 114 114 114 114 114 114 114 114 114 114 114 114 114 114 114 114 114 114 114 114 114 114 114 114 114 114 114 114 114 114 114 114 114 114 114 114 114 114 114 114 114 114 114 114 114 114 114 114 114 114 114 114 114 114 114 114 114 114 114 114 114 114 114 114 114 167 167 167 167 167 167 167 167 167 167 167 167 167 167 167 167 167 167 167 167 167 167 167 167 167 167 167 167 167 
114 114 114 114 114 167 167 114 114 114 114 114 114 114 114 114 167 167 167 114 114 114 114 114 114 114 114 114 114 114 76 76 76 76 40 40 40 40 40 40 40 40 40 76 76 76 76 76 76 76 76 76 76 76 76 76 76 76 40 40 76 76 76 40 40 76 40 40 40 76 76 76 76 40 76 76 40 40 40 40 40 40 76 114 76 76 40 40 40 76 76 76 40 40 40 40 40 76 76 76 40 40 76 76 76 76 167 114 40 40 40 40 114 114 40 40 40 40 40 40 40 40 40 40 40 40 40 40 76 40 40 40 40 40 40 40 40 40 40 40 40 40 76 76 76 76 40 40 40 40 40 40 40 40 40 40 40 40 40 40 40 40 40 40 76 114 114 114 114 114 114 114 114 114 114 114 114 114 114 114 114 40 40 40 40 40 40 40 40 40 40 40 40 40 40 40 40 40 40 40 40 40 40 40 40 76 114 76 76 76 40 76 40 76 76 76 76 114 76 76 114 114 76 114 114 114 114 114 114 114 114 114 114 114 114 114 114 114 114 114 114 114 114 114 114 114 114 114 114 114 114 114 114 114 114 114 114 114 114 114 114 114 114 114 114 114 114 114 114 114 114 114 114 114 114 114 114 114 114 114 114 114 114 114 114 114 114 114 114 114 114 76 114 114 114 114 114 114 114 114 114 114 114 114 114 114 114 114 114 114 114 114 114 114 114 167 167 167 167 167 167 167 167 114 114 114 114 114 114 114 114 114 114 114 114 114 114 114 76 114 114 76 76 76 40 40 40 40 40 40 40 40 40 40 40 40 40 40 40 40 40 40 40 40 40 40 40 40 40 40 40 40 40 40 40 40 40 40 40 40 40 40 40 40 76 114 167 114 114 114 76 114 114 76 76 76 40 40 40 40 76 76 114 114 114 114 114 114 114 114 114 114 114 114 114 114 114 114 114 114 114 114 114 114 114 114 114 114 114 114 114 114 114 114 114 114 114 114 114 114 114 114 114 114 114 114 114 114 114 114 114 114 114 114 114 114 114 114 114 114 114 114 114 114 114 114 114 114 114 114 114 114 114 114 114 114 76 76 114 114 114 114 167 167 167 167 167 167 167 167 167 167 167 167 167 167 167 167 167 167 167 167 167 167 167 167 167 167 167 167 167 167 
114 114 114 114 114 114 114 114 114 114 114 114 114 114 114 114 114 167 167 167 114 114 114 114 114 114 114 114 114 114 76 76 76 76 40 40 40 40 40 40 76 40 40 76 76 76 76 76 76 76 76 76 76 76 76 76 76 76 40 40 76 76 40 40 40 76 40 40 40 40 40 76 76 40 40 40 40 40 40 40 40 76 114 76 76 76 40 40 40 40 76 76 76 40 40 40 76 114 114 76 40 40 76 76 76 76 114 114 76 40 40 40 114 114 40 40 40 40 40 40 40 40 40 40 40 40 76 114 114 76 40 40 40 40 40 40 40 40 40 40 40 40 76 114 76 40 40 40 40 40 40 40 40 40 40 40 40 40 40 40 40 40 76 76 76 76 76 76 114 114 114 114 76 114 114 114 114 114 76 76 40 40 40 40 40 40 40 40 40 40 40 40 40 40 40 40 40 40 40 40 40 40 40 40 40 76 76 76 76 76 40 76 76 76 76 76 76 76 76 76 76 76 76 114 114 114 114 114 114 114 114 114 114 114 114 114 114 114 114 114 114 114 114 114 114 114 114 114 114 114 114 114 114 114 114 114 114 114 114 114 114 114 114 114 114 114 114 114 114 114 114 114 114 114 114 114 114 114 114 114 114 114 114 114 114 114 114 114 114 114 114 114 114 114 76 114 114 114 114 114 114 114 114 114 114 114 76 114 114 114 114 167 167 167 167 167 167 167 167 167 114 114 114 114 114 114 114 114 114 114 114 114 114 114 114 114 114 114 114 76 114 76 76 76 40 40 40 40 40 40 40 40 40 40 40 40 40 40 40 40 40 40 40 40 40 40 40 40 40 40 40 40 40 40 40 40 40 40 40 40 40 40 40 40 76 114 114 114 114 76 76 114 114 76 76 76 40 40 40 40 76 76 114 114 114 114 114 114 114 114 114 114 114 114 114 114 114 114 114 114 114 114 114 114 114 114 114 114 114 114 114 114 114 114 114 114 114 114 114 114 114 114 114 114 114 114 114 114 114 114 114 114 114 114 114 114 114 114 114 114 114 114 114 114 114 114 114 114 114 114 114 114 114 114 114 114 76 76 114 114 114 114 167 167 167 167 167 167 167 167 167 167 167 167 167 167 167 167 167 167 167 167 167 167 167 167 167 167 167 167 167 167 
114 114 114 114 114 114 114 167 114 114 114 114 114 114 114 167 114 167 167 167 167 114 114 114 114 114 114 114 114 114 76 76 76 40 40 40 40 40 40 40 76 40 40 76 76 76 76 76 76 76 76 76 114 76 76 76 76 76 40 40 76 76 40 40 40 76 40 76 40 40 40 76 76 40 40 40 40 40 40 40 76 114 76 76 40 76 76 40 40 40 40 76 76 40 40 40 40 76 76 76 40 40 76 76 76 40 114 167 114 40 40 40 76 114 76 40 40 40 40 40 40 40 40 40 40 40 114 114 114 76 40 40 40 40 40 40 40 40 40 40 40 40 76 76 76 40 40 40 40 40 40 40 40 40 40 40 76 76 40 76 76 76 76 114 76 76 76 76 76 76 76 76 76 114 167 167 167 114 76 40 40 40 40 40 40 40 40 40 40 40 40 40 40 40 40 40 40 40 40 40 40 40 40 40 40 76 114 76 76 76 40 76 76 76 76 76 76 76 76 76 76 76 76 114 114 114 114 114 114 114 114 114 114 114 114 114 114 114 114 114 114 114 114 114 114 114 114 114 114 114 114 114 114 114 114 114 114 114 114 114 114 114 114 114 114 114 114 114 114 114 114 114 114 114 114 114 114 114 114 114 114 114 114 114 114 114 114 114 114 114 114 114 114 114 114 114 114 114 114 114 114 114 114 114 114 114 76 114 114 114 167 167 167 167 167 167 167 167 167 167 167 114 114 114 114 114 114 114 114 114 114 114 114 114 114 114 114 114 76 76 76 76 76 76 40 40 40 40 40 40 40 40 40 40 40 40 40 40 40 40 40 40 40 40 40 40 40 40 40 40 40 40 40 40 40 40 40 40 40 40 40 40 40 40 76 114 114 167 114 76 76 114 114 76 76 76 40 40 40 40 76 114 114 114 114 114 114 114 114 114 114 114 114 114 114 114 114 114 114 114 114 114 114 114 114 114 114 114 114 114 114 114 114 114 114 114 114 114 114 114 114 114 114 114 114 114 114 114 114 114 114 114 114 114 114 114 114 114 114 114 114 114 114 114 114 114 114 114 114 114 114 114 76 114 114 114 114 76 114 114 114 114 167 167 167 167 167 167 167 167 167 167 167 167 167 167 167 167 167 167 167 167 167 167 167 167 167 167 167 167 167 167 
114 114 114 114 114 114 114 114 114 114 114 114 114 114 167 167 167 167 167 114 114 114 114 114 114 114 114 114 114 76 76 76 76 76 40 40 40 40 40 40 76 76 40 76 76 76 76 76 76 76 76 76 76 76 76 76 76 40 40 40 40 40 40 40 40 76 40 76 40 40 40 40 40 40 40 40 40 40 40 76 76 76 76 76 40 40 40 76 40 40 40 40 40 40 40 40 40 76 76 76 40 40 40 76 76 40 76 114 114 40 76 76 76 114 76 40 40 40 40 40 40 40 40 40 40 40 76 114 167 76 40 76 40 40 40 40 40 40 40 40 40 76 76 40 76 76 40 40 40 40 40 40 76 76 40 76 76 76 76 76 76 114 114 114 76 76 76 76 76 76 76 76 76 114 167 167 167 114 40 40 40 40 40 40 40 40 40 40 40 40 40 40 40 40 40 40 40 40 40 40 40 40 40 40 40 76 76 76 76 76 40 76 76 76 76 76 76 76 76 76 76 114 76 76 114 114 114 114 114 114 114 114 114 114 114 114 114 114 114 114 114 114 114 114 114 114 114 114 114 114 114 114 114 114 114 114 114 114 114 114 114 114 114 114 114 114 114 114 114 114 114 114 114 114 114 114 114 114 114 114 114 114 114 114 114 114 114 114 114 114 114 114 114 114 114 114 114 114 114 114 114 114 114 114 114 114 114 114 114 114 167 167 167 167 167 167 167 167 167 167 167 167 167 114 114 114 114 114 114 114 114 114 114 114 114 76 114 76 76 114 76 76 76 40 40 40 40 40 40 40 40 40 40 40 40 40 40 40 40 40 40 40 40 40 40 40 40 40 40 40 40 40 40 40 40 40 40 40 40 40 40 40 40 40 76 114 114 114 114 114 76 114 114 76 76 76 40 40 40 40 76 114 114 114 114 114 114 114 114 114 114 114 114 114 114 114 114 114 114 114 114 114 114 114 114 114 114 114 114 114 114 114 114 114 114 114 114 114 114 114 114 114 114 114 114 114 114 114 114 114 114 114 114 114 114 114 114 114 114 114 114 114 114 114 114 114 114 114 114 114 114 114 114 114 114 114 114 114 114 114 114 114 167 167 167 167 167 167 167 167 167 167 167 167 167 167 167 167 167 167 167 167 167 167 167 167 167 167 167 167 167 167 
114 114 114 114 114 114 114 114 114 114 114 114 114 114 167 167 167 167 167 167 114 114 114 114 114 114 114 114 114 76 76 76 76 76 40 40 40 40 40 40 40 76 76 76 76 76 76 76 76 76 76 76 76 76 76 76 76 76 40 40 40 40 40 40 40 76 76 76 76 40 40 40 40 40 40 40 40 40 76 76 76 76 40 40 40 40 40 76 40 40 40 40 40 40 40 40 40 76 76 40 40 40 40 76 76 40 40 114 114 76 40 76 76 76 114 40 40 40 40 40 40 40 40 40 40 40 76 114 114 114 114 114 40 40 40 40 40 40 40 40 40 76 76 40 40 76 76 40 40 40 40 40 76 76 76 76 76 76 76 114 114 167 114 76 76 76 76 76 40 76 76 76 114 167 167 167 114 40 40 40 40 40 40 40 40 40 40 40 40 40 40 40 40 40 40 40 40 40 40 40 40 40 40 40 40 76 76 76 76 76 40 76 76 76 76 76 76 76 76 76 114 114 76 76 76 76 114 114 114 114 114 114 114 114 114 114 114 114 114 114 114 114 114 114 114 114 114 114 114 114 114 114 114 114 114 114 114 114 114 114 114 114 114 114 114 114 114 114 114 114 114 114 114 114 114 114 114 114 114 114 114 114 114 114 114 114 114 114 114 114 114 114 114 114 114 114 114 114 114 114 114 114 114 167 167 114 114 114 114 114 167 167 167 167 167 167 167 167 167 167 167 114 114 114 114 114 114 114 114 114 114 114 114 114 114 76 114 76 114 114 76 76 76 40 40 40 40 40 40 40 40 40 40 40 40 40 40 40 40 40 40 40 40 40 76 40 40 40 40 40 40 40 40 40 40 40 40 40 40 40 40 40 40 40 40 76 114 114 114 114 40 114 114 76 76 76 40 40 40 40 76 114 114 114 114 114 114 114 114 114 114 114 114 114 114 114 114 114 114 114 114 114 114 114 114 114 114 114 114 114 114 114 114 114 114 114 114 114 114 114 114 114 114 114 114 114 114 114 114 114 114 114 114 114 114 114 114 114 114 114 114 114 114 114 114 114 114 114 114 114 114 114 114 114 114 114 114 114 114 114 114 114 167 167 167 167 167 167 167 167 167 167 167 167 167 167 167 167 167 167 167 167 167 167 167 167 167 167 167 167 167 167 
114 114 114 114 114 167 114 114 114 114 114 114 114 114 167 167 167 167 167 167 167 114 114 114 114 114 114 114 114 114 76 76 76 76 40 40 40 40 40 40 40 76 76 76 76 76 76 76 76 76 76 76 76 76 76 76 76 76 40 40 40 40 40 40 40 40 76 40 76 40 40 40 40 40 40 40 40 40 76 76 76 40 40 40 40 40 40 76 76 40 40 40 76 76 40 40 40 76 76 40 40 40 76 114 76 76 40 76 114 76 40 76 114 76 114 76 40 40 40 40 40 40 40 40 40 40 76 114 114 114 167 114 40 40 40 40 40 40 40 40 76 76 40 40 40 40 40 40 40 40 76 76 40 76 76 76 76 114 114 167 167 167 114 40 40 76 76 76 76 76 76 114 167 167 167 114 76 40 40 40 40 40 40 40 40 40 40 40 40 40 40 40 40 40 40 40 40 40 40 40 40 40 40 40 40 76 76 76 76 76 76 76 76 76 76 76 76 76 76 114 114 76 114 114 114 114 114 114 114 114 114 114 114 114 114 114 114 114 114 114 114 114 114 114 114 114 114 114 114 114 114 114 114 114 114 114 114 114 114 114 114 114 114 114 114 114 114 114 114 114 114 114 114 114 114 114 114 114 114 114 114 114 114 114 114 114 114 114 114 114 114 114 114 114 114 114 114 114 114 114 114 114 167 167 167 167 114 114 114 114 167 167 167 167 167 167 167 167 167 167 114 114 114 114 114 114 114 114 114 114 114 114 114 114 114 76 114 114 76 76 76 76 40 40 40 40 40 40 40 40 40 40 40 40 40 40 40 40 40 40 40 40 40 40 76 40 40 40 40 40 40 40 40 40 40 40 40 40 40 40 40 40 40 40 40 76 114 114 167 114 76 114 114 76 40 76 40 40 40 76 76 114 114 114 114 114 114 114 114 114 114 114 114 114 114 114 114 114 114 114 114 114 114 114 114 114 114 114 114 114 114 114 114 114 114 114 114 114 114 114 114 114 114 114 114 114 114 114 114 114 114 114 114 114 114 114 114 114 114 114 114 114 114 114 114 114 114 114 114 114 114 114 114 114 114 114 114 114 114 114 114 114 167 167 167 167 167 167 167 167 167 167 167 167 167 167 167 167 167 167 167 167 167 167 167 167 167 167 167 167 167 167 
114 114 114 114 114 114 114 114 114 114 114 114 114 114 114 167 167 167 167 167 167 114 114 114 114 114 114 114 114 76 76 76 76 76 40 40 40 40 40 40 40 76 76 76 76 76 76 76 76 76 76 76 76 76 76 76 114 76 76 40 40 40 40 40 40 40 40 40 40 40 40 40 40 40 40 40 40 76 76 76 40 40 40 40 40 40 40 40 76 40 40 40 76 76 76 40 76 76 76 76 76 76 76 76 76 40 40 76 114 114 76 76 114 114 76 76 40 40 40 40 40 40 40 40 40 40 76 76 76 76 114 114 40 40 40 40 40 40 40 40 76 40 40 40 40 40 40 40 76 76 76 76 76 76 76 76 114 114 114 167 167 114 76 40 76 76 40 76 76 76 76 114 167 167 114 76 40 40 40 40 40 40 40 40 40 40 40 40 40 40 40 40 40 40 40 40 40 40 40 40 40 40 40 40 40 76 76 76 76 76 40 76 76 76 76 76 76 76 76 114 76 76 114 114 114 114 114 114 114 114 114 114 114 114 114 114 114 114 114 114 114 114 114 114 114 114 114 114 114 114 114 114 114 114 114 114 114 114 114 114 114 114 114 114 114 114 114 114 114 114 114 114 114 114 114 114 114 114 114 114 114 114 114 114 114 114 114 114 114 114 114 114 114 114 114 114 114 114 114 114 114 167 167 167 167 167 114 114 114 114 167 167 167 167 167 167 167 167 167 167 167 167 114 114 114 114 114 114 114 114 114 114 114 114 114 114 114 114 76 76 76 76 40 40 40 40 40 40 40 40 40 40 40 40 40 40 40 40 40 40 40 40 40 40 76 40 40 40 40 40 40 40 40 40 40 40 76 40 40 40 40 40 40 40 40 76 114 114 167 114 76 76 114 76 40 76 76 40 76 76 114 114 114 114 114 114 114 114 114 114 114 114 114 114 114 114 114 114 114 114 114 114 114 114 114 114 114 114 114 114 114 114 114 114 114 114 114 114 114 114 114 114 114 114 114 114 114 114 114 114 114 114 114 114 114 114 114 114 114 114 114 114 114 114 114 114 114 114 114 114 114 114 114 114 114 114 76 76 114 114 114 167 167 167 167 167 167 167 167 167 167 167 167 167 167 167 167 167 167 167 167 167 167 167 167 167 167 167 167 167 167 167 
114 114 114 114 114 114 114 114 114 114 114 114 114 114 114 114 167 167 167 167 114 114 114 114 114 114 114 114 114 76 114 76 76 76 40 40 40 40 40 40 76 76 76 76 76 76 76 76 76 76 76 76 76 76 76 114 114 114 76 40 40 40 40 40 40 76 40 40 40 40 40 40 40 40 40 40 76 76 76 40 40 40 40 40 40 40 40 40 40 40 40 40 40 76 76 40 76 76 76 76 76 76 76 76 40 40 40 40 114 114 76 76 76 114 76 114 76 40 40 40 40 40 40 40 40 40 40 76 114 40 40 40 40 40 40 40 40 40 40 40 40 40 40 40 40 40 40 76 76 76 76 76 76 76 114 114 114 114 167 167 114 76 40 76 76 76 40 114 76 114 114 167 167 167 114 76 40 40 40 40 40 40 40 40 40 40 40 40 40 40 40 40 40 40 40 40 40 40 40 40 40 40 40 40 40 76 76 76 76 76 76 40 76 76 76 76 76 76 76 76 76 76 76 114 114 114 114 114 114 114 114 114 114 114 114 114 114 114 114 114 114 114 114 114 114 114 114 114 114 114 114 114 114 114 114 114 114 114 114 114 114 114 114 114 114 114 114 114 114 114 114 114 114 114 114 114 114 114 114 114 114 114 114 114 114 114 114 114 114 114 114 114 114 114 114 114 114 114 114 114 114 167 167 167 167 167 167 114 114 114 167 167 167 167 167 167 167 167 167 167 114 114 114 114 114 114 114 114 114 114 114 114 114 76 114 114 76 76 114 76 76 40 40 40 40 40 40 40 40 40 40 40 40 40 40 40 40 40 40 40 40 40 40 40 76 76 40 40 40 40 40 40 40 40 40 40 40 40 40 40 40 40 40 40 40 76 114 114 167 114 76 76 114 76 40 76 76 40 76 76 114 114 114 114 114 114 114 114 114 114 114 114 114 114 114 114 114 114 114 114 114 114 114 114 114 114 114 114 114 114 114 114 114 114 114 114 114 114 114 114 114 114 114 114 114 114 114 114 114 114 114 114 114 114 114 114 114 114 114 114 114 114 114 114 114 114 114 114 114 114 114 114 114 114 114 114 114 114 114 114 114 167 167 167 167 167 167 167 167 167 167 167 167 167 167 167 167 167 167 167 167 167 167 167 167 167 167 167 167 167 167 167 
114 114 114 114 114 114 114 114 114 114 114 114 114 114 114 114 114 167 167 114 114 114 114 114 114 114 114 114 114 114 76 76 76 40 40 40 40 40 40 40 76 76 40 40 40 76 76 76 76 76 76 76 76 76 76 114 114 114 76 40 40 40 40 40 40 40 40 40 40 40 40 40 40 40 40 76 114 76 40 40 40 40 40 40 40 40 76 76 40 40 40 40 40 76 76 76 76 76 40 76 76 76 76 76 76 40 40 40 114 114 76 40 76 114 76 76 76 40 40 40 40 40 40 40 40 40 40 76 114 114 76 40 40 40 40 40 40 40 40 40 40 40 40 40 40 76 76 114 114 76 76 114 114 114 114 114 114 114 167 167 76 76 40 76 76 76 76 114 114 114 167 167 167 114 76 40 40 40 40 40 40 40 40 40 40 40 40 40 40 40 40 40 40 40 40 40 40 40 40 40 40 40 40 40 40 76 76 76 76 76 76 40 76 76 76 76 76 76 76 76 76 114 76 114 114 114 114 114 114 114 114 114 114 114 114 114 114 114 114 114 114 114 114 114 114 114 114 114 114 114 114 114 114 114 114 114 114 114 114 114 114 114 114 114 114 114 114 114 114 114 114 114 114 114 114 114 114 114 114 114 114 114 114 114 114 114 114 114 114 114 114 114 114 114 114 114 114 114 114 114 167 167 167 167 167 167 167 167 114 114 167 167 167 167 167 167 167 167 167 167 114 114 114 114 114 114 114 114 114 114 114 114 114 114 114 114 114 114 76 76 76 40 40 40 40 40 40 40 40 40 40 40 40 40 40 40 40 40 40 40 40 40 40 40 76 40 40 40 40 40 40 40 40 40 40 40 40 40 40 40 40 40 40 40 40 40 114 114 167 114 114 114 114 76 40 76 76 40 76 76 114 114 114 114 114 114 114 114 114 114 114 114 114 114 114 114 114 114 114 114 114 114 114 114 114 114 114 114 114 114 114 114 114 114 114 114 114 114 114 114 114 114 114 114 114 114 114 114 114 114 114 114 114 114 114 114 114 114 114 114 114 114 114 114 114 114 114 114 114 114 114 114 114 114 114 114 114 114 114 114 167 167 167 167 167 167 167 167 167 167 167 167 167 167 167 167 167 167 167 167 167 167 167 167 167 167 167 167 167 167 167 167 
114 114 114 114 114 114 114 114 114 114 114 114 114 114 114 114 114 167 167 114 114 114 114 114 114 114 114 114 114 76 76 76 76 76 40 40 40 40 40 40 40 40 40 76 76 76 76 40 76 76 76 76 76 114 114 114 114 114 76 40 40 40 40 40 40 40 40 40 40 40 40 40 76 40 76 114 76 40 40 40 40 40 40 40 40 40 40 40 40 40 40 40 40 40 40 76 76 76 40 40 76 76 76 76 76 40 40 40 76 114 76 40 76 76 76 76 76 76 40 40 40 40 40 40 40 40 40 76 40 76 76 40 40 40 40 40 40 40 40 40 40 40 40 40 40 40 76 76 114 114 76 114 114 114 114 114 167 114 167 114 76 40 40 76 40 40 76 76 114 167 167 167 114 76 40 40 40 40 40 40 40 40 40 40 40 40 40 40 40 40 40 40 40 40 40 40 40 40 40 40 40 40 40 40 40 76 76 76 76 76 76 40 76 76 76 76 76 76 76 76 76 114 76 114 114 114 114 114 114 114 114 114 114 114 114 114 114 114 114 114 114 114 114 114 114 114 114 114 114 114 114 114 114 114 114 114 114 114 114 114 114 114 114 114 114 114 114 114 114 114 114 114 114 114 114 114 114 114 114 114 114 114 114 114 114 114 114 114 114 114 114 114 114 114 114 114 114 114 114 114 167 167 167 167 167 167 167 167 114 167 167 167 167 167 167 167 167 167 167 167 114 114 114 114 114 114 114 114 114 114 114 114 114 114 114 114 114 114 76 76 40 40 40 40 40 40 40 40 40 40 40 40 40 40 40 40 40 40 40 40 40 40 40 40 76 40 40 40 40 40 40 40 40 40 40 40 40 40 40 40 40 40 40 40 40 40 76 114 167 114 76 114 114 76 40 76 76 40 76 76 114 114 114 114 114 114 114 114 114 114 114 114 114 114 114 114 114 114 114 114 114 114 114 114 114 114 114 114 114 114 114 114 114 114 114 114 114 114 114 114 114 114 114 114 114 114 114 114 114 114 114 114 114 114 114 114 114 114 114 114 114 114 114 114 114 114 114 114 114 114 114 114 76 114 114 114 114 114 114 114 114 167 167 167 167 167 167 167 167 167 167 167 167 167 167 167 167 167 167 167 167 167 167 167 167 167 167 167 167 167 167 167 
114 114 114 114 114 114 114 114 114 114 114 114 114 114 114 167 167 167 167 167 114 114 114 114 114 114 114 114 114 114 76 76 76 76 76 40 40 40 40 76 40 40 40 76 76 76 76 76 76 76 76 76 76 114 114 114 114 76 76 40 40 40 40 40 40 76 76 40 40 40 40 76 76 76 76 76 76 40 40 40 40 40 40 40 40 40 40 40 40 40 40 40 40 40 40 76 40 76 40 40 76 76 76 76 76 76 40 40 76 114 114 40 40 76 114 76 76 76 40 40 40 40 40 76 76 40 40 76 40 40 76 40 40 40 40 40 40 40 40 40 40 40 40 40 40 76 114 76 76 114 114 114 114 114 114 114 167 167 114 76 40 40 76 76 40 76 76 76 114 167 167 114 76 40 40 40 40 40 40 40 40 40 40 40 40 40 40 40 40 40 40 40 40 40 40 40 40 40 40 40 40 40 40 40 40 40 76 76 76 76 76 76 76 76 76 76 76 76 76 76 76 114 114 114 114 114 114 114 114 114 114 114 114 114 114 114 114 114 114 114 114 114 114 114 114 114 114 114 114 114 114 114 114 114 114 114 114 114 114 114 114 114 114 114 114 114 114 114 114 114 114 114 114 114 114 114 114 114 114 114 114 114 114 114 114 114 114 114 114 114 114 114 114 114 114 114 114 114 114 114 167 167 167 167 167 167 167 167 167 167 167 167 167 167 167 167 167 167 167 167 114 114 114 114 114 114 114 114 114 114 114 114 114 114 114 114 114 114 76 76 40 40 40 40 40 40 40 40 40 40 40 40 40 40 40 40 40 40 40 40 40 40 40 40 40 40 40 40 40 40 40 40 40 40 40 40 40 40 40 40 40 40 40 40 76 40 76 114 167 114 76 76 114 76 40 40 114 76 76 114 114 114 114 114 114 114 114 114 114 114 114 114 114 114 114 114 114 114 114 114 114 114 114 114 114 114 114 114 114 114 114 114 114 114 114 114 114 114 114 114 114 114 114 114 114 114 114 114 114 114 114 114 114 114 114 114 114 114 114 114 114 114 114 114 114 114 114 114 114 114 114 114 114 114 114 114 114 114 114 114 114 167 167 167 167 167 167 167 167 167 167 167 167 167 167 167 167 167 167 167 167 167 167 167 167 167 167 167 167 167 167 167 
114 114 114 114 114 114 114 114 114 114 114 114 114 114 114 167 167 167 114 114 114 114 114 114 114 114 114 114 114 76 76 76 76 76 40 40 40 40 40 40 40 76 76 40 40 76 76 76 76 76 76 114 114 114 114 76 76 76 40 40 40 40 40 40 40 40 40 40 40 40 76 76 76 76 76 76 40 114 167 40 40 40 40 40 40 40 40 40 40 40 40 40 40 40 40 76 40 76 40 40 40 76 76 40 76 76 40 40 40 76 114 76 40 76 114 76 76 76 40 40 40 40 40 76 76 40 40 40 76 40 76 40 40 40 40 40 40 40 40 40 40 40 40 40 114 167 167 114 114 114 114 114 114 114 114 167 167 167 114 76 40 76 76 76 40 76 76 40 114 167 167 76 40 40 40 40 40 40 40 40 40 40 40 40 40 40 40 40 40 40 40 40 40 40 40 40 40 40 40 40 40 40 40 40 40 40 76 76 76 76 76 76 76 76 76 76 114 76 76 76 114 114 76 114 114 114 114 114 114 114 114 114 114 114 114 114 114 114 114 114 114 114 114 114 114 114 114 114 114 114 114 114 114 114 114 114 114 114 114 114 114 114 114 114 114 114 114 114 114 114 114 114 114 114 114 114 114 114 114 114 114 114 114 114 114 114 114 114 114 114 114 114 114 114 114 114 114 114 114 114 167 167 167 167 167 167 167 167 167 114 167 167 167 167 167 167 167 167 167 167 114 114 114 114 114 114 114 114 114 114 114 114 114 114 114 114 114 114 76 40 40 40 40 40 40 40 40 40 40 40 40 40 40 40 40 40 40 40 40 40 40 40 40 40 40 40 40 40 40 40 40 40 40 40 40 40 40 40 40 40 40 40 40 40 40 40 76 114 114 114 76 76 114 114 40 40 76 76 76 76 114 114 114 114 114 114 114 114 114 114 114 114 114 114 114 114 114 114 114 114 114 114 114 114 114 114 114 114 114 114 114 114 114 114 114 114 114 114 114 114 114 114 114 114 114 114 114 114 114 114 114 114 114 114 114 114 114 114 114 114 114 114 114 114 114 114 114 114 114 114 114 114 114 114 114 114 114 114 114 114 114 167 167 167 167 167 167 167 167 167 167 167 167 167 167 167 167 167 167 167 167 167 167 167 167 167 167 167 167 167 167 167 
114 114 114 114 114 114 114 114 114 114 114 114 114 114 114 167 167 167 114 114 114 114 114 114 114 114 114 114 114 114 76 76 76 76 40 40 40 40 40 76 40 40 40 40 76 76 76 76 76 76 76 114 114 114 76 76 76 76 76 40 40 40 40 40 40 40 40 40 40 76 76 76 76 76 40 40 40 40 76 40 40 40 40 40 40 40 40 40 40 40 40 40 40 40 40 76 40 40 40 40 40 76 76 40 76 76 76 40 40 40 114 76 40 40 114 114 76 76 76 40 40 40 40 40 76 76 40 40 40 40 40 40 40 40 40 40 40 40 40 40 40 40 40 40 114 167 167 114 114 114 114 114 167 167 167 167 167 114 76 40 76 76 76 40 76 76 40 76 167 167 114 40 40 40 40 40 40 40 40 40 40 40 40 40 40 40 40 40 40 40 40 40 40 40 40 40 40 40 40 40 40 40 40 40 40 76 76 76 76 76 76 76 76 76 76 76 76 76 76 114 114 114 76 114 114 114 114 114 114 114 114 114 114 114 114 114 114 114 114 114 114 114 114 114 114 114 114 114 114 114 114 114 114 114 114 114 114 114 114 114 114 114 114 114 114 114 114 114 114 114 114 114 114 114 114 114 114 114 114 114 114 114 114 114 114 114 114 114 114 114 114 114 114 114 114 114 114 114 114 167 167 167 167 167 167 167 167 167 167 114 167 167 167 167 167 167 167 167 167 167 114 114 114 114 114 114 114 114 114 114 114 114 114 114 114 114 76 76 76 40 40 40 40 40 40 40 40 40 40 40 40 40 40 40 40 40 40 40 40 40 40 40 40 40 40 40 40 40 40 40 40 40 40 40 40 40 40 40 40 40 40 40 40 40 40 40 76 114 114 114 76 76 114 114 40 76 76 76 76 114 114 114 114 114 114 114 114 114 114 114 114 114 114 114 114 114 114 114 114 114 114 114 114 114 114 114 114 114 114 114 114 114 114 114 114 114 114 114 114 114 114 114 114 114 114 114 114 114 114 114 114 114 114 114 114 114 114 114 114 114 114 114 114 114 114 114 114 114 114 114 114 114 114 76 114 114 114 114 114 114 167 167 167 167 167 167 167 167 167 167 167 167 167 167 167 167 167 167 167 167 167 167 167 167 167 167 167 167 167 167 167 167 
114 114 114 114 114 114 114 114 114 114 114 114 114 114 114 167 167 167 167 167 167 114 114 114 114 114 114 114 114 114 76 76 76 76 76 40 40 40 40 40 76 40 76 76 76 76 76 76 76 76 114 114 114 76 76 76 76 76 76 40 40 40 40 40 40 40 40 40 76 76 76 76 76 40 40 40 40 40 40 40 40 40 40 40 40 40 40 40 40 40 40 40 40 40 40 40 40 40 40 40 40 76 76 76 40 40 76 76 40 40 76 114 76 40 114 114 76 76 76 40 40 40 40 76 76 76 76 40 40 40 40 40 40 40 40 40 40 40 40 40 40 40 40 76 114 114 114 114 114 114 114 114 167 167 167 167 114 114 76 40 76 76 40 40 76 40 76 114 167 114 76 40 40 40 40 40 40 40 40 40 40 40 40 40 40 40 40 40 40 40 40 40 40 40 40 40 40 40 40 40 40 40 40 40 40 76 76 76 76 76 76 76 76 76 76 76 76 76 76 76 76 114 76 114 114 114 114 114 114 114 114 114 114 114 114 114 114 114 114 114 114 114 114 114 114 114 114 114 114 114 114 114 114 114 114 114 114 114 114 114 114 114 114 114 114 114 114 114 114 114 114 114 114 114 114 114 114 114 114 114 114 114 114 114 114 114 114 114 114 114 114 114 114 114 114 114 114 114 114 167 167 167 167 167 167 167 167 167 167 114 114 167 167 167 167 167 167 167 167 167 114 114 114 114 114 114 114 114 114 114 114 114 114 114 114 114 76 76 40 40 40 40 40 40 40 40 40 40 40 40 40 40 40 40 40 40 40 40 40 40 40 40 40 40 40 40 40 40 40 40 40 40 40 40 40 40 40 40 40 40 40 40 40 40 40 40 76 114 114 114 114 76 114 114 40 76 76 114 76 114 114 114 114 114 114 114 114 114 114 114 114 114 114 114 114 114 114 114 114 114 114 114 114 114 114 114 114 114 114 114 114 114 114 114 114 114 114 114 114 114 114 114 114 114 114 114 114 114 114 114 114 114 114 114 114 114 114 114 114 114 114 114 114 114 114 114 114 114 114 114 76 76 114 114 114 114 114 114 114 114 167 167 167 167 167 167 167 167 167 167 167 167 167 167 167 167 167 167 167 167 167 167 167 167 167 167 167 167 167 167 167 167 
114 114 114 114 114 114 114 114 114 114 114 114 114 114 114 114 167 167 167 167 167 114 114 114 114 114 114 114 114 114 114 76 76 76 40 40 40 40 40 40 40 40 76 76 76 76 76 76 76 114 114 114 76 76 40 76 76 76 76 40 40 40 40 40 40 40 40 76 76 114 114 76 40 40 40 40 40 40 40 40 40 40 40 40 40 40 40 40 40 40 40 76 40 40 40 40 76 40 40 40 40 40 76 76 40 40 40 40 76 40 76 114 76 40 76 114 76 76 114 76 40 40 40 76 76 76 40 40 40 40 40 40 40 40 40 40 40 40 40 40 76 76 76 76 76 114 114 114 114 114 114 114 114 167 167 167 114 76 40 40 76 76 40 76 40 76 114 167 114 76 40 40 40 40 40 40 40 40 40 40 40 40 40 40 40 40 40 40 40 40 40 40 40 40 40 40 40 40 40 40 40 40 40 40 40 40 76 76 76 76 76 76 76 76 76 76 76 76 76 76 76 114 114 114 114 114 114 114 114 114 114 114 114 114 114 114 114 114 114 114 114 114 114 114 114 114 114 114 114 114 114 114 114 114 114 114 114 114 114 114 114 114 114 114 114 114 114 114 114 114 114 114 114 114 114 114 114 114 114 114 114 114 114 114 114 114 114 114 114 114 114 114 114 114 114 114 114 114 114 114 167 167 167 167 167 167 167 167 167 114 114 167 167 167 167 167 167 167 167 167 167 114 114 114 114 114 114 114 114 114 114 114 114 114 114 114 76 76 40 40 40 40 40 40 40 40 40 40 40 40 40 40 40 40 40 40 40 40 40 40 40 40 40 40 40 40 40 40 40 40 40 40 40 40 40 40 40 40 40 40 40 40 40 40 40 40 76 114 114 167 114 76 76 114 40 40 76 114 76 114 114 114 114 114 114 114 114 114 114 114 114 114 114 114 114 114 114 114 114 114 114 114 114 114 114 114 114 114 114 114 114 114 114 114 114 114 114 114 114 114 114 114 114 114 114 114 114 114 114 114 114 114 114 114 114 114 114 114 114 114 114 114 114 114 114 114 114 114 114 114 114 114 114 114 114 114 114 114 114 114 167 167 167 167 167 167 167 167 167 167 167 167 167 167 167 167 167 167 167 167 167 167 167 167 167 167 167 167 167 167 167 167 
114 114 114 114 114 114 114 114 114 114 114 114 114 114 114 114 167 167 167 167 167 114 114 114 114 114 114 114 114 114 76 76 76 76 40 40 40 40 40 40 40 76 76 76 76 76 76 76 114 114 114 114 76 76 76 114 76 76 40 40 40 40 40 40 40 40 40 76 76 76 76 40 40 40 40 40 40 40 40 40 40 40 40 40 40 40 40 40 40 40 40 76 40 40 40 40 40 40 40 40 76 40 76 114 40 40 40 40 76 76 76 76 114 76 76 114 76 76 114 76 40 40 40 114 114 76 40 40 40 40 40 40 40 76 40 40 40 40 40 76 76 76 76 76 76 76 114 114 114 114 114 114 167 167 167 114 76 40 40 76 76 40 76 76 40 76 167 167 76 40 40 40 40 40 40 40 40 40 40 40 40 40 40 40 40 40 40 40 40 40 40 40 40 40 40 40 40 40 40 40 40 40 40 40 40 40 76 76 40 76 114 76 76 40 76 76 76 76 76 114 76 114 76 76 114 114 114 114 114 114 114 114 114 114 114 114 114 114 114 114 114 114 114 114 114 114 114 114 114 114 114 114 114 114 114 114 114 114 114 114 114 114 114 114 114 114 114 114 114 114 114 114 114 114 114 114 114 114 114 114 114 114 114 114 114 114 114 114 114 114 114 114 114 114 114 114 114 114 167 114 167 167 167 167 167 167 167 167 114 167 167 167 167 167 167 167 167 167 167 167 167 114 114 114 114 114 114 114 114 114 114 114 114 114 76 76 76 40 40 40 40 40 40 40 40 40 40 40 40 40 40 40 40 40 40 40 40 40 40 40 40 40 40 40 76 40 40 40 40 40 40 40 40 40 40 40 40 40 40 40 40 40 40 40 40 40 76 114 114 167 114 76 76 114 40 40 76 114 114 114 114 114 114 114 114 114 114 114 114 114 114 114 114 114 114 114 114 114 114 114 114 114 114 114 114 114 114 114 114 114 114 114 114 114 114 114 114 114 114 114 114 114 114 114 114 114 114 114 114 114 114 114 114 114 114 114 114 114 114 114 114 114 114 114 114 114 114 114 114 114 114 114 114 114 114 76 114 114 114 114 167 167 167 167 167 167 167 167 167 167 167 167 167 167 167 167 167 167 167 167 167 167 167 167 167 167 167 167 167 167 167 167 
114 114 114 114 114 114 114 114 114 114 114 114 114 167 167 167 167 167 114 167 167 114 114 114 114 114 114 114 114 114 76 76 76 76 76 40 40 40 40 40 40 40 40 40 76 76 76 76 114 114 76 76 76 76 76 114 114 76 40 40 40 40 40 40 40 76 76 76 76 76 76 40 40 40 40 40 40 40 40 40 40 40 40 40 40 40 40 40 40 40 40 76 40 40 40 40 40 40 40 40 40 40 76 76 76 40 40 40 40 76 114 76 76 76 76 76 76 76 76 114 40 40 76 114 114 76 40 40 40 40 40 40 40 40 76 40 40 76 76 76 76 76 76 76 76 76 114 114 114 114 114 167 167 167 114 76 40 40 76 76 40 40 40 40 76 167 167 114 40 40 40 40 40 40 40 40 40 40 40 40 40 40 40 40 40 40 40 40 40 40 40 40 40 40 40 40 40 40 40 40 40 40 40 40 40 40 76 76 76 76 76 76 76 76 76 76 76 76 76 76 76 114 114 114 114 114 114 114 114 114 114 114 114 114 114 114 114 114 114 114 114 114 114 114 114 114 114 114 114 114 114 114 114 114 114 114 114 114 114 114 114 114 114 114 114 114 114 114 114 114 114 114 114 114 114 114 114 114 114 114 114 114 114 114 114 114 114 114 114 114 114 114 114 114 114 114 114 114 167 167 167 167 167 167 167 167 167 167 167 167 167 167 167 167 167 167 167 167 167 167 167 114 114 114 114 114 114 114 114 114 114 114 114 114 114 76 76 40 40 40 40 40 40 40 40 40 40 40 40 40 40 40 40 40 76 40 40 40 40 40 40 40 40 40 40 40 40 40 40 40 40 40 40 40 40 40 40 40 40 40 40 40 40 40 40 40 76 76 114 114 114 76 76 114 76 40 76 114 114 114 114 114 114 114 114 114 114 114 114 114 114 114 114 114 114 114 114 114 114 114 114 114 114 114 114 114 114 114 114 114 114 114 114 114 114 114 114 114 114 114 114 114 114 114 114 114 114 114 114 114 114 114 114 114 114 114 114 114 114 114 114 114 114 114 114 114 114 114 114 114 114 114 114 114 114 114 114 114 114 114 114 167 167 167 167 167 167 167 167 167 167 167 167 167 167 167 167 167 167 167 167 167 167 167 167 167 167 167 167 167 167 167 
114 114 114 114 114 114 114 114 114 114 167 167 167 167 114 114 167 167 167 167 167 114 114 114 114 114 114 114 114 114 76 76 76 76 76 40 40 40 40 40 40 76 40 40 76 76 76 114 114 76 76 76 76 76 76 114 76 76 40 40 40 40 40 40 76 76 76 76 76 76 76 40 40 40 40 40 40 40 40 40 40 40 40 40 40 40 40 40 40 40 40 40 40 40 40 40 40 40 40 40 40 40 76 76 76 40 40 40 40 40 40 76 76 76 76 40 76 76 76 114 76 40 114 114 114 76 40 40 40 40 40 40 40 40 76 76 76 76 76 76 76 76 76 76 114 114 114 114 114 114 114 167 167 167 114 40 40 76 76 76 76 40 76 76 167 167 114 40 40 40 40 40 40 40 40 40 40 40 40 40 40 40 40 40 40 40 40 40 40 40 40 40 40 40 76 40 40 40 40 40 40 40 40 40 40 40 76 76 76 76 76 76 76 76 76 76 76 76 76 76 76 76 114 114 114 114 114 114 114 114 114 114 114 114 114 114 114 114 114 114 114 114 114 114 114 114 114 114 114 114 114 114 114 114 114 114 114 114 114 114 114 114 114 114 114 114 114 114 114 114 114 114 114 114 114 114 114 114 114 114 114 114 114 114 114 114 114 114 114 114 114 114 114 114 114 114 114 114 167 167 167 167 167 167 167 167 167 167 167 167 167 167 167 167 167 114 167 167 167 167 167 114 114 114 114 114 114 114 114 114 114 114 114 114 76 76 40 40 40 40 40 40 40 40 40 40 40 40 40 40 40 40 40 40 40 40 40 40 40 40 40 40 40 40 40 40 40 40 40 40 40 40 40 40 40 40 40 40 40 40 40 40 40 40 40 40 76 76 114 114 114 114 76 114 76 40 76 114 114 114 114 114 114 114 114 114 114 114 114 114 114 114 114 114 114 114 114 114 114 114 114 114 114 114 114 114 114 114 114 114 114 114 114 114 114 114 114 114 114 114 114 114 114 114 114 114 114 114 114 114 114 114 114 114 114 114 114 114 114 114 114 114 114 114 114 114 114 114 114 114 114 114 114 114 114 114 114 114 114 114 114 167 167 167 167 167 167 167 167 167 167 167 167 167 167 167 167 167 167 167 167 167 167 167 167 167 167 167 167 167 167 167 
114 114 114 114 114 114 114 114 114 114 114 167 167 167 167 167 167 167 167 167 167 114 114 114 114 114 114 114 114 76 76 76 76 76 76 40 40 40 40 40 40 40 76 76 76 76 114 114 114 76 40 76 76 76 114 114 76 76 40 40 40 40 40 40 76 76 76 76 76 76 76 40 40 40 40 40 40 40 40 40 40 40 40 40 40 40 40 40 40 40 40 40 40 40 40 40 40 40 40 40 40 40 40 76 76 76 40 40 40 40 40 76 76 76 114 76 40 76 76 76 114 76 114 114 76 40 40 40 40 40 40 40 40 40 76 76 114 76 76 76 40 76 40 76 76 114 114 114 114 114 167 167 167 114 76 40 76 76 76 40 76 40 76 114 167 114 76 40 40 40 40 40 40 40 40 40 76 40 40 40 40 40 40 40 40 40 40 40 40 40 40 40 40 40 40 40 40 40 40 40 40 40 40 40 40 40 76 76 76 40 76 76 76 40 76 76 76 76 76 76 76 76 76 76 114 114 114 114 114 114 114 114 114 114 114 114 114 114 114 114 114 114 114 114 114 114 114 114 114 114 114 114 114 114 114 114 114 114 114 114 114 114 114 114 114 114 114 114 114 114 114 114 114 114 114 114 114 114 114 114 114 114 114 114 114 114 114 114 114 114 114 114 114 114 114 114 114 114 114 114 114 114 114 114 167 167 167 167 167 167 167 167 114 114 114 114 114 114 114 167 167 114 114 114 114 114 114 114 114 114 114 114 114 114 76 76 40 40 40 40 40 40 40 40 40 40 40 40 40 40 40 40 40 40 40 40 40 40 40 40 40 40 40 40 40 40 40 40 40 76 40 40 40 40 40 40 40 40 40 40 40 40 40 40 40 40 76 76 114 114 114 76 76 114 76 40 76 114 114 114 114 114 114 114 114 114 114 114 114 114 114 114 114 114 114 114 114 114 114 114 114 114 114 114 114 114 114 114 114 114 114 114 114 114 114 114 114 114 114 114 114 114 114 114 114 114 114 114 114 114 114 114 114 114 114 114 114 114 114 114 114 114 114 114 114 114 114 114 114 114 114 114 114 114 114 114 114 114 114 114 167 167 167 167 167 167 167 167 167 167 167 167 167 167 167 167 167 167 167 167 167 167 167 167 167 167 167 167 167 167 167 167 
114 114 114 114 114 114 114 114 167 114 114 167 167 167 167 167 114 167 167 167 167 114 114 114 114 114 114 114 114 76 76 76 76 40 40 40 40 40 40 76 40 40 76 76 76 114 114 114 76 76 76 76 76 76 114 76 76 76 40 40 40 40 40 40 40 40 76 76 76 76 40 40 40 40 40 40 40 40 40 40 40 40 40 40 40 40 40 40 40 40 40 40 40 76 40 40 40 40 40 40 40 40 40 40 40 76 76 40 40 40 40 40 40 76 114 114 76 76 76 76 114 114 76 76 40 40 40 40 40 40 40 40 40 40 76 114 114 114 114 114 76 76 76 76 76 114 167 167 167 167 167 167 114 76 40 76 76 76 40 40 76 76 76 167 114 76 40 40 40 40 40 40 40 40 40 40 76 40 40 40 40 40 40 40 40 40 40 40 40 40 40 40 40 40 40 40 40 40 40 40 40 40 40 40 40 40 76 76 76 40 76 76 76 40 76 76 76 76 76 76 76 114 114 114 114 114 114 114 114 114 114 114 114 114 114 114 114 114 114 114 114 114 114 114 114 114 114 114 114 114 114 114 114 114 114 114 114 114 114 114 114 114 114 114 114 114 114 114 114 114 114 114 114 114 114 114 114 114 114 114 114 114 114 114 114 114 114 114 114 114 114 114 114 114 114 114 114 114 114 114 114 114 114 114 114 114 114 114 167 167 114 114 114 114 114 114 114 114 114 114 167 114 114 114 114 114 114 114 114 114 114 114 114 114 76 40 40 40 40 40 40 40 40 40 40 40 40 40 40 40 40 40 40 40 40 40 40 40 40 40 40 40 40 76 40 76 40 40 40 40 40 40 40 40 40 40 40 40 40 40 40 40 40 40 40 40 40 76 114 114 114 76 76 114 114 76 114 114 114 114 114 114 114 114 114 114 114 114 114 114 114 114 114 114 114 114 114 114 114 114 114 114 114 114 114 114 114 114 114 114 114 114 114 114 114 114 114 114 114 114 114 114 114 114 114 114 114 114 114 114 114 114 114 114 114 114 114 114 114 114 114 114 114 114 114 114 114 114 114 114 114 114 114 114 114 114 114 114 114 114 167 167 167 167 167 167 167 167 167 167 167 167 167 167 167 167 167 167 167 167 167 167 167 167 167 167 167 167 167 167 167 167 
114 114 114 114 114 114 114 114 167 114 114 167 167 114 167 167 114 167 167 167 114 114 114 114 114 114 114 114 114 114 114 76 76 76 40 40 40 40 40 40 40 40 40 40 76 114 114 76 40 40 76 76 76 76 114 76 76 76 40 40 40 40 76 40 40 40 76 76 76 40 40 40 40 40 40 40 40 40 40 40 40 40 40 40 40 40 40 40 40 40 40 40 40 40 40 40 40 40 40 40 40 40 40 40 40 76 76 76 40 40 40 40 40 40 76 114 114 76 76 76 114 114 114 40 40 40 40 40 40 40 40 40 76 114 114 114 114 167 167 167 114 114 114 114 114 167 167 167 167 167 167 114 76 76 40 76 76 40 76 76 76 76 114 167 114 40 40 40 40 40 40 40 40 40 40 40 76 40 40 40 40 40 40 40 40 40 40 40 40 40 40 40 40 40 40 40 40 40 40 40 40 40 40 40 40 40 76 76 76 76 76 76 76 40 76 76 76 76 76 76 76 76 114 76 114 114 114 114 114 114 114 114 114 114 114 114 114 114 114 114 114 114 114 114 114 114 114 114 114 114 114 114 114 114 114 114 114 114 114 114 114 114 114 114 114 114 114 114 114 114 114 114 114 114 114 114 114 114 114 114 114 114 114 114 114 114 114 114 114 114 114 114 114 114 114 114 114 114 114 114 114 114 114 114 114 114 114 114 114 114 114 114 114 114 114 114 114 114 114 114 114 114 114 76 76 76 76 114 114 114 114 114 76 114 76 40 40 40 40 40 40 40 40 40 40 40 40 40 40 40 40 40 40 40 40 40 40 40 40 40 40 40 40 40 40 40 40 40 40 40 40 40 40 40 40 40 40 40 40 40 40 40 40 40 40 40 40 76 114 114 114 76 76 76 76 40 76 114 114 114 114 114 114 114 114 114 114 114 114 114 114 114 114 114 114 114 114 114 114 114 114 114 114 114 114 114 114 114 114 114 114 114 114 114 114 114 114 114 114 114 114 114 114 114 114 114 114 114 114 114 114 114 114 114 114 114 114 114 114 114 114 114 114 114 114 114 114 114 114 114 114 114 114 114 76 76 114 114 114 167 167 167 167 167 167 167 167 167 167 167 167 167 167 167 167 167 167 167 167 167 167 167 167 167 167 167 167 167 167 167 167 167 
114 114 114 114 114 114 114 114 114 114 167 167 167 167 167 167 114 167 167 167 114 114 114 114 114 114 114 114 114 114 114 76 76 76 40 40 40 40 40 40 40 76 40 76 114 114 76 76 40 76 76 76 76 76 114 76 76 76 40 40 40 76 40 40 40 40 76 76 76 40 40 40 40 40 40 40 40 40 40 40 40 40 40 40 40 40 40 40 40 40 76 40 40 40 40 40 40 40 40 40 40 40 76 40 40 40 76 76 40 40 40 40 40 40 40 76 76 76 76 76 76 114 114 76 40 40 40 40 40 40 40 40 76 114 114 114 114 114 167 167 167 167 167 167 167 167 167 167 167 167 114 76 40 40 76 76 76 40 76 76 76 114 167 114 76 40 40 40 40 40 40 40 40 40 76 76 76 76 40 40 40 40 40 40 40 40 40 40 40 40 40 40 40 40 40 40 40 40 40 40 40 40 40 40 40 40 76 76 76 76 76 76 76 76 76 76 76 76 76 76 76 76 114 114 114 76 114 114 114 114 114 114 114 114 114 114 114 114 114 114 114 114 114 114 114 114 114 114 114 114 114 114 114 114 114 114 114 114 114 114 114 114 114 114 114 114 114 114 114 114 114 114 114 114 114 114 114 114 114 114 114 114 114 114 114 114 114 114 114 114 114 114 114 114 114 114 114 114 114 114 114 114 114 114 114 114 114 114 114 114 114 114 114 114 114 114 114 114 114 114 114 76 76 76 76 76 76 114 114 114 114 114 114 76 40 40 40 40 40 40 40 40 40 40 40 40 40 40 40 40 40 40 40 40 40 40 40 40 40 40 40 40 40 40 40 40 40 40 40 76 40 40 40 40 40 40 40 40 40 40 40 40 40 40 40 40 40 76 114 114 114 114 76 76 114 76 114 114 114 114 114 114 114 114 114 114 114 114 114 114 114 114 114 114 114 114 114 114 114 114 114 114 114 114 114 114 114 114 114 114 114 114 114 114 114 114 114 114 114 114 114 114 114 114 114 114 114 114 114 114 114 114 114 114 114 114 114 114 114 114 114 114 114 114 114 114 114 114 114 114 114 76 114 114 76 76 114 114 114 167 167 167 167 167 167 167 167 167 167 167 167 167 167 167 167 167 167 167 167 167 167 167 167 167 167 167 167 167 167 167 167 167 
114 114 114 114 114 114 114 114 114 114 167 167 114 167 167 167 114 167 114 167 167 114 114 114 114 114 114 114 114 114 76 76 76 76 76 40 40 40 40 40 40 40 76 114 114 76 76 40 76 76 76 76 76 76 114 114 76 76 40 40 40 40 40 40 40 40 76 76 76 76 40 40 40 40 40 40 40 40 40 40 40 40 40 40 40 40 40 40 40 40 76 76 40 40 76 76 40 40 40 40 40 40 40 40 40 40 40 76 76 40 40 40 40 40 40 40 40 76 40 76 76 76 76 114 76 40 40 40 40 40 40 76 76 76 76 76 114 114 114 167 167 167 167 167 167 167 167 167 167 114 76 40 40 76 76 76 40 40 76 76 114 167 114 76 40 40 40 40 40 40 40 40 40 40 76 76 76 76 40 40 40 40 40 40 40 40 40 40 40 40 40 40 40 40 40 40 40 76 40 40 40 40 40 40 40 40 76 76 40 76 76 76 76 76 76 76 76 76 76 76 76 76 76 114 114 114 114 114 114 114 114 114 114 114 114 114 114 114 114 114 114 114 114 114 114 114 114 114 114 114 114 114 114 114 114 114 114 114 114 114 114 114 114 114 114 114 114 114 114 114 114 114 114 114 114 114 114 114 114 114 114 114 114 114 114 114 114 114 114 114 114 114 114 114 114 114 76 114 114 114 76 114 114 114 114 114 114 114 114 114 114 114 114 76 76 76 76 114 114 114 76 76 76 76 76 76 114 114 114 114 114 114 76 76 40 40 40 40 40 40 40 40 40 40 40 40 40 40 40 40 40 40 40 40 40 40 40 40 40 40 40 40 40 40 40 40 40 40 40 40 40 40 40 40 40 40 40 40 40 40 40 40 40 40 40 40 40 76 114 114 114 114 76 76 114 76 114 114 114 114 114 114 114 114 114 114 114 114 114 114 114 114 114 114 114 114 114 114 114 114 114 114 114 114 114 114 114 114 114 114 114 114 114 114 114 114 114 114 114 114 114 114 114 114 114 114 114 114 114 114 114 114 114 114 114 114 114 114 114 114 114 114 114 114 114 114 114 114 114 114 114 114 76 76 114 114 114 114 114 114 167 167 167 167 167 167 167 167 167 167 167 167 167 167 167 167 167 167 167 167 167 167 167 167 167 167 167 167 167 167 167 167 
114 114 114 114 114 167 114 167 114 167 167 114 114 114 114 167 167 167 167 167 167 114 114 114 114 114 114 114 114 114 76 76 76 76 40 40 40 40 40 40 76 40 76 114 76 76 76 76 76 76 76 76 76 76 114 114 76 40 40 40 40 40 40 40 40 40 76 76 114 76 40 40 40 40 40 40 40 40 40 40 40 40 40 40 40 40 40 40 40 40 76 76 40 40 40 76 76 76 76 40 40 40 40 40 40 40 40 40 114 76 40 40 40 40 40 40 40 40 76 76 114 76 76 114 114 76 40 40 40 40 76 114 76 40 76 76 76 114 167 167 167 167 167 167 167 167 167 167 114 76 40 40 76 76 76 76 76 76 76 76 167 167 76 40 40 40 40 40 40 40 40 40 40 40 40 40 76 76 40 40 40 40 40 40 40 40 40 40 40 40 40 40 40 40 40 40 40 76 40 40 40 40 40 40 40 40 76 76 40 76 76 76 76 76 76 76 76 76 76 76 76 76 114 114 114 114 114 114 114 114 114 114 114 114 114 114 114 114 114 114 114 114 114 114 114 114 114 114 114 114 114 114 114 114 114 114 114 114 114 114 114 114 76 76 76 76 76 76 114 76 114 114 114 76 114 114 114 114 114 114 114 114 114 76 76 114 114 76 76 76 76 76 76 76 76 76 76 76 76 76 76 76 76 114 114 114 114 114 114 114 114 76 76 76 76 76 76 76 76 76 76 76 76 76 76 76 114 114 114 114 114 114 76 40 40 40 40 40 40 40 40 40 40 40 40 40 40 40 40 40 40 40 40 40 40 40 40 40 40 40 40 40 40 40 40 40 40 40 40 76 40 40 40 40 40 40 40 40 40 40 40 40 40 40 40 40 40 76 114 114 114 114 76 76 114 76 114 114 114 114 114 114 114 114 114 114 114 114 114 114 114 114 114 114 114 114 114 114 114 114 114 114 114 114 114 114 114 114 114 114 114 114 114 114 114 114 114 114 114 114 114 114 114 114 114 114 114 114 114 114 114 114 114 114 114 114 114 114 114 114 114 114 114 114 114 114 114 114 114 114 114 114 114 114 114 114 114 114 114 167 167 167 167 167 167 167 167 167 167 167 167 167 167 167 167 167 167 167 167 167 167 167 167 167 167 167 167 167 167 167 167 167 
114 114 114 114 167 114 167 114 114 114 114 114 114 167 167 167 114 114 167 114 114 114 114 114 114 114 114 114 114 114 114 76 76 76 76 40 40 40 40 76 40 76 114 114 76 40 76 76 76 76 76 76 76 76 114 114 76 40 40 40 40 40 40 40 40 76 40 40 76 76 40 40 40 40 40 40 40 40 40 40 40 40 40 40 40 40 40 40 40 40 40 76 76 40 40 76 76 40 76 76 40 40 40 40 40 40 40 40 40 76 76 40 40 40 40 40 76 76 76 76 76 114 76 40 76 114 114 76 40 40 167 167 114 76 76 76 76 114 167 167 167 167 167 167 167 167 167 114 114 76 40 76 76 76 76 40 76 76 76 167 167 114 40 40 40 40 40 40 40 40 40 40 40 40 40 40 40 40 40 40 40 40 40 40 40 40 40 40 40 40 40 40 40 40 40 40 40 40 40 40 40 40 40 40 40 40 76 76 40 40 40 76 76 76 76 76 76 76 76 76 76 76 76 76 76 114 114 114 114 114 114 114 114 114 114 114 114 114 114 114 114 114 114 114 114 114 114 114 114 114 114 114 114 114 114 114 114 114 114 114 114 114 76 76 40 40 40 76 76 76 76 76 76 76 76 114 114 76 76 76 114 76 76 76 114 76 76 76 76 76 76 76 76 76 76 76 76 76 76 76 76 76 76 76 76 76 76 114 114 76 76 76 40 40 40 76 76 76 76 76 76 76 76 76 76 114 114 114 114 114 114 114 76 40 40 40 40 40 40 40 40 40 40 40 40 40 40 40 40 40 40 40 40 40 40 40 40 40 40 40 40 40 40 40 40 40 40 40 76 40 40 40 40 40 40 40 40 40 40 40 40 40 40 40 40 40 40 40 114 114 114 114 76 114 114 114 76 114 114 114 114 114 114 114 114 114 114 114 114 114 114 114 114 114 114 114 114 114 114 114 114 114 114 114 114 114 114 114 114 114 114 114 114 114 114 114 114 114 114 114 114 114 114 114 114 114 114 114 114 114 114 114 114 114 114 114 114 114 114 114 114 114 114 114 114 114 114 114 114 114 114 114 114 114 76 114 114 114 114 167 167 167 167 167 167 167 167 167 167 167 167 167 167 167 167 167 167 167 167 167 167 167 167 167 167 167 167 167 167 167 167 167 
114 114 114 114 167 114 167 114 167 167 167 114 167 167 167 167 167 167 167 114 167 114 114 114 114 114 114 114 114 76 76 76 76 76 40 40 40 40 40 40 76 114 114 76 76 40 76 76 40 76 76 76 76 114 114 114 76 76 40 40 40 40 40 40 40 76 40 40 76 76 76 40 40 40 40 40 40 40 40 40 40 40 40 40 40 40 40 40 40 40 76 76 76 76 40 76 76 40 40 40 76 40 40 40 40 40 40 40 40 76 114 114 40 40 40 40 76 76 40 76 76 114 76 40 40 40 76 114 114 114 167 167 167 114 76 76 76 114 167 167 167 167 167 167 167 167 167 114 76 40 76 76 76 76 76 40 76 76 114 167 114 76 40 40 40 40 40 40 40 40 40 40 40 40 40 40 40 40 40 40 40 40 40 40 40 40 40 40 40 40 40 40 40 40 40 40 40 40 40 40 40 40 40 40 40 40 76 76 40 40 40 76 76 40 76 76 76 76 76 76 76 76 114 114 114 114 114 114 114 114 114 114 114 114 114 114 114 114 114 114 114 114 114 114 114 114 114 114 114 114 114 114 114 114 114 114 114 114 114 114 114 114 76 76 40 40 40 40 40 40 40 40 76 76 76 76 76 76 76 76 76 76 76 76 76 76 76 76 76 76 76 76 40 40 40 40 76 76 76 76 76 76 76 76 76 76 76 76 76 76 76 76 76 76 76 76 76 76 76 114 76 76 76 76 114 114 114 114 114 114 114 76 40 40 40 40 40 40 40 40 40 40 40 40 40 40 40 40 40 40 40 40 40 40 40 40 40 40 40 40 40 40 76 40 40 40 40 40 40 40 40 40 40 40 40 40 40 76 40 40 40 40 40 40 40 40 40 40 114 114 114 114 76 76 114 114 76 114 114 114 114 114 114 114 114 114 114 114 114 114 114 114 114 114 114 114 114 114 114 114 114 114 114 114 114 114 114 114 114 114 114 114 114 114 114 114 114 114 114 114 114 114 114 114 114 114 114 114 114 114 114 114 114 114 114 114 114 114 114 114 114 114 114 114 114 114 114 114 114 114 114 76 114 114 114 114 114 114 114 167 167 167 167 167 167 167 167 167 167 167 167 167 167 167 167 167 167 167 167 167 167 167 167 167 167 167 167 167 167 167 167 167 
114 114 114 114 167 114 167 114 167 167 167 114 167 167 167 167 167 167 167 167 167 167 114 114 114 114 114 114 114 114 114 76 76 76 76 40 40 40 76 76 114 114 76 76 76 76 76 76 76 76 76 76 114 114 114 114 76 40 40 40 40 40 40 40 40 76 40 40 40 76 40 40 40 40 40 40 40 40 40 40 40 40 40 40 40 40 40 40 40 40 76 114 114 76 40 76 76 76 76 76 76 40 40 40 40 40 40 40 40 40 40 114 114 76 40 40 76 76 40 40 40 76 76 76 40 40 40 76 114 114 114 114 114 76 76 114 167 167 167 167 167 167 167 167 167 167 167 76 40 40 76 76 76 76 76 76 76 114 167 167 114 40 40 40 40 40 40 40 40 40 40 40 40 40 40 40 40 40 40 40 40 40 40 40 40 40 40 40 40 40 40 40 40 40 40 40 40 40 40 40 40 40 40 40 40 40 76 76 40 40 40 76 76 40 76 76 76 76 76 76 76 76 76 76 76 76 76 114 114 114 114 114 114 114 114 114 114 114 114 114 114 114 114 114 114 114 114 114 114 114 114 114 114 114 114 114 114 114 114 114 114 76 76 76 76 76 76 76 76 40 40 40 40 40 40 40 40 76 76 76 76 76 76 76 76 76 76 76 76 76 76 76 76 76 40 76 40 40 40 40 76 76 76 76 76 76 76 76 76 76 114 76 114 114 76 76 76 76 114 114 114 114 76 114 114 114 114 114 114 76 76 76 40 40 40 40 40 40 40 40 40 40 40 40 40 40 40 40 40 40 40 40 40 40 40 40 40 40 40 40 40 40 76 40 40 40 40 40 40 40 40 40 40 40 40 40 40 40 40 40 40 40 40 40 40 40 40 40 76 114 114 114 114 76 114 114 114 114 114 114 114 114 114 114 114 114 114 114 114 114 114 114 114 114 114 114 114 114 114 114 114 114 114 114 114 114 114 114 114 114 114 114 114 114 114 114 114 114 114 114 114 114 114 114 114 114 114 114 114 114 114 114 114 114 114 114 114 114 114 114 114 114 114 114 114 114 114 114 114 114 114 114 114 114 114 114 114 114 114 167 167 167 167 167 167 167 167 167 167 167 167 167 167 167 167 167 167 167 167 167 167 167 167 167 167 167 167 167 167 167 167 167 
114 114 114 114 167 114 167 114 167 167 167 167 167 167 167 167 167 167 167 167 167 114 114 114 114 114 114 114 114 114 76 76 76 76 40 40 40 40 76 114 114 114 76 76 76 40 76 76 76 76 76 114 114 114 114 114 76 40 40 40 40 40 40 40 76 40 40 40 40 40 40 40 40 40 40 40 40 40 40 40 40 40 40 40 40 40 40 40 40 40 76 76 76 76 76 76 76 76 40 76 76 76 76 40 40 40 40 40 40 40 40 40 76 114 76 76 76 76 40 40 40 40 76 76 76 40 40 40 76 76 76 40 40 76 114 114 167 167 167 167 167 167 167 167 167 167 114 76 40 40 76 76 76 40 76 76 76 167 167 114 76 40 40 40 40 40 40 40 40 40 40 40 40 40 40 40 40 40 40 40 40 40 40 40 40 40 40 40 40 40 40 40 40 40 40 40 40 40 76 40 40 40 40 40 40 40 76 76 40 40 40 76 76 40 40 40 76 76 76 76 76 76 76 76 114 114 114 114 114 114 114 114 114 114 114 114 114 114 114 114 114 114 114 114 114 114 114 114 114 114 114 114 114 114 114 114 114 114 114 114 114 114 76 76 114 114 114 114 76 76 76 76 76 76 76 76 76 76 76 76 76 76 76 76 76 76 76 76 114 76 76 76 114 76 76 76 76 76 114 76 76 114 114 114 114 114 114 114 114 114 114 114 114 114 114 114 114 114 114 114 114 114 114 114 114 114 114 114 114 114 76 40 40 40 40 40 40 40 40 40 40 40 40 40 40 40 40 40 40 40 40 40 40 40 40 40 40 40 40 40 40 40 76 40 40 40 40 40 40 40 40 40 40 40 40 40 40 40 40 40 40 40 40 40 40 40 40 40 76 114 114 114 76 76 114 114 114 114 114 114 114 114 114 114 114 114 114 114 114 114 114 114 114 114 114 114 114 114 114 114 114 114 114 114 114 114 114 114 114 114 114 114 114 114 114 114 114 114 114 114 114 114 114 114 114 114 114 114 114 114 114 114 114 114 114 114 114 114 114 114 114 114 114 114 114 114 114 114 114 114 114 114 114 114 114 114 114 114 114 167 167 167 167 167 167 167 167 167 167 167 167 167 167 167 167 167 167 167 167 167 167 167 167 167 167 167 167 167 167 167 167 167 
114 114 167 114 167 114 167 167 114 114 114 167 167 114 114 114 167 167 167 167 114 114 114 114 114 114 114 114 114 76 76 76 76 76 40 40 40 40 76 114 114 76 76 76 76 40 76 76 76 76 114 114 114 114 114 76 76 40 40 40 40 40 40 40 40 40 40 40 40 40 40 40 40 40 40 40 40 40 40 40 40 40 40 40 40 40 40 40 40 40 76 76 76 76 76 76 76 76 40 76 76 76 76 76 40 76 40 40 40 40 40 40 40 76 114 114 76 40 40 40 40 40 40 40 40 40 40 40 76 76 76 76 114 114 114 114 114 167 167 167 167 167 167 167 167 114 114 40 40 76 76 76 40 76 76 114 167 167 114 76 40 40 40 40 40 40 40 40 40 40 40 40 40 40 40 40 40 40 40 40 40 40 40 40 40 40 40 40 40 40 40 40 40 40 40 40 40 40 40 40 40 40 40 40 40 40 40 76 40 40 40 76 40 40 40 76 76 76 76 76 76 76 76 76 114 76 114 76 114 114 76 114 114 76 114 114 114 114 114 114 114 114 114 114 114 114 114 114 114 114 114 114 114 114 114 114 114 114 114 114 114 114 114 114 114 114 114 114 114 114 114 114 114 76 76 76 76 76 76 76 76 114 114 114 114 114 114 114 114 114 114 114 114 114 114 114 114 114 114 114 114 114 114 114 114 114 167 167 167 167 114 114 114 114 114 114 114 114 114 114 114 114 114 114 114 114 114 114 114 76 40 40 40 40 40 40 40 40 40 40 40 40 40 40 40 40 40 40 40 40 40 40 40 40 40 40 40 40 40 40 40 40 40 40 40 40 40 40 40 76 40 40 40 40 40 40 40 76 40 40 40 40 40 40 40 40 40 40 76 114 114 114 114 76 114 114 114 114 114 114 114 114 114 114 114 114 114 114 114 114 114 114 114 114 114 114 114 114 114 114 114 114 114 114 114 114 114 114 114 114 114 114 114 114 114 114 114 114 114 114 114 114 114 114 114 114 114 114 114 114 114 114 114 114 114 114 114 114 114 114 114 114 114 114 114 114 114 114 114 114 114 76 114 114 114 114 114 114 114 167 167 167 167 167 167 167 167 167 167 167 167 167 167 167 167 167 167 167 167 167 167 167 167 167 167 167 167 167 167 167 167 167 
114 114 167 114 167 114 167 167 167 167 167 167 167 167 167 167 167 167 167 167 114 114 114 114 114 114 114 114 114 76 76 76 76 76 40 40 40 76 114 114 76 76 76 76 40 40 76 76 76 76 114 114 114 114 76 76 76 40 40 40 40 40 40 76 40 40 40 40 40 40 40 40 40 40 40 40 40 40 40 40 40 40 40 76 40 40 40 40 40 40 76 76 76 76 76 76 76 76 40 76 76 40 40 76 76 76 76 76 40 40 40 40 40 40 114 114 114 40 40 40 40 40 40 40 40 40 40 76 114 114 114 114 114 114 114 114 76 167 167 167 167 167 167 167 167 114 76 40 76 76 76 40 40 76 76 167 167 167 76 40 40 40 40 40 40 40 40 40 40 40 40 40 40 40 40 40 40 40 40 40 40 40 40 40 40 40 40 40 40 40 40 40 40 40 40 40 40 40 40 40 40 40 40 40 40 40 40 76 40 40 76 40 40 76 40 76 76 76 76 76 76 76 76 76 76 76 114 114 114 114 114 114 114 76 114 114 114 114 114 114 114 114 114 114 114 114 114 114 114 114 114 114 114 114 114 114 114 114 114 114 114 114 114 114 114 114 114 114 114 114 114 114 114 114 114 114 76 114 114 76 114 114 114 114 114 114 114 114 114 114 114 114 114 114 114 114 114 114 167 167 167 114 167 167 167 167 167 167 167 167 167 114 114 114 114 114 114 114 114 114 114 114 114 114 114 114 114 114 114 76 40 40 40 40 40 40 40 40 40 40 40 40 40 40 40 40 40 40 40 40 40 40 40 40 40 40 40 40 40 40 40 40 40 40 40 40 40 40 40 40 40 40 40 40 40 40 40 40 40 40 40 40 40 40 40 40 40 40 76 114 114 114 114 76 114 114 114 114 114 114 114 114 114 114 114 114 114 114 114 114 114 114 114 114 114 114 114 114 114 114 114 114 114 114 114 114 114 114 114 114 114 114 114 114 114 114 114 114 114 114 114 114 114 114 114 114 114 114 114 114 114 114 114 114 114 114 114 114 114 114 114 114 114 114 114 114 114 114 114 114 114 114 114 114 114 114 114 114 167 167 167 167 167 167 167 167 167 167 167 167 167 167 167 167 167 167 167 167 167 167 167 167 167 167 167 167 167 167 167 167 167 167 
114 114 167 114 167 114 167 114 167 114 114 167 167 114 114 167 167 167 167 167 114 114 114 114 114 114 114 114 114 76 76 76 76 76 40 40 76 114 114 76 76 76 76 40 40 76 76 76 76 114 114 114 114 76 76 76 76 40 40 40 40 40 40 40 40 40 40 40 40 40 40 40 40 40 40 40 40 40 40 40 40 40 40 76 76 40 40 40 40 40 76 114 76 76 76 40 76 76 76 76 76 76 40 40 76 76 76 76 76 76 76 76 76 76 76 76 76 76 76 40 40 40 76 40 40 40 40 76 114 114 114 114 114 114 114 114 76 114 167 167 167 167 167 167 114 76 76 40 76 76 76 40 76 76 114 167 167 76 40 40 40 40 40 40 40 40 40 40 40 40 40 40 40 40 40 40 40 40 40 40 40 40 40 40 40 40 40 40 40 40 40 40 40 40 40 40 40 40 40 40 40 40 40 40 40 40 40 76 40 40 40 40 76 40 40 76 76 76 76 76 76 76 76 76 76 76 76 114 114 76 114 76 114 114 114 114 114 114 114 114 114 114 114 114 114 114 114 114 114 114 114 114 114 114 114 114 114 114 114 114 114 114 114 114 114 114 114 114 114 114 114 114 114 114 114 114 114 114 114 114 114 114 114 114 114 114 114 114 114 114 114 114 167 167 167 167 167 167 167 167 167 167 167 167 167 167 167 167 167 167 167 114 114 114 114 114 114 114 114 114 114 114 114 114 114 114 114 76 76 40 40 40 40 40 40 40 40 40 40 40 40 40 40 40 40 40 40 40 40 40 40 40 40 40 40 40 40 40 40 40 40 40 76 40 40 40 40 40 40 40 40 40 40 40 40 40 40 40 76 40 40 40 40 40 40 40 40 40 40 114 114 114 114 76 114 114 114 114 114 114 114 114 114 114 114 114 114 114 114 114 114 114 114 114 114 114 114 114 114 114 114 114 114 114 114 114 114 114 114 114 114 114 114 114 114 114 114 114 114 114 114 114 114 114 114 114 114 114 114 114 114 114 114 114 114 114 114 114 114 114 114 114 114 114 114 114 114 114 114 114 114 114 114 114 114 114 114 114 167 167 167 167 167 167 167 167 167 167 167 167 167 167 167 167 167 167 167 167 167 167 167 167 167 167 167 167 167 167 167 167 167 167 
114 114 167 114 167 114 114 114 167 167 167 167 167 167 167 167 167 167 167 167 114 114 114 114 114 114 114 114 114 114 76 76 76 76 40 76 114 114 114 76 40 40 76 40 40 76 76 76 76 114 114 114 76 76 76 76 76 40 40 40 40 40 40 40 40 40 40 40 40 40 40 40 40 40 40 40 40 40 40 76 40 40 40 76 76 40 40 40 40 40 114 114 114 114 76 76 40 76 76 76 76 76 76 76 40 40 76 76 76 76 40 76 40 76 40 40 40 76 114 40 40 40 76 40 40 76 76 114 114 114 114 114 114 114 114 114 76 76 167 167 167 167 167 114 76 76 76 40 76 76 40 76 114 114 114 167 114 76 40 40 40 40 40 40 40 40 40 40 40 40 40 40 40 40 40 40 40 40 40 40 40 40 40 40 40 40 40 40 40 40 40 40 40 40 40 40 40 40 76 40 40 40 40 40 40 40 40 76 40 40 40 40 76 40 40 76 76 40 76 76 76 76 114 76 76 76 76 114 76 76 114 114 114 114 114 114 76 114 114 114 114 114 114 114 114 114 114 114 114 114 114 114 114 114 114 114 114 114 114 114 114 114 114 114 114 114 114 114 114 114 114 76 114 114 114 114 114 114 114 114 114 114 114 114 114 114 114 114 114 114 114 114 114 167 167 167 167 167 167 167 167 114 167 167 167 167 167 167 167 167 167 114 114 114 114 114 114 114 114 114 114 114 114 114 114 76 76 76 76 40 40 40 40 40 40 40 40 40 40 40 40 40 40 40 40 40 40 40 40 40 40 40 40 40 40 40 40 40 40 40 40 40 76 40 40 40 40 40 76 40 40 40 40 40 40 40 40 40 76 40 40 40 40 40 40 40 40 40 40 114 114 114 114 114 114 114 114 114 114 114 114 114 114 114 114 114 114 114 114 114 114 114 114 114 114 114 114 114 114 114 114 114 114 114 114 114 114 114 114 114 114 114 114 114 114 114 114 114 114 114 114 114 114 114 114 114 114 114 114 114 114 114 114 114 114 114 114 114 114 114 114 114 114 114 114 114 114 114 114 114 114 114 76 114 114 114 114 114 167 167 167 167 167 167 167 167 167 167 167 167 167 167 167 167 167 167 167 167 167 167 167 167 167 167 167 167 167 167 167 167 167 167 
114 114 114 114 114 167 114 167 114 167 167 114 167 167 114 167 167 167 167 167 167 114 114 114 114 114 114 114 114 114 76 76 76 76 114 114 114 76 40 40 40 40 40 40 40 76 76 76 114 114 114 76 76 76 76 76 40 40 40 40 40 40 40 40 40 40 40 40 40 40 40 40 40 40 40 40 40 40 40 76 40 40 40 40 76 40 40 40 40 40 114 114 114 114 76 40 40 40 40 76 76 76 76 76 76 76 40 40 76 76 40 40 76 40 40 40 40 40 114 114 40 40 76 76 76 114 76 114 114 114 114 114 114 114 114 114 114 76 114 167 167 167 114 114 76 76 40 76 76 76 76 76 167 167 167 114 76 40 40 40 40 40 40 40 40 40 40 40 40 40 40 40 40 40 40 40 40 40 40 40 40 40 40 40 40 40 40 40 40 40 40 40 40 40 40 40 40 40 40 40 40 40 40 40 40 40 40 76 76 40 40 40 40 76 40 40 40 40 76 76 76 76 76 76 76 76 76 76 76 76 114 114 114 76 114 114 114 114 114 76 114 114 114 114 114 114 114 114 114 114 114 114 114 114 114 114 114 114 114 114 114 114 114 114 114 114 114 114 114 114 114 76 76 114 76 76 114 114 114 114 114 114 114 114 114 114 114 114 114 114 114 114 114 114 114 114 167 167 167 167 167 114 114 114 167 114 167 167 167 167 167 114 114 114 114 114 114 114 114 114 114 114 114 76 114 114 114 76 40 40 40 40 40 40 40 40 40 40 40 40 40 40 40 40 40 40 40 40 40 40 40 40 40 40 40 40 40 40 40 40 40 76 76 40 40 40 40 76 40 40 40 40 40 40 40 40 40 40 40 40 40 40 40 40 40 40 40 40 40 114 114 114 114 114 114 114 114 114 114 114 114 114 114 114 114 114 114 114 114 114 114 114 114 114 114 114 114 114 114 114 114 114 114 114 114 114 114 114 114 114 114 114 114 114 114 114 114 114 114 114 114 114 114 114 114 114 114 114 114 114 114 114 114 114 114 114 114 114 114 114 114 114 114 114 114 114 114 114 114 76 114 114 114 114 76 114 114 114 167 167 167 167 167 167 167 167 167 167 167 167 167 167 167 167 167 167 167 167 167 167 167 167 167 167 167 167 167 167 167 167 167 167 
114 114 167 167 167 167 167 167 114 167 167 167 167 114 167 167 114 114 167 167 114 114 114 114 114 114 114 114 114 114 76 76 76 114 114 114 76 76 40 76 40 40 40 40 40 76 76 76 114 114 114 76 76 76 76 76 76 76 40 40 40 40 40 40 76 40 40 40 40 40 40 40 40 40 40 40 40 40 40 76 40 40 40 40 76 40 40 40 40 40 114 114 114 76 76 40 40 40 40 40 40 76 76 76 76 76 76 40 40 40 40 40 76 40 40 40 40 40 76 114 76 40 76 76 76 114 76 76 114 114 114 114 114 114 114 76 76 76 114 167 167 114 114 76 76 40 76 76 76 76 114 167 167 167 167 114 40 40 40 40 40 40 40 40 40 40 40 40 40 40 40 40 40 40 40 40 40 40 40 40 40 40 40 40 40 40 40 40 40 40 40 40 40 40 40 40 40 40 40 40 40 40 40 40 40 40 40 40 40 40 40 76 40 76 40 40 40 76 76 76 76 76 76 76 76 76 76 114 114 76 76 76 76 76 114 114 76 114 114 114 114 114 114 114 114 114 114 114 114 114 114 114 114 114 114 114 114 114 114 114 114 114 114 114 114 114 114 114 114 114 114 114 76 114 114 76 114 114 114 114 114 114 114 114 114 114 114 114 114 114 114 114 114 114 114 114 114 114 114 114 114 114 114 114 114 114 114 114 114 114 114 114 114 114 114 114 114 114 114 114 114 114 114 114 114 114 76 76 40 40 40 40 40 40 40 40 40 40 40 40 40 40 40 40 40 40 40 40 40 40 40 40 40 40 40 40 40 40 40 40 40 76 76 40 40 40 40 40 76 40 40 40 40 40 40 40 40 40 40 40 40 40 40 40 40 40 40 40 76 114 114 114 114 114 114 114 114 114 114 114 114 114 114 114 114 114 114 114 114 114 114 114 114 114 114 114 114 114 114 114 114 114 114 114 114 114 114 114 114 114 114 114 114 114 114 114 114 114 114 114 114 114 114 114 114 114 114 114 114 114 114 114 114 114 114 114 114 114 114 114 114 114 114 114 114 114 114 114 114 76 114 114 114 114 76 114 114 114 167 167 167 167 167 167 167 167 167 167 167 167 167 167 167 167 167 167 167 167 167 167 167 167 167 167 167 167 167 167 167 167 167 167 
114 114 114 114 114 167 114 167 167 167 114 167 167 114 167 167 167 167 167 114 114 114 114 114 114 114 114 114 114 114 114 114 114 114 114 114 76 76 40 40 40 40 40 76 40 76 76 114 114 114 76 40 76 76 76 76 76 76 40 40 40 40 40 40 76 40 40 40 40 40 40 40 40 40 40 40 40 40 40 40 40 40 40 40 40 76 40 40 40 40 114 114 114 76 76 40 40 40 40 40 40 76 76 76 76 76 76 76 40 40 40 76 40 40 40 40 40 40 40 76 76 76 76 76 76 114 114 76 114 114 114 114 114 114 114 76 114 114 114 167 167 114 76 76 40 76 76 76 114 114 114 167 167 167 114 76 40 40 40 40 40 40 40 40 40 40 40 40 40 40 40 40 40 40 40 40 40 40 40 40 40 40 40 40 40 40 40 40 40 40 40 40 40 40 40 40 40 40 40 40 40 40 40 40 40 40 40 40 40 40 40 76 40 76 40 40 40 40 40 76 76 76 76 76 76 76 76 114 76 114 76 76 76 76 114 114 76 76 114 114 114 114 114 114 114 114 114 114 114 114 114 114 114 114 114 114 114 114 114 114 114 114 114 114 114 114 114 114 114 114 114 114 114 114 114 114 114 76 114 114 114 114 114 114 114 114 114 114 114 114 114 114 114 114 114 114 114 114 114 114 114 114 114 114 114 114 114 114 114 114 114 114 114 114 114 114 114 114 114 114 114 114 114 114 114 76 76 40 40 40 40 40 40 40 40 40 40 40 40 40 40 40 40 40 40 40 40 40 40 40 40 40 40 40 40 40 40 40 40 40 40 76 76 40 40 40 40 40 76 40 40 40 40 40 40 40 40 40 76 40 40 40 40 40 40 40 40 40 40 76 114 114 114 114 114 114 114 114 114 114 114 114 114 114 114 114 114 114 114 114 114 114 114 114 114 114 114 114 114 114 114 114 114 114 114 114 114 114 114 114 114 114 114 114 114 114 114 114 114 114 114 114 114 114 114 114 114 114 114 114 114 114 114 114 114 114 114 114 114 114 114 114 114 114 114 114 114 114 114 114 114 114 114 114 76 114 114 114 167 167 167 167 167 167 167 167 167 167 167 167 167 167 167 167 167 167 167 167 167 167 167 167 167 167 167 167 167 167 167 167 167 167 
114 114 114 114 114 114 114 114 167 114 114 167 167 167 167 167 167 167 167 167 114 114 114 114 114 114 114 114 114 114 114 114 114 114 76 76 40 76 40 40 40 40 40 76 76 76 76 114 114 76 76 76 76 76 76 76 76 40 40 40 40 40 40 40 114 76 40 40 40 40 40 40 40 40 40 40 40 40 76 40 40 40 40 40 40 76 76 40 40 40 114 114 114 76 76 76 40 40 40 40 40 40 40 76 76 76 114 76 76 40 40 40 76 40 40 40 40 40 40 40 76 76 76 76 114 76 76 76 114 114 114 114 114 114 76 76 114 114 167 167 114 76 40 40 76 76 76 76 114 114 114 114 114 114 76 40 40 40 40 40 40 40 40 40 40 40 40 40 40 40 40 40 40 40 40 40 40 40 40 40 40 40 40 40 40 40 40 40 40 40 40 40 40 40 40 40 40 40 40 40 40 40 40 40 40 40 40 40 40 40 40 76 40 76 40 40 40 40 40 76 76 76 76 76 76 76 76 76 76 76 114 76 76 114 76 76 114 76 114 114 114 114 114 114 114 114 114 114 114 114 114 114 114 114 114 114 114 114 114 114 114 114 114 114 114 114 114 114 114 114 114 114 114 114 114 114 114 114 114 114 114 114 114 114 114 114 114 114 114 114 114 114 114 114 114 114 114 114 114 114 114 114 114 114 114 114 114 114 114 114 114 114 114 114 114 114 114 114 114 114 114 114 114 114 114 76 40 40 40 40 40 40 40 40 40 40 40 40 40 40 40 40 40 40 40 40 40 40 40 40 40 40 40 40 40 40 40 40 40 40 40 76 76 40 40 40 40 40 76 40 40 40 40 40 40 40 40 40 76 40 40 40 40 40 40 40 40 40 40 76 114 114 114 114 114 114 114 114 114 114 114 114 114 114 114 114 114 114 114 114 114 114 114 114 114 114 114 114 114 114 114 114 114 114 114 114 114 114 114 114 114 114 114 114 114 114 114 114 114 114 114 114 114 114 114 114 114 114 114 114 114 114 114 114 114 114 114 114 114 114 114 114 114 114 114 114 114 114 114 114 114 76 76 76 114 114 114 114 114 167 167 167 167 167 167 167 167 167 167 167 167 167 167 167 167 167 167 167 167 167 167 167 167 167 167 167 167 167 167 167 167 167 
114 114 114 114 114 167 114 167 167 167 167 114 167 167 167 167 167 167 167 167 114 114 114 114 167 167 114 114 76 76 76 114 114 76 76 40 40 40 40 40 40 40 40 76 76 76 76 114 114 76 76 76 76 76 76 76 76 40 40 40 40 40 40 76 114 76 40 40 40 40 40 40 40 40 40 40 40 76 76 40 40 40 40 40 40 76 76 40 40 40 114 114 114 76 76 76 40 40 40 40 40 40 40 40 40 40 76 114 76 76 76 40 40 40 40 76 40 40 40 40 40 40 76 114 114 76 114 76 114 114 114 114 114 76 76 114 167 167 167 167 114 40 40 76 76 76 114 114 114 167 114 114 76 76 40 40 40 40 40 40 40 40 40 40 40 40 40 40 40 40 40 40 40 40 40 40 40 40 40 40 40 40 40 40 40 40 40 40 40 40 40 40 40 40 40 40 40 40 40 40 40 40 40 40 40 40 40 40 76 40 40 76 40 40 40 40 40 76 40 76 76 76 76 76 76 76 76 76 76 76 76 76 76 76 76 76 114 114 76 76 76 114 114 114 114 114 114 114 114 114 114 114 114 114 114 114 114 114 114 114 114 114 114 114 114 114 114 114 114 114 114 114 114 114 114 114 114 114 114 76 76 114 114 114 114 114 114 114 114 114 114 114 114 114 114 114 114 114 114 114 114 114 114 114 114 114 114 114 114 114 114 114 114 114 114 114 114 114 114 114 114 114 76 76 76 76 40 40 40 40 40 40 40 40 40 40 40 40 40 40 40 40 40 40 40 40 40 40 40 40 40 40 40 40 40 40 40 40 40 40 40 76 76 40 40 40 40 40 76 40 40 40 40 40 40 40 40 40 76 76 40 40 40 40 40 40 40 40 76 114 114 114 114 114 114 114 114 114 114 114 114 114 114 114 114 114 114 114 114 114 114 114 114 114 114 114 114 114 114 114 114 114 114 114 114 114 114 114 114 114 114 114 114 114 114 114 114 114 114 114 114 114 114 114 114 114 114 114 114 114 114 114 114 114 114 114 114 114 114 114 114 114 114 114 114 114 114 114 114 114 114 76 76 114 76 114 114 114 167 167 167 167 167 167 167 167 167 167 167 167 167 167 167 167 167 167 167 167 167 167 167 167 167 167 167 167 167 167 167 167 167 167 
114 114 114 114 114 167 167 167 167 167 167 167 167 167 167 167 167 167 167 167 167 167 114 114 114 167 167 167 167 114 114 114 114 76 40 40 40 40 40 40 40 40 40 40 76 114 114 114 76 76 76 76 76 76 76 40 40 40 40 40 76 40 40 114 76 40 40 40 40 40 40 40 40 40 40 40 40 76 76 40 40 76 40 40 40 76 76 40 40 40 114 114 114 76 76 114 76 40 40 40 40 76 40 40 40 40 40 76 114 76 114 76 40 76 40 40 40 40 40 76 76 40 76 76 114 114 114 114 76 114 114 114 114 76 76 114 167 167 167 167 76 40 76 76 76 114 114 114 167 167 114 114 76 40 40 40 40 40 40 40 40 40 40 40 40 40 40 40 40 40 40 40 40 40 40 40 40 40 40 40 40 40 40 40 40 40 40 40 40 40 40 40 40 40 40 40 40 40 40 40 40 40 40 40 40 40 40 40 76 40 40 76 40 40 40 40 40 76 76 76 76 76 76 76 76 76 76 76 76 76 76 76 76 76 76 76 114 114 76 76 76 114 114 114 114 114 114 114 114 114 114 114 114 114 114 114 114 114 114 114 114 114 114 114 114 114 114 114 114 114 114 114 114 114 114 114 114 114 114 76 76 76 114 114 114 114 114 114 114 114 114 114 114 114 114 114 114 114 114 114 114 114 114 114 114 114 114 114 114 114 114 114 114 114 114 114 114 114 114 114 114 76 76 76 76 40 40 40 40 40 40 40 40 40 40 40 40 40 40 40 40 40 40 40 40 40 40 40 40 40 40 40 40 40 40 40 40 40 40 40 40 76 76 40 40 40 40 40 76 40 40 40 40 40 40 40 40 40 76 76 40 40 40 40 40 40 40 40 76 114 114 114 114 114 114 114 114 114 114 114 114 114 114 114 114 114 114 114 114 114 114 114 114 114 114 114 114 114 114 114 114 114 114 114 114 114 114 114 114 114 114 114 114 114 114 114 114 114 114 114 114 114 114 114 114 114 114 114 114 114 114 114 114 114 114 114 114 114 114 114 114 114 114 114 114 114 114 114 114 114 114 76 76 76 76 114 114 114 167 167 167 167 167 167 167 167 167 167 167 167 167 167 167 167 167 167 167 167 167 167 167 167 167 167 167 167 167 167 167 167 167 167 
114 114 114 114 114 167 167 167 167 167 167 167 114 167 167 167 167 167 167 167 167 167 114 114 114 114 114 114 114 114 114 76 76 76 40 40 40 40 40 40 40 76 76 40 76 114 114 114 76 76 76 76 76 76 76 76 40 40 40 40 40 40 76 114 76 40 40 40 40 40 40 40 40 40 40 40 40 76 76 40 40 40 76 40 40 40 76 40 40 76 114 114 76 76 76 76 114 40 40 40 40 40 40 76 76 40 40 40 76 114 114 76 40 114 114 76 40 40 76 76 76 76 76 76 114 114 114 114 76 114 114 114 76 76 76 114 167 167 167 114 76 76 76 76 76 167 114 114 167 167 114 76 40 40 40 40 40 40 40 40 40 40 40 40 40 40 40 40 40 40 40 40 40 40 40 40 40 40 40 40 40 40 40 40 40 40 40 40 40 40 40 40 40 40 40 40 40 40 40 40 40 40 40 40 40 40 40 40 40 40 40 76 40 40 40 40 40 40 40 76 76 76 76 76 76 76 76 76 76 76 76 76 76 76 76 76 76 76 76 76 76 76 114 114 114 114 114 114 114 114 114 114 114 114 114 114 114 114 114 114 114 114 114 114 114 114 114 114 114 114 114 114 114 114 114 114 114 114 114 114 76 114 114 114 114 114 114 114 114 114 114 114 114 114 114 114 114 114 114 114 114 114 114 114 114 114 114 114 114 114 114 114 114 114 114 114 114 114 114 114 114 76 76 76 40 40 40 40 40 40 40 40 40 40 40 40 40 40 40 40 40 40 40 40 40 40 40 40 40 40 40 40 40 40 40 40 40 40 40 40 40 40 40 40 40 40 40 40 76 40 40 40 40 40 40 40 40 40 76 76 40 40 40 40 40 40 40 40 40 76 114 114 114 114 76 114 114 114 114 114 114 114 114 114 114 114 114 114 114 114 114 114 114 114 114 114 114 114 114 114 114 114 114 114 114 114 114 114 114 114 114 114 114 114 114 114 114 114 114 114 114 114 114 114 114 114 114 114 114 114 114 114 114 114 114 114 114 114 114 114 114 114 114 114 114 114 114 114 114 114 114 76 76 76 76 114 114 114 167 167 167 167 167 167 167 167 167 167 167 167 167 167 167 167 167 167 167 167 167 167 167 167 167 167 167 167 167 167 167 167 167 167 
114 114 114 114 167 167 167 167 167 114 167 167 167 167 167 167 167 167 167 167 167 167 114 114 114 114 114 114 114 114 76 76 76 40 40 40 40 40 40 40 40 40 76 76 114 114 114 76 76 40 76 76 76 76 76 40 40 40 40 40 40 40 76 114 76 40 40 40 40 40 40 40 40 40 40 40 40 76 76 40 40 40 114 76 40 40 76 40 40 114 114 114 76 76 76 76 114 76 40 40 40 40 40 76 76 40 40 40 40 40 114 114 76 76 114 76 76 76 76 76 76 76 40 40 114 114 114 167 114 114 114 114 76 76 76 114 167 167 167 114 40 76 114 76 114 114 114 167 167 114 76 76 40 40 40 40 40 40 40 40 40 40 40 40 40 40 40 40 40 40 40 40 40 40 40 40 40 40 40 40 40 40 40 40 40 40 40 40 40 40 40 40 40 40 40 40 40 40 40 40 40 40 40 40 40 40 40 40 40 40 40 76 40 40 40 40 40 40 40 76 76 76 76 76 76 76 76 76 76 76 76 76 76 76 76 76 76 76 76 114 76 114 114 114 76 114 114 114 114 114 114 114 114 114 114 114 114 114 114 114 114 114 114 114 114 114 114 114 114 114 114 114 114 114 114 114 114 114 114 114 114 114 114 114 76 76 76 76 114 114 114 114 114 114 76 76 76 114 114 114 114 76 114 114 76 114 76 76 114 114 114 114 114 114 114 114 114 114 114 114 114 114 76 40 40 40 40 40 40 40 40 40 40 40 40 40 40 40 40 40 40 40 40 40 40 40 40 40 40 40 40 40 40 40 40 40 40 40 40 40 40 76 40 40 76 40 40 40 76 40 40 40 40 40 40 40 40 40 40 40 40 40 40 40 40 40 40 40 76 76 114 167 114 114 114 114 114 114 114 114 114 114 114 114 114 114 114 114 114 114 114 114 114 114 114 114 114 114 114 114 114 114 114 114 114 114 114 114 114 114 114 114 114 114 114 114 114 114 114 114 114 114 114 114 114 114 114 114 114 114 114 114 114 114 114 114 114 114 114 114 114 114 114 114 114 114 114 114 114 76 114 76 76 76 76 114 114 114 167 167 167 167 167 167 167 167 167 167 167 167 167 167 167 167 167 167 167 167 167 167 167 167 167 167 167 167 167 167 167 167 167 167 
114 114 114 114 114 167 167 167 167 167 114 167 167 167 167 167 167 167 167 114 167 114 114 114 114 114 114 114 114 114 76 76 76 40 40 40 40 40 40 40 40 40 76 114 114 114 76 76 40 76 76 76 76 76 76 40 40 40 40 40 40 40 114 114 76 40 40 40 40 40 40 40 40 40 40 40 40 76 40 40 40 40 40 76 40 40 76 40 40 114 114 76 76 76 40 40 114 114 40 40 76 40 76 76 76 40 40 40 40 40 40 114 114 76 40 40 76 114 114 76 76 76 40 40 76 114 114 167 114 114 114 114 76 76 76 76 114 167 167 114 76 114 114 167 114 114 167 167 114 76 76 40 40 40 40 40 40 40 40 40 40 40 40 40 40 40 40 40 40 40 40 40 40 40 40 40 40 40 40 40 40 40 40 40 40 40 40 40 40 40 40 40 40 40 40 40 40 40 40 40 40 40 40 40 40 40 40 40 40 40 40 40 40 76 40 40 40 40 40 40 40 40 76 76 76 76 76 76 76 76 76 76 76 76 76 76 76 76 76 76 76 76 76 76 114 114 114 76 114 114 114 114 114 114 114 114 114 114 114 114 114 114 114 114 114 114 114 114 114 114 114 114 114 114 114 114 114 114 114 114 114 114 114 114 114 114 114 76 76 76 76 76 76 76 76 76 76 76 76 76 76 76 76 76 76 76 114 114 114 114 114 114 114 114 114 114 114 114 114 114 114 114 76 40 40 40 40 40 40 40 40 40 40 40 40 40 40 40 40 40 40 40 40 40 40 40 40 40 40 40 40 40 40 40 40 40 40 40 40 40 76 76 40 40 40 40 40 40 76 40 40 40 40 40 40 40 40 40 40 76 40 40 40 40 40 40 40 40 76 76 114 114 114 114 114 114 114 114 114 114 114 114 114 114 114 114 114 114 114 114 114 114 114 114 114 114 114 114 114 114 114 114 114 114 114 114 114 114 114 114 114 114 114 114 114 114 114 114 114 114 114 114 114 114 114 114 114 114 114 114 114 114 114 114 114 114 114 114 114 114 114 114 114 114 114 114 114 76 114 76 114 76 76 76 76 76 114 114 167 167 167 167 167 167 167 167 167 167 167 167 167 167 167 167 167 167 167 167 167 167 167 167 167 167 167 167 167 167 167 167 167 167 
114 114 114 114 167 167 167 167 114 167 114 167 167 167 167 114 114 167 167 167 167 114 114 114 114 114 114 114 114 76 76 76 76 76 40 40 40 40 40 40 40 40 76 114 114 114 76 40 76 76 76 76 76 76 76 40 40 40 40 40 40 40 114 114 76 40 40 40 40 40 40 40 40 40 40 40 76 76 40 40 40 40 40 76 76 40 40 40 40 114 167 76 76 76 40 40 76 114 76 76 76 76 76 76 76 40 40 40 40 40 40 40 114 114 76 76 76 114 76 76 76 114 76 40 40 76 114 167 114 76 114 114 76 114 76 114 114 167 167 114 114 114 167 167 114 167 167 167 114 76 40 40 40 40 40 40 40 40 40 40 40 40 40 40 40 40 40 40 40 40 40 40 40 40 40 40 40 40 40 40 40 40 40 40 40 40 40 40 40 40 40 40 40 40 40 40 40 40 40 40 40 40 40 40 40 40 40 40 40 40 40 40 40 40 40 40 40 40 40 40 40 40 76 76 76 76 76 76 76 76 76 76 76 76 76 76 76 76 76 76 114 76 76 114 114 114 114 76 114 114 114 114 114 114 114 114 114 114 114 114 114 114 114 114 114 114 114 114 114 114 114 114 114 114 114 114 114 114 114 114 114 114 114 114 114 114 76 76 76 76 76 76 76 76 76 76 76 76 76 76 76 76 76 76 114 114 114 114 114 114 114 114 114 114 114 114 114 114 114 114 76 76 40 40 40 40 40 40 40 40 40 40 40 40 40 40 40 40 40 40 40 40 40 40 40 40 40 40 40 40 40 40 40 40 40 40 40 40 40 40 76 76 40 40 40 40 40 40 76 40 40 40 40 40 40 40 40 40 76 76 40 40 40 40 40 40 40 40 76 76 114 114 114 114 114 114 114 114 114 114 114 114 114 114 114 114 114 114 114 114 114 114 114 114 114 114 114 114 114 114 114 114 114 114 114 114 114 114 114 114 114 114 114 114 114 114 114 114 114 114 114 114 114 114 114 114 114 114 114 114 114 114 114 114 114 114 114 114 114 114 114 114 114 114 114 114 114 76 114 114 114 76 76 76 76 76 114 114 167 167 167 167 167 167 167 167 167 167 167 167 167 167 167 167 167 167 167 167 167 167 167 167 167 167 167 167 167 167 167 167 167 167 
114 114 114 114 167 167 167 167 167 167 114 114 167 167 114 167 167 167 167 167 167 167 114 114 114 114 114 114 114 114 76 76 76 76 76 40 40 40 40 40 40 76 114 114 114 76 76 40 76 76 76 76 76 76 40 40 40 40 40 40 40 76 114 114 76 40 40 40 40 40 40 40 40 40 40 40 76 40 40 40 40 40 40 40 76 76 40 40 40 167 167 76 76 76 40 40 40 76 114 76 76 76 76 76 76 40 40 40 40 40 40 40 40 76 114 114 114 76 76 40 76 114 114 76 40 40 76 114 76 76 114 114 76 76 76 114 167 167 167 114 114 114 167 114 114 167 167 114 76 40 40 40 40 40 40 40 40 40 40 40 40 40 40 40 40 40 40 40 40 40 40 40 40 40 40 40 40 40 40 40 40 40 40 40 40 40 40 40 40 40 40 40 40 40 40 40 40 40 40 40 40 40 40 40 40 40 40 40 40 40 40 40 40 40 40 40 40 40 40 40 40 76 76 76 76 76 76 76 76 76 76 76 76 76 76 76 76 76 76 76 114 76 76 114 114 114 114 114 114 114 114 114 114 114 114 114 114 114 114 114 114 114 114 114 114 114 114 114 114 114 114 114 114 114 114 114 114 114 114 114 114 114 114 114 114 114 114 114 114 114 76 76 76 76 76 76 76 76 114 114 114 114 114 114 114 114 114 114 114 114 114 114 114 114 114 114 114 114 114 76 76 40 40 40 76 40 40 40 40 40 40 40 40 40 40 40 40 40 40 40 40 40 40 40 40 40 40 40 40 40 40 40 40 40 40 40 40 40 40 40 76 76 40 40 40 40 40 40 76 40 40 40 40 40 40 40 40 40 40 76 40 40 40 40 40 40 40 40 40 76 114 167 114 114 114 114 114 114 114 114 114 114 114 114 114 114 114 114 114 114 114 114 114 114 114 114 114 114 114 114 114 114 114 114 114 114 114 114 114 114 114 114 114 114 114 114 114 114 114 114 114 114 114 114 114 114 114 114 114 114 114 114 114 114 114 114 114 114 114 114 114 114 114 114 114 114 114 114 114 76 76 76 76 76 76 76 114 114 167 167 167 167 167 167 167 167 167 167 167 167 167 167 167 167 167 167 167 167 167 167 167 167 167 167 167 167 167 167 167 167 167 167 
114 114 114 114 167 167 167 167 167 167 167 167 167 167 167 167 167 167 114 167 114 167 114 114 114 114 114 114 114 114 76 76 76 76 40 40 40 40 40 40 40 76 114 114 76 76 76 76 76 76 76 76 76 76 40 40 40 40 40 40 40 40 114 114 76 40 40 40 40 40 40 40 40 40 40 76 76 40 40 40 40 40 40 40 40 76 40 40 76 167 114 114 114 76 40 40 40 76 114 76 76 76 76 76 76 76 40 40 40 40 40 40 40 40 114 114 114 76 76 40 40 76 114 114 40 40 76 114 76 76 114 114 76 76 114 114 167 167 114 114 114 114 114 76 167 167 114 76 40 40 40 40 40 40 40 40 40 40 40 40 40 40 40 40 40 40 40 40 40 40 40 40 40 40 40 40 40 40 40 40 40 40 40 40 40 40 40 40 40 40 40 40 40 40 40 40 40 40 40 40 40 40 40 40 40 40 40 40 40 40 40 40 40 40 40 40 40 40 40 40 40 76 76 76 76 76 76 76 76 76 76 76 76 76 76 76 76 76 76 114 76 76 76 76 114 114 114 114 114 114 114 114 114 114 114 114 114 114 114 114 114 114 114 114 114 114 114 114 114 114 114 114 114 114 114 114 114 114 114 114 114 114 114 114 114 114 114 114 114 114 114 114 114 114 114 114 114 114 114 114 114 114 114 114 114 114 114 114 114 114 114 114 114 114 114 114 114 114 114 76 76 40 40 40 76 40 40 40 40 40 40 40 40 40 40 40 40 40 40 40 40 40 40 40 40 40 40 40 40 40 40 40 40 40 40 40 40 40 40 40 40 76 40 40 40 40 40 40 76 40 40 40 40 40 40 40 40 40 40 76 76 40 40 40 40 40 40 40 40 76 114 167 114 114 114 114 114 114 114 114 114 114 114 114 114 114 114 114 114 114 114 114 114 114 114 114 114 114 114 114 114 114 114 114 114 114 114 114 114 114 114 114 114 114 114 114 114 114 114 114 114 114 114 114 114 114 114 114 114 114 114 114 114 114 114 114 114 114 114 114 114 114 114 114 114 114 114 114 114 76 76 76 76 76 76 76 114 114 167 167 167 167 167 167 167 167 167 167 167 167 167 167 167 167 167 167 167 167 167 167 167 167 167 167 167 167 167 167 167 167 167 167 
114 114 114 114 167 167 167 167 167 167 167 114 167 167 167 167 114 167 167 167 114 114 114 114 114 114 114 114 114 76 76 76 76 76 40 40 40 40 40 40 40 76 114 114 76 76 76 76 76 76 76 76 76 40 40 40 40 40 40 40 40 40 114 114 40 40 40 40 40 40 40 40 40 40 40 76 76 40 40 40 40 40 40 40 40 76 76 76 114 167 114 76 114 76 40 40 40 76 114 114 76 76 76 76 114 76 40 40 40 40 40 40 40 76 76 76 114 114 76 76 40 40 76 114 40 40 76 114 76 40 76 114 76 76 114 167 167 167 76 76 76 114 114 167 167 114 76 40 40 40 40 40 40 40 40 40 40 40 40 40 40 40 40 40 40 40 40 40 40 40 40 40 40 40 40 40 40 40 40 40 40 40 40 40 40 40 40 40 40 40 40 40 40 40 40 40 40 40 40 40 40 40 40 40 40 40 40 40 40 40 40 40 40 40 40 40 40 40 40 40 40 76 76 76 40 40 76 76 76 76 76 76 76 76 76 76 76 76 76 76 76 76 76 114 114 114 114 114 114 114 114 114 114 114 114 114 114 114 114 114 114 114 114 114 114 114 114 114 114 114 114 114 114 114 114 114 114 114 114 114 114 114 114 114 114 114 114 114 114 114 114 114 114 114 114 114 114 114 114 114 114 114 114 114 114 114 114 114 114 114 114 114 114 114 114 114 114 114 114 76 40 40 40 40 40 40 40 40 40 40 40 40 40 40 40 40 40 40 40 40 40 40 40 40 40 40 40 40 40 40 40 40 40 40 40 40 40 40 40 40 76 76 40 40 40 40 40 76 76 40 40 40 40 40 40 40 40 40 40 76 40 40 40 40 40 40 40 40 40 76 114 167 114 114 114 114 114 114 114 114 114 114 114 114 114 114 114 114 114 114 114 114 114 114 114 114 114 114 114 114 114 114 114 114 114 114 114 114 114 114 114 114 114 114 114 114 114 114 114 114 114 114 114 114 114 114 114 114 114 114 114 114 114 114 114 114 114 114 114 114 114 114 114 114 114 114 114 114 114 76 76 76 76 76 76 76 114 114 167 167 167 167 167 167 167 167 167 167 167 167 167 167 167 167 167 167 167 167 167 167 167 167 167 167 167 167 167 167 167 167 167 167 
114 114 114 114 167 167 167 114 167 114 167 167 114 167 167 167 167 167 167 167 114 114 114 114 114 114 114 114 114 76 76 76 76 40 40 40 40 40 40 40 40 76 114 114 76 40 40 40 76 76 76 76 40 40 40 40 40 40 40 40 76 76 76 76 40 40 40 40 40 40 40 40 40 40 40 76 76 40 40 40 40 40 40 40 40 40 76 76 114 167 76 76 114 114 76 40 40 40 76 114 76 76 76 76 76 76 40 40 40 40 76 40 40 76 76 76 76 76 76 76 114 40 40 40 40 40 76 114 76 40 40 76 76 76 76 114 167 167 114 76 114 114 167 167 114 76 40 40 40 40 40 40 40 40 40 40 40 40 40 40 40 40 40 40 40 40 40 40 40 40 40 40 40 40 40 40 40 40 40 40 40 40 40 40 40 40 40 40 40 40 40 40 40 40 40 40 40 40 40 40 40 40 40 40 40 40 40 40 40 40 40 40 40 40 40 40 40 40 40 40 40 40 40 40 76 76 76 76 76 76 76 76 76 76 76 76 76 76 76 76 76 76 114 114 114 114 114 114 114 114 114 114 114 114 114 114 114 114 114 114 114 114 114 114 114 114 114 114 114 114 114 114 114 114 114 114 114 114 114 114 114 114 114 114 114 114 114 114 114 114 114 114 114 114 114 114 114 114 114 114 114 114 114 114 114 114 114 114 114 114 114 114 114 114 114 114 114 114 114 76 40 40 40 40 40 40 40 40 40 40 40 40 40 40 40 40 40 40 40 40 40 40 40 40 40 40 40 40 40 40 40 40 40 40 40 40 40 40 40 40 40 76 40 40 40 40 40 40 76 40 40 40 40 40 40 40 40 40 40 76 40 40 40 40 40 40 40 40 40 76 114 114 114 114 114 114 114 114 114 114 114 114 114 114 114 114 114 114 114 114 114 114 114 114 114 114 114 114 114 114 114 114 114 114 114 114 114 114 114 114 114 114 114 114 114 114 114 114 114 114 114 114 114 114 114 114 114 114 114 114 114 114 114 114 114 114 114 114 114 114 114 114 114 114 114 114 114 76 114 76 76 76 76 76 76 76 114 114 167 167 167 167 167 167 167 167 167 167 167 167 167 167 167 167 167 167 167 167 167 167 167 167 167 167 167 167 167 167 167 167 167 167 
114 114 114 114 167 167 167 114 167 167 167 167 167 167 167 167 167 167 167 114 167 167 114 114 114 114 114 114 114 114 76 76 76 76 40 40 40 40 40 40 40 76 114 114 76 40 40 76 76 76 76 40 40 40 40 40 40 40 40 40 76 76 76 40 40 40 40 40 40 40 40 40 40 40 40 76 40 40 40 40 40 40 40 40 40 40 40 76 114 167 76 76 114 114 114 76 40 40 76 114 114 76 76 114 76 76 76 40 76 76 76 76 76 76 40 76 76 76 76 76 76 40 40 40 40 76 76 114 76 76 76 76 76 40 76 114 167 167 114 114 167 167 167 167 114 40 40 40 40 40 40 40 40 40 40 40 40 40 40 40 40 40 40 40 40 40 40 40 40 40 40 40 40 40 40 40 40 40 40 40 40 40 40 40 40 40 40 40 40 40 40 40 40 40 40 40 40 40 40 40 40 40 40 40 40 40 40 40 40 40 40 40 40 40 40 40 40 40 40 40 40 40 40 40 76 76 76 76 76 76 76 76 76 76 76 76 76 76 76 76 76 76 76 114 114 114 114 114 114 114 114 114 114 114 114 114 114 114 114 114 114 114 114 114 114 114 114 114 114 114 114 114 114 114 114 114 114 114 114 114 114 114 114 114 114 114 114 114 114 114 114 114 114 114 114 114 114 114 114 114 114 114 114 114 114 114 114 114 114 114 114 114 114 114 114 114 114 114 76 40 40 40 40 40 40 40 40 40 40 40 40 40 40 40 40 40 40 40 40 40 40 40 40 40 40 40 40 40 40 40 40 40 40 40 40 40 40 40 40 40 76 76 40 40 40 40 40 40 76 40 40 40 40 40 40 40 76 40 40 40 40 40 40 40 40 40 40 40 40 76 114 167 114 114 114 114 114 114 114 114 114 114 114 114 114 114 114 114 114 114 114 114 114 114 114 114 114 114 114 114 114 114 114 114 114 114 114 114 114 114 114 114 114 114 114 114 114 114 114 114 114 114 114 114 114 114 114 114 114 114 114 114 114 114 114 114 114 114 114 114 114 114 114 114 76 76 114 76 114 76 76 76 76 76 76 76 114 167 167 167 167 167 167 167 167 167 167 167 167 167 167 167 167 167 167 167 167 167 167 167 167 167 167 167 167 167 167 167 167 167 167 167 
114 114 114 114 114 167 167 167 167 167 167 114 167 167 114 167 114 114 167 114 114 114 114 114 114 114 114 114 114 114 76 76 76 76 40 40 40 40 40 40 40 40 114 114 76 76 76 76 76 76 76 40 40 40 40 40 40 40 40 40 40 76 76 40 40 40 40 40 40 40 40 40 40 40 40 40 40 40 40 40 40 40 40 40 40 40 40 76 167 114 76 76 76 76 114 114 40 40 40 76 114 114 76 114 76 76 40 40 76 76 114 76 76 40 40 40 76 76 76 76 76 76 76 40 40 40 76 114 76 76 76 76 76 76 76 114 167 167 167 167 167 167 167 114 76 40 40 40 40 40 40 40 40 40 40 40 40 40 40 40 40 40 40 40 40 40 40 40 40 40 40 40 40 40 40 40 40 40 40 40 40 40 40 40 40 40 40 40 40 40 40 40 40 40 40 40 40 40 40 40 40 40 40 40 40 40 40 40 40 40 40 40 40 40 40 40 40 40 40 40 40 40 76 76 40 40 76 76 76 76 76 76 76 76 76 76 76 76 76 76 76 76 76 76 76 76 114 114 114 114 114 114 114 114 114 114 114 114 114 114 114 114 114 114 114 114 114 114 114 114 114 114 114 114 114 114 114 114 114 114 114 114 114 114 114 114 114 114 114 114 114 114 114 167 167 114 114 114 114 114 114 114 114 114 114 114 114 114 114 114 114 114 114 114 114 114 114 76 76 40 40 40 40 76 40 40 40 40 40 40 40 40 40 40 40 40 40 40 40 40 40 40 40 40 40 40 40 40 40 40 40 40 40 40 40 40 40 40 40 40 76 76 40 40 40 40 40 40 76 40 40 40 40 40 40 40 76 40 40 40 40 40 40 40 40 40 40 40 40 76 114 167 114 114 114 114 114 114 114 114 114 114 114 114 114 114 114 114 114 114 114 114 114 114 114 114 114 114 114 114 114 114 114 114 114 114 114 114 114 114 114 114 114 114 114 114 114 114 114 114 114 114 114 114 114 114 114 114 114 114 114 114 114 114 114 114 114 114 76 114 114 114 114 114 114 114 114 114 114 76 76 76 76 76 76 76 114 167 167 167 167 167 167 167 167 167 167 167 167 167 167 167 167 167 167 167 167 167 167 167 167 167 167 167 167 167 167 167 167 167 167 167 
114 114 114 114 114 114 167 167 167 167 167 167 167 167 114 167 167 167 114 114 167 167 114 114 114 114 114 114 114 114 76 76 76 40 40 40 40 40 40 40 40 76 114 114 76 76 76 76 76 76 40 40 40 40 40 40 40 40 40 40 40 76 76 40 40 40 40 40 40 40 40 40 40 40 40 40 40 40 40 40 40 40 40 40 40 40 76 76 167 167 76 76 114 40 76 114 114 40 40 76 114 114 76 76 76 76 76 40 76 114 76 40 40 40 40 40 76 114 76 76 114 114 76 40 40 40 76 114 76 76 76 76 76 76 114 167 167 167 167 114 167 167 114 76 76 40 40 40 40 40 40 40 40 40 40 40 40 40 40 40 40 40 40 40 40 40 40 40 40 40 40 40 40 40 40 40 40 40 40 40 40 40 40 40 40 40 40 40 40 40 40 40 40 40 40 40 40 40 40 40 40 40 40 40 40 40 40 40 40 40 40 40 40 40 40 40 40 40 40 40 40 40 40 76 40 40 40 76 76 76 76 76 76 76 76 76 76 76 76 76 76 76 76 76 114 76 114 114 114 114 114 114 114 114 114 114 114 114 114 114 114 114 114 114 114 114 114 114 114 114 114 114 114 114 114 114 114 114 114 114 114 114 114 114 114 114 114 114 114 114 167 167 114 167 167 167 114 114 114 114 114 114 114 114 114 114 114 114 114 114 114 114 114 114 114 114 114 76 40 40 40 40 40 40 40 40 40 40 40 40 40 40 40 40 40 40 40 40 40 40 40 40 40 40 40 40 40 40 40 40 40 40 40 40 40 40 40 40 40 40 76 76 76 40 40 40 40 40 76 40 40 40 40 40 40 40 40 40 40 40 40 40 40 40 40 40 40 40 40 76 114 167 114 114 114 114 114 167 114 114 114 114 114 114 114 114 114 114 114 114 114 114 114 114 114 114 114 114 114 114 114 114 114 114 114 114 114 114 114 114 114 114 114 114 114 114 114 114 114 114 114 114 114 114 114 114 114 114 114 114 114 114 114 114 114 76 114 114 76 114 114 114 114 114 114 114 114 114 76 76 76 76 76 76 76 76 114 167 167 167 167 167 167 167 167 167 167 167 167 167 167 167 167 167 167 167 167 167 167 167 167 167 167 167 167 167 167 167 167 167 167 167 
114 114 114 114 167 114 167 167 114 167 114 167 167 167 114 167 167 167 167 167 114 114 114 114 114 114 114 114 114 114 76 76 76 76 40 76 40 40 40 40 40 40 76 114 76 76 76 76 76 40 40 40 40 40 40 40 40 40 40 40 40 40 40 40 40 40 40 40 40 40 40 40 40 40 40 40 40 40 40 40 40 40 40 40 40 40 40 76 114 114 76 76 114 76 40 76 114 76 40 40 76 114 114 76 76 76 76 40 76 76 76 40 40 40 40 76 40 76 76 76 114 76 40 40 40 40 76 76 40 40 76 114 76 76 167 167 167 167 167 167 167 167 76 40 40 40 40 40 40 40 40 40 40 40 40 40 40 40 40 40 40 40 40 40 40 40 40 40 40 40 40 40 40 40 40 40 40 40 40 40 40 40 40 40 40 40 40 40 40 40 40 40 40 40 40 40 40 40 40 40 40 40 40 40 40 40 40 40 40 40 40 40 40 40 40 40 40 40 40 40 40 40 40 40 40 40 40 76 76 76 76 76 76 76 76 76 76 76 76 76 76 76 76 76 76 76 114 114 114 114 114 114 114 114 114 114 114 114 114 114 114 114 114 114 114 114 114 114 114 114 114 114 114 114 114 114 114 114 114 114 114 114 114 114 114 114 114 114 114 114 114 114 114 167 167 114 167 114 114 114 114 114 114 114 114 114 114 114 114 114 114 114 114 114 114 114 114 76 40 40 40 40 40 40 40 40 40 40 40 40 40 40 40 40 40 40 40 40 40 40 40 40 40 40 40 40 40 40 40 40 40 40 40 40 40 40 40 40 40 40 76 76 76 40 40 40 40 76 76 40 40 40 40 40 40 40 40 40 76 40 40 40 40 40 40 40 40 40 40 76 114 167 114 114 114 114 114 114 114 114 114 114 114 114 114 114 114 114 114 114 114 114 114 114 114 114 114 114 114 114 114 114 114 114 114 114 114 114 114 114 114 114 114 114 114 114 114 114 114 114 114 114 114 114 114 114 114 114 114 114 114 114 114 114 114 114 114 114 114 114 114 114 114 114 114 76 76 114 76 76 76 76 76 76 76 76 114 167 167 167 167 167 167 167 167 167 167 167 167 167 167 167 167 167 167 167 167 167 167 167 167 167 167 167 167 167 167 167 167 167 167 167 
114 114 114 114 167 114 167 114 114 114 114 114 167 167 114 167 167 167 167 167 167 114 114 114 114 114 114 114 114 76 76 76 76 40 40 40 40 40 40 40 40 40 76 76 76 76 76 76 76 76 40 40 40 40 40 40 40 40 40 40 40 40 40 40 40 40 40 40 40 40 40 40 40 40 40 76 40 40 40 40 40 40 40 40 40 40 40 40 114 114 76 76 114 76 76 40 76 114 114 40 76 114 114 76 76 76 76 76 76 76 40 40 40 40 40 76 40 40 76 76 114 114 76 76 76 40 76 114 40 40 76 114 76 76 114 167 167 167 167 167 114 114 76 40 40 40 40 40 40 40 40 40 40 40 40 40 40 40 40 40 40 40 40 40 40 40 40 40 40 40 40 40 40 40 40 40 40 40 40 40 40 40 40 40 40 40 40 40 40 40 40 40 40 40 40 40 40 40 40 40 40 40 40 40 40 40 40 40 40 40 40 40 40 40 40 40 40 40 40 40 40 40 40 40 40 40 40 40 76 76 76 76 76 76 76 76 76 76 76 76 76 76 76 76 76 114 114 114 114 114 114 114 114 114 114 114 114 114 114 114 114 114 114 114 114 114 114 114 114 114 114 114 114 114 114 114 114 114 114 114 114 114 114 114 114 114 114 167 114 114 114 114 114 167 167 114 167 167 114 114 114 114 114 114 114 114 114 114 114 114 114 114 114 114 114 114 76 40 40 40 40 40 40 40 40 40 40 40 40 40 40 40 40 40 40 40 40 40 40 40 40 40 40 40 40 40 40 40 40 40 40 40 40 40 40 40 40 40 40 40 76 76 76 40 40 40 40 76 40 40 40 40 40 40 40 40 40 40 76 40 40 40 40 40 40 40 40 40 40 76 114 167 114 114 114 114 114 114 114 114 114 114 114 114 114 114 114 114 114 114 114 114 114 114 114 114 114 114 114 114 114 114 114 114 114 114 114 114 114 114 114 114 114 114 114 114 114 114 114 114 114 114 114 114 114 114 114 114 114 114 114 114 114 76 114 114 114 114 114 114 114 114 114 114 114 114 76 76 114 76 76 76 76 76 76 76 114 167 167 167 167 167 167 167 167 167 167 167 167 167 167 167 167 167 167 167 167 167 167 167 167 167 167 167 167 167 167 167 167 167 167 167 
114 114 114 114 167 114 167 167 167 167 114 114 167 167 167 167 167 167 167 167 167 114 114 114 114 114 114 114 114 114 76 76 76 76 40 40 40 40 40 40 40 40 76 76 76 76 76 76 76 76 40 40 40 40 40 40 40 40 40 40 40 40 40 40 40 40 40 40 40 40 40 40 40 40 76 76 40 40 40 40 40 40 40 40 40 40 40 40 114 114 40 40 76 76 76 76 40 76 76 76 40 76 114 114 76 76 76 76 76 76 40 76 40 40 40 76 40 40 76 114 76 76 76 114 114 114 76 114 40 40 40 76 76 40 40 76 114 167 167 114 76 40 40 40 40 40 40 40 40 40 40 40 40 40 40 40 40 40 40 40 40 40 40 40 40 40 40 40 40 40 40 40 40 40 40 40 40 40 40 40 40 40 40 40 40 40 40 40 40 40 40 40 40 40 40 40 40 40 40 40 40 40 40 40 40 40 40 40 40 40 40 40 40 40 40 40 40 40 40 40 40 40 40 40 40 40 40 40 40 40 76 76 76 76 76 76 76 76 76 76 76 76 76 76 76 76 76 114 114 114 114 114 114 114 114 114 114 114 114 114 114 114 114 114 114 114 114 114 114 114 114 114 114 114 114 114 114 114 114 114 114 114 114 114 114 114 114 114 114 167 167 167 114 114 167 114 114 167 114 114 114 114 114 114 114 114 114 114 114 114 114 114 114 114 114 114 76 40 40 40 40 40 40 40 40 40 40 40 40 40 40 40 40 40 40 40 40 40 40 40 40 40 40 40 40 40 40 40 40 40 40 40 40 40 40 40 40 40 40 40 76 76 76 40 40 40 40 76 76 40 40 40 40 40 40 40 40 40 76 40 40 40 40 40 40 40 40 40 40 76 114 167 114 114 114 114 114 114 114 114 114 114 114 114 114 114 114 114 114 114 114 114 114 114 114 114 114 114 114 114 114 114 114 114 114 114 114 114 114 114 114 114 114 114 114 114 114 114 114 114 114 114 114 114 114 114 114 114 114 114 114 114 114 114 114 114 114 114 114 114 114 114 114 114 114 114 76 76 114 76 76 76 76 76 76 114 114 167 167 167 167 167 167 167 167 167 167 167 167 167 167 167 167 167 167 167 167 167 167 167 167 167 167 167 167 167 167 167 167 167 167 167 
114 114 114 114 167 114 167 114 167 167 167 167 167 167 167 114 167 167 167 167 114 114 114 114 114 114 114 114 114 114 76 76 76 76 76 40 40 40 40 40 40 40 76 76 76 76 76 76 76 76 40 40 40 40 40 40 40 40 40 40 40 76 40 40 40 40 40 40 40 40 40 40 40 40 76 76 40 40 40 40 40 40 40 40 40 40 40 40 114 114 76 40 76 40 76 76 114 76 76 76 76 76 114 114 76 76 76 76 76 76 40 76 76 40 40 40 40 40 40 114 76 76 76 114 114 114 76 76 76 40 40 76 76 76 76 76 76 114 167 114 40 40 40 40 40 40 40 40 40 40 40 40 40 40 40 40 40 40 40 40 40 40 40 40 40 40 40 40 40 40 40 40 40 40 40 40 40 40 40 40 40 40 40 40 40 40 40 40 40 40 40 40 40 40 40 40 40 40 40 40 40 40 40 40 40 40 40 40 40 40 40 40 40 40 40 40 40 40 40 40 40 40 40 40 40 40 40 40 40 40 40 40 76 40 76 76 76 76 76 76 76 76 76 76 76 76 114 114 114 114 114 114 114 114 114 114 114 114 114 114 114 114 114 114 114 114 114 114 114 114 114 114 114 114 114 114 114 114 114 114 114 114 114 114 114 114 114 114 167 114 167 167 114 114 114 114 114 114 114 114 114 114 114 114 114 114 114 114 114 114 114 114 114 114 114 114 76 40 40 40 40 40 40 40 40 40 40 40 40 40 40 40 40 40 40 40 40 40 40 40 40 40 40 40 40 40 40 40 40 40 40 40 40 40 40 40 40 40 40 40 76 76 76 40 40 40 40 76 76 40 40 40 40 40 40 40 40 40 76 40 40 40 40 40 40 40 40 40 40 76 114 167 114 114 114 114 114 114 114 114 114 114 114 114 114 114 114 114 114 114 114 114 114 114 114 114 114 114 114 114 114 114 114 114 114 114 114 114 114 114 114 114 114 114 114 114 114 114 114 114 114 114 114 114 114 114 114 114 114 114 114 114 114 114 114 114 114 114 114 114 114 114 114 114 76 114 114 76 114 76 76 76 76 76 76 114 114 167 167 167 167 167 167 167 167 167 167 167 167 167 167 167 167 167 167 167 167 167 167 167 167 167 167 167 167 167 167 167 167 167 167 167 
114 114 114 114 167 114 167 114 167 167 167 167 114 167 167 114 114 167 167 167 167 114 114 114 114 114 114 114 114 76 76 76 76 76 76 40 40 40 40 40 40 40 76 76 76 76 40 40 76 76 40 40 40 40 40 40 40 40 40 40 40 40 40 40 40 40 40 40 40 40 40 40 40 40 76 76 40 40 40 40 40 40 40 40 40 40 40 40 114 114 76 40 76 40 40 40 76 76 76 76 76 40 76 76 114 76 76 76 76 76 76 76 76 76 40 40 40 40 40 114 114 76 76 76 114 114 76 76 40 40 40 76 76 76 76 76 114 167 167 76 40 40 40 40 40 40 40 40 40 40 40 40 40 40 40 40 40 40 40 40 40 40 40 40 40 40 40 40 40 40 40 40 40 40 40 40 40 40 40 40 40 40 40 40 40 40 40 40 40 40 40 40 40 40 40 40 40 40 40 40 40 40 40 40 40 40 40 40 40 40 40 40 40 40 40 40 40 40 40 40 40 40 40 40 40 40 40 40 40 40 40 40 76 76 76 76 76 76 76 76 76 76 76 76 76 76 76 76 114 114 114 114 114 114 114 114 114 114 114 114 114 114 114 114 114 114 114 114 114 114 114 114 114 114 114 114 114 114 114 167 167 114 167 114 114 114 114 114 114 114 114 114 114 114 114 114 114 114 114 114 114 114 114 114 114 114 114 114 114 114 114 114 114 114 114 76 76 40 40 40 40 40 40 40 40 40 40 40 40 40 40 40 40 40 40 40 40 40 40 40 40 40 40 40 40 40 40 40 40 40 40 40 40 40 40 40 40 40 40 40 76 76 76 40 40 40 40 76 76 40 40 40 40 40 40 40 40 40 76 40 40 40 40 40 40 40 40 40 40 76 114 167 114 114 114 114 114 114 114 114 114 114 114 114 114 114 114 114 114 114 114 114 114 114 114 114 114 114 114 114 114 114 114 114 114 114 114 114 114 114 114 114 114 114 114 114 114 114 114 114 114 114 114 114 114 114 114 114 114 114 114 114 114 114 114 114 114 114 114 114 114 114 114 114 114 114 114 114 76 76 76 76 76 76 76 114 114 167 167 167 167 167 167 167 167 167 167 167 167 167 167 167 167 167 167 167 167 167 167 167 167 167 167 167 167 167 167 167 167 167 167 167 
114 114 114 114 167 114 167 114 167 114 114 114 114 167 167 114 114 114 114 114 167 167 114 114 114 114 114 114 114 76 76 76 76 40 76 40 40 40 40 40 40 40 40 40 76 76 76 76 76 76 40 40 40 40 40 40 40 40 40 40 76 40 40 40 40 40 40 40 40 40 40 40 40 40 40 76 40 40 40 40 40 40 40 40 40 40 40 40 76 114 40 76 76 76 40 40 40 76 76 76 114 76 76 76 76 114 76 76 76 76 76 76 76 76 76 40 40 40 40 76 114 76 40 40 76 114 114 114 76 40 40 76 40 40 76 76 114 167 167 76 40 40 40 40 40 40 40 40 40 40 40 40 40 40 40 40 40 40 40 40 40 40 40 40 40 40 40 40 40 40 40 40 40 40 40 40 40 40 40 40 40 40 40 40 40 40 40 40 40 40 40 40 40 40 40 40 40 40 40 40 40 40 40 40 40 40 40 40 40 40 40 40 40 40 40 40 40 40 40 40 40 40 40 76 40 40 40 40 40 40 40 40 40 40 40 40 76 40 76 76 76 76 76 76 76 76 76 76 114 114 114 114 114 114 114 114 114 114 114 114 114 114 114 114 114 114 114 114 114 114 114 114 114 114 114 114 114 114 114 167 167 114 167 167 114 114 114 114 114 114 114 114 114 114 167 114 114 114 114 114 114 167 167 114 114 114 114 114 114 114 114 114 114 114 76 76 40 40 40 40 40 40 40 40 40 40 40 40 40 40 40 40 40 40 40 40 40 40 40 40 40 40 40 40 40 40 40 40 40 40 40 40 40 40 40 40 40 40 40 40 76 76 76 40 40 40 40 76 76 40 40 40 40 40 40 40 40 40 40 40 40 40 40 76 40 40 40 40 40 76 114 167 114 114 114 114 114 114 114 114 114 114 114 114 114 114 114 114 114 114 114 114 114 114 114 114 114 114 114 114 114 114 114 114 114 114 114 114 114 114 114 114 114 114 114 114 114 114 114 114 114 114 114 114 114 114 114 114 114 114 114 114 114 114 114 114 114 114 114 114 114 114 114 114 114 114 76 76 114 114 76 76 76 76 76 114 114 167 167 167 167 167 167 167 167 167 167 167 167 167 167 167 167 167 167 167 167 167 167 167 167 167 167 167 167 167 167 167 167 167 167 167 
114 114 114 114 114 114 167 167 114 114 114 114 114 167 167 114 167 167 167 167 114 114 114 114 114 114 114 114 114 114 76 76 76 40 40 40 40 40 40 40 40 76 40 40 76 76 40 40 76 76 40 40 40 40 40 40 40 40 40 40 76 40 40 40 40 40 40 40 40 40 40 40 40 40 40 40 40 40 40 40 40 40 40 40 40 40 40 40 76 76 40 76 76 76 40 40 40 40 40 40 76 114 114 76 40 76 114 76 76 76 76 76 76 76 76 76 40 40 40 76 167 114 76 40 76 114 114 114 76 40 40 40 40 40 76 76 40 167 167 76 40 40 40 40 76 40 40 40 40 40 40 40 40 40 40 40 40 40 40 40 40 40 40 40 40 40 40 40 40 40 40 40 40 40 40 40 40 40 40 40 40 40 40 40 40 40 40 40 40 40 40 40 40 40 40 40 40 40 40 40 40 40 40 40 40 40 40 40 40 40 40 40 40 40 40 40 40 40 40 40 40 40 40 40 40 40 40 40 40 40 40 40 40 40 76 76 40 40 76 76 76 76 76 76 76 76 76 76 114 76 114 114 114 114 114 114 114 114 114 114 114 114 114 114 114 114 114 114 114 114 114 114 114 114 114 114 114 114 114 114 114 114 167 167 114 167 114 114 167 167 114 114 114 114 114 114 114 114 114 167 114 167 167 114 114 114 114 114 114 114 114 114 114 114 76 76 40 40 40 40 40 40 40 40 40 40 40 40 40 40 40 40 40 40 40 40 40 40 40 40 40 40 40 40 40 40 40 40 40 40 40 40 40 40 40 40 40 40 40 40 76 76 76 40 40 40 40 76 76 40 40 40 40 40 40 40 40 40 40 40 40 40 40 76 40 40 40 40 40 40 114 167 114 114 114 114 114 114 114 114 114 114 114 114 114 114 114 114 114 114 114 114 114 114 114 114 114 114 114 114 114 114 114 114 114 114 114 114 114 114 114 114 114 114 114 114 114 114 114 114 114 114 114 114 114 114 114 114 114 114 114 114 114 114 114 114 114 114 114 114 114 114 114 114 76 76 114 114 76 76 76 76 76 76 76 114 167 167 167 167 167 167 167 167 167 167 167 167 167 167 167 167 167 167 167 167 167 167 167 167 167 167 167 167 167 167 167 167 167 167 167 167 
114 114 114 114 114 114 167 167 167 114 167 167 114 114 167 114 114 114 114 114 114 114 114 114 114 114 114 114 114 114 76 76 76 76 40 40 40 40 40 40 40 40 76 76 76 76 40 40 76 76 40 40 40 40 40 40 40 40 40 76 76 40 40 40 40 40 40 40 40 40 40 40 40 40 40 40 40 40 40 40 40 40 40 40 40 40 40 40 76 76 40 40 76 40 40 40 40 40 40 40 40 76 114 114 76 76 76 114 114 76 76 114 76 76 76 76 76 40 40 76 167 114 76 40 76 114 114 76 114 76 40 40 40 76 114 76 40 76 114 76 40 40 40 76 40 40 40 40 40 40 40 40 40 40 40 40 40 40 40 40 40 40 40 40 40 40 40 40 40 40 40 40 40 40 40 40 40 40 40 40 40 40 40 40 40 40 40 40 40 40 40 40 40 40 40 40 40 40 40 40 40 40 40 40 40 40 40 40 40 40 40 40 40 40 40 40 40 40 40 40 40 40 40 40 40 40 40 40 40 40 40 40 40 40 40 40 40 40 76 76 76 76 40 76 76 76 76 76 76 114 76 76 114 114 114 114 114 114 114 114 114 114 114 114 114 114 114 114 114 114 114 114 114 114 114 114 114 114 114 114 114 167 114 114 114 114 114 114 167 114 114 114 114 114 114 114 114 114 167 167 114 114 114 114 114 114 114 114 114 114 114 114 114 114 76 76 40 40 40 40 40 40 40 40 40 40 40 40 40 40 40 40 40 40 40 40 40 40 40 40 40 40 40 40 40 40 40 40 40 40 40 40 40 40 40 40 40 40 40 40 76 76 76 40 40 40 40 76 76 40 40 40 40 40 40 40 40 40 40 40 40 40 76 40 40 40 40 40 40 76 114 114 114 114 114 114 114 114 114 114 114 114 114 114 114 114 114 114 114 114 114 114 114 114 114 114 114 114 114 114 114 114 114 114 114 114 114 114 114 114 114 114 114 114 114 114 114 114 114 114 114 114 114 114 114 114 114 114 114 114 114 114 114 114 114 114 114 114 114 114 76 114 114 76 76 76 114 76 76 76 76 76 76 76 114 114 167 167 167 167 167 167 167 167 167 167 167 167 167 167 167 167 167 167 167 167 167 167 167 167 167 167 167 167 167 167 167 167 167 167 167 167 
114 114 114 114 114 114 114 114 167 114 114 114 114 114 114 114 114 114 114 114 114 114 114 114 114 114 114 114 114 114 76 76 76 76 40 40 40 40 40 40 40 40 40 76 76 76 40 40 40 40 40 40 40 40 40 40 40 40 40 76 76 40 40 40 40 40 40 40 40 40 40 40 40 40 40 40 40 40 40 40 40 40 40 40 40 40 40 40 114 114 40 40 76 40 40 40 40 40 40 40 40 40 40 76 114 76 76 76 114 76 40 76 114 76 76 76 76 76 40 40 114 114 76 114 76 76 114 114 114 114 76 40 40 40 76 76 40 40 40 40 40 40 76 40 40 40 40 40 40 40 40 40 40 40 40 40 40 40 40 40 40 40 40 40 40 40 40 40 40 40 40 40 40 40 40 76 40 40 40 40 40 40 40 40 40 40 40 40 40 40 40 40 40 40 40 40 40 40 40 40 40 40 40 40 40 40 40 40 40 40 40 40 40 40 40 40 40 40 40 40 40 40 40 40 40 40 40 40 40 40 40 40 40 40 40 40 40 40 76 76 40 76 40 76 76 76 76 76 76 114 114 114 114 114 114 114 114 114 114 114 114 114 114 114 114 114 114 114 114 114 114 114 114 114 114 114 114 114 114 114 114 114 114 114 114 114 114 114 114 114 167 114 114 114 114 114 114 114 114 114 114 114 114 114 114 114 114 114 114 114 114 114 76 76 76 76 40 40 40 40 40 40 40 40 40 40 40 40 40 40 40 40 40 40 40 40 40 40 40 40 40 40 40 40 40 40 40 40 40 40 40 40 40 40 40 40 40 40 40 40 76 76 76 40 40 40 40 76 76 40 40 40 40 40 40 40 40 40 40 40 40 40 76 40 40 40 40 40 40 76 114 167 114 114 114 114 114 114 114 114 114 114 114 114 114 114 114 114 114 114 114 114 114 114 114 114 114 114 114 114 114 114 114 114 114 114 114 114 114 114 114 114 114 114 114 114 114 114 114 114 114 114 114 114 114 114 114 114 114 114 114 114 114 114 114 114 114 114 76 114 114 114 114 76 76 76 76 76 76 76 76 76 76 76 114 114 167 167 167 167 167 167 167 167 167 167 167 167 167 167 167 167 167 167 167 167 167 167 167 167 167 167 167 167 167 167 167 167 167 167 167 167 
114 114 114 114 114 114 114 114 167 114 167 114 114 114 114 114 114 114 114 114 114 114 114 114 114 114 114 114 114 114 76 76 76 76 40 40 40 40 40 40 40 40 40 76 40 76 76 76 40 40 40 40 40 40 40 40 40 40 40 76 76 40 40 40 40 40 40 40 40 40 40 40 40 40 40 40 40 40 40 40 40 40 40 40 40 40 40 40 114 114 76 76 76 76 40 40 40 40 40 40 40 40 40 40 76 76 114 76 76 76 76 76 76 76 114 114 76 76 76 40 76 114 76 114 114 114 114 76 40 76 114 76 40 40 40 76 40 40 40 40 40 40 76 40 40 40 40 40 40 40 40 40 40 40 40 40 40 40 40 40 40 40 40 40 40 40 40 40 40 40 40 40 40 40 40 76 40 40 40 40 40 40 40 40 40 40 40 40 40 40 40 40 40 40 40 40 40 40 40 40 40 40 40 40 40 40 40 40 40 40 40 40 40 40 40 40 40 40 40 40 40 40 40 40 40 40 40 40 40 40 40 40 40 40 40 40 40 40 40 40 40 76 76 76 76 76 76 76 76 114 76 76 76 76 76 114 114 114 114 114 114 114 114 114 114 114 114 114 114 114 114 114 114 114 114 114 114 114 114 114 114 114 114 114 114 167 167 114 114 114 167 167 114 114 114 114 114 114 114 114 114 114 114 114 114 114 114 114 114 114 114 114 76 76 76 76 40 40 40 40 40 40 40 40 40 40 40 40 40 40 40 40 40 40 40 40 40 40 40 40 40 40 40 40 40 40 40 40 40 40 40 40 40 40 40 40 40 40 40 40 76 76 76 40 40 40 40 76 40 40 40 40 40 40 40 40 40 40 76 76 40 40 76 40 40 40 40 40 40 76 114 167 114 114 114 114 114 114 114 114 114 114 114 114 76 76 114 114 114 114 114 114 114 114 114 114 114 114 114 114 114 114 114 114 114 114 114 114 114 114 114 114 114 114 114 114 114 114 114 114 114 114 114 114 114 114 114 114 114 114 114 114 114 114 114 114 76 114 114 114 114 114 114 114 114 76 114 76 76 76 76 76 76 76 114 114 167 167 167 167 167 167 167 167 167 167 167 167 167 167 167 167 167 167 167 167 167 167 167 167 167 167 167 167 167 167 167 167 167 167 167 167 
114 114 114 114 114 114 114 114 167 114 114 114 114 114 114 114 114 167 167 114 114 114 114 114 114 114 114 114 114 76 76 76 76 76 40 40 40 40 40 40 40 40 76 76 76 76 76 76 40 40 40 40 40 40 40 40 40 40 40 76 76 40 40 40 40 40 40 40 40 40 40 40 40 40 40 40 40 40 40 40 40 40 40 40 40 40 40 76 76 114 76 76 114 76 40 40 40 40 40 40 40 40 76 40 76 40 76 114 76 76 76 76 76 76 76 114 76 76 76 76 76 76 76 76 114 114 114 114 40 40 76 114 76 40 76 76 40 40 40 40 40 40 40 40 40 40 40 40 40 40 40 40 40 40 40 40 40 40 40 40 40 40 40 40 40 40 40 40 40 40 40 40 40 40 40 76 40 40 40 40 40 40 40 40 40 40 40 40 40 40 40 40 40 40 40 40 40 40 40 40 40 40 40 40 40 40 40 40 40 40 40 40 40 40 40 40 40 40 40 40 40 40 40 40 40 40 40 40 40 40 40 40 40 40 40 40 40 40 40 40 76 76 76 76 76 76 76 76 76 76 76 76 114 114 114 114 76 114 114 114 114 114 114 114 114 114 114 114 114 114 114 114 114 114 114 114 114 114 114 114 114 114 114 114 114 167 167 114 167 114 167 167 167 114 114 114 114 114 114 114 114 114 114 114 114 114 114 114 114 114 114 114 76 76 76 76 40 40 40 40 40 40 40 40 40 40 40 40 40 40 40 40 40 40 40 40 40 40 40 40 40 40 40 40 40 40 40 40 40 40 40 40 40 40 40 40 40 40 40 40 76 76 76 40 40 76 40 40 76 40 40 40 40 40 40 40 40 40 40 40 40 40 76 40 40 40 40 40 40 76 114 167 114 114 114 114 114 114 114 114 114 114 76 76 114 76 76 114 114 114 114 114 114 114 114 114 114 114 114 114 114 114 114 114 114 114 114 114 114 114 114 114 114 114 114 114 114 114 114 114 114 114 114 114 114 114 114 114 114 114 114 114 114 114 114 114 114 114 114 114 114 114 76 76 114 76 76 76 76 76 76 76 76 76 114 114 167 167 167 167 167 167 167 167 167 167 167 167 167 167 167 167 167 167 167 167 167 167 167 167 167 167 167 167 167 167 167 167 167 167 167 167 
114 114 114 114 114 114 114 114 114 114 114 114 114 114 114 114 167 167 167 114 114 114 114 114 114 114 114 114 114 114 76 76 76 40 40 40 40 40 40 40 40 40 76 76 76 76 76 76 40 40 40 40 40 40 40 40 40 40 40 76 76 40 40 40 40 40 40 40 40 40 40 40 40 40 40 40 40 40 40 40 40 40 40 40 40 40 40 76 76 114 76 76 114 76 40 40 40 40 40 40 40 40 76 76 40 76 40 40 76 76 76 114 114 114 76 76 76 76 76 76 76 76 76 76 76 76 114 114 114 40 40 40 76 40 40 76 76 40 40 40 40 40 40 40 40 40 40 40 40 40 40 40 40 40 40 40 40 40 40 40 40 40 40 40 40 40 40 40 40 40 40 40 40 40 40 76 40 40 40 40 40 40 40 40 40 40 40 40 40 40 40 40 40 40 40 40 40 40 40 40 40 40 40 40 40 40 40 40 40 40 40 40 40 40 40 40 40 40 40 40 40 40 40 40 40 40 40 40 76 76 40 40 40 40 40 40 40 40 40 40 40 40 40 40 76 76 76 76 76 76 76 76 76 76 76 76 76 114 114 114 114 114 114 114 114 114 114 114 114 114 114 114 114 114 114 114 114 114 114 114 114 114 114 114 114 114 114 114 167 114 114 114 114 114 114 114 114 114 114 114 114 114 114 114 114 114 114 114 114 114 114 76 114 76 76 76 40 40 40 40 40 40 40 40 40 40 40 40 40 40 40 40 40 40 40 40 40 40 40 40 40 40 40 40 40 40 40 40 40 40 40 40 40 40 40 40 40 40 40 40 76 76 76 40 40 76 40 40 76 40 40 40 40 40 40 76 40 40 40 40 40 40 76 76 40 40 40 40 40 76 114 167 114 114 114 114 114 114 114 76 114 76 76 76 76 114 114 76 114 76 114 114 114 114 114 114 114 114 114 114 114 114 114 114 114 114 114 114 114 114 114 114 114 114 114 114 114 114 114 114 114 114 114 114 114 114 114 114 114 114 114 114 114 114 114 114 114 114 76 76 114 114 76 76 76 76 76 76 76 76 76 76 76 76 114 167 167 167 167 167 167 167 167 167 167 167 167 167 167 167 167 167 167 167 167 167 167 167 167 167 167 167 167 167 167 167 167 167 167 167 167 167 
114 114 114 114 114 114 114 114 114 114 114 114 114 114 114 167 167 167 114 114 114 167 114 114 114 114 114 114 114 114 76 76 76 76 76 40 40 40 40 40 40 40 40 76 76 76 76 40 40 40 40 40 40 40 40 40 40 40 40 76 40 40 40 40 40 40 40 40 40 40 40 40 40 40 40 40 40 40 40 40 40 40 40 40 40 40 40 76 114 114 76 76 76 76 76 40 40 40 40 76 40 40 76 76 40 76 76 40 40 76 76 76 114 114 114 114 114 76 76 114 76 76 40 76 76 76 76 114 167 114 40 40 40 40 40 40 40 40 40 40 40 40 40 40 40 40 40 40 40 40 40 40 40 40 40 40 40 40 40 40 40 40 40 40 40 40 40 40 40 40 40 40 40 40 40 40 40 40 40 40 40 40 40 40 40 40 40 40 40 40 40 40 40 40 40 40 40 40 40 40 40 40 40 40 40 40 40 40 40 40 40 40 40 40 40 40 40 40 40 40 40 40 40 40 40 40 40 40 76 76 40 40 40 40 40 40 40 40 40 40 40 40 40 40 76 76 76 76 76 76 76 76 76 76 76 114 76 114 114 76 114 114 114 114 114 114 114 114 114 114 114 114 114 114 114 114 114 114 114 114 114 114 114 114 114 114 114 114 114 114 114 114 114 114 114 114 114 114 114 114 114 114 114 114 114 114 114 114 114 114 114 114 114 76 76 76 40 40 40 40 40 40 40 40 40 40 40 40 40 40 40 40 40 40 40 40 40 40 40 40 40 40 40 40 40 40 40 40 40 40 40 40 40 40 40 40 40 40 40 40 76 76 76 40 40 40 40 76 40 40 40 40 40 40 40 40 40 76 40 40 40 40 76 40 40 40 40 40 40 76 114 114 114 114 114 114 114 114 114 114 76 114 76 76 76 76 76 76 76 76 114 114 114 114 114 114 114 114 114 114 114 114 114 114 114 114 114 114 114 114 114 114 114 114 114 114 114 114 114 114 114 114 114 114 114 114 114 114 114 114 114 114 114 114 114 114 114 76 76 114 76 76 76 76 114 76 76 76 76 76 76 76 76 114 114 167 167 167 167 167 167 167 167 167 167 167 167 167 167 167 167 167 167 167 167 167 167 167 167 167 167 167 167 167 167 167 167 167 167 167 167 167 
114 114 114 114 114 114 114 114 114 167 114 114 167 167 167 167 114 114 114 114 114 167 114 114 114 114 114 114 114 114 114 76 76 76 40 40 40 40 40 40 40 40 40 76 76 76 40 40 40 40 40 40 40 40 40 40 40 40 76 76 40 40 40 40 40 40 40 40 40 40 40 40 40 40 40 40 40 40 40 40 40 40 40 40 40 40 40 40 114 114 76 76 76 76 76 40 40 40 40 76 40 40 40 76 40 40 76 76 40 76 76 40 76 76 114 114 114 114 114 114 76 76 40 76 76 76 114 114 167 167 76 40 40 40 40 76 40 76 76 40 40 40 40 40 40 40 40 40 40 40 40 40 40 40 40 40 40 40 40 40 40 40 40 40 40 40 40 40 40 40 40 40 40 40 40 40 40 40 40 40 40 40 40 40 40 40 40 40 40 40 40 40 40 40 40 40 40 40 40 40 40 40 40 40 40 40 40 40 40 40 40 40 40 40 40 40 40 40 40 40 40 40 40 40 40 40 40 40 40 40 40 40 40 40 40 40 40 40 40 40 40 40 40 40 40 40 40 40 40 76 40 76 76 76 40 76 76 76 76 76 76 76 76 76 76 76 76 76 76 76 76 76 114 114 114 114 114 114 114 114 114 114 114 114 114 114 114 114 114 114 114 114 114 114 114 114 114 114 114 114 114 114 114 114 114 114 114 114 114 76 76 114 114 76 76 76 40 40 40 40 40 40 40 40 40 40 40 40 40 40 40 40 40 40 40 40 40 40 40 40 40 40 40 40 40 40 40 40 40 40 40 40 40 40 40 40 40 40 40 40 76 76 76 40 76 76 40 76 76 76 40 40 40 40 40 40 40 76 40 40 40 40 40 40 40 40 40 40 40 76 167 167 114 114 114 114 114 114 114 76 76 76 76 76 76 76 76 76 76 76 114 76 76 114 114 114 114 114 114 114 114 114 114 114 114 114 114 114 114 114 114 114 114 114 114 114 114 114 114 114 114 114 114 114 114 114 114 114 114 114 114 114 114 114 114 114 114 76 76 76 114 114 76 76 76 76 76 76 76 76 76 76 76 114 114 167 167 167 167 167 167 167 167 167 167 167 167 167 167 167 167 167 167 167 167 167 167 167 167 167 167 167 167 167 167 167 167 167 167 167 167 167 
114 114 114 114 114 114 167 167 114 167 114 114 167 114 114 167 114 114 114 114 114 114 114 114 114 114 114 114 114 114 76 76 76 40 40 40 40 40 40 40 40 40 76 76 76 40 40 40 40 40 40 40 40 40 40 40 40 40 76 40 40 40 76 40 40 40 40 40 40 40 40 40 40 40 40 40 40 40 40 40 40 40 40 40 40 40 40 40 114 114 76 76 76 76 76 40 40 40 40 40 40 40 40 40 40 40 76 114 40 76 76 76 40 40 76 76 114 114 114 76 76 76 76 76 76 76 114 76 167 167 76 40 40 40 76 76 76 76 76 40 40 40 40 40 40 40 40 40 40 40 40 40 40 40 40 40 40 40 40 40 40 40 40 40 40 40 40 40 40 40 40 40 40 40 40 40 40 40 40 40 40 40 40 40 40 40 40 40 40 40 40 40 40 40 40 40 40 40 40 40 40 40 40 40 40 40 40 40 40 40 40 40 40 40 40 40 40 40 40 40 40 40 40 40 40 40 40 40 40 40 40 40 40 40 40 40 40 40 40 40 40 40 40 40 40 40 40 40 40 40 40 40 40 40 40 40 40 40 40 40 76 76 76 76 76 114 114 114 114 114 114 114 114 114 114 114 114 114 114 114 114 114 114 114 114 114 114 114 114 114 114 114 114 114 114 114 114 114 114 114 114 114 114 114 114 114 76 114 114 76 76 114 114 76 76 40 40 40 40 40 40 40 40 40 40 40 40 40 40 40 40 40 40 40 40 40 40 40 40 40 40 40 40 40 40 40 40 40 40 40 40 40 40 40 40 40 40 40 40 40 76 76 76 40 76 76 40 40 40 40 40 40 40 40 40 40 40 76 40 40 40 40 40 40 40 40 40 40 40 76 167 167 114 114 114 114 114 114 114 76 76 76 76 76 76 76 76 76 76 76 76 76 76 76 76 76 114 114 76 76 114 114 114 76 114 114 114 114 114 114 114 114 114 114 114 114 114 114 114 114 114 114 114 114 114 114 114 114 114 114 114 114 114 114 114 114 76 114 114 114 114 76 76 76 114 76 76 76 76 76 76 76 76 114 114 167 167 167 167 167 167 167 167 167 167 167 167 167 167 167 167 167 167 167 167 167 167 167 167 167 167 167 167 167 167 167 167 167 167 167 167 167 
114 114 114 114 114 114 114 114 114 114 114 114 114 114 167 167 114 167 114 167 114 114 114 114 114 114 114 114 114 114 76 76 76 76 40 40 40 40 40 40 40 40 76 76 76 40 40 40 40 40 40 40 40 40 40 40 40 76 40 40 40 40 76 40 40 40 40 40 40 40 40 40 40 40 40 40 40 40 40 40 40 40 40 40 40 40 40 40 76 114 76 76 76 114 76 40 40 40 40 40 40 40 40 40 40 40 40 76 76 76 76 76 76 40 40 76 114 114 76 76 76 76 114 114 76 114 114 114 76 114 76 76 114 114 114 76 40 76 76 76 40 40 40 40 40 40 40 40 40 40 40 40 40 40 40 40 40 40 40 40 40 40 40 40 40 40 40 40 40 40 40 40 40 40 40 40 40 40 40 40 40 40 40 40 40 40 40 40 40 40 40 40 40 40 40 40 40 40 40 40 40 40 40 40 40 40 40 40 40 40 40 40 40 40 40 40 40 40 40 40 40 40 40 40 40 40 40 40 40 40 76 40 40 40 40 40 40 40 40 40 40 40 40 40 40 40 40 40 40 40 40 40 40 40 40 76 76 76 76 76 76 76 76 76 76 114 114 76 114 114 114 114 114 114 114 114 114 114 114 114 114 114 114 114 114 114 114 114 114 114 167 114 114 114 114 114 114 114 114 114 114 114 114 114 114 76 76 76 76 76 76 76 114 76 76 40 40 40 40 40 40 40 40 40 40 40 40 40 40 40 40 40 40 40 40 40 40 40 40 40 40 40 40 40 40 40 40 40 40 40 40 40 40 40 40 40 40 40 40 40 40 76 76 40 40 76 40 40 76 40 40 40 40 40 40 40 76 76 76 40 40 40 40 40 76 40 40 40 40 76 114 167 114 114 114 114 114 114 76 76 114 76 76 76 76 76 76 76 76 76 76 76 76 76 76 76 76 76 76 76 114 76 76 76 114 114 114 114 114 114 114 114 114 114 114 114 114 114 114 114 114 114 114 114 114 114 114 114 114 114 114 114 114 114 114 76 114 114 76 76 76 114 76 76 76 76 76 76 76 76 76 76 76 114 167 167 167 167 167 167 167 167 167 167 167 167 167 167 167 167 167 167 167 167 167 167 167 167 167 167 167 167 167 167 167 167 167 167 167 167 167 167 
114 114 114 114 167 167 114 114 167 114 114 114 114 114 114 114 114 167 114 167 114 114 114 114 114 114 114 114 114 114 76 76 76 76 40 40 40 40 40 40 40 114 114 114 76 40 40 40 114 76 40 40 40 40 40 40 76 76 76 40 40 40 40 40 40 40 40 40 40 40 40 40 40 40 40 40 40 40 40 40 40 40 40 40 40 40 40 40 76 114 114 114 76 114 76 40 40 40 40 40 76 40 40 40 40 40 76 76 114 76 76 76 76 76 40 76 76 114 76 40 76 76 76 114 76 76 114 114 76 76 76 76 76 114 114 114 114 114 114 114 76 40 40 40 40 40 40 40 40 40 40 40 40 40 40 40 40 40 40 40 40 40 40 40 40 40 40 40 40 40 40 40 40 40 40 40 40 40 40 40 40 40 40 40 40 40 40 40 40 40 40 40 40 40 40 40 40 40 40 40 40 40 40 40 40 40 40 40 40 40 40 40 40 40 40 40 40 40 40 40 40 40 40 40 40 40 40 40 40 40 40 40 40 40 40 40 40 40 40 40 40 40 40 40 40 40 40 40 40 40 40 76 76 76 76 76 76 76 76 76 76 76 76 76 76 76 76 76 76 76 76 114 114 114 114 114 114 114 114 114 114 114 114 114 114 114 114 114 114 114 114 114 114 167 167 114 114 114 114 114 114 114 114 114 114 76 76 76 76 114 114 76 76 76 76 40 40 40 40 40 40 40 40 40 40 40 40 40 40 40 40 40 40 40 40 40 40 40 40 40 40 40 40 40 40 40 40 40 40 40 40 40 40 40 40 40 40 40 40 40 76 76 76 40 40 76 40 76 40 40 40 40 40 40 76 40 40 40 40 40 40 40 76 40 40 40 40 40 40 76 114 167 114 114 114 114 114 114 76 76 76 76 76 76 76 76 76 76 76 76 76 76 76 76 76 76 76 76 76 76 76 76 76 76 76 76 114 76 114 114 114 114 76 76 114 114 114 114 114 114 114 114 114 114 114 114 114 114 114 114 114 114 114 114 114 76 76 76 76 114 114 76 76 76 76 76 76 76 76 76 76 76 114 114 167 167 167 167 167 167 167 167 167 167 167 167 167 167 167 167 167 167 167 167 167 167 167 167 167 167 167 167 167 167 167 167 167 167 167 167 167 167 
114 114 114 114 167 167 114 114 114 114 114 114 114 167 114 114 114 167 114 167 114 114 114 114 114 114 114 114 114 76 76 76 76 76 40 40 40 40 40 40 114 167 167 114 76 40 40 114 114 76 40 40 40 40 40 40 40 40 40 40 40 40 40 40 40 40 40 40 40 40 40 40 40 40 40 40 40 40 40 40 40 40 40 40 40 40 40 40 76 114 114 76 76 114 114 76 76 40 40 76 76 76 40 40 40 40 76 40 76 76 76 114 76 40 40 76 76 76 76 40 76 76 76 114 76 114 114 114 76 76 76 114 76 114 167 167 114 114 114 114 76 40 40 40 40 40 40 40 40 40 40 40 40 40 40 40 40 40 40 40 40 40 40 40 40 40 40 40 40 40 40 40 40 40 40 40 40 40 40 40 40 40 40 40 40 40 40 40 40 40 40 40 40 40 40 40 40 40 40 40 40 40 40 40 40 40 40 40 40 40 40 40 40 40 40 40 40 40 40 40 40 40 40 40 40 40 40 40 40 40 76 76 76 40 40 40 40 40 40 40 40 76 76 76 76 76 76 76 114 114 114 114 114 114 114 114 114 114 114 114 114 114 114 114 114 114 114 114 114 114 114 114 114 114 114 114 114 114 114 114 114 114 114 114 114 114 114 114 114 114 114 114 114 114 114 167 167 167 167 167 114 114 114 114 114 114 114 114 114 114 114 114 114 114 76 40 40 40 40 40 40 40 40 40 40 40 40 40 40 40 40 40 40 40 40 40 40 40 40 40 40 40 40 40 40 40 40 40 40 40 40 40 40 40 40 40 40 40 40 40 76 76 76 40 40 40 40 76 40 40 40 40 40 40 40 40 76 40 76 40 40 40 40 40 40 40 40 40 40 76 114 114 114 114 114 114 114 76 76 76 76 76 76 76 40 76 76 76 76 76 76 76 76 76 76 76 76 76 76 76 76 76 76 76 76 76 76 76 76 76 76 114 76 76 114 114 114 114 114 114 114 114 114 114 114 114 114 114 114 114 114 114 114 114 114 114 76 76 114 114 76 76 76 76 76 76 76 76 76 76 76 76 114 167 167 167 167 167 167 167 167 167 167 167 167 167 167 167 167 167 167 167 167 167 167 167 167 167 167 167 167 167 167 167 167 167 167 167 167 167 167 167 
114 114 114 114 114 114 114 114 114 114 114 114 114 167 114 114 114 167 114 167 114 114 114 114 114 114 114 114 114 76 76 76 76 76 40 40 40 40 76 167 167 167 114 76 40 40 76 114 114 76 40 40 40 40 40 40 40 40 40 40 40 40 40 40 40 40 40 40 40 40 40 40 40 40 40 40 40 40 40 40 40 40 40 40 40 40 40 40 76 114 114 76 76 114 114 114 76 76 76 76 76 40 40 40 40 40 40 40 76 114 76 114 76 40 40 40 76 76 76 76 76 76 76 114 114 114 114 114 114 76 76 76 76 76 114 114 114 114 114 114 114 76 40 40 40 40 40 40 40 40 40 40 40 40 40 40 40 40 40 40 40 40 40 40 40 40 40 40 40 40 40 40 40 40 40 40 40 40 40 40 40 40 40 40 40 40 40 40 40 40 40 40 40 40 40 40 40 40 40 40 40 40 40 40 40 40 40 40 40 40 40 40 40 40 40 40 40 40 40 40 40 40 40 40 40 40 40 40 76 76 76 76 76 40 40 40 40 76 76 76 76 114 114 114 114 114 76 114 114 114 114 114 114 114 114 114 114 114 114 114 114 114 114 114 114 114 114 114 114 114 114 114 114 114 114 114 114 114 114 114 114 114 114 114 114 114 114 114 114 114 114 114 114 114 114 114 114 114 114 114 114 114 114 167 114 167 167 167 167 167 167 167 167 167 114 114 76 40 40 40 40 40 40 40 40 40 40 40 40 40 40 40 40 40 40 40 40 40 40 40 40 40 40 40 40 40 40 40 40 40 40 40 40 40 40 40 40 40 40 40 76 76 76 40 40 40 40 76 40 40 40 40 40 40 40 40 76 40 76 40 40 40 40 40 40 76 40 40 40 76 167 114 114 114 114 114 114 76 76 76 76 76 76 76 76 76 76 76 76 76 76 76 76 76 76 76 76 76 76 76 76 76 76 76 76 76 76 76 76 76 76 76 76 76 114 114 114 114 76 114 114 114 114 114 114 114 114 114 114 114 114 114 114 114 114 76 76 114 114 76 76 76 114 76 76 76 76 76 76 76 76 76 114 114 167 167 167 167 167 167 167 167 167 167 167 167 167 167 167 167 167 167 167 167 167 167 167 167 167 167 167 167 167 167 167 167 167 167 167 167 167 167 
114 114 114 114 114 114 114 114 167 114 114 114 114 114 114 114 114 114 114 167 114 114 114 114 114 114 114 114 114 114 76 76 76 40 40 40 40 76 167 167 167 114 76 40 76 76 40 114 76 40 40 40 40 40 40 40 40 40 40 40 40 40 40 40 40 40 40 40 40 40 40 40 40 40 40 40 40 40 40 40 40 40 40 40 40 40 40 40 40 76 76 76 76 76 114 114 76 76 40 76 76 40 40 40 40 40 40 40 76 76 114 114 76 40 40 40 40 76 114 76 76 40 40 76 114 114 114 114 114 76 76 40 40 40 40 40 76 76 114 114 114 114 76 76 40 40 40 40 40 40 40 40 40 40 40 40 40 40 40 40 40 40 40 40 40 40 40 40 40 40 40 40 40 40 40 40 40 40 40 40 40 40 40 40 40 40 40 40 40 40 40 40 40 40 40 40 40 40 40 40 40 40 40 40 40 40 40 40 40 40 40 40 40 40 40 40 40 40 40 40 40 40 40 40 40 40 40 40 40 40 40 40 40 76 76 76 76 76 76 76 76 76 76 76 76 76 76 114 114 114 114 114 114 114 114 114 114 114 114 114 114 114 114 114 114 114 114 114 114 114 114 114 114 114 114 114 114 114 114 114 114 114 114 114 114 114 114 114 114 114 114 114 114 114 114 114 114 114 114 114 114 114 114 114 114 167 167 167 167 167 167 167 167 167 167 167 167 167 114 114 40 40 40 40 40 40 40 40 40 40 40 40 40 40 40 40 40 40 40 40 40 40 40 40 40 40 40 40 40 40 40 40 40 40 40 40 40 40 40 40 76 76 76 40 40 40 40 40 40 40 76 40 40 40 40 40 40 40 76 40 40 40 40 76 40 40 40 40 40 114 167 114 114 114 114 114 114 76 76 76 76 76 76 76 76 76 76 76 76 76 76 76 76 76 76 76 76 76 76 76 76 76 76 76 76 76 76 76 76 76 76 76 76 76 76 76 76 76 76 114 76 114 114 114 114 114 76 114 114 114 114 114 114 114 114 76 76 114 114 76 76 114 114 76 76 76 76 76 76 76 76 76 114 167 167 167 167 167 167 167 167 167 167 167 167 167 167 167 167 167 167 167 167 167 167 167 167 167 167 167 167 167 167 167 167 167 167 167 167 167 167 167 
114 114 114 114 114 114 114 114 167 114 114 114 114 114 114 114 114 114 114 167 114 114 114 114 114 114 114 114 114 114 76 76 76 40 40 40 114 167 167 167 114 40 40 40 40 40 40 114 76 40 40 40 40 40 40 40 40 40 76 40 40 40 40 40 40 40 40 40 40 40 40 40 40 40 40 40 40 40 40 40 40 40 40 40 40 40 40 40 40 76 76 76 76 76 76 114 76 76 40 40 40 40 40 40 40 40 40 40 40 76 76 76 76 40 40 40 40 76 114 114 76 76 40 40 76 114 114 114 114 114 76 76 40 40 40 40 40 76 76 114 167 114 114 114 76 40 40 40 40 40 40 40 40 40 40 40 40 40 40 40 40 40 40 40 40 40 40 40 40 40 40 40 40 40 40 40 40 40 40 40 40 40 40 40 40 40 40 40 40 40 40 40 40 40 40 40 40 40 40 40 40 40 40 40 40 40 40 40 40 40 40 40 40 40 40 40 40 40 40 40 40 40 40 40 40 40 40 40 40 40 40 40 76 76 76 40 76 76 76 76 76 76 76 76 76 76 114 114 114 114 114 114 114 114 114 114 114 114 114 114 114 114 114 114 114 114 114 114 114 114 114 114 114 114 114 114 114 114 114 114 114 114 114 114 114 114 114 114 114 114 114 114 114 114 114 114 114 114 114 114 114 114 114 114 114 167 167 167 167 167 167 167 167 167 167 167 167 167 167 167 167 114 76 40 40 40 40 40 40 40 40 40 40 40 40 40 40 40 40 40 40 40 40 40 40 40 40 40 40 40 40 40 40 40 40 40 40 40 40 40 40 76 76 40 40 40 40 40 40 40 40 40 40 40 40 40 40 76 76 40 40 40 40 40 40 40 40 40 40 114 167 114 114 114 114 114 114 76 76 76 76 76 76 76 76 76 76 76 76 76 76 76 76 76 76 76 76 76 76 76 76 76 76 76 76 76 76 76 76 76 76 76 76 76 76 76 76 76 76 76 76 76 76 76 76 76 76 76 114 114 114 76 114 114 114 114 114 76 76 76 76 76 76 76 76 76 76 76 76 76 76 76 114 167 167 167 167 167 167 167 167 167 167 167 167 167 167 167 167 167 167 167 167 167 167 167 167 167 167 167 167 167 167 167 167 167 167 167 167 167 167 167 
114 114 114 114 114 114 114 114 114 114 114 114 114 114 167 167 114 114 114 114 114 167 114 114 114 114 114 114 114 76 76 76 40 40 76 114 167 167 167 114 40 40 40 40 40 40 76 167 76 40 40 40 40 40 40 40 40 40 40 40 40 40 40 40 40 40 40 40 40 40 40 40 40 40 40 40 40 40 40 40 40 40 40 40 40 40 40 40 76 114 76 76 76 76 76 114 114 76 40 40 40 40 40 40 40 40 40 40 40 40 76 76 40 40 40 40 76 114 114 114 114 76 40 40 76 76 114 114 114 114 114 76 76 40 40 40 40 40 40 76 114 167 114 167 114 114 76 40 40 40 40 40 40 40 40 40 40 40 40 40 40 40 40 40 40 40 40 40 40 40 40 40 40 40 40 40 40 40 40 40 40 40 40 40 40 40 40 40 40 40 40 40 40 40 40 40 40 40 40 40 40 40 40 40 40 40 40 40 40 40 40 40 40 40 40 40 40 40 40 40 40 40 40 40 40 40 40 40 40 40 76 76 40 76 40 40 76 76 76 76 76 76 76 114 114 114 114 114 114 114 114 114 114 114 114 114 114 114 114 114 114 114 114 114 76 114 114 114 114 114 114 114 114 114 114 114 114 114 114 114 114 114 114 114 114 114 114 114 114 114 114 114 114 114 114 114 114 114 114 114 114 114 114 114 114 167 167 167 167 167 167 167 167 167 167 167 167 167 167 167 167 167 167 114 76 40 40 40 40 40 40 40 40 40 40 40 40 40 40 40 40 40 40 40 40 40 40 40 40 40 40 40 40 40 40 40 40 40 40 40 40 76 76 40 40 40 40 40 40 40 76 40 40 40 40 40 40 76 40 40 40 40 40 40 40 40 40 40 40 114 167 114 114 114 114 114 76 76 76 76 76 76 76 76 114 76 76 76 76 76 76 76 76 76 76 76 76 76 76 76 76 76 76 76 76 76 76 76 76 76 76 76 76 76 76 76 76 76 76 76 76 76 76 76 76 76 76 76 76 76 76 76 114 114 76 114 114 76 76 76 76 76 76 76 76 76 76 76 76 76 76 76 114 167 167 167 167 167 167 167 167 167 167 167 167 167 167 167 167 167 167 167 167 167 167 167 167 167 167 167 167 167 167 167 167 167 167 167 167 167 167 167 
114 114 114 114 114 114 114 114 167 167 114 114 114 114 114 114 114 114 114 114 114 167 114 114 114 114 114 114 114 76 76 76 76 76 167 167 167 167 114 40 40 40 76 40 40 40 114 167 76 40 40 40 40 40 40 40 40 40 76 76 40 40 40 40 40 40 40 40 40 40 40 40 40 40 40 40 40 40 40 40 40 40 40 40 40 40 40 40 76 114 76 76 76 76 76 76 114 114 76 76 40 40 76 40 40 40 40 40 40 40 40 76 76 40 40 76 114 114 114 76 40 40 76 40 40 76 76 114 114 114 76 114 114 76 40 40 40 40 40 40 114 167 114 167 167 114 114 40 40 40 40 40 40 40 40 40 40 40 40 40 40 40 40 40 40 40 40 40 40 40 40 40 40 40 40 40 40 40 40 40 40 40 40 40 40 40 40 40 40 40 40 40 40 40 40 40 40 40 40 40 40 40 40 40 40 40 40 40 40 40 40 40 40 40 40 40 40 40 40 40 40 40 40 40 40 40 40 40 40 76 76 76 40 76 76 76 76 76 114 114 76 76 114 114 114 114 114 114 114 114 114 114 76 114 114 114 114 114 114 114 114 114 114 114 114 114 114 114 114 114 114 114 114 114 114 114 114 114 114 114 114 114 114 114 114 114 114 114 114 114 114 114 114 114 114 114 114 114 114 114 114 114 114 167 167 167 167 167 167 167 167 167 167 167 167 167 167 167 167 167 167 167 167 167 167 167 114 40 40 40 40 40 40 40 40 40 40 40 40 40 40 40 40 40 40 40 40 40 40 40 40 40 40 40 40 40 40 40 40 40 40 76 76 40 40 40 40 40 40 40 40 40 40 40 40 40 40 76 76 40 40 40 76 40 40 40 40 40 40 114 167 114 114 114 114 114 114 76 76 76 76 114 76 76 76 114 76 76 76 76 76 76 76 76 76 76 76 76 76 76 76 76 76 76 76 76 76 76 76 76 76 76 76 76 76 76 76 76 76 76 76 76 76 76 76 76 76 76 76 76 76 76 114 76 76 76 76 76 76 76 76 76 76 76 76 76 76 76 76 76 76 76 114 114 167 167 167 167 167 167 167 167 167 167 167 167 167 167 167 167 167 167 167 167 167 167 167 167 167 167 167 167 167 167 167 167 167 167 167 167 167 114 
114 114 114 114 114 114 114 167 114 114 114 114 114 114 167 167 167 167 114 114 167 167 114 114 114 114 114 114 114 114 76 76 76 167 167 167 167 114 40 40 40 40 40 40 40 40 40 40 40 40 40 40 40 40 40 40 40 40 40 40 40 40 40 40 40 40 40 40 40 40 40 40 40 40 40 40 76 40 40 40 40 40 40 40 40 40 40 40 76 76 114 76 76 76 40 76 114 114 114 114 76 40 40 40 40 40 40 40 40 40 40 76 76 76 76 76 114 114 114 76 76 40 40 76 76 76 76 76 114 114 76 76 76 114 114 76 40 40 40 40 40 114 114 114 114 114 114 114 76 40 40 40 40 40 40 40 40 40 40 40 40 40 40 40 40 40 40 40 40 40 40 40 40 40 40 40 76 40 40 40 40 40 40 40 40 40 40 40 40 40 40 40 40 40 40 40 40 40 40 40 40 40 40 40 40 40 40 40 40 40 40 40 40 40 40 40 40 40 40 40 40 40 40 40 40 40 40 40 40 40 40 40 40 40 76 76 76 76 76 76 76 114 114 114 114 114 114 76 114 114 114 114 114 114 114 114 114 114 114 114 114 114 114 114 114 114 114 114 114 114 114 114 114 114 114 114 114 114 114 114 114 114 114 114 114 114 114 114 114 114 114 114 114 114 114 114 114 114 114 114 114 114 114 114 167 167 167 167 167 167 167 167 167 167 167 167 167 167 167 167 167 167 167 167 167 167 167 167 114 76 40 40 40 40 40 40 40 40 40 40 40 40 40 40 40 40 40 40 40 40 40 40 40 40 40 40 40 40 76 40 40 76 76 76 40 40 40 40 40 40 40 40 40 40 40 40 40 76 40 40 40 40 40 40 40 40 40 40 40 114 167 114 114 114 114 114 76 76 76 76 76 114 76 76 76 114 114 76 76 76 76 76 76 76 76 76 76 76 76 76 76 76 76 76 76 76 76 76 76 76 76 76 76 76 76 76 76 76 76 76 76 76 76 76 76 76 76 76 76 76 76 76 76 76 76 76 76 76 76 76 76 76 76 76 76 76 76 76 76 76 76 76 114 167 167 167 167 167 167 167 167 167 167 167 167 167 167 167 167 167 167 167 167 167 167 167 167 167 167 167 167 167 167 167 167 167 167 167 167 114 167 114 
114 114 114 114 114 114 114 114 114 114 114 114 114 114 114 114 114 114 114 114 114 114 114 114 114 114 114 114 114 76 76 114 167 167 167 114 114 40 40 40 40 40 40 40 40 40 40 40 40 40 40 40 40 40 40 40 40 40 76 76 40 40 40 40 40 40 40 40 40 40 40 40 40 40 40 40 76 40 40 40 40 40 40 40 40 40 40 40 76 76 114 114 76 114 76 40 76 114 114 114 76 40 40 40 40 40 40 40 40 40 40 76 114 76 76 76 114 114 76 40 76 76 40 40 76 76 76 76 76 76 76 40 40 76 114 76 76 76 40 40 40 76 76 114 76 114 114 114 114 40 40 40 40 40 40 40 40 40 40 40 40 40 40 40 40 40 40 40 40 40 40 40 40 40 40 40 40 40 40 40 40 40 40 40 40 40 40 40 40 40 40 40 40 40 40 40 40 40 40 40 40 40 40 40 40 40 40 40 40 40 40 40 40 40 40 40 40 40 40 40 40 40 40 40 40 40 40 40 40 40 76 76 76 76 76 40 76 76 76 76 76 114 76 76 76 114 114 114 114 114 114 114 114 114 114 114 114 114 114 114 114 114 114 76 114 114 114 114 114 114 114 114 114 114 114 114 114 114 114 114 114 114 114 114 114 114 114 114 114 114 114 114 114 114 114 114 114 114 114 114 114 167 114 167 167 114 167 167 167 167 167 167 167 167 167 167 167 167 167 167 167 167 167 167 167 167 167 167 167 167 114 76 40 40 40 40 40 40 40 40 40 40 40 40 40 40 40 40 40 40 40 40 40 40 40 40 40 40 76 40 40 76 76 76 40 40 40 40 40 40 40 40 40 40 40 40 40 76 40 40 40 40 40 40 40 40 40 40 76 114 167 114 114 114 114 114 76 76 76 76 76 114 114 76 76 76 114 76 76 76 76 76 76 76 76 76 76 76 76 76 76 76 76 76 76 76 76 76 76 76 76 76 76 76 76 76 76 76 76 76 76 76 76 76 76 76 76 76 76 76 76 76 76 76 76 76 76 76 76 76 76 76 76 76 76 76 76 76 76 76 76 76 114 167 167 167 167 167 167 167 167 167 167 167 167 167 167 167 167 167 167 167 167 167 167 167 167 167 167 167 167 167 167 167 167 167 167 167 167 167 167 114 
114 114 114 114 114 114 167 167 114 114 114 114 114 114 114 114 114 167 167 167 167 114 114 114 114 114 114 114 114 114 114 167 167 167 114 76 40 40 40 40 40 40 40 40 40 40 76 76 40 40 40 40 40 40 40 40 40 40 40 76 40 40 40 40 40 40 40 40 40 40 40 40 40 40 40 40 76 76 40 40 40 40 40 40 40 40 40 40 40 40 76 114 76 76 76 76 40 76 114 114 114 76 40 40 40 40 40 40 40 40 76 76 114 76 76 114 114 114 76 40 40 76 76 40 40 76 76 76 76 76 76 76 40 40 76 76 76 40 40 40 40 40 76 114 76 76 114 114 167 114 40 40 40 40 40 40 40 40 40 40 40 40 40 40 40 76 76 40 40 40 40 40 40 40 40 40 40 40 40 40 40 40 40 40 40 40 40 40 40 40 40 40 40 40 40 40 40 40 40 40 40 40 40 40 40 40 40 40 40 40 40 40 40 40 40 40 40 40 40 40 40 40 40 40 40 40 40 40 40 40 40 76 76 76 76 76 76 76 76 76 76 114 76 76 76 76 114 114 76 114 76 114 114 114 114 114 76 114 114 114 114 114 114 114 114 114 114 114 114 114 114 114 114 114 114 114 114 114 114 114 114 114 114 114 114 114 114 114 114 114 114 114 114 114 114 114 114 114 114 114 114 167 167 167 167 167 167 167 167 167 167 167 167 167 167 167 167 167 167 167 167 167 167 167 167 167 167 167 167 167 167 167 167 114 40 40 40 40 40 40 40 40 40 40 40 40 40 40 40 40 40 40 40 40 40 40 40 40 76 40 40 76 76 76 40 40 40 40 40 40 40 40 40 40 40 40 40 76 40 40 40 40 40 40 40 40 40 40 76 114 167 114 114 114 114 114 76 76 76 76 76 114 114 76 76 76 114 114 114 114 76 76 76 76 76 76 76 76 76 76 76 76 76 76 76 76 76 76 76 76 76 76 76 76 76 76 76 76 76 76 76 40 76 76 76 76 76 76 76 76 76 76 76 76 76 76 76 76 76 76 76 76 76 76 76 76 76 76 76 76 76 76 114 167 167 167 167 167 167 167 167 167 167 167 167 167 167 167 167 167 167 167 167 167 167 167 167 167 167 167 167 167 167 167 167 167 167 167 167 114 114 114 
114 114 114 114 114 114 167 167 167 114 114 114 114 114 167 167 114 114 114 114 114 114 114 114 114 114 114 114 114 114 167 167 167 114 76 40 40 40 40 76 40 40 40 40 40 76 114 76 40 40 40 40 40 40 40 40 40 40 40 40 76 40 40 40 40 40 40 40 40 40 40 40 40 40 40 40 40 76 40 40 40 40 40 40 40 40 40 40 40 40 40 76 114 76 76 114 40 40 76 114 76 114 114 40 40 40 40 40 40 40 40 76 76 76 114 114 114 76 40 40 40 40 76 76 40 40 40 40 76 76 76 114 76 40 40 76 40 76 40 40 40 76 114 114 76 76 40 76 167 114 114 40 40 40 40 40 40 40 40 40 40 40 40 40 40 40 40 40 40 40 40 40 40 40 40 40 40 40 40 40 40 40 40 40 40 40 40 40 40 40 40 40 40 40 40 40 40 40 40 40 40 40 40 40 40 40 40 40 40 40 40 40 40 40 40 40 40 40 40 40 40 40 40 40 40 40 40 40 40 40 40 40 76 76 76 76 76 76 76 76 76 114 114 114 114 114 114 114 76 114 114 114 76 76 76 114 76 114 114 114 114 114 114 114 114 114 114 114 114 114 114 114 114 114 114 114 114 114 114 114 114 114 114 114 114 114 114 114 114 114 114 114 114 114 114 114 114 114 114 114 114 167 167 114 167 167 167 167 167 167 167 167 167 167 167 167 167 167 167 167 167 167 167 167 167 167 167 167 167 167 167 167 167 167 167 114 76 40 40 40 40 40 40 40 40 40 40 40 40 40 40 40 40 40 40 40 40 40 76 40 40 76 76 76 40 40 40 40 40 40 40 40 40 40 40 40 40 76 40 40 40 40 40 40 40 40 40 40 76 114 167 114 114 114 114 114 76 76 114 76 114 114 114 114 114 114 114 114 114 114 76 76 76 76 76 76 76 76 76 76 76 76 76 76 76 76 76 76 76 76 76 40 76 76 76 40 76 76 76 40 76 76 76 76 76 76 76 76 76 76 76 76 76 76 76 76 76 76 76 76 76 76 76 76 76 76 76 76 76 76 76 76 114 114 167 167 167 167 167 167 167 167 167 167 167 167 167 167 167 167 167 167 167 167 167 167 167 167 167 167 167 167 167 167 167 167 167 167 114 114 114 114 
114 114 114 114 114 114 114 114 114 114 114 114 114 114 167 167 114 167 114 114 114 114 114 114 114 114 114 114 167 167 167 167 76 76 40 40 40 40 40 40 40 40 40 40 40 114 114 76 40 40 40 40 40 40 40 40 40 40 40 40 76 40 40 40 40 40 40 40 40 40 40 40 40 40 40 40 40 76 76 40 40 40 40 40 40 40 40 40 40 40 40 40 76 76 76 114 76 40 40 76 76 114 114 76 76 76 76 40 40 76 76 76 114 114 114 114 114 76 40 40 40 40 40 76 76 40 40 76 40 76 76 114 114 76 40 40 40 40 114 76 40 76 114 76 76 76 76 40 114 167 114 76 40 40 40 40 40 40 40 40 40 40 40 40 40 40 40 40 40 40 40 40 40 40 40 40 40 40 40 40 40 40 40 40 40 40 40 40 40 40 40 40 40 40 40 40 40 40 40 40 40 40 40 40 40 40 40 40 40 40 40 40 40 40 40 40 40 40 40 40 40 40 40 40 40 40 40 40 40 40 40 40 76 76 76 76 76 76 76 76 76 76 76 114 114 76 114 76 114 114 114 114 114 114 114 114 114 114 114 114 114 114 114 114 114 114 114 114 114 114 114 114 114 114 114 114 114 114 114 114 114 114 114 114 114 114 114 114 114 114 114 114 114 114 114 114 114 114 114 114 114 167 167 114 167 167 167 167 167 167 167 167 167 167 167 167 167 167 167 167 167 167 167 167 167 167 167 167 167 167 167 167 167 167 167 167 167 114 76 40 40 40 40 40 40 40 40 40 40 40 40 40 40 40 40 40 40 40 40 40 40 40 76 76 40 40 40 40 40 40 40 40 40 40 40 40 40 40 40 40 40 40 40 40 40 40 40 40 76 114 114 114 114 114 114 114 76 76 114 76 114 114 114 114 114 114 114 114 114 114 76 76 114 76 76 76 76 114 76 76 76 76 76 76 76 76 76 76 76 76 76 76 76 76 40 76 76 76 76 76 40 76 76 40 40 76 76 76 76 76 76 76 76 76 76 76 76 76 76 76 76 76 76 76 40 76 76 76 76 40 40 76 114 114 167 167 167 167 167 167 167 167 167 167 167 167 167 167 167 167 167 167 167 167 167 167 167 167 167 167 167 167 167 167 167 167 167 167 114 114 114 114 
114 114 114 114 167 114 114 114 114 114 114 114 114 114 114 114 114 114 114 114 114 114 114 114 114 114 114 167 167 167 114 76 76 40 40 40 40 40 76 40 40 40 40 40 114 167 114 40 40 40 40 40 40 40 40 40 40 40 40 40 40 40 40 40 40 40 40 40 40 40 40 40 40 40 40 40 40 76 76 40 40 40 40 40 40 40 40 40 40 40 40 40 40 114 114 76 114 76 40 40 76 76 114 76 114 114 114 114 114 114 76 76 114 114 114 114 76 40 40 40 76 76 40 40 114 76 40 40 40 40 76 76 76 76 76 40 40 40 76 114 114 76 167 114 76 114 40 40 40 114 167 167 76 40 40 40 40 40 40 40 40 40 40 40 40 40 40 40 40 40 40 40 40 40 40 40 40 40 40 40 40 40 40 40 40 40 40 40 40 40 40 40 40 40 40 40 40 40 40 40 40 40 40 40 40 40 40 40 40 40 40 40 40 40 40 40 40 40 40 40 40 40 40 40 40 40 40 40 40 40 40 40 40 76 76 76 76 76 76 76 76 76 76 76 76 76 114 114 114 114 114 114 114 114 114 76 114 114 114 114 114 114 114 114 114 114 114 114 114 114 114 114 114 114 114 114 114 114 114 114 114 114 114 114 114 114 114 114 114 114 114 114 114 114 114 114 114 114 114 114 114 167 167 167 167 167 167 167 167 167 167 167 167 167 167 167 167 167 167 167 167 167 167 167 167 167 167 167 167 167 167 167 167 167 167 167 167 167 167 167 76 40 40 40 40 40 40 40 40 40 40 40 40 40 40 40 40 40 40 40 40 40 76 76 40 40 40 40 40 40 76 40 40 40 40 40 40 40 40 40 40 40 40 40 40 40 40 40 76 114 114 114 114 114 114 114 76 76 114 76 114 114 114 114 114 114 114 114 114 114 114 76 76 76 76 76 76 76 76 76 76 76 76 76 76 76 76 76 76 76 76 76 76 76 76 76 76 40 76 76 76 76 76 76 76 76 76 76 76 76 76 76 40 40 40 40 76 76 76 76 76 76 76 76 76 76 76 76 40 40 76 76 114 114 167 167 167 167 167 167 167 167 167 167 167 167 167 167 167 167 167 167 167 167 167 167 167 167 167 167 167 167 167 167 167 167 167 114 114 114 114 76 
114 114 114 114 114 167 167 167 167 114 167 114 114 114 114 114 114 114 114 114 167 114 114 114 167 114 114 167 167 114 76 76 76 40 40 40 40 40 40 40 40 40 40 40 114 114 76 40 40 40 40 40 40 40 40 40 40 40 40 40 40 40 40 40 40 40 40 40 40 40 40 40 40 40 40 40 40 76 76 76 40 40 40 40 40 40 40 40 40 40 40 40 40 76 114 114 76 76 40 40 76 76 76 76 76 76 76 114 114 114 114 114 114 114 114 76 40 40 40 40 76 76 76 40 76 76 76 76 40 76 76 76 76 76 76 76 40 40 76 114 114 167 167 114 114 114 114 40 40 40 114 167 114 40 40 40 40 40 40 40 40 40 40 40 40 40 40 40 40 40 40 40 40 40 40 40 40 40 40 40 40 40 40 40 40 40 40 40 40 40 40 40 40 40 40 40 40 40 40 40 40 40 40 40 40 40 40 40 40 40 40 40 40 40 40 40 40 40 40 40 40 40 40 40 40 40 40 40 40 40 40 76 40 76 76 76 76 76 76 76 114 114 76 76 76 114 114 114 114 76 114 114 114 114 114 76 114 114 114 114 114 114 114 114 114 114 114 114 114 114 114 114 114 114 114 114 114 114 114 114 114 114 114 114 114 114 114 114 114 114 114 114 114 114 114 114 114 114 114 114 114 114 114 167 167 167 167 167 167 167 167 167 167 167 167 167 167 167 167 167 167 167 167 167 167 167 167 167 167 167 167 167 167 167 167 167 167 167 167 167 167 114 76 40 40 40 40 40 40 40 40 40 40 40 40 40 40 40 40 40 40 40 76 76 40 40 40 40 40 40 40 40 40 40 40 40 76 76 40 40 40 40 40 40 40 40 40 40 76 114 114 114 114 114 114 114 76 114 114 114 114 114 114 114 114 114 76 114 114 114 114 114 114 114 114 76 76 114 114 76 76 76 76 76 76 76 76 76 76 76 76 76 76 76 76 76 76 76 76 76 76 76 76 40 76 76 76 76 76 40 76 76 76 40 76 76 76 76 76 76 76 76 76 76 76 76 76 40 40 40 76 76 114 114 167 167 167 167 167 167 167 167 167 167 167 167 167 167 167 167 167 167 167 167 167 167 167 167 167 167 167 167 167 167 167 167 114 114 114 114 76 76 
114 114 114 114 114 114 114 114 114 114 114 114 114 114 114 114 114 114 114 114 167 167 167 167 167 114 114 114 114 76 76 76 76 40 40 40 40 40 40 40 76 40 76 114 114 76 40 40 40 40 40 40 40 40 40 40 40 40 40 40 40 40 40 40 40 40 40 40 40 40 40 40 40 40 40 40 40 76 76 40 40 40 40 40 40 40 40 40 40 40 40 40 40 40 76 114 76 76 76 76 40 40 40 40 40 40 76 76 76 76 76 114 114 114 76 76 40 40 76 40 40 76 76 40 40 40 76 114 76 40 76 76 76 76 40 76 76 76 76 40 76 167 167 76 76 76 76 76 40 40 40 114 167 114 40 40 40 40 40 40 40 40 40 40 40 76 40 40 40 40 40 40 40 40 40 40 40 40 40 40 40 40 40 40 40 40 40 40 40 40 40 40 40 40 40 40 40 40 40 40 40 40 40 40 40 40 40 40 40 40 40 40 40 40 40 40 40 40 40 40 40 40 40 40 40 40 40 40 40 40 40 40 76 76 76 76 76 76 76 76 76 76 76 76 114 114 114 76 114 76 114 114 76 114 114 114 114 114 114 114 114 114 114 114 114 114 114 114 114 114 114 114 114 114 114 114 114 114 114 114 114 114 114 114 114 114 114 114 114 114 114 114 114 114 114 114 114 114 114 167 114 167 167 167 167 167 167 167 167 167 167 167 167 167 167 167 167 167 167 167 167 167 167 167 167 167 167 167 167 167 167 167 167 167 167 167 167 167 167 167 167 167 167 114 40 40 40 40 40 40 40 40 40 40 40 40 40 40 40 40 40 40 76 76 40 40 40 40 76 40 40 40 40 40 40 40 76 40 40 40 40 40 40 40 40 40 40 40 76 114 114 114 114 114 114 114 76 114 114 114 114 114 114 76 114 114 76 114 114 114 114 114 76 114 114 114 76 76 76 76 76 76 76 76 76 76 76 76 76 76 76 76 76 76 76 76 76 76 76 76 76 76 76 76 76 76 40 40 76 40 40 76 40 40 76 76 76 76 76 76 76 76 76 76 76 76 76 40 40 40 76 40 76 114 167 167 167 167 167 167 167 167 167 167 167 167 167 167 167 167 167 167 167 167 167 167 167 167 167 167 167 167 167 167 167 114 114 114 114 114 76 40 
114 114 114 114 114 114 114 114 114 114 114 114 114 114 114 114 114 114 114 167 167 167 167 167 167 114 114 114 114 76 76 76 76 76 76 40 40 40 40 76 76 76 114 114 76 40 40 40 40 40 40 40 40 40 40 40 40 40 40 40 40 40 76 76 40 40 40 40 40 40 40 40 40 40 40 40 40 76 76 76 76 40 40 40 40 40 40 40 40 40 40 40 40 40 40 114 114 76 76 76 76 40 40 40 40 40 40 40 40 40 40 76 114 76 40 40 76 76 40 40 76 76 76 76 76 40 40 76 76 76 76 76 40 76 76 40 76 76 76 40 40 114 114 76 40 40 40 40 76 40 40 40 76 167 76 40 40 40 40 40 40 40 40 40 40 40 40 40 40 40 40 40 40 40 40 40 40 40 40 40 40 40 40 40 40 40 40 40 40 40 40 40 40 40 40 40 40 40 40 40 40 40 40 40 40 40 40 40 40 40 40 40 40 40 40 40 40 40 40 40 40 40 40 40 40 40 40 40 40 40 40 40 40 40 76 76 76 76 76 76 76 76 76 114 114 114 114 76 76 76 76 76 114 114 114 114 114 114 114 114 114 114 114 114 114 114 114 114 114 114 114 114 114 114 114 114 114 114 114 114 114 114 114 114 114 114 114 114 114 114 114 114 114 114 114 114 114 114 114 114 114 167 167 167 167 167 167 167 167 167 167 167 167 167 167 167 167 167 167 167 167 167 167 167 167 167 167 167 167 167 167 167 167 167 167 167 167 167 167 167 167 167 167 167 167 76 40 40 40 40 40 40 40 40 40 40 40 40 40 76 76 40 76 76 40 40 40 40 40 40 40 40 40 40 40 40 40 40 40 40 40 40 40 40 40 40 40 40 114 114 114 114 114 114 114 114 76 114 114 114 114 114 114 114 114 114 114 114 114 114 114 114 114 114 114 114 76 76 114 76 114 76 76 76 76 114 76 76 76 76 76 76 76 76 76 76 76 76 76 76 76 76 76 76 76 76 76 40 76 40 40 40 40 40 76 40 76 76 76 76 76 76 76 76 76 76 76 76 40 40 40 40 114 114 167 167 167 167 167 167 167 167 167 167 167 167 167 167 167 167 167 167 167 167 167 167 167 167 167 167 167 167 114 114 114 114 114 76 76 76 40 40 
114 114 114 114 114 114 114 114 114 114 114 114 114 114 114 114 167 114 114 114 114 167 167 114 114 114 114 114 114 114 114 76 76 76 40 40 40 40 76 76 76 167 167 76 40 40 40 40 40 40 40 40 40 40 40 40 40 40 40 40 40 40 40 40 76 76 76 40 40 40 40 40 40 40 40 40 40 76 76 76 76 40 40 40 40 40 40 76 40 40 40 40 40 40 40 40 114 114 76 76 76 76 76 40 40 40 40 40 40 40 40 76 114 76 40 40 40 76 76 40 76 76 76 76 76 76 40 40 76 114 76 76 40 76 76 76 76 76 76 40 40 114 114 114 40 40 40 40 40 40 40 40 40 114 167 76 40 40 40 40 40 40 40 40 40 40 40 40 40 40 40 40 40 40 40 40 40 40 40 40 40 40 40 40 40 40 40 40 40 40 40 40 40 40 40 40 40 40 40 40 40 40 40 40 40 40 40 40 40 40 40 40 40 40 40 40 40 40 40 40 40 40 40 40 40 40 40 40 40 40 40 40 40 76 76 76 76 76 76 76 76 76 76 76 76 76 76 76 76 76 114 114 114 114 114 114 114 114 114 114 114 76 76 114 114 114 114 114 114 114 114 114 114 114 114 114 114 114 114 114 114 114 114 114 114 114 114 114 114 114 114 114 114 114 114 114 114 114 114 114 114 114 167 167 167 167 167 167 167 167 167 167 167 167 167 167 167 167 167 167 167 167 167 167 167 167 167 167 167 167 167 167 167 167 167 167 167 167 167 167 167 167 167 167 167 167 114 76 40 40 40 40 40 40 40 40 40 76 40 40 40 40 76 76 40 40 40 40 40 40 40 40 40 40 40 40 40 40 40 40 40 40 76 40 40 40 40 40 114 114 114 114 114 114 114 114 76 114 114 114 114 114 114 114 114 114 114 114 114 114 114 114 76 114 76 76 76 76 114 76 114 114 76 114 76 114 76 76 76 76 76 76 76 76 76 76 76 76 76 76 76 76 76 76 76 76 76 40 40 40 40 40 40 40 40 76 76 76 76 76 114 76 76 76 76 76 76 76 40 40 40 76 114 114 167 167 167 167 167 167 167 167 167 167 167 167 167 167 167 167 167 167 167 167 167 167 167 167 167 167 167 167 114 114 114 114 76 76 76 40 40 40 
114 114 114 114 114 114 114 114 114 114 114 114 114 114 114 114 114 114 114 167 167 167 167 114 114 114 114 114 114 114 76 76 76 40 40 40 40 76 76 40 76 167 114 40 40 40 40 40 40 40 40 40 40 40 40 40 40 40 40 40 40 40 40 76 76 76 76 40 40 40 40 40 40 40 40 40 40 76 76 76 76 40 40 40 40 40 76 76 40 40 40 40 40 40 40 40 40 76 114 114 76 76 76 76 40 40 76 76 40 40 40 76 76 76 40 40 40 76 114 76 76 76 76 40 76 76 76 40 40 76 114 76 76 76 76 76 76 76 76 76 40 76 114 114 114 76 76 76 40 40 76 76 40 40 167 167 40 40 40 40 40 40 40 40 40 40 40 40 40 40 40 40 40 40 40 40 40 40 40 40 40 40 40 40 40 40 40 40 40 40 40 40 40 40 40 40 40 40 40 40 40 40 40 40 40 40 40 40 40 40 40 40 40 40 40 40 40 40 40 40 40 40 40 40 40 40 40 40 40 40 40 40 40 40 76 76 76 76 76 76 76 76 76 76 76 76 114 76 114 114 114 114 114 114 114 114 114 114 114 114 76 76 114 114 114 114 114 114 114 114 114 114 114 114 114 114 114 114 114 114 114 114 114 114 114 114 114 114 114 114 114 114 114 114 114 114 114 114 114 114 114 167 167 167 167 167 167 167 167 167 167 167 167 167 167 167 167 167 167 167 167 167 167 167 167 167 167 167 167 167 167 167 167 167 167 167 167 167 167 167 167 167 167 167 167 167 167 167 76 40 40 40 40 40 40 40 40 40 40 40 40 40 76 76 40 40 40 40 40 40 40 40 40 40 40 40 40 40 40 40 40 40 40 40 40 40 40 40 114 114 114 114 114 114 114 114 76 114 114 114 114 114 114 114 114 114 76 114 114 114 114 114 114 114 114 114 114 114 114 76 76 114 76 114 114 114 76 76 76 76 76 76 76 76 76 76 76 76 76 76 76 76 76 76 76 76 76 76 76 40 76 76 40 40 76 76 76 76 76 76 114 114 76 76 76 76 76 40 40 40 40 76 114 114 167 167 167 167 167 167 167 167 167 167 167 167 167 167 167 167 167 167 167 167 167 167 167 167 167 167 167 114 114 114 114 76 76 76 40 40 40 40 
114 114 114 114 114 114 114 114 114 114 114 114 114 114 114 114 114 114 114 114 114 114 114 114 114 114 114 114 114 114 76 76 76 76 40 40 40 76 76 40 167 167 76 40 40 40 40 40 40 40 40 40 40 40 40 40 40 40 40 40 40 40 40 40 40 76 76 40 40 40 40 40 40 40 40 40 40 40 76 76 40 40 40 40 40 40 76 76 40 40 40 40 40 40 40 40 40 40 76 114 114 114 114 114 76 76 76 76 40 40 76 114 114 76 40 40 40 40 76 114 114 76 76 76 76 76 76 40 40 40 114 114 114 76 40 76 76 76 76 76 76 76 76 76 167 114 76 40 40 40 40 40 114 40 76 167 76 40 40 40 40 40 40 40 40 40 40 40 40 40 40 40 40 40 40 40 40 40 40 40 40 40 40 40 40 40 40 40 40 40 40 40 40 40 40 40 40 40 40 40 40 40 40 40 40 40 40 40 40 40 40 40 40 40 40 40 40 40 40 40 40 40 40 40 40 40 40 40 40 40 40 40 40 76 76 76 76 76 76 76 76 76 76 76 76 76 76 76 114 114 114 114 114 114 114 114 114 114 114 114 114 114 114 114 114 114 114 114 114 114 114 114 114 114 114 114 114 114 114 114 114 114 114 114 114 114 114 114 114 114 114 114 114 114 114 114 114 114 114 167 167 167 167 167 167 167 167 167 167 167 167 167 167 167 167 167 167 167 167 167 167 167 167 167 167 167 167 167 167 167 167 167 167 167 167 167 167 167 167 167 167 167 167 167 167 167 167 167 167 114 40 40 40 40 40 40 40 40 40 40 40 76 76 76 40 40 40 40 40 40 40 40 40 40 40 40 76 76 40 40 40 40 40 40 40 40 40 76 114 114 114 114 114 114 114 114 114 114 114 114 114 114 114 114 114 114 114 114 114 114 114 114 114 114 114 114 114 114 114 76 114 114 76 114 76 76 76 76 114 76 76 76 76 76 76 76 76 76 76 76 76 76 76 76 76 76 76 76 76 76 76 40 76 76 40 76 76 114 114 76 114 114 114 76 76 76 76 40 40 40 40 76 114 114 167 167 167 167 167 167 167 167 167 167 167 167 167 167 167 167 167 167 167 167 167 167 167 167 167 167 114 114 114 114 76 76 40 40 40 40 40 40 
114 114 114 114 114 114 114 114 114 114 114 114 114 114 114 114 114 167 167 167 114 114 114 114 114 114 114 114 114 114 76 76 76 40 40 40 76 76 40 40 167 114 76 40 40 40 40 40 40 40 40 40 40 40 40 40 40 40 40 40 40 40 40 40 40 76 76 40 40 40 40 40 40 40 40 40 40 40 76 76 76 40 40 40 40 40 76 76 40 40 40 40 40 40 40 40 40 40 40 76 76 76 114 114 114 76 76 76 40 76 114 114 114 40 40 76 40 40 40 40 76 114 76 76 76 76 76 76 40 40 40 114 114 114 76 76 76 76 76 76 76 76 76 40 76 114 114 40 40 40 40 40 76 76 40 114 114 40 40 40 40 40 40 40 40 40 40 40 40 40 40 40 40 40 40 40 40 40 40 40 40 40 40 40 40 40 40 40 40 40 40 40 40 40 40 40 40 40 40 40 40 40 40 40 40 40 40 40 40 40 40 40 40 40 40 40 40 40 40 40 40 40 40 40 40 40 40 40 40 40 40 40 40 40 76 76 76 76 76 76 76 76 76 76 76 76 76 76 114 76 114 114 114 114 114 114 114 114 114 76 76 114 114 114 114 114 114 114 114 114 114 114 114 114 114 114 114 114 114 114 114 114 114 114 114 114 114 114 114 114 114 114 114 114 114 114 114 114 114 167 167 167 167 167 167 167 167 167 167 167 167 167 167 167 167 167 167 167 167 167 167 167 167 167 167 167 167 167 167 167 167 167 167 167 167 167 167 167 167 167 167 167 167 167 167 167 167 167 167 167 167 40 40 40 40 40 40 40 40 40 40 40 76 40 40 40 40 40 40 40 40 40 40 40 40 40 40 40 40 40 40 40 40 40 40 40 40 76 114 114 114 167 114 114 114 114 114 114 114 114 114 114 114 114 114 114 114 114 114 114 114 114 114 114 114 114 114 114 114 76 114 114 76 114 76 114 76 76 114 76 76 76 114 76 76 76 76 76 76 76 76 76 76 76 76 76 76 76 76 76 76 76 76 76 76 76 76 76 76 114 114 114 114 76 76 76 76 76 40 40 40 76 114 167 167 167 167 167 167 167 167 167 167 167 167 167 167 167 167 167 167 167 167 167 167 167 167 167 167 167 114 114 114 76 76 40 40 40 40 40 40 40 
114 114 114 114 114 114 114 114 114 114 114 114 114 114 114 114 114 114 114 114 114 114 114 114 114 114 114 114 114 114 76 76 76 76 40 76 114 76 40 76 167 114 40 40 40 40 40 40 40 40 40 40 40 40 40 40 40 40 40 40 40 40 40 40 40 76 76 40 40 40 40 40 40 40 40 40 40 40 114 76 76 40 40 40 40 76 76 40 40 40 40 40 40 40 40 40 40 40 40 40 40 40 40 76 76 76 76 76 76 114 114 76 76 40 40 40 76 40 40 40 40 114 114 76 76 76 76 76 76 40 40 76 114 114 76 76 76 76 76 76 76 40 40 76 40 76 167 114 40 40 40 40 40 76 76 76 167 114 40 40 40 40 40 40 40 40 40 40 40 40 40 40 40 40 40 40 76 40 40 40 40 40 40 40 40 40 40 40 40 40 40 40 40 40 40 40 40 40 40 40 40 40 40 40 40 40 40 40 40 40 40 40 40 40 40 40 40 40 40 40 76 76 40 40 40 40 40 40 40 40 40 40 40 40 76 76 76 76 76 76 76 76 76 114 76 76 76 114 76 76 114 114 114 114 114 114 114 76 76 114 114 114 114 114 114 114 114 114 114 114 114 114 114 114 114 114 114 114 114 114 114 114 114 114 114 114 114 114 114 114 114 114 114 114 114 114 114 114 114 167 167 167 167 167 167 167 167 167 167 167 167 167 167 167 167 167 167 167 167 167 167 167 167 167 167 167 167 167 167 167 167 167 167 167 167 167 167 167 167 167 167 167 167 167 167 167 167 167 167 167 167 167 76 40 40 40 40 40 40 40 40 40 40 40 40 40 40 40 40 40 40 40 40 40 40 40 40 40 40 40 40 40 40 40 40 40 40 76 114 114 114 114 114 114 114 114 114 114 114 114 114 114 114 114 114 114 114 114 114 114 114 114 114 114 114 114 114 114 114 76 114 114 114 114 76 114 114 114 114 114 114 114 114 76 76 76 76 76 76 76 76 76 76 76 76 76 76 76 76 76 76 76 76 76 40 76 76 76 114 114 114 114 114 76 76 76 76 76 40 40 76 114 114 167 167 167 167 167 167 167 167 167 167 167 167 167 167 167 167 167 167 167 167 167 167 167 167 167 167 167 114 114 76 76 76 40 40 40 40 40 40 40 
114 114 114 114 114 114 114 114 114 114 114 114 114 114 114 114 114 167 114 114 114 167 114 114 114 114 114 114 114 114 76 76 76 76 76 114 114 76 40 76 167 76 40 40 40 40 40 40 40 40 40 40 40 40 40 40 40 40 40 40 76 76 76 40 40 76 76 40 40 40 40 40 40 40 40 40 40 76 114 76 76 40 40 40 76 76 40 40 40 40 40 40 40 40 40 40 76 76 40 40 40 40 40 40 40 76 76 76 76 114 40 40 40 40 40 40 40 76 40 40 40 40 114 76 76 76 76 76 76 76 40 76 76 114 114 114 76 76 76 114 76 40 40 114 76 40 114 167 114 40 40 40 40 40 76 40 114 167 40 40 40 40 40 40 40 40 40 40 40 40 40 40 40 40 40 40 76 40 40 40 40 40 40 40 40 40 40 40 40 40 40 40 40 40 40 40 40 40 40 40 40 40 40 40 40 40 40 40 40 40 40 40 40 40 40 40 40 40 40 40 40 40 40 40 40 40 40 40 40 40 40 76 76 40 76 76 76 76 76 76 76 76 76 76 76 76 76 76 114 114 114 114 114 114 114 114 114 76 76 114 114 114 114 114 114 114 114 114 114 114 114 114 114 114 114 114 114 114 114 114 114 114 114 114 114 114 114 114 114 114 114 114 114 114 114 114 114 114 114 114 114 114 114 167 167 167 167 167 167 167 167 167 167 167 167 167 167 167 167 167 167 167 167 167 167 167 167 167 167 167 167 167 167 167 167 167 167 167 167 167 167 167 167 167 167 167 167 167 167 167 167 167 167 76 40 40 40 40 40 40 40 40 40 40 40 40 40 40 40 40 40 40 40 40 40 40 40 40 40 40 40 40 40 40 40 40 40 76 114 114 114 114 114 114 114 114 114 114 114 114 114 114 114 114 114 114 114 114 114 114 114 114 114 114 114 114 114 114 114 114 114 114 114 114 114 114 114 114 76 76 76 76 114 76 76 76 76 114 76 76 76 76 76 76 76 76 76 76 76 76 76 76 76 76 76 76 76 76 76 76 114 114 114 76 76 76 76 76 76 76 76 114 167 167 167 167 167 167 167 167 167 167 167 167 167 167 167 167 167 167 167 167 167 167 167 167 167 167 167 114 114 114 76 76 40 40 40 40 40 40 40 40 
114 114 114 114 114 114 114 114 114 114 114 114 114 114 167 114 114 114 114 114 167 114 114 114 114 114 114 114 114 114 76 76 114 114 76 167 114 76 76 76 114 76 40 40 40 40 40 40 40 40 40 40 40 40 40 40 40 40 40 40 76 114 114 114 76 76 76 40 40 40 40 40 40 40 40 76 114 114 114 76 40 40 40 40 76 76 40 40 40 40 40 40 40 40 40 76 76 76 76 40 40 40 40 40 40 76 76 114 76 76 40 40 40 40 40 40 40 76 76 40 40 40 40 114 76 76 114 76 76 76 76 114 76 114 114 76 76 76 76 76 114 76 40 40 76 40 40 114 114 76 40 40 40 40 40 76 40 167 114 40 40 40 40 40 40 40 40 40 40 40 40 40 40 40 40 40 40 40 40 40 40 40 40 40 40 40 40 40 40 40 40 40 40 40 40 40 40 40 40 40 40 40 40 40 40 40 40 40 40 40 40 40 40 40 40 40 40 40 40 40 40 76 40 76 40 40 40 40 40 40 40 40 76 40 76 76 76 76 76 76 76 76 76 114 76 76 114 76 114 114 114 114 114 114 114 114 76 76 114 114 114 114 114 114 114 114 114 114 114 114 114 114 114 114 114 114 114 114 114 114 114 114 114 114 114 114 114 114 114 114 114 114 114 114 114 114 114 114 114 114 114 114 167 167 167 167 167 167 167 167 167 167 167 167 167 167 167 167 167 167 167 167 167 167 167 167 167 167 167 167 167 167 167 167 167 167 167 167 167 167 167 167 167 167 167 167 167 167 167 167 167 167 167 167 114 40 40 40 40 40 40 40 76 40 40 40 40 40 40 40 40 40 40 40 40 40 40 40 40 40 40 40 40 40 40 40 40 76 167 114 114 114 114 114 114 114 114 114 114 114 114 114 114 114 114 114 114 114 114 114 114 114 114 114 114 114 114 114 114 114 114 114 76 76 76 114 114 76 76 114 114 76 76 76 76 76 76 76 76 76 76 76 76 76 76 76 76 76 76 76 76 76 76 76 76 76 76 76 76 76 114 76 114 76 76 76 76 76 76 76 114 114 167 167 167 167 167 167 167 167 167 167 167 167 167 167 167 167 167 167 167 167 167 167 167 167 167 167 167 114 114 76 76 76 40 40 40 40 40 40 40 40 
114 114 114 114 114 114 114 114 114 114 114 114 114 114 167 114 167 114 114 114 114 167 114 114 114 114 114 114 114 114 76 76 114 76 114 167 114 40 76 76 76 40 40 40 40 40 40 40 40 40 40 40 40 40 40 40 40 40 40 40 40 40 76 114 114 114 114 114 114 76 76 76 76 76 114 114 76 76 76 40 40 40 40 40 40 40 40 40 40 40 40 40 40 40 76 76 76 40 40 40 40 40 40 40 76 76 114 76 40 40 76 40 40 40 40 40 40 40 76 76 40 40 76 76 76 76 76 114 76 76 114 114 114 76 76 114 114 76 76 76 114 76 40 40 40 40 40 40 114 167 40 40 40 40 40 40 40 114 167 76 40 40 40 40 40 40 40 40 40 40 40 40 40 40 40 40 40 40 40 40 40 40 40 40 40 40 40 40 40 40 40 40 40 40 40 40 40 40 40 40 40 40 40 40 40 40 40 40 40 40 40 40 40 40 40 40 40 40 40 40 40 76 76 76 40 40 40 40 40 40 40 76 76 40 40 76 76 76 76 76 114 76 76 76 114 114 114 76 114 114 114 114 114 114 114 76 114 114 114 114 114 114 114 114 114 114 114 114 114 114 114 114 114 114 114 114 114 114 114 114 114 114 114 114 114 114 114 114 114 114 114 114 114 114 114 114 114 114 114 114 167 167 167 167 167 167 167 167 167 167 167 167 167 167 167 167 167 167 167 167 167 167 167 167 167 167 167 167 167 167 167 167 167 167 167 167 167 167 167 167 167 167 167 167 167 167 167 167 167 167 167 167 167 167 167 114 40 40 40 40 40 40 40 76 76 40 40 40 40 40 40 40 40 40 40 40 40 40 40 40 40 40 40 40 40 40 40 76 167 114 114 114 114 114 114 114 114 114 114 114 114 114 114 114 114 114 114 114 114 114 114 114 114 114 114 114 114 114 114 114 114 114 114 114 76 114 114 114 114 76 76 76 114 114 76 76 76 76 76 76 76 76 76 76 76 76 76 76 76 76 76 76 76 76 76 76 76 76 76 76 76 114 76 76 76 76 76 76 76 76 114 114 167 167 167 167 167 167 167 167 167 167 167 167 167 167 167 167 167 167 167 167 167 167 167 167 167 167 167 114 114 76 76 40 40 40 40 40 40 40 40 40 
114 114 114 114 114 114 114 114 167 114 114 114 114 114 114 114 114 114 114 114 114 167 114 114 114 114 114 114 114 114 76 114 167 114 167 167 76 40 40 76 76 40 40 40 40 40 40 40 40 40 40 40 40 40 40 40 40 40 40 40 40 40 40 40 76 76 114 114 114 114 114 114 114 114 114 114 76 40 40 40 40 40 40 40 40 40 40 76 40 40 40 40 40 76 76 76 76 40 40 40 40 40 40 76 114 76 76 40 40 40 40 40 40 40 40 40 40 40 40 40 40 40 40 40 76 76 76 76 76 76 76 76 114 76 76 76 114 114 76 76 114 114 76 40 40 40 40 40 76 114 114 40 40 40 40 40 40 40 167 114 40 40 40 40 40 40 40 40 40 40 40 40 40 40 40 40 76 40 40 40 40 40 40 40 40 40 40 40 40 40 40 40 40 40 40 40 40 40 40 40 40 40 40 40 40 40 40 40 40 40 40 40 40 40 40 40 40 40 40 40 76 40 76 76 40 40 40 40 40 40 40 40 76 40 40 40 76 76 76 76 76 76 76 76 114 114 114 114 114 114 114 114 114 76 76 76 114 114 114 114 114 114 114 114 114 114 114 114 114 114 114 114 114 114 114 114 114 114 114 114 114 114 114 114 114 114 114 114 114 114 114 114 114 114 114 114 114 114 114 114 114 114 114 167 167 167 167 167 167 167 167 167 167 167 167 167 167 167 167 167 167 167 167 167 167 167 167 167 167 167 167 167 167 167 167 167 167 167 167 167 167 167 167 167 167 167 167 167 167 167 167 167 167 167 167 167 114 40 40 40 40 40 40 40 40 40 40 40 40 40 40 40 40 40 40 40 40 40 40 40 40 40 40 40 40 40 40 114 167 114 114 114 114 114 114 114 114 114 114 114 114 114 114 114 114 114 114 114 114 114 114 114 114 114 114 114 114 114 114 114 114 114 114 76 114 114 114 114 114 114 76 114 114 114 114 114 76 76 76 76 76 76 76 76 76 76 76 76 76 76 76 76 76 76 76 76 76 76 76 76 114 114 114 76 76 76 76 76 76 76 114 114 167 167 167 167 167 167 167 167 167 167 167 167 167 167 167 167 167 167 167 167 167 167 167 167 167 114 114 114 114 76 76 40 40 40 40 40 40 40 40 40 
114 114 114 114 114 167 167 167 167 167 114 114 114 114 114 114 114 114 114 114 114 114 114 114 114 114 114 114 114 114 114 114 167 167 167 114 40 40 76 76 76 76 40 40 40 40 40 40 40 40 40 40 40 40 40 40 40 40 40 40 40 40 40 40 40 40 40 76 76 76 76 76 114 76 76 76 40 40 40 40 76 76 40 40 40 40 40 40 40 40 40 40 76 76 76 76 40 40 40 40 40 40 40 76 76 40 40 40 40 40 40 40 40 40 40 40 40 40 76 40 76 40 40 40 40 76 76 76 76 114 76 76 114 76 76 76 76 114 114 76 114 114 114 40 40 40 40 40 167 114 167 167 40 40 40 40 40 40 114 167 76 40 40 40 40 40 40 40 40 40 40 40 40 40 40 40 76 40 40 40 40 40 40 40 40 40 40 40 40 40 40 40 40 40 40 40 40 40 40 40 40 40 40 40 40 40 40 40 40 40 40 40 40 40 40 40 40 40 40 40 76 76 76 76 40 40 40 40 40 40 40 40 40 76 40 76 76 76 76 76 76 76 76 76 114 114 114 114 114 114 114 76 76 76 76 114 114 114 114 114 114 114 114 114 114 114 114 114 114 114 114 114 114 114 114 114 114 114 114 114 114 114 114 114 114 114 114 114 114 114 114 114 114 114 114 114 114 114 114 114 114 114 114 114 167 167 167 167 167 167 167 167 167 167 167 167 167 167 167 167 167 167 167 167 167 167 167 167 167 167 167 167 167 167 167 167 167 167 167 167 167 167 167 167 167 167 167 167 167 167 167 167 167 167 167 167 167 114 40 40 40 40 40 40 40 40 40 40 40 40 40 40 40 40 40 40 40 40 40 40 40 40 40 40 40 40 40 114 167 114 114 114 114 114 114 114 114 114 114 114 114 114 114 114 114 114 114 114 114 114 114 114 114 114 114 114 114 114 114 114 114 114 114 114 114 114 76 114 76 114 76 114 114 76 114 114 76 114 114 76 76 76 76 76 76 76 76 76 76 76 76 76 76 76 76 76 76 76 76 76 114 114 114 76 114 114 76 76 76 114 114 114 167 167 167 167 167 167 167 167 167 167 167 167 167 167 167 167 167 167 167 167 167 167 167 167 167 114 114 114 114 76 76 40 40 40 40 40 40 40 76 76 
114 114 114 114 114 114 167 167 114 114 114 114 114 114 114 167 114 114 114 114 114 114 114 114 114 114 114 114 114 114 114 167 167 167 167 76 40 76 76 40 76 40 40 40 40 40 40 40 40 40 40 40 40 40 40 40 40 40 40 40 40 40 40 40 40 40 40 40 40 40 40 40 40 40 40 40 40 40 40 40 40 40 40 40 40 40 40 40 40 76 76 76 76 114 76 40 40 40 40 40 40 40 76 114 76 40 40 40 40 40 40 40 40 40 40 40 40 40 76 76 76 76 40 40 40 76 76 76 76 76 114 76 76 114 114 76 76 114 114 76 76 167 114 76 40 40 40 40 40 114 167 167 114 40 40 40 40 40 40 167 114 40 40 40 40 40 40 40 40 40 40 40 40 40 40 40 40 40 40 40 40 40 40 40 40 40 40 40 40 40 40 40 40 40 40 40 40 40 40 40 40 40 40 40 40 40 40 40 40 40 40 40 40 40 40 40 40 40 40 40 76 76 76 76 76 40 40 40 40 40 40 40 76 76 40 40 76 76 76 76 76 76 76 76 114 114 114 114 114 76 76 76 76 76 114 114 114 114 114 114 114 114 114 114 114 114 114 114 114 114 114 114 114 114 114 114 114 114 114 114 114 114 114 114 114 114 114 114 114 114 114 114 114 114 114 114 114 114 114 167 114 114 114 167 167 167 167 167 167 167 167 167 167 167 167 167 167 167 167 167 167 167 167 167 167 167 167 167 167 167 167 167 167 167 167 167 167 167 167 167 167 167 167 167 167 167 167 167 167 167 167 167 167 167 167 167 167 167 114 40 40 40 40 76 76 40 40 40 40 40 40 40 40 40 40 40 40 40 40 40 40 40 40 40 40 40 40 114 167 114 114 114 114 114 114 114 114 114 114 114 114 114 114 114 114 114 114 114 114 114 114 114 114 114 114 114 114 114 114 114 114 114 114 114 114 114 114 114 114 114 114 114 114 114 114 114 76 114 114 76 76 76 76 76 76 76 76 76 76 76 76 76 76 76 76 76 76 76 76 76 114 114 114 114 76 76 76 76 114 114 114 167 167 167 167 167 167 167 167 167 167 167 167 167 167 167 167 167 167 167 167 167 167 167 167 167 167 114 114 114 76 76 76 40 40 40 40 40 40 40 76 76 
114 114 114 114 114 114 114 114 114 114 114 114 114 167 114 114 114 114 114 114 114 114 114 114 114 114 114 114 114 76 114 167 167 167 114 76 40 40 40 40 40 40 40 40 40 40 40 40 40 40 40 40 40 40 40 40 40 40 40 40 40 40 40 40 40 40 40 40 40 40 40 40 40 40 40 40 40 40 40 40 40 40 40 40 40 40 40 76 76 76 76 76 76 76 40 40 40 40 40 40 40 40 76 114 76 40 40 40 40 40 40 40 40 40 40 40 40 40 76 76 76 76 76 40 40 40 40 40 76 76 76 114 114 76 76 76 76 114 114 76 76 114 114 76 40 40 40 40 40 76 114 167 167 76 40 40 76 40 40 114 167 40 40 40 40 40 40 40 40 40 40 40 40 40 40 40 40 40 40 40 40 40 40 40 40 40 40 40 40 40 40 40 40 40 40 40 40 40 40 40 40 40 40 40 40 40 40 40 40 40 40 40 40 40 40 40 40 40 40 40 76 76 76 76 76 40 40 40 40 40 40 40 40 40 40 40 76 76 76 76 76 76 114 76 114 114 114 76 114 76 76 76 114 114 114 114 114 114 114 114 114 114 114 114 114 114 114 114 114 114 114 114 114 114 114 114 114 114 114 114 114 114 114 114 114 114 114 114 114 114 114 114 114 114 114 114 114 114 114 114 114 114 167 167 167 114 167 167 167 167 167 167 167 167 167 167 167 167 167 167 167 167 167 167 167 167 167 167 167 167 167 167 167 167 167 167 167 167 167 167 167 167 167 167 167 167 167 167 167 167 167 167 167 167 167 167 167 167 167 76 40 40 40 40 76 40 40 40 40 40 40 40 40 40 40 40 40 40 40 40 40 40 40 40 40 40 40 114 167 114 114 114 114 114 114 114 114 114 114 114 114 114 114 114 114 114 114 114 114 114 114 114 114 114 114 114 114 114 114 114 114 114 114 114 114 114 114 114 114 114 76 114 114 114 114 114 76 76 114 76 76 76 76 76 76 76 76 76 76 76 76 76 76 76 76 76 76 76 76 76 76 114 114 76 114 114 76 76 114 114 114 167 167 167 167 167 167 167 167 167 167 167 167 167 167 167 167 167 167 167 167 167 167 167 167 114 114 114 114 114 76 76 40 40 40 40 40 40 40 40 76 76 
114 114 114 114 114 114 114 114 167 114 167 114 114 114 114 114 114 114 114 114 114 114 114 114 114 114 114 114 114 114 114 167 167 167 114 76 76 76 76 40 40 40 40 40 40 40 40 40 40 40 40 40 40 40 40 40 40 40 40 40 40 40 40 40 40 40 40 40 40 40 40 40 40 40 40 40 40 40 40 40 40 40 40 40 40 40 76 76 40 40 40 40 40 40 40 40 40 40 40 40 40 76 114 114 76 40 40 76 40 40 40 40 40 40 40 40 40 40 40 40 76 76 76 40 40 76 40 40 76 76 76 114 114 76 76 76 76 114 114 114 40 76 114 114 76 40 40 40 40 40 114 114 167 167 40 40 76 40 40 76 167 76 40 40 40 40 40 40 40 40 40 40 40 40 40 40 40 40 40 40 40 40 40 40 40 40 40 40 40 40 40 40 40 40 40 40 40 40 40 40 40 40 40 40 40 40 40 40 40 40 40 40 40 40 40 40 40 40 40 40 76 76 76 76 76 76 40 40 40 40 40 40 40 40 40 40 76 76 76 114 76 76 76 76 114 114 114 76 76 76 76 114 114 114 114 114 114 114 114 114 114 114 114 114 114 114 114 114 114 114 114 114 114 114 114 114 114 114 114 114 114 114 114 114 114 114 114 114 114 114 114 114 114 114 114 114 114 114 114 114 114 114 167 114 114 114 167 167 167 167 167 167 167 167 167 167 167 167 167 167 167 167 167 167 167 167 167 167 167 167 167 167 167 167 167 167 167 167 167 167 167 167 167 167 167 167 167 167 167 167 167 167 167 167 167 167 167 167 167 167 76 40 40 40 40 40 40 40 40 40 40 40 40 40 40 40 40 40 40 40 40 40 40 40 40 40 40 114 114 114 114 114 114 114 114 114 114 114 114 114 114 114 114 114 114 114 114 114 114 114 114 114 114 114 114 114 114 114 114 114 114 114 114 114 114 114 114 114 114 114 76 76 114 76 76 76 76 114 114 76 76 76 76 76 76 76 76 76 76 76 76 76 76 76 76 76 76 114 114 114 76 114 114 114 76 76 76 76 114 114 167 167 167 167 167 167 167 167 167 167 167 167 167 167 167 167 167 167 167 167 167 167 167 167 114 114 114 114 114 76 76 40 40 40 40 40 40 40 40 40 76 76 
114 114 114 114 114 114 114 114 167 114 167 114 114 114 114 114 114 167 114 114 114 114 114 114 114 114 114 114 114 114 167 167 167 167 76 76 114 114 114 76 40 40 40 40 40 40 40 40 40 40 40 40 40 40 40 40 40 40 40 40 40 40 40 40 40 40 40 40 40 40 76 76 40 40 40 40 40 40 40 40 40 40 40 40 40 40 40 40 40 40 40 40 40 40 40 40 40 40 40 40 40 76 114 114 114 76 40 40 40 76 40 40 40 76 40 40 40 40 40 40 40 76 76 76 40 76 40 40 76 76 76 76 114 114 76 76 114 76 114 114 76 40 76 114 114 76 40 40 40 40 114 76 167 167 114 40 76 40 40 40 167 167 40 40 40 40 40 40 40 40 40 40 40 40 40 40 40 40 40 40 40 40 40 40 40 40 40 40 40 40 40 40 40 40 40 40 40 40 40 40 40 40 40 40 40 40 40 40 40 40 40 40 76 76 40 40 40 40 40 40 76 76 76 76 76 76 40 40 40 40 40 40 40 40 40 76 76 76 76 76 114 76 76 76 114 114 114 76 76 76 114 114 114 114 114 114 114 114 114 114 114 114 114 114 114 114 114 114 114 114 114 114 114 114 114 114 114 114 114 114 114 114 114 114 114 114 114 114 114 114 114 114 114 114 114 114 114 114 114 114 114 114 114 114 167 167 167 167 167 167 167 167 167 167 167 167 167 167 167 167 167 167 167 167 167 167 167 167 167 167 167 167 167 167 167 167 167 167 167 167 167 167 167 167 167 167 167 167 167 167 167 167 167 167 167 167 167 167 167 167 167 76 40 40 40 40 40 40 40 40 40 40 40 40 40 40 40 40 40 40 40 40 40 40 40 40 76 114 114 114 114 114 114 114 114 114 114 114 114 114 114 114 114 114 114 114 114 114 114 114 114 114 114 114 114 114 114 114 114 114 114 114 114 114 114 114 114 114 114 114 114 114 114 114 76 76 114 76 76 76 76 76 76 114 76 76 76 76 76 76 76 76 76 76 76 76 76 114 114 114 114 114 114 114 114 114 76 76 114 114 167 167 167 167 167 167 167 167 167 167 167 167 167 167 167 167 167 167 167 167 167 167 167 167 114 114 114 114 114 76 76 40 40 40 40 40 40 40 76 76 76 76 
114 114 114 114 114 167 167 167 167 114 114 114 114 114 114 167 114 167 114 167 114 114 114 114 114 114 114 114 114 114 167 167 167 167 76 76 114 76 167 167 40 40 40 40 40 40 40 40 40 40 40 40 40 40 40 40 40 40 40 40 40 40 40 40 40 40 40 40 40 40 76 76 40 40 40 40 40 40 40 40 40 40 40 40 40 40 40 40 40 40 40 40 40 40 40 40 40 40 40 40 40 40 76 76 76 76 40 40 40 40 40 40 40 40 40 40 40 40 40 40 40 40 76 76 76 40 40 40 40 76 76 76 76 114 76 76 114 76 76 114 76 40 40 114 76 114 76 76 40 40 76 76 76 167 114 76 40 40 40 40 114 167 76 40 40 40 40 40 40 40 40 40 40 40 40 40 76 40 40 40 40 40 40 40 40 40 40 40 40 40 40 40 40 40 40 40 40 40 40 40 40 40 40 40 40 40 40 40 40 40 40 40 40 40 40 40 40 40 40 76 76 76 76 76 76 76 40 40 40 40 40 40 40 40 40 40 76 76 76 76 114 76 114 114 76 76 76 76 76 114 114 114 114 114 114 114 114 114 114 114 114 114 114 114 114 114 114 114 114 114 114 114 114 114 114 114 114 114 114 114 114 114 114 114 114 114 114 114 114 114 114 114 114 114 114 114 114 114 114 114 114 167 167 114 167 114 167 167 167 167 167 167 167 167 167 167 167 167 167 167 167 167 167 167 167 167 167 167 167 167 167 167 167 167 167 167 167 167 167 167 167 167 167 167 167 167 167 167 167 167 167 167 167 167 167 167 167 167 167 167 167 114 40 40 40 40 40 40 40 40 40 40 40 76 40 40 40 40 40 40 40 40 40 40 40 40 76 114 114 114 114 114 114 114 114 114 114 114 114 114 114 114 114 114 114 114 114 114 114 114 114 114 114 114 114 114 114 114 114 114 114 114 114 114 114 114 76 114 114 114 114 114 114 114 76 76 114 76 76 114 76 76 114 76 76 76 76 76 76 76 76 76 76 76 76 76 76 114 114 114 114 114 114 114 76 114 114 114 114 114 167 167 167 167 167 167 167 167 167 167 167 167 167 167 167 167 167 167 167 167 167 167 167 167 114 114 114 114 76 76 76 40 40 40 40 40 40 40 76 76 40 40 
114 114 114 114 114 114 167 167 167 114 167 167 114 114 167 114 167 114 114 167 114 167 114 114 114 114 114 114 114 114 114 167 167 114 76 40 40 76 167 167 40 40 40 40 40 40 40 40 40 40 40 40 40 40 40 40 40 40 40 40 40 40 40 40 40 40 40 40 40 40 40 40 40 40 40 40 40 40 40 40 40 40 40 40 40 40 40 40 40 40 40 40 40 40 40 40 40 40 40 40 40 40 40 40 76 76 76 40 40 40 40 40 40 40 40 40 76 40 40 40 40 40 76 76 76 40 76 40 40 40 76 76 114 76 76 76 114 114 76 76 76 40 76 76 76 76 76 76 76 76 76 76 40 76 114 114 40 40 40 40 40 167 114 40 40 40 40 40 40 40 40 40 40 40 40 40 76 40 40 40 40 40 40 40 40 40 40 40 40 40 40 40 40 40 40 40 40 40 40 40 40 40 40 40 40 40 40 40 40 40 40 40 40 40 40 40 40 40 40 76 76 76 76 76 76 76 76 40 40 40 40 40 40 40 40 76 76 76 76 114 114 76 76 76 76 76 76 76 114 114 114 114 114 114 114 114 114 114 114 114 114 114 114 114 114 114 114 114 114 114 114 114 114 114 114 114 114 114 114 114 114 114 114 114 114 114 114 114 114 114 114 114 114 114 114 114 114 114 114 114 114 114 114 167 114 167 167 167 167 167 167 114 167 167 167 167 167 167 167 167 167 167 167 167 167 167 167 167 167 167 167 167 167 167 167 167 167 167 167 167 167 167 167 167 167 167 167 167 167 167 167 167 167 167 167 167 167 167 167 167 167 167 114 40 40 40 40 40 40 40 40 40 40 40 40 40 40 40 40 40 40 40 40 40 40 40 76 167 114 114 114 114 114 114 114 114 114 114 114 114 114 114 114 114 114 114 114 114 114 114 114 114 114 114 114 114 114 114 114 114 114 114 114 114 114 114 114 114 114 114 114 114 114 114 114 114 76 76 114 76 114 114 76 76 76 76 76 76 76 76 76 76 76 76 76 76 114 114 114 114 114 114 114 114 114 76 114 76 114 114 167 167 167 167 167 167 167 167 167 167 167 167 167 167 167 167 167 167 167 167 167 167 167 167 114 114 114 76 76 76 40 40 40 40 40 40 40 40 40 76 76 40 
114 114 114 114 114 114 114 167 167 167 167 167 114 114 114 114 114 114 167 167 114 114 114 114 114 114 114 114 114 114 114 167 167 167 76 40 40 40 114 114 76 40 40 40 40 40 40 40 40 40 40 40 40 40 40 40 40 40 40 40 40 40 40 40 40 40 40 40 40 40 40 40 40 40 40 40 40 40 40 40 40 40 40 40 40 40 40 40 40 40 40 40 40 40 40 40 40 40 40 40 40 40 40 40 40 76 76 40 40 40 40 40 40 40 40 40 40 40 76 40 40 40 40 76 76 76 40 76 40 40 76 76 114 114 76 114 76 76 76 76 76 40 76 76 76 114 76 40 76 76 76 76 40 40 114 167 76 40 40 40 40 167 167 40 40 40 40 40 40 40 40 40 40 40 40 40 76 40 40 40 40 40 40 40 40 40 40 40 40 40 40 40 40 40 40 40 40 40 40 40 40 40 40 40 40 40 40 40 40 40 40 40 40 40 40 40 40 40 40 76 76 76 114 76 76 76 76 40 40 40 40 40 40 40 40 76 76 76 76 76 76 76 76 76 76 76 76 114 114 114 114 114 114 114 114 114 114 114 114 114 114 114 114 114 114 114 114 114 114 114 114 114 114 114 114 114 114 114 114 114 114 114 114 114 114 114 114 114 114 114 114 114 114 114 114 114 114 114 114 114 114 114 114 114 167 167 167 167 167 167 167 114 167 167 167 167 167 167 167 167 167 167 167 167 167 167 167 167 167 167 167 167 167 167 167 167 167 167 167 167 167 167 167 167 167 167 167 167 167 167 167 167 167 167 167 167 167 167 167 167 167 167 167 76 40 40 40 40 40 40 40 40 40 40 40 40 40 40 40 40 40 40 40 40 40 40 76 167 114 114 114 114 114 114 114 114 114 114 114 114 114 114 114 114 114 114 114 114 114 114 114 114 114 114 114 114 114 114 114 114 114 114 114 114 114 114 114 114 114 76 76 76 114 114 114 114 114 114 114 114 76 76 76 76 76 76 76 76 76 76 76 76 76 76 76 76 114 114 114 114 114 114 114 114 114 114 114 114 114 167 167 167 167 167 167 167 167 167 167 167 167 167 167 167 167 167 167 167 167 167 167 167 167 167 114 114 76 76 76 40 40 40 40 40 40 40 40 76 76 76 40 40 
114 114 114 114 114 167 114 167 167 114 167 167 114 114 114 114 114 167 167 167 114 114 114 114 114 114 114 114 114 114 114 114 114 114 76 40 40 40 76 76 40 40 40 40 40 40 40 40 40 40 40 40 40 40 40 40 40 40 40 40 40 40 40 40 40 40 40 40 40 40 40 40 40 40 40 40 40 40 40 76 76 40 40 40 40 40 40 40 40 40 40 40 40 40 40 76 40 40 40 40 40 40 40 40 40 76 76 76 76 40 40 40 40 40 40 40 40 40 76 40 40 40 40 40 76 76 76 76 40 40 76 76 114 114 76 76 76 76 76 76 114 76 76 76 114 114 114 40 40 40 76 40 40 40 114 167 167 40 40 40 40 114 167 76 40 40 40 40 40 40 40 40 40 40 40 40 76 40 40 40 40 40 40 40 40 40 40 40 40 40 40 40 40 40 40 40 40 40 40 40 40 40 40 40 40 40 40 40 40 40 40 40 40 40 40 40 40 40 76 76 76 76 114 76 76 76 76 76 40 40 40 40 40 40 76 76 76 76 76 76 114 76 76 76 76 114 114 114 114 114 114 114 114 114 114 114 114 114 114 114 114 114 114 114 114 114 114 114 114 114 114 114 114 114 114 114 114 114 114 114 114 114 114 114 114 114 114 114 114 114 114 114 114 114 114 114 114 114 114 114 114 114 114 114 167 167 114 114 167 167 167 167 167 167 167 167 167 167 167 167 167 167 167 167 167 167 167 167 167 167 167 167 167 167 167 167 167 167 167 167 167 167 167 167 167 167 167 167 167 167 167 167 167 167 167 167 167 167 167 167 167 167 167 167 40 40 40 40 40 40 40 40 40 40 40 40 40 40 40 40 40 40 40 40 40 40 114 167 114 114 114 114 114 114 114 114 114 114 114 114 114 114 114 114 114 114 114 114 114 114 114 114 114 114 114 114 114 114 114 114 114 114 114 114 114 114 114 114 114 114 114 114 114 114 114 114 114 114 114 114 76 76 114 114 114 76 76 76 76 76 76 76 76 76 76 76 114 114 114 114 114 114 114 114 114 114 114 114 114 167 167 167 167 167 167 167 167 167 167 167 167 167 167 167 167 167 167 167 167 167 167 167 167 114 114 114 114 76 76 76 40 40 40 40 40 40 40 76 76 40 40 40 
114 114 114 114 114 114 114 167 167 114 167 167 167 114 114 114 167 167 167 114 114 167 114 114 114 114 114 114 114 114 114 114 114 76 76 76 40 40 40 40 40 40 40 40 40 40 40 40 40 40 40 40 40 40 40 40 40 40 40 40 40 40 40 40 40 40 40 40 40 40 40 40 40 40 40 40 40 40 40 76 76 40 40 40 40 40 40 40 40 40 40 40 40 40 40 76 76 40 40 40 40 40 40 40 40 76 76 76 76 76 40 40 40 40 40 40 40 40 40 40 40 40 40 40 40 114 76 76 76 40 76 76 114 114 114 76 76 76 76 76 114 114 76 76 114 114 114 76 40 76 114 76 40 40 40 167 167 114 40 40 40 114 167 114 40 40 40 40 40 40 40 40 40 40 40 40 76 40 40 40 40 40 40 40 40 40 40 40 40 40 40 40 40 40 40 40 40 40 40 40 40 40 40 40 40 40 40 40 40 40 40 40 40 40 40 40 40 40 76 76 76 76 76 76 76 76 76 76 40 40 40 40 40 40 40 76 76 76 76 76 76 76 76 76 114 114 114 114 114 114 114 114 114 114 114 114 114 114 114 114 114 114 114 114 114 114 114 114 114 114 114 114 114 114 114 114 114 114 114 114 114 114 114 114 114 114 114 114 114 114 114 114 114 114 114 114 114 167 114 114 114 114 114 114 167 114 114 167 167 167 167 167 167 167 167 167 167 167 167 167 167 167 167 167 167 167 167 167 167 167 167 167 167 167 167 167 167 167 167 167 167 167 167 167 167 167 167 167 167 167 167 167 167 167 167 167 167 167 167 167 167 167 167 167 114 40 40 40 40 40 40 40 40 40 40 40 40 40 40 40 40 40 40 40 40 40 114 114 114 114 114 114 114 114 114 114 114 114 114 114 114 114 114 114 114 114 114 114 114 114 114 114 114 114 114 114 114 114 114 114 114 114 114 114 114 114 114 114 114 114 114 114 114 114 114 114 114 114 114 76 76 76 76 76 76 76 76 76 76 76 76 76 76 76 76 76 114 114 114 114 114 114 114 114 114 114 114 114 114 167 167 167 167 167 167 167 167 167 167 167 167 167 167 167 167 167 167 167 167 167 167 167 167 114 114 114 76 76 40 40 40 40 40 40 40 40 40 76 76 40 40 40 
114 114 114 114 167 114 114 167 167 114 114 167 114 114 114 114 167 167 167 114 114 167 114 114 114 114 114 114 114 114 114 167 114 76 76 76 40 40 40 40 40 40 40 40 40 40 40 40 40 40 40 40 40 40 40 40 40 40 40 40 40 40 40 40 40 40 40 40 40 40 40 40 40 40 40 40 40 40 40 76 76 76 40 40 40 40 40 40 40 40 40 40 40 40 40 76 76 40 40 40 40 40 40 40 40 76 40 76 40 76 40 40 40 40 40 40 40 40 40 40 40 40 76 40 40 76 76 76 76 40 76 76 76 114 76 76 76 76 76 76 114 76 76 114 114 114 114 114 76 114 76 40 40 40 40 76 167 114 76 40 40 76 167 167 40 40 40 40 40 40 40 40 40 40 40 40 76 40 40 40 40 40 40 40 40 40 40 40 40 40 40 40 40 40 40 40 40 40 40 40 40 40 40 40 40 40 40 40 40 40 40 40 40 40 40 40 40 40 76 76 76 76 76 76 76 76 76 76 40 40 40 40 40 40 40 40 76 76 76 76 76 76 76 114 114 114 114 114 114 114 114 114 114 114 114 114 114 114 114 114 114 114 114 114 114 114 114 114 114 114 114 114 114 114 114 114 114 114 114 114 114 114 114 114 114 114 114 114 114 114 114 114 114 114 114 114 114 114 114 114 114 114 114 114 167 167 167 167 167 167 167 167 167 167 167 114 167 167 167 167 167 167 167 167 167 167 167 167 167 167 167 167 167 167 167 167 167 167 167 167 167 167 167 167 167 167 167 167 167 167 167 167 167 167 167 167 167 167 167 167 167 167 167 167 167 76 40 40 40 40 40 40 40 40 40 40 40 40 40 40 40 40 40 40 40 40 114 114 114 114 114 76 114 114 114 114 114 114 114 114 114 114 114 114 114 114 114 114 114 114 114 114 114 114 114 114 114 114 114 114 114 114 114 114 114 114 114 114 76 114 76 114 114 114 114 114 114 114 114 76 76 76 76 76 76 76 76 76 76 114 76 76 76 76 76 114 76 114 114 114 114 114 114 114 114 114 114 114 167 167 167 167 167 167 167 167 167 167 167 167 167 167 167 167 167 167 167 167 167 167 167 167 167 114 114 114 76 76 40 40 40 40 40 40 40 76 76 76 76 40 40 40 
114 114 114 167 167 167 167 167 167 167 114 114 114 114 167 167 114 167 167 114 114 114 114 114 114 114 114 114 114 114 114 167 76 76 76 76 40 40 76 40 40 40 40 40 40 40 40 40 40 40 40 40 40 40 40 40 40 40 40 40 40 40 40 40 40 40 40 40 40 40 40 40 40 40 40 40 40 40 76 76 76 76 40 40 40 40 40 40 40 40 40 40 40 40 40 40 76 40 40 40 40 40 40 40 40 76 40 40 40 76 76 40 40 40 40 40 76 40 40 40 40 40 40 40 40 76 76 76 76 40 76 76 76 40 76 76 76 76 76 76 114 76 76 114 114 167 114 114 114 76 76 76 40 40 40 40 114 167 114 40 40 76 167 167 40 40 40 40 40 40 40 40 40 40 40 40 40 40 40 40 40 40 40 40 40 40 40 40 40 40 40 40 40 40 40 40 40 40 40 40 40 40 40 40 40 40 40 40 40 40 40 40 40 40 40 40 40 76 76 76 76 76 114 76 76 76 76 76 40 40 40 40 40 40 40 76 76 76 76 76 76 76 114 114 114 114 114 114 114 114 114 114 114 114 114 114 114 114 114 114 114 114 114 114 114 114 114 114 114 114 114 114 114 114 114 114 114 114 114 114 114 114 114 114 114 114 114 114 114 114 114 114 114 114 114 114 114 114 114 114 114 114 114 114 114 114 114 167 167 167 167 167 167 167 167 114 167 167 167 167 167 167 167 167 167 167 167 167 167 167 167 167 167 167 167 167 167 167 167 167 167 167 167 167 167 167 167 167 167 167 167 167 167 167 167 167 167 167 167 167 167 167 167 167 167 114 76 40 40 40 40 40 40 40 40 40 40 40 40 40 40 40 40 40 40 40 114 114 114 114 114 76 114 114 114 114 114 114 114 114 114 114 114 114 114 114 114 114 114 114 114 114 114 114 114 114 114 114 114 114 114 114 114 114 114 114 114 114 114 114 114 114 76 114 76 76 114 114 114 114 114 114 114 76 76 76 76 76 76 76 76 76 76 76 76 76 76 76 114 114 114 114 114 114 114 114 114 114 167 167 167 167 167 167 167 167 167 167 167 167 167 167 167 167 167 167 167 167 167 167 167 167 167 114 114 76 76 40 40 40 40 40 40 76 76 76 76 76 40 40 76 76 
114 114 114 114 114 114 167 114 167 167 167 114 114 114 167 167 114 114 167 114 167 114 114 114 114 114 114 114 114 114 114 167 114 76 76 114 76 40 40 40 40 40 40 40 40 40 40 40 40 40 40 40 40 40 40 40 40 40 40 40 40 40 40 40 40 40 40 40 40 40 40 40 40 40 40 40 40 40 76 76 76 76 40 40 40 40 40 40 40 40 40 40 40 40 40 40 76 76 40 40 40 40 40 40 40 76 40 40 40 76 76 40 40 40 40 40 76 40 40 40 40 40 40 40 76 76 76 76 40 40 76 76 76 76 76 76 76 76 76 76 114 76 76 114 114 114 114 114 114 114 76 40 40 40 40 40 167 114 167 40 40 76 167 167 76 40 40 40 40 40 40 40 40 40 40 40 76 40 40 40 40 40 40 40 40 40 40 40 40 40 40 40 40 40 40 40 40 40 40 40 40 40 40 40 40 40 40 40 40 40 40 40 40 40 40 40 40 76 76 76 76 76 76 76 76 76 76 40 40 40 40 40 40 40 40 40 76 76 76 76 76 76 114 114 114 114 114 114 114 114 114 114 114 114 114 114 114 114 114 114 114 114 114 114 114 114 114 114 114 114 114 114 114 114 114 114 114 114 114 114 114 114 114 114 114 114 114 114 114 114 114 114 114 114 114 114 114 114 114 114 114 114 114 114 114 114 114 114 114 167 167 167 167 167 167 167 167 167 167 167 167 167 167 167 167 167 167 167 167 167 167 167 167 167 167 167 167 167 167 167 167 167 167 167 167 167 167 167 167 167 167 167 167 167 167 167 167 167 167 167 167 167 167 167 167 167 40 40 40 40 40 40 40 40 40 40 40 40 40 40 40 40 40 40 40 76 114 114 114 114 114 76 114 114 114 114 114 114 114 114 114 114 114 114 114 114 114 114 114 114 114 114 114 114 114 114 114 114 114 114 114 114 114 114 114 114 114 114 114 114 114 114 76 114 76 76 114 114 76 114 114 114 114 76 76 76 76 76 76 76 76 76 76 76 76 76 76 76 114 114 114 114 114 114 114 114 114 114 167 167 167 167 167 167 167 167 167 167 167 167 167 167 167 167 167 167 167 167 167 167 167 167 114 114 114 76 76 76 40 40 40 40 40 40 40 76 76 76 76 76 76 76 
114 114 114 114 114 114 114 114 167 167 167 167 114 167 167 114 167 114 114 114 167 167 114 114 114 114 114 114 114 114 114 114 114 114 76 76 76 114 76 40 114 114 40 40 40 40 40 40 40 40 40 40 40 40 40 40 40 40 40 40 40 40 40 40 40 40 40 40 40 40 40 40 40 40 40 40 40 40 40 76 76 76 40 40 40 40 40 40 40 40 40 40 40 40 40 40 76 76 40 40 40 40 40 40 76 40 40 40 76 40 40 40 40 40 76 76 76 40 40 40 76 76 76 76 76 76 76 40 40 40 40 76 76 76 76 40 40 76 76 114 114 76 76 76 114 114 114 167 76 114 76 76 40 76 40 40 76 167 114 40 40 114 167 114 167 40 76 40 40 40 40 40 40 40 40 40 40 40 40 40 40 40 40 40 40 40 40 40 40 40 40 40 40 40 40 40 40 40 40 40 40 40 40 40 40 40 40 40 40 40 40 40 40 40 40 40 40 76 76 76 76 76 76 76 114 76 76 40 76 40 40 40 40 40 40 40 40 76 76 76 114 76 76 114 114 114 114 114 114 114 114 114 114 114 114 114 114 114 114 114 114 114 114 114 114 114 114 114 114 114 114 114 114 114 114 114 114 114 114 114 114 114 114 114 114 114 114 114 114 114 114 114 114 114 114 114 114 114 114 114 114 114 114 114 114 167 167 114 114 167 167 114 167 167 167 167 167 167 167 167 167 167 167 167 167 167 167 167 167 167 167 167 167 167 167 167 167 167 167 167 167 167 167 167 167 167 167 167 167 167 167 167 167 167 167 167 167 167 167 167 167 167 167 167 167 167 167 76 40 40 40 40 40 40 40 40 40 40 40 40 40 40 40 40 40 76 114 114 114 114 114 114 114 114 114 114 114 114 114 114 114 114 114 114 114 114 114 114 114 114 114 114 114 114 114 114 114 114 114 114 114 76 114 114 114 114 114 114 114 114 114 114 114 114 114 114 114 114 114 114 114 114 114 114 76 76 76 114 76 76 76 76 76 76 76 76 114 114 114 114 114 114 114 114 114 114 114 114 167 167 167 167 167 167 167 167 167 167 167 167 167 167 167 167 167 167 167 167 167 167 167 167 114 114 114 114 76 76 40 40 40 40 76 76 76 76 76 76 76 40 40 76 
114 114 114 114 114 114 167 167 167 167 167 167 114 167 114 114 114 114 114 167 167 167 114 114 114 114 114 114 114 114 114 114 114 114 76 114 114 40 40 114 76 40 40 40 40 40 40 40 40 40 40 40 40 40 40 40 40 40 76 40 40 40 40 40 40 40 40 40 40 40 40 40 40 40 40 40 40 40 40 76 76 76 40 40 40 40 40 40 40 40 40 40 40 40 40 40 40 76 40 76 40 40 40 40 40 40 40 76 40 40 40 40 40 40 76 76 40 40 40 76 76 40 76 76 76 76 40 40 40 40 40 76 76 76 40 40 76 76 114 76 76 76 76 76 114 114 114 114 114 76 76 76 40 40 40 40 40 114 76 114 76 40 114 167 167 40 76 40 40 40 40 40 40 40 40 40 40 40 40 40 40 40 40 40 40 40 40 40 40 40 40 40 40 40 40 40 40 40 40 40 40 40 40 40 40 40 40 40 40 40 40 40 40 40 40 40 40 40 76 76 76 76 76 76 76 76 76 76 40 40 40 40 40 40 40 76 76 76 76 114 76 76 114 114 114 114 114 114 114 114 114 114 114 114 114 114 114 114 114 114 114 114 114 114 114 114 114 114 114 114 114 114 114 114 114 114 114 114 114 114 114 114 114 114 114 114 114 114 114 114 114 114 114 114 114 114 114 114 114 114 114 114 114 114 167 167 114 167 114 167 167 167 167 167 167 167 167 167 167 167 167 167 167 167 167 167 167 167 167 167 167 167 167 167 167 167 167 167 167 167 167 167 167 167 167 167 167 167 167 167 167 167 167 167 167 167 167 167 167 167 167 167 167 167 167 167 167 167 76 76 40 40 40 40 40 40 40 40 40 40 40 40 40 40 40 114 114 114 114 114 76 114 114 114 114 114 114 114 114 114 114 114 114 114 114 114 114 114 114 114 114 114 114 114 114 114 114 114 114 114 114 114 114 114 114 76 114 114 114 114 114 114 114 114 114 114 114 114 114 114 76 114 76 76 76 76 76 76 76 76 76 76 76 76 76 76 114 114 114 114 114 114 167 167 114 167 114 167 167 167 167 167 167 167 167 167 167 167 167 167 167 167 167 167 167 167 167 167 167 167 114 114 114 114 114 76 76 40 40 76 76 76 76 76 76 76 40 76 40 40 40 76 
114 114 114 114 114 114 167 167 167 167 167 114 114 114 114 114 114 167 167 167 167 114 114 114 114 114 114 114 114 114 76 114 114 114 114 114 40 40 114 76 40 40 40 40 40 40 40 40 40 40 40 40 40 40 40 40 40 40 40 40 40 40 40 40 40 40 40 40 40 40 40 40 40 40 40 40 40 40 40 76 76 76 40 40 40 40 40 40 40 40 40 40 40 40 40 40 40 40 40 76 76 40 40 40 40 40 40 76 40 40 40 40 76 76 76 40 40 40 76 76 40 76 40 40 40 40 40 40 40 40 76 76 76 76 40 76 114 114 114 76 40 76 76 76 114 114 114 114 76 76 76 76 76 40 40 40 40 40 114 76 40 114 114 167 167 76 76 40 40 40 40 40 40 40 40 40 40 40 40 40 40 40 40 40 40 40 40 40 40 40 40 40 40 40 40 40 40 40 40 40 40 40 40 40 40 40 40 40 40 40 40 40 40 40 40 40 76 76 76 76 76 76 76 76 76 76 76 76 40 40 40 40 40 40 40 76 76 76 76 76 76 76 114 114 114 114 114 114 114 114 114 114 114 114 114 114 114 114 114 114 114 114 114 114 114 114 114 114 114 114 114 114 114 114 114 114 114 114 114 114 114 114 114 114 114 114 114 114 114 114 114 114 114 114 114 114 114 114 114 114 114 114 114 167 114 167 114 167 114 167 167 167 167 167 167 167 167 167 167 167 167 167 167 167 167 167 167 167 167 167 167 167 167 167 167 167 167 167 167 167 167 167 167 167 167 167 167 167 167 167 167 167 167 167 167 167 167 167 167 167 167 167 167 167 167 167 167 167 76 76 40 40 40 40 40 40 40 40 40 40 40 40 40 40 40 76 114 114 114 114 76 114 114 114 114 114 114 114 114 114 114 114 114 114 114 114 114 114 114 114 114 114 114 114 114 114 114 114 114 114 114 114 76 114 114 114 114 114 114 114 114 114 76 114 114 114 114 76 114 76 114 114 76 76 76 76 76 76 76 76 76 76 76 76 114 114 114 114 114 114 114 167 167 167 167 167 167 167 167 167 167 167 167 167 167 167 167 167 167 167 167 167 167 167 167 167 167 167 167 167 114 114 114 76 76 76 76 76 40 40 76 76 40 76 76 76 76 40 40 76 76 76 
114 114 114 114 114 114 114 114 167 167 167 114 114 114 114 114 167 167 167 167 167 114 114 114 114 114 114 114 114 114 76 76 114 114 114 114 76 40 114 76 40 40 40 40 40 40 40 40 40 40 40 40 40 40 40 40 40 40 40 40 40 40 40 40 40 40 40 40 40 40 40 40 40 40 40 40 40 40 76 76 76 40 40 40 40 40 40 40 40 40 40 40 40 40 40 40 40 40 40 40 76 40 76 40 40 40 76 40 40 40 40 40 40 76 76 76 40 40 76 76 76 76 76 76 76 76 40 40 40 40 76 76 76 40 40 76 114 114 76 76 76 76 114 76 114 114 114 76 76 76 76 76 40 40 40 40 40 40 76 114 114 40 114 167 167 114 76 40 40 40 40 40 40 40 40 40 40 40 40 40 40 40 40 40 40 40 40 40 40 40 40 40 40 40 40 40 40 40 40 40 40 40 40 40 40 40 40 40 40 40 40 40 40 40 40 40 76 76 76 76 76 76 76 76 76 76 76 76 40 40 40 40 40 40 40 76 76 76 76 76 76 76 114 114 114 114 114 114 114 114 114 114 114 114 114 114 114 114 114 114 114 114 114 114 114 114 114 114 114 114 114 114 114 114 114 114 114 114 114 114 114 114 114 114 114 114 114 114 114 114 114 114 114 114 114 114 114 114 114 114 114 114 114 114 114 114 114 167 167 167 167 167 167 167 167 167 167 167 167 167 167 167 167 167 167 167 167 167 167 167 167 167 167 167 167 167 167 167 167 167 167 167 167 167 167 167 167 167 167 167 167 167 167 167 167 167 167 167 167 167 167 167 167 167 167 167 167 167 167 76 40 40 40 40 40 40 40 40 40 40 40 40 40 40 40 114 114 114 114 114 114 114 114 114 114 114 114 114 114 114 114 114 114 114 114 114 114 114 114 114 114 114 114 114 114 114 114 114 114 76 114 114 114 114 76 114 114 114 114 114 114 76 76 114 76 114 114 76 114 76 114 114 76 76 76 76 76 76 76 76 76 76 76 114 114 114 114 114 114 167 167 167 167 167 167 167 167 167 167 167 167 167 167 167 167 167 167 167 167 167 167 167 167 167 167 167 167 167 167 167 114 114 114 76 76 76 40 40 76 40 76 76 76 76 76 76 76 40 76 76 76 76 
114 114 114 114 114 114 114 114 167 167 167 114 114 114 114 114 114 114 114 114 114 114 114 114 114 114 114 114 114 114 114 76 76 76 167 167 76 40 40 40 40 40 40 40 40 40 40 40 40 40 40 40 40 40 40 40 40 40 40 40 40 40 40 40 40 40 40 40 40 40 40 40 40 40 40 40 40 40 76 114 76 76 40 40 40 40 40 40 40 40 40 40 40 40 40 40 40 40 40 40 76 76 76 40 40 40 40 76 40 40 40 40 40 40 76 40 40 40 40 40 76 76 76 76 76 76 76 76 40 40 40 40 76 76 40 76 76 114 114 76 76 114 114 76 76 114 114 114 40 40 40 76 76 40 40 40 40 76 40 114 114 114 76 167 167 76 40 40 40 40 40 40 40 40 40 40 40 40 40 40 40 40 40 40 40 40 40 40 40 40 40 40 40 40 40 40 40 40 40 40 40 40 40 40 40 40 40 40 40 40 40 40 40 40 40 40 76 76 76 76 76 76 76 76 76 76 76 76 40 40 40 40 40 40 40 76 76 76 76 76 114 76 114 114 114 114 114 114 114 114 114 114 114 114 114 114 114 114 114 114 114 114 114 114 114 114 114 114 114 114 114 114 114 114 114 114 114 114 114 114 114 114 114 114 114 114 114 114 114 114 114 114 114 114 114 114 114 114 114 114 114 114 114 114 114 114 114 114 167 114 167 167 167 167 167 167 167 167 167 167 167 167 167 167 167 167 167 167 167 167 167 167 167 167 167 167 167 167 167 167 167 167 167 167 167 167 167 167 167 167 167 167 167 167 167 167 167 167 167 167 167 167 167 167 167 167 167 167 167 76 40 40 40 40 40 40 40 40 40 40 40 40 40 40 40 76 114 114 114 114 114 114 114 114 114 114 114 114 114 114 114 114 114 114 114 114 114 114 114 114 114 114 114 114 114 114 114 114 114 114 114 114 114 114 114 114 114 114 76 114 114 114 114 76 114 114 114 114 76 114 114 76 114 114 76 76 76 76 76 76 76 76 76 114 114 114 114 114 167 167 167 167 167 167 167 167 167 167 167 167 167 167 167 167 167 167 167 167 167 167 167 167 167 167 167 167 167 167 167 167 114 114 114 76 76 76 76 40 76 40 40 76 76 40 40 40 76 40 76 76 76 76 
114 114 114 114 114 114 167 167 167 167 167 114 114 114 114 114 114 114 114 114 114 114 114 114 114 114 114 114 114 114 114 76 76 40 167 114 40 40 40 40 40 40 40 40 40 40 40 40 40 40 40 40 40 40 40 40 40 40 40 40 40 40 40 40 40 40 40 40 40 40 40 40 40 40 40 40 40 40 76 114 76 40 40 40 40 40 40 114 40 40 40 40 40 40 40 40 40 40 40 40 40 76 76 76 40 40 40 76 40 40 40 40 40 40 40 76 76 76 40 40 76 76 76 76 76 76 76 76 40 40 40 76 76 40 40 40 76 114 114 114 114 114 76 76 76 114 76 114 76 76 40 40 40 40 40 40 40 40 40 76 114 114 114 167 167 76 40 40 40 40 40 40 40 40 40 40 40 40 40 40 40 40 40 40 40 40 40 40 40 40 40 40 40 40 40 40 40 40 40 40 40 40 40 40 40 40 40 40 40 40 40 40 40 40 40 40 76 76 76 76 76 76 76 76 76 76 76 76 40 40 40 40 40 40 76 76 76 76 76 76 114 76 114 114 114 114 114 114 114 114 114 114 114 114 114 114 114 114 114 114 114 114 114 114 114 114 114 114 114 114 114 114 114 114 114 114 114 114 114 114 114 114 114 114 114 114 114 114 114 114 114 114 114 114 114 114 114 114 114 114 114 114 114 114 114 167 114 114 114 114 167 167 167 167 167 167 167 167 167 167 167 167 167 167 167 167 167 167 167 167 167 167 167 167 167 167 167 167 167 167 167 167 167 167 167 167 167 167 167 167 167 167 167 167 167 167 167 167 167 167 167 167 167 167 167 167 167 167 167 114 76 76 40 40 40 40 40 40 40 40 40 40 40 40 76 114 114 114 114 114 114 76 114 114 114 114 114 114 114 114 114 114 114 114 114 114 114 114 114 114 114 114 114 114 114 114 114 114 114 114 114 114 114 114 114 114 114 114 76 114 114 114 114 114 114 114 114 114 76 114 76 76 114 114 76 76 76 114 76 76 76 76 114 114 114 114 167 167 167 167 167 167 167 167 167 167 167 167 167 167 167 167 167 167 167 167 167 167 167 167 167 167 167 167 167 167 167 167 167 167 114 114 76 76 76 76 76 76 76 76 76 76 76 76 40 40 76 40 76 76 76 76 
114 114 114 114 114 114 167 167 167 167 167 167 167 114 114 114 167 167 167 167 167 114 114 114 114 114 114 114 114 114 114 76 76 40 76 76 40 40 40 40 40 40 40 40 40 40 40 40 40 40 40 40 40 40 40 40 40 40 40 40 40 40 40 40 40 40 40 40 40 40 40 40 40 40 40 40 40 40 76 114 76 40 40 40 40 40 40 76 40 40 40 40 40 40 40 40 40 40 40 40 40 40 76 76 76 76 76 76 76 40 40 40 40 40 40 76 76 76 76 40 76 76 76 76 76 76 76 76 40 40 40 40 76 40 40 40 76 76 114 114 114 114 114 114 76 114 114 114 76 40 40 40 40 76 40 40 40 40 40 76 114 114 114 167 114 40 76 40 40 40 40 40 40 40 40 40 40 40 40 40 40 40 76 40 40 40 40 40 40 40 40 40 40 40 40 40 40 40 40 40 40 40 40 40 40 40 40 40 40 40 40 40 40 40 40 76 76 76 76 76 76 76 76 76 76 76 76 76 40 40 40 40 40 40 76 76 76 76 76 76 76 114 114 114 114 114 114 114 114 114 114 114 114 114 114 114 114 114 114 114 114 114 114 114 114 114 114 114 114 114 114 114 114 114 114 114 114 114 114 114 114 114 114 114 114 114 114 114 114 114 114 114 114 114 114 114 114 114 114 114 114 114 114 114 114 167 114 114 167 114 114 167 167 167 167 167 167 167 167 167 167 167 167 167 167 167 167 167 167 167 167 167 167 167 167 167 167 167 167 167 167 167 167 167 167 167 167 167 167 167 167 167 167 167 167 167 167 167 167 167 167 167 167 167 167 167 167 167 167 167 40 40 40 40 40 40 40 40 40 40 40 40 40 40 76 114 114 114 114 114 114 76 114 114 114 114 114 114 114 114 114 114 114 114 114 114 114 114 114 114 114 114 114 114 114 114 114 114 114 114 114 76 114 114 114 114 114 114 114 114 76 114 76 114 114 114 114 76 76 76 114 76 76 76 76 76 76 76 76 76 76 76 114 114 114 114 167 167 167 167 167 167 167 167 167 167 167 167 167 167 167 167 167 167 167 167 167 167 167 167 167 167 167 167 167 167 167 167 167 114 114 114 76 76 76 76 76 76 76 76 76 76 40 76 76 76 76 76 76 76 76 76 
114 114 114 114 114 167 167 167 167 167 167 167 167 114 114 114 167 167 167 167 167 114 114 114 114 114 114 114 114 114 114 76 76 40 40 40 76 76 76 40 40 40 40 40 40 40 40 40 40 40 40 40 40 40 40 40 40 40 40 40 40 40 40 40 40 40 40 40 40 40 40 40 40 40 40 40 40 76 76 76 76 40 40 40 40 40 40 114 40 40 40 40 40 40 40 40 40 40 40 40 40 40 40 76 76 76 76 76 76 40 40 40 40 40 40 40 40 76 76 40 40 76 76 76 76 40 40 76 40 40 40 40 76 40 40 40 76 76 114 114 114 114 114 114 114 114 114 114 114 76 40 40 40 40 40 40 40 40 40 114 114 114 114 167 114 40 76 40 40 40 40 40 40 40 40 40 40 40 40 40 40 76 76 40 40 40 40 40 40 40 40 40 40 40 40 40 40 40 40 40 40 40 40 40 40 40 40 40 40 40 40 40 40 40 40 76 76 76 76 76 76 76 76 76 76 76 76 76 76 76 40 40 40 40 40 76 76 76 76 76 76 114 114 114 114 114 114 114 114 114 114 114 114 114 114 114 114 114 114 114 114 114 114 114 114 114 114 114 114 114 114 114 114 114 114 114 114 114 114 114 114 114 114 114 114 114 114 114 114 114 114 114 114 114 114 114 114 114 114 114 114 114 114 114 114 114 114 114 167 114 114 167 114 167 167 167 167 167 167 167 167 167 167 167 167 167 167 167 167 167 167 167 167 167 167 167 167 167 167 167 167 167 167 167 167 167 167 167 167 167 167 167 167 167 167 167 167 167 167 167 167 167 167 167 167 167 167 167 167 167 114 76 76 40 40 40 40 40 40 40 40 40 40 40 76 114 114 114 114 114 114 114 114 114 114 114 114 114 114 114 114 114 114 114 114 114 114 114 114 114 114 114 114 114 114 114 114 114 114 114 114 114 114 114 114 114 114 76 114 114 76 114 76 114 76 114 114 76 76 76 76 76 76 76 76 76 76 76 76 76 76 114 114 114 167 167 167 167 167 167 167 167 167 167 167 167 167 167 167 167 167 167 167 167 167 167 167 167 167 167 167 167 167 167 167 167 167 167 114 114 114 76 76 76 76 40 76 40 40 40 76 76 40 76 76 76 76 76 76 76 76 76 
114 114 114 114 114 114 167 167 167 167 167 167 167 114 114 114 114 167 167 167 114 114 114 114 114 114 114 114 114 114 114 76 76 40 76 76 76 114 76 40 40 40 40 40 40 40 40 40 40 40 40 40 40 40 40 40 40 40 40 40 40 40 40 40 40 40 40 40 40 40 40 40 40 40 40 40 40 76 114 114 76 40 40 40 40 40 40 76 40 40 40 40 40 40 40 40 40 40 40 40 40 40 40 40 40 40 76 40 40 40 40 40 40 76 40 40 40 76 76 76 40 76 76 76 76 40 76 40 40 40 40 40 40 40 40 76 76 76 114 114 114 114 114 114 76 76 114 114 114 76 40 40 40 40 40 40 40 40 40 114 114 114 167 167 76 40 40 40 40 40 40 40 40 40 40 40 40 76 40 40 40 76 76 40 40 40 40 40 40 40 40 40 40 40 40 40 40 40 40 40 40 40 40 40 40 40 40 40 40 40 40 40 40 40 76 76 76 76 76 76 76 76 76 76 76 76 76 76 76 76 40 40 40 40 40 40 76 76 76 76 76 114 114 114 114 114 114 114 114 114 114 114 114 114 114 114 114 114 114 114 114 114 114 114 114 114 114 114 114 114 114 114 114 114 114 114 114 114 114 114 114 114 114 114 114 114 114 114 114 114 114 114 114 114 114 114 114 114 114 114 114 114 114 114 114 114 114 114 167 114 114 114 114 167 167 167 167 167 167 167 167 167 167 167 167 167 167 167 167 167 167 167 167 167 167 167 167 167 167 167 167 167 167 167 167 167 167 167 167 167 167 167 167 167 167 167 167 167 167 167 167 167 167 167 167 167 167 167 167 167 167 76 40 76 40 40 40 40 40 40 40 40 40 40 76 114 114 114 114 114 114 114 114 114 114 114 114 114 114 114 114 114 114 114 114 114 114 114 114 114 114 114 114 114 114 114 114 114 114 114 76 76 114 114 114 114 76 76 76 114 114 114 114 76 114 114 114 114 76 114 76 114 114 76 76 76 76 76 76 76 76 114 114 114 167 167 167 167 167 167 167 167 167 167 167 167 167 167 167 167 167 167 167 167 167 167 167 167 167 167 167 167 167 167 167 167 167 167 114 114 114 76 76 76 76 40 76 76 76 76 76 76 76 76 76 76 76 76 76 76 76 76 
114 114 114 114 167 167 167 167 167 167 167 114 114 167 167 167 167 167 167 167 114 114 114 114 114 114 114 114 114 114 114 76 76 76 40 40 114 114 40 40 40 40 40 40 40 40 40 40 40 40 40 40 40 40 40 40 40 40 40 40 40 40 40 40 40 40 40 40 40 40 40 40 40 40 40 40 40 114 114 76 76 40 40 40 40 40 40 40 40 40 40 40 40 40 40 40 40 40 40 40 40 40 40 40 40 40 40 40 40 40 40 40 40 76 40 40 40 76 76 76 76 40 76 76 40 40 40 76 40 40 76 76 40 40 76 40 76 76 114 76 114 114 76 76 40 76 167 114 114 76 40 40 40 40 40 40 40 40 40 114 167 114 114 167 114 40 40 40 40 40 40 40 40 40 40 40 76 40 40 40 40 40 76 40 40 40 40 40 40 40 40 40 40 40 40 40 40 40 40 40 40 40 40 40 40 40 40 40 40 40 40 40 40 40 40 76 76 76 76 76 76 76 76 76 114 76 76 76 76 40 40 40 40 40 76 76 76 76 76 76 114 114 114 114 114 114 114 114 114 114 114 114 114 114 114 114 114 114 114 114 114 114 114 114 114 114 114 114 114 114 114 114 114 114 114 114 114 114 114 114 114 114 114 114 114 114 114 114 114 114 114 114 114 114 114 114 114 114 114 114 114 114 114 114 114 114 114 114 114 114 114 167 114 167 167 167 167 167 167 167 167 167 167 167 167 167 167 167 167 167 167 167 167 167 167 167 167 167 167 167 167 167 167 167 167 167 167 167 167 167 167 167 167 167 167 167 167 167 167 167 167 167 167 167 167 167 167 167 167 167 167 114 40 40 40 40 40 40 40 40 40 40 40 40 76 114 114 114 114 114 114 114 114 114 114 114 114 114 114 114 114 114 114 114 114 114 114 114 114 114 114 114 114 114 114 114 114 114 114 114 114 114 114 114 114 76 114 114 76 76 114 114 76 114 114 76 76 76 76 114 76 76 76 76 76 76 76 76 76 76 76 114 114 167 167 167 167 167 167 167 167 167 167 167 167 167 167 167 167 167 167 167 167 167 167 167 167 167 167 167 167 167 167 167 167 167 167 114 114 114 76 76 76 76 76 76 76 76 40 40 76 40 40 40 40 76 76 76 76 76 76 76 
114 114 114 114 114 167 167 114 167 114 114 114 167 167 114 114 114 167 167 167 167 167 114 114 114 114 114 114 114 114 114 76 114 114 76 76 114 76 40 40 40 40 40 40 40 40 40 40 40 40 40 40 40 40 40 40 40 40 40 40 40 40 40 40 40 40 40 40 40 40 40 40 40 40 40 40 76 114 114 76 76 40 40 40 40 40 40 40 40 76 40 40 40 40 40 40 40 40 40 40 40 40 40 40 40 40 40 40 40 40 40 40 40 40 76 40 40 40 76 76 76 40 40 76 76 40 40 76 76 40 40 76 40 40 40 76 40 76 76 76 114 114 76 76 76 114 114 114 76 76 76 40 40 40 40 40 40 40 40 114 167 114 114 76 76 40 40 40 40 40 40 40 40 40 40 40 76 40 40 40 40 40 76 40 40 40 40 40 40 40 40 40 40 40 40 40 40 40 40 40 40 40 40 40 40 40 40 40 40 40 40 40 40 40 76 76 76 76 76 76 76 76 76 114 114 76 76 76 76 40 40 40 40 40 76 76 76 76 76 76 114 114 114 114 114 114 114 114 114 114 114 114 114 114 114 114 114 114 114 114 114 114 114 114 114 114 114 114 114 114 114 114 114 114 114 114 114 114 114 114 114 114 114 114 114 114 114 114 114 114 114 114 114 114 114 114 114 114 114 114 114 114 114 114 114 114 114 114 114 114 167 167 114 167 167 167 167 167 167 167 167 167 167 167 167 167 167 167 167 167 167 167 167 167 167 167 167 167 167 167 167 167 167 167 167 167 167 167 167 167 167 167 167 167 167 167 167 167 167 167 167 167 167 167 167 167 167 167 167 167 167 167 40 40 40 40 40 40 40 40 40 40 40 40 114 114 114 114 114 114 114 114 114 114 114 114 114 114 114 114 114 114 114 114 114 114 114 114 114 114 114 114 114 114 114 114 114 114 114 114 114 114 114 114 114 114 114 114 114 114 114 114 114 114 114 76 114 114 76 114 76 76 76 76 114 76 76 76 76 114 114 114 114 167 167 167 167 167 167 167 167 167 167 167 167 167 167 167 167 167 167 167 167 167 167 167 167 167 167 167 167 167 167 167 167 167 167 114 114 114 76 76 76 76 76 76 76 76 76 76 76 76 40 76 76 76 76 76 76 76 76 76 
114 114 114 114 114 114 167 167 167 114 167 167 167 167 114 114 114 114 167 167 167 167 114 114 114 114 114 114 114 114 114 76 114 167 76 76 76 40 40 40 40 40 40 40 40 40 40 40 40 40 40 40 40 40 40 40 40 40 40 40 40 40 40 40 40 40 40 40 40 40 40 40 40 40 40 40 76 114 76 76 76 40 40 40 40 40 40 40 40 76 40 40 40 40 40 40 40 40 40 40 40 40 40 40 40 40 40 40 40 40 40 40 40 40 76 76 40 40 76 76 40 40 40 76 76 76 40 76 76 40 40 76 40 40 40 76 76 76 114 114 114 76 76 76 76 114 114 114 40 40 76 40 40 40 40 40 40 40 40 114 167 114 114 40 40 40 40 40 40 40 40 40 40 40 40 40 40 40 40 40 40 40 40 40 40 40 40 40 40 40 40 40 40 40 40 40 40 40 40 40 40 40 40 40 40 40 40 40 40 40 40 40 40 76 76 76 76 76 76 76 76 76 114 76 76 76 76 76 76 40 40 40 40 40 76 76 76 76 76 76 114 114 114 114 114 114 114 114 114 114 114 114 114 114 114 114 114 114 114 114 114 114 114 114 114 114 114 114 114 114 114 114 114 114 114 114 114 114 114 114 114 114 114 114 114 114 114 114 114 114 114 114 114 114 114 114 114 114 114 114 114 114 114 114 114 114 114 114 114 114 167 167 114 114 114 167 167 167 167 167 167 167 167 167 167 167 167 167 167 167 167 167 167 167 167 167 167 167 167 167 167 167 167 167 167 167 167 167 167 167 167 167 167 167 167 167 167 167 167 167 167 167 167 167 167 167 167 167 167 167 167 167 76 40 40 40 40 40 40 40 40 40 40 40 114 114 114 114 114 114 114 114 114 114 114 114 114 114 114 114 114 114 114 114 114 114 114 114 114 114 114 114 114 114 114 114 114 114 114 76 76 114 114 114 114 114 114 114 114 114 114 76 114 114 76 76 114 114 76 114 76 76 76 76 76 76 76 76 76 76 114 114 167 167 167 167 167 167 167 167 167 167 167 167 167 167 167 167 167 167 167 167 167 167 167 167 167 167 167 167 167 167 167 167 167 167 167 114 114 114 76 76 76 76 76 76 76 76 40 76 76 76 76 76 76 76 76 76 76 76 76 76 
114 114 114 114 114 167 167 167 167 114 167 114 114 167 114 167 114 114 167 167 114 114 114 114 114 114 114 114 114 114 114 76 167 167 76 76 76 40 40 40 40 40 40 40 40 40 40 40 40 40 40 40 40 40 40 40 40 40 40 40 40 40 40 40 40 40 40 40 40 40 40 40 40 40 40 40 76 114 76 76 76 40 40 40 40 40 40 40 40 40 40 40 40 40 40 40 40 40 40 40 40 40 40 40 40 40 40 40 40 40 40 40 40 40 76 76 40 40 40 76 40 40 76 76 76 76 76 40 76 76 40 40 40 40 40 76 76 114 114 114 114 76 76 76 114 114 114 114 76 76 76 76 40 40 40 40 40 40 40 114 114 114 114 40 40 40 40 40 40 40 40 40 40 40 40 40 40 40 40 40 40 40 40 40 40 40 40 40 40 40 40 40 40 40 40 40 40 40 40 40 40 40 40 40 40 40 40 40 40 40 40 40 40 40 76 76 76 76 76 76 76 114 114 76 76 76 76 76 76 76 40 40 40 40 76 76 76 76 76 76 114 114 114 114 114 114 114 114 114 114 114 114 114 114 114 114 114 114 114 114 114 114 114 114 114 114 114 114 114 114 114 114 114 114 114 114 114 114 114 114 114 114 114 114 114 114 114 114 114 114 114 114 114 114 114 114 114 114 114 114 114 114 114 114 114 114 114 114 114 114 114 114 114 167 114 114 167 167 167 167 167 167 167 167 167 167 167 167 167 167 167 167 167 167 167 167 167 167 167 167 167 167 167 167 167 167 167 167 167 167 167 167 167 167 167 167 167 167 167 167 167 167 167 167 167 167 167 167 167 167 167 167 114 40 40 40 40 40 40 40 40 40 40 40 114 114 114 114 114 114 114 114 114 114 114 114 114 114 114 114 114 114 114 114 114 114 114 114 114 114 114 114 114 114 114 114 114 114 114 114 114 114 114 114 114 114 114 114 76 114 76 76 114 76 76 76 114 76 114 76 76 76 76 76 76 76 76 76 76 76 114 114 167 167 167 167 167 167 167 167 167 167 167 167 167 167 167 167 167 167 167 167 167 167 167 167 167 167 167 167 167 167 167 167 167 167 114 114 114 76 76 76 76 76 76 76 76 76 76 76 76 76 76 76 76 76 76 76 76 76 76 76 
114 114 114 114 114 114 114 114 167 114 167 114 114 167 114 114 114 167 167 114 114 114 114 114 114 114 114 114 114 114 114 76 114 114 76 76 76 40 40 40 40 40 40 40 40 40 40 40 40 40 40 40 40 40 40 40 40 40 40 40 40 40 40 40 40 40 40 40 40 40 40 40 40 40 40 76 76 76 76 76 40 40 40 40 40 40 40 40 40 40 40 40 40 40 40 40 40 40 40 40 40 40 40 40 40 40 40 40 40 40 40 40 40 40 40 76 40 40 40 76 40 40 76 76 76 76 76 40 40 40 76 40 40 40 40 76 76 114 114 114 76 76 76 76 76 114 114 76 114 76 114 167 76 76 40 40 40 40 40 114 114 114 76 40 40 114 114 40 40 40 40 40 40 40 40 40 40 40 40 40 40 40 40 40 40 40 40 40 40 40 40 40 40 40 40 40 40 40 40 40 40 40 40 40 40 40 40 40 40 40 40 40 40 76 76 76 76 76 76 76 76 114 114 76 76 114 76 76 76 40 40 40 40 76 76 76 76 76 76 76 114 114 114 114 114 114 114 114 114 114 114 114 114 114 114 114 114 114 114 114 114 114 114 114 114 114 114 114 114 114 114 114 114 114 114 114 114 114 114 114 114 114 114 114 114 114 114 114 114 114 114 114 114 114 114 114 114 114 114 114 114 114 114 114 114 114 114 114 114 114 114 114 167 167 114 114 167 167 167 167 167 167 167 167 167 167 167 167 167 167 167 167 167 167 167 167 167 167 167 167 167 167 167 167 167 167 167 167 167 167 167 167 167 167 167 167 167 167 167 167 167 167 167 167 167 167 167 167 167 167 167 167 167 76 40 40 40 40 40 40 40 40 40 76 114 114 114 114 114 114 114 114 114 114 114 114 114 114 114 114 114 114 114 114 114 114 114 114 114 114 114 114 114 114 114 114 114 114 114 114 114 114 114 114 76 114 114 76 76 114 114 114 114 76 76 76 76 76 114 76 76 76 114 76 114 76 76 76 76 76 114 114 167 167 167 167 167 167 167 167 167 167 167 167 167 167 167 167 167 167 167 167 167 167 167 167 167 167 167 167 167 167 167 167 167 114 114 114 114 76 76 76 76 76 76 76 76 76 76 76 76 76 76 76 76 76 76 76 76 76 76 76 
114 114 114 114 114 114 167 167 167 114 167 114 114 167 114 114 114 167 167 167 114 114 114 114 114 114 114 114 114 114 114 76 114 114 76 40 76 40 40 40 40 40 40 40 40 40 40 40 40 40 40 40 40 40 40 40 40 40 40 40 40 40 40 40 40 40 40 40 40 40 40 40 40 40 76 76 76 76 76 76 40 40 40 40 40 40 40 40 40 40 40 40 40 40 40 40 40 40 40 40 40 40 40 40 40 40 40 40 40 40 40 40 40 40 40 40 40 40 40 76 40 40 76 76 76 76 76 40 40 40 40 40 40 40 40 40 40 114 114 76 76 114 76 114 114 114 114 40 40 40 114 114 114 76 76 76 40 40 76 114 114 76 40 40 76 167 167 76 40 40 40 40 40 40 40 40 40 40 40 40 40 40 40 40 40 40 40 40 40 40 40 40 40 40 40 40 40 40 40 40 40 40 40 40 40 40 40 40 40 40 40 40 76 76 76 76 76 76 76 76 76 76 114 114 76 76 76 76 76 76 40 40 40 40 76 76 76 76 76 76 76 114 114 114 114 114 114 114 114 114 114 114 114 114 114 114 114 114 114 114 114 114 114 114 114 114 114 114 114 114 114 114 114 114 114 114 114 114 114 114 114 114 114 114 114 114 114 114 114 114 114 114 114 114 114 114 114 114 114 114 114 114 114 114 114 114 114 114 114 114 114 114 167 167 114 114 167 167 167 167 167 167 167 167 167 167 167 167 167 167 167 167 167 167 167 167 167 167 167 167 167 167 167 167 167 167 167 167 167 167 167 167 167 167 167 167 167 167 167 167 167 167 167 167 167 167 167 167 167 167 167 167 167 76 40 40 40 40 40 40 40 40 40 76 114 114 114 114 114 114 114 114 114 114 114 114 114 114 114 114 114 114 114 114 114 114 114 114 114 114 114 114 114 114 114 114 114 114 114 114 114 76 114 114 114 114 114 114 76 114 114 114 114 114 114 114 76 114 76 76 76 76 76 76 76 76 76 76 114 76 114 114 167 167 167 167 167 167 167 167 167 167 167 167 167 167 167 167 167 167 167 167 167 167 167 167 167 167 167 167 167 167 167 167 167 114 114 114 76 76 76 76 76 76 76 76 76 76 76 76 76 76 76 76 76 76 76 76 76 76 76 76 
114 114 114 114 114 167 167 167 167 167 167 114 167 167 167 167 114 167 167 167 167 167 114 114 114 114 114 114 114 114 114 76 114 114 76 40 40 40 40 40 40 40 40 40 40 40 40 40 40 40 40 40 40 40 40 40 40 40 40 40 40 40 40 40 40 40 40 40 40 40 40 40 40 40 114 114 76 76 76 76 76 40 40 40 40 40 40 40 40 40 40 40 40 40 40 40 40 40 40 40 40 40 40 40 40 40 40 40 40 40 40 40 40 40 40 40 40 40 40 76 40 40 76 76 114 76 76 76 40 40 40 40 40 40 40 40 76 114 114 114 114 114 76 114 114 114 114 76 40 40 76 76 114 76 76 114 114 114 114 114 114 114 76 76 114 167 167 76 40 40 40 40 40 40 40 40 40 40 40 40 40 40 40 40 40 40 40 40 40 40 40 40 40 40 40 40 40 40 40 40 40 40 40 40 40 40 40 40 40 40 40 40 76 76 76 114 76 76 76 114 114 114 114 114 76 76 76 76 76 76 40 40 40 40 76 76 76 76 76 114 114 114 114 114 114 114 114 114 114 114 114 114 114 114 114 114 114 114 114 114 114 114 114 114 114 114 114 114 114 114 114 114 114 114 114 114 114 114 114 114 114 114 114 114 114 114 114 114 114 114 114 114 114 114 114 114 114 114 114 114 114 114 114 114 114 114 114 114 114 114 114 167 114 167 114 114 167 167 167 167 167 167 167 167 167 167 167 167 167 167 167 167 167 167 167 167 167 167 167 167 167 167 167 167 167 167 167 167 167 167 167 167 167 167 167 167 167 167 167 167 167 167 167 167 167 167 167 167 167 167 167 167 167 114 40 40 40 40 40 40 40 40 40 76 114 114 114 114 114 114 114 114 114 114 114 114 114 114 114 114 114 114 114 114 114 114 114 114 114 114 114 114 114 114 114 114 114 114 114 114 114 114 114 114 114 114 114 114 114 114 76 114 114 114 114 114 76 114 76 76 76 76 76 76 76 76 76 76 76 76 114 167 167 167 167 167 167 167 167 167 167 167 167 167 167 167 167 167 167 167 167 167 167 167 167 167 167 167 167 167 167 167 167 167 114 114 114 114 76 76 76 76 76 76 76 76 76 76 76 76 76 76 76 76 76 76 76 76 76 76 76 76 
114 114 114 114 114 167 167 167 114 167 114 114 167 114 114 167 114 167 167 167 167 167 114 114 114 114 114 114 114 114 114 76 114 114 76 76 40 40 40 40 40 40 40 40 40 40 40 40 40 40 40 40 40 40 40 40 40 40 40 40 40 40 40 40 40 40 40 40 40 40 40 40 40 76 114 76 76 76 76 76 40 40 40 40 40 40 40 40 40 40 40 40 40 40 40 40 40 40 40 40 40 40 40 40 40 40 40 40 40 40 40 40 40 40 40 40 40 40 40 40 40 40 40 76 114 114 76 76 40 40 40 40 40 40 40 40 76 114 114 76 114 76 76 114 114 114 114 114 40 40 40 114 114 76 40 40 76 114 114 114 114 114 76 114 167 167 114 76 40 40 40 40 40 40 40 40 40 40 40 40 40 40 40 40 40 40 40 40 40 40 40 40 40 40 40 40 40 40 40 40 40 40 40 40 40 40 40 40 40 40 40 40 76 76 76 114 76 76 114 114 114 76 76 76 114 76 76 76 76 40 40 40 40 40 76 76 76 76 76 114 76 114 114 114 114 114 114 114 114 114 114 114 114 114 114 114 114 114 114 114 114 114 114 114 114 114 114 114 114 114 114 114 114 114 114 114 114 114 114 114 114 114 114 114 114 114 114 114 114 114 114 114 114 114 114 114 114 114 114 114 114 114 114 114 114 114 114 114 114 114 114 114 114 114 114 114 167 167 167 167 167 167 167 167 167 167 167 167 167 167 167 167 167 167 167 167 167 167 167 167 167 167 167 167 167 167 167 167 167 167 167 167 167 167 167 167 167 167 167 167 167 167 167 167 167 167 167 167 167 167 167 167 167 167 76 40 40 40 40 40 40 40 40 76 114 76 76 114 114 114 114 114 114 114 114 114 114 114 114 114 114 114 114 114 114 114 114 114 114 114 114 114 114 114 114 114 114 114 114 114 114 114 114 114 114 114 114 114 114 114 76 76 76 76 114 114 76 76 114 76 76 114 76 76 114 76 76 76 76 76 114 167 167 167 167 167 167 167 167 167 167 167 167 167 167 167 167 167 167 167 167 167 167 167 167 167 167 167 167 167 167 167 167 167 114 114 114 114 76 76 76 76 76 76 76 76 76 76 76 76 76 76 76 76 76 76 76 76 76 76 76 76 
114 114 114 114 167 167 167 167 167 114 114 167 114 114 167 167 167 114 114 114 167 167 114 114 114 114 114 114 114 114 114 76 76 114 114 76 40 40 40 40 40 40 40 40 40 40 40 40 40 40 40 40 40 40 40 40 40 40 40 40 40 40 40 40 40 40 40 40 40 40 40 40 76 114 76 76 40 76 76 40 40 40 40 40 40 40 40 40 40 40 40 40 40 40 40 40 40 40 40 40 40 40 40 40 40 40 40 40 40 40 40 40 40 40 40 40 40 40 40 40 40 40 40 40 76 114 114 76 76 40 40 40 40 76 40 40 76 114 114 76 114 76 114 114 76 114 114 114 114 40 40 76 114 76 40 40 40 114 114 114 114 76 76 114 114 114 76 40 40 40 40 40 40 40 40 40 40 40 40 40 40 40 40 40 40 40 40 40 40 40 40 40 40 40 40 40 40 40 40 40 40 40 40 40 40 40 40 40 40 40 40 76 76 76 76 114 76 76 114 114 76 76 76 76 76 76 76 76 76 40 40 40 40 76 76 76 76 76 114 114 76 114 114 114 114 114 114 114 114 114 114 114 114 114 114 114 114 114 114 114 114 114 114 114 114 114 114 114 114 114 114 114 114 114 114 114 114 114 114 114 114 114 114 114 114 114 114 114 114 114 114 114 114 114 114 114 114 114 114 114 114 114 114 114 114 114 114 114 114 114 114 114 167 114 114 114 114 167 167 167 167 167 167 167 167 167 167 167 167 167 167 167 167 167 167 167 167 167 167 167 167 167 167 167 167 167 167 167 167 167 167 167 167 167 167 167 167 167 167 167 167 167 167 167 167 167 167 167 167 167 167 167 167 167 114 40 40 40 40 40 40 40 40 114 114 114 114 114 114 114 114 114 114 114 114 114 114 114 114 114 114 114 114 114 114 114 114 114 114 114 114 114 114 114 114 114 114 114 114 114 114 114 114 114 114 114 114 114 114 114 114 114 114 114 114 76 114 76 76 76 76 76 76 76 76 76 76 114 76 114 114 167 167 167 167 167 167 167 167 167 167 167 167 167 167 167 167 167 167 167 167 167 167 167 167 167 167 167 167 167 167 167 167 167 114 114 114 114 76 76 76 76 76 76 76 76 76 76 76 76 76 76 76 76 76 76 76 76 76 76 76 76 
114 114 114 114 167 167 167 114 167 167 167 167 167 167 167 167 167 167 114 167 167 114 114 114 114 114 114 114 114 114 114 76 76 114 114 76 40 40 40 40 40 40 40 40 40 40 40 40 40 40 40 40 40 40 40 40 40 40 40 40 40 40 40 40 40 40 40 40 40 40 40 40 76 76 76 40 40 76 76 40 40 40 40 40 40 40 40 40 40 40 40 40 40 40 40 40 40 40 40 40 40 40 40 40 40 40 40 40 40 76 40 40 40 40 40 40 40 40 40 40 40 40 40 40 40 76 76 76 76 40 40 40 40 76 76 76 76 114 76 76 76 76 114 114 114 114 114 114 114 114 40 40 76 76 40 76 114 167 114 114 76 40 40 40 40 40 40 40 40 40 40 40 40 40 40 40 40 40 40 40 40 40 40 40 40 40 40 40 40 40 40 40 40 40 40 40 40 40 40 40 40 40 40 40 40 40 40 40 40 40 40 76 76 76 76 114 114 114 114 76 76 76 76 76 76 76 76 76 76 40 40 40 40 76 76 76 76 76 76 76 76 114 114 114 114 114 114 114 114 114 114 114 114 114 114 114 114 114 114 114 114 114 114 114 114 114 114 114 114 114 114 114 114 114 114 114 114 114 114 114 114 114 114 114 114 114 114 114 114 114 114 114 114 114 114 114 114 114 114 114 114 114 114 114 114 114 114 114 114 114 114 114 114 167 114 114 114 114 114 167 167 167 167 167 167 167 167 167 167 167 167 167 167 167 167 167 167 167 167 167 167 167 167 167 167 167 167 167 167 167 167 167 167 167 167 167 167 167 167 167 167 167 167 167 167 167 167 167 167 167 167 167 167 167 114 40 40 40 40 40 40 40 40 114 76 114 114 114 114 114 114 114 114 114 114 114 114 114 114 114 114 114 114 114 114 114 114 114 114 114 114 114 114 114 114 114 114 114 114 114 114 114 114 114 114 114 114 114 114 114 114 114 76 114 114 114 114 76 76 76 76 76 76 76 114 76 76 114 76 114 114 167 167 167 167 167 167 167 167 167 167 167 167 167 167 167 167 167 167 167 167 167 167 167 167 167 167 167 167 167 167 167 114 114 114 114 114 76 76 76 76 76 76 76 76 76 76 76 76 76 76 76 76 76 76 76 76 76 76 76 76 76 
114 114 114 114 114 167 167 167 167 167 167 167 167 167 167 167 167 167 167 167 167 114 114 114 114 114 114 114 114 114 114 76 76 114 76 40 40 40 40 40 40 40 40 40 40 40 40 40 40 40 40 40 40 40 40 40 40 40 40 40 40 40 40 40 40 40 40 40 40 40 76 76 76 76 40 40 40 76 76 40 40 40 40 40 40 40 40 40 40 40 40 40 40 40 40 40 40 40 40 40 40 40 40 40 40 40 40 40 40 40 40 40 40 40 40 40 76 40 40 40 40 40 40 76 76 76 76 76 76 76 40 40 40 76 76 76 76 114 114 76 76 114 114 114 114 76 76 114 114 114 114 114 114 76 76 114 167 167 114 114 76 40 40 40 40 40 40 40 40 40 40 40 40 40 40 40 40 40 40 40 40 40 40 40 40 40 40 40 40 40 40 40 40 40 40 40 40 40 40 40 40 40 40 40 40 40 40 40 40 40 76 76 76 76 114 114 114 114 114 114 76 76 76 76 76 76 76 76 76 40 40 40 40 76 76 76 76 76 76 76 114 114 114 114 114 114 114 114 114 114 114 114 114 114 114 114 114 114 114 114 114 114 114 114 114 114 114 114 114 114 114 114 114 114 114 114 114 114 114 114 114 114 114 114 114 114 114 114 114 114 114 114 114 114 114 114 114 114 114 114 114 114 114 114 114 114 114 114 114 114 114 114 114 114 167 167 114 114 114 167 167 167 167 167 167 167 167 167 167 167 167 167 167 167 167 167 167 167 167 167 167 167 167 167 167 167 167 167 167 167 167 167 167 167 167 167 167 167 167 167 167 167 167 167 167 167 167 167 167 167 167 167 167 167 167 76 40 40 40 40 40 40 40 114 114 114 114 114 114 114 114 114 114 114 114 114 114 114 114 114 114 114 114 114 114 114 114 114 114 114 114 114 114 114 114 114 114 114 114 114 114 114 114 114 114 76 114 114 114 114 114 114 76 76 114 76 114 76 76 114 76 114 76 76 114 76 114 114 114 114 114 167 167 167 167 167 167 167 167 167 167 167 167 167 167 167 167 167 167 167 167 167 167 167 167 167 167 167 167 167 167 167 114 114 114 114 114 76 76 76 76 76 76 76 76 76 76 76 76 76 76 76 76 76 76 76 76 76 76 76 76 76 
114 114 114 114 114 167 167 167 167 167 167 167 167 167 167 167 167 167 167 167 167 114 114 114 114 114 114 114 114 114 114 114 76 76 76 40 40 40 40 40 40 40 40 40 40 40 40 40 40 40 40 40 40 40 40 40 40 40 40 40 40 40 40 40 40 40 40 40 40 76 114 76 40 40 40 40 40 76 76 40 40 40 40 40 40 40 40 40 40 40 40 40 40 40 40 40 40 40 40 40 40 40 40 40 40 40 40 40 40 40 40 40 40 40 40 40 76 40 40 40 40 40 40 76 114 76 76 76 76 76 76 76 40 76 76 40 76 114 114 76 76 114 114 76 40 40 40 76 114 76 114 114 114 114 114 167 167 167 114 76 40 40 40 40 40 40 40 40 40 76 76 40 40 40 40 40 40 40 40 40 40 40 40 40 40 40 40 40 40 40 40 40 40 40 40 40 40 40 40 40 40 40 40 40 40 40 40 40 40 40 76 76 76 76 114 114 114 114 114 114 114 76 114 76 76 76 76 76 40 40 40 40 40 76 76 76 76 76 76 114 114 114 114 114 114 114 114 114 114 114 114 114 114 114 114 114 114 114 114 114 114 114 114 114 114 114 114 114 114 114 114 114 114 114 114 114 114 114 114 114 114 114 114 114 114 114 114 114 114 114 114 114 114 114 114 114 114 114 114 114 114 114 114 114 114 114 114 114 114 114 114 114 114 114 114 167 114 167 167 114 167 167 167 167 167 167 167 167 167 167 167 167 167 167 167 167 167 167 167 167 167 167 167 167 167 167 167 167 167 167 167 167 167 167 167 167 167 167 167 167 167 167 167 167 167 167 167 167 167 167 167 167 167 167 167 76 40 40 40 40 40 40 40 114 114 114 114 114 114 114 114 114 114 114 114 114 114 114 114 114 114 114 114 114 114 114 114 114 114 114 114 114 114 114 114 114 114 114 114 114 114 114 114 114 114 114 114 114 114 114 114 114 114 76 114 76 76 76 76 114 76 114 76 76 76 76 76 76 114 114 114 167 167 167 167 167 167 167 167 167 167 167 167 167 167 167 167 167 167 167 167 167 167 167 167 167 167 167 167 167 167 167 114 114 114 114 76 76 76 76 76 76 76 76 76 76 76 76 76 76 76 76 76 76 76 76 76 76 76 76 76 76 
114 114 114 114 114 167 167 114 167 167 167 167 167 167 167 167 114 114 167 167 167 167 114 114 114 114 114 114 114 114 114 114 76 76 76 40 40 40 40 40 40 40 40 40 40 40 40 40 40 40 40 40 40 40 40 40 40 40 40 40 40 40 40 40 40 40 40 40 40 76 76 40 40 40 40 40 76 76 40 40 40 40 40 40 40 40 40 40 40 40 40 40 40 40 40 40 40 40 40 40 40 40 40 40 40 40 40 40 40 40 40 40 40 40 40 40 76 76 40 40 40 40 40 40 76 76 76 76 76 76 76 114 76 76 76 76 76 76 76 76 76 114 114 76 76 40 40 40 76 114 76 76 76 114 114 114 167 114 76 76 76 40 40 40 40 40 40 40 40 76 40 40 40 40 40 40 40 40 40 40 40 40 40 40 40 40 40 40 40 40 40 40 40 40 40 40 40 40 40 40 40 40 40 40 40 40 40 40 40 76 76 76 76 76 76 76 114 114 76 76 76 76 114 114 76 76 76 76 40 40 40 40 40 76 40 76 76 76 76 114 114 114 114 114 114 114 114 114 114 114 114 114 114 114 114 114 114 114 114 114 114 114 114 114 114 114 114 114 114 114 114 114 114 114 114 114 114 114 114 114 114 114 114 114 114 114 114 114 114 114 114 114 114 114 114 114 114 114 114 114 114 114 114 114 114 114 114 114 114 114 114 114 114 114 114 114 114 114 114 167 114 167 167 167 167 114 167 167 167 167 167 167 167 167 167 167 167 167 167 167 167 167 167 167 167 167 167 167 167 167 167 167 167 167 167 167 167 167 167 167 167 167 167 167 167 167 167 167 167 167 167 167 167 167 167 114 40 40 40 40 40 40 76 114 114 114 114 114 114 114 114 114 114 114 114 114 114 114 114 114 114 114 114 114 114 114 114 114 114 114 114 114 114 114 114 114 114 114 114 114 114 114 114 114 114 114 114 114 114 114 114 114 114 114 114 76 114 76 76 76 76 76 76 76 76 76 114 114 114 114 114 167 167 167 167 167 167 167 167 167 167 167 167 167 167 167 167 167 167 167 167 167 167 167 167 167 167 167 167 167 167 114 114 114 114 114 76 76 76 76 76 76 76 76 76 76 76 76 76 76 76 76 76 76 76 76 76 76 76 76 76 76 
114 114 114 114 114 167 167 114 167 167 167 167 167 114 167 167 114 167 167 114 114 114 114 114 114 114 114 114 114 114 114 114 76 76 76 40 40 40 40 40 40 40 40 40 40 40 40 40 40 40 40 40 40 40 40 40 40 40 40 40 40 40 40 40 40 40 40 40 40 76 40 40 40 40 40 40 76 76 40 40 40 40 40 40 40 40 40 40 40 40 40 40 40 40 40 40 40 40 40 40 40 40 40 40 40 40 40 40 40 40 40 40 40 40 40 40 40 76 76 40 40 40 40 40 40 40 40 40 76 76 76 76 76 114 114 76 76 76 76 76 114 114 114 76 76 76 40 40 76 114 114 76 76 76 114 114 114 76 76 114 114 114 76 40 40 40 40 40 76 40 40 40 40 40 40 40 40 40 40 40 40 40 40 40 40 40 40 40 40 40 40 40 40 40 40 40 40 40 40 40 40 40 40 40 40 40 40 40 40 76 76 76 76 76 76 114 114 114 114 114 76 76 114 114 114 114 76 76 40 40 40 40 40 76 76 76 76 76 114 114 114 114 114 114 114 114 114 114 114 114 114 114 114 114 114 114 114 114 114 114 114 114 114 114 114 114 114 114 114 114 114 114 114 114 114 114 114 114 114 114 114 114 114 114 114 114 114 114 114 114 114 114 114 114 114 114 114 114 114 114 114 114 114 114 114 114 114 114 114 114 114 114 114 114 114 114 114 114 114 167 114 114 167 167 167 167 167 167 167 167 167 167 167 167 167 167 167 167 167 167 167 167 167 167 167 167 167 167 167 167 167 167 167 167 167 167 167 167 167 167 167 167 167 167 167 167 167 167 167 167 167 167 167 167 167 167 76 40 40 40 40 40 76 114 114 114 114 114 114 114 114 114 114 114 114 114 114 114 114 114 114 114 114 114 114 114 114 114 114 114 114 114 114 114 114 114 114 114 114 114 114 114 114 114 76 114 114 114 114 114 114 114 114 76 76 76 114 76 76 76 76 114 76 76 114 114 114 114 114 114 114 167 167 167 167 167 167 167 167 167 167 167 167 167 167 167 167 167 167 167 167 167 167 167 167 167 167 167 167 167 167 114 114 114 114 76 76 76 76 76 76 76 76 76 76 76 76 76 76 76 76 76 76 76 76 76 76 76 76 76 76 76 
114 114 114 114 114 114 167 114 167 114 114 167 114 114 114 114 114 114 114 114 114 114 114 114 114 114 114 114 114 114 114 114 114 76 76 76 40 40 40 40 40 40 40 40 40 40 40 40 40 40 40 40 40 40 40 40 40 40 40 40 40 40 40 40 40 40 40 40 40 40 40 40 40 40 40 40 76 76 40 40 40 40 40 40 40 40 40 40 40 40 40 40 40 40 40 40 40 40 40 40 40 40 40 40 40 40 40 40 40 40 40 40 40 40 40 40 40 76 76 40 40 40 40 40 40 40 40 40 40 76 76 76 76 114 114 76 76 76 76 76 114 114 76 76 76 76 76 40 40 76 76 114 114 114 114 76 76 114 114 114 167 167 167 114 76 40 76 114 76 40 40 40 40 40 40 40 40 40 40 40 40 40 40 40 40 40 40 40 40 40 40 40 40 40 40 40 40 40 40 40 40 40 40 40 40 40 40 40 76 76 76 76 76 76 76 76 76 76 114 114 114 114 76 76 114 114 76 76 40 40 40 40 40 76 76 76 76 76 114 114 114 114 114 114 114 114 114 114 114 114 114 114 114 114 114 114 114 114 114 114 114 114 114 114 114 114 114 114 114 114 114 114 114 114 114 114 114 114 114 114 114 114 114 114 114 114 114 114 114 114 114 114 114 114 114 114 114 114 114 114 114 114 114 114 114 114 114 114 114 114 114 114 114 114 167 167 114 114 167 167 167 167 114 114 167 167 167 167 167 167 167 167 167 167 167 167 167 167 167 167 167 167 167 167 167 167 167 167 167 167 167 167 167 167 167 167 167 167 167 167 167 167 167 167 167 167 167 167 167 167 167 167 167 167 167 167 76 40 40 40 40 40 76 114 114 114 114 114 114 114 114 114 114 114 114 114 114 114 114 114 114 114 114 114 114 114 114 114 114 114 114 114 114 114 114 114 114 114 114 114 114 114 114 114 114 114 114 114 114 76 114 114 114 76 76 76 114 76 76 114 114 76 76 76 114 114 76 114 114 114 114 167 167 167 167 167 167 167 167 167 167 167 167 167 167 167 167 167 167 167 167 167 167 167 167 167 167 167 167 167 167 114 114 114 114 76 76 76 76 76 76 76 76 76 76 76 76 76 76 76 76 76 76 76 76 76 76 76 76 76 76 76 
114 114 114 114 114 114 114 114 114 114 114 114 114 114 114 114 114 114 114 114 114 114 114 114 114 114 114 114 114 114 114 114 76 76 114 76 40 40 40 40 40 40 40 40 40 40 40 40 40 40 40 40 40 40 40 40 40 40 40 40 40 40 40 40 76 40 40 40 40 40 40 40 40 40 40 40 76 76 40 40 40 40 40 40 40 40 40 40 40 40 40 40 40 40 40 40 40 40 40 40 40 40 40 40 40 40 40 40 40 40 40 40 40 40 40 40 40 76 76 40 40 40 40 40 40 40 40 40 40 40 76 76 76 76 114 114 114 76 76 76 76 114 76 76 76 76 76 76 40 40 40 40 76 114 114 114 40 76 114 114 114 114 114 114 114 114 114 114 76 76 40 40 76 40 40 40 40 40 40 40 40 40 40 40 40 40 76 40 40 40 40 40 40 40 40 40 40 40 40 40 40 40 40 40 40 40 40 40 76 76 76 76 76 76 76 114 76 76 114 114 114 114 76 114 76 76 76 40 40 40 40 40 40 76 76 76 76 76 76 114 114 114 114 114 114 114 114 114 114 114 114 114 114 114 114 114 114 114 114 114 114 114 114 114 114 114 114 114 114 114 114 114 114 114 114 114 114 114 114 114 114 114 114 114 114 114 114 114 114 114 114 114 114 114 114 114 114 114 114 114 114 114 114 114 114 114 114 114 114 114 114 114 114 114 114 114 167 167 114 114 167 167 167 114 167 167 167 167 167 167 167 167 167 167 167 167 167 167 167 167 167 167 167 167 167 167 167 167 167 167 167 167 167 167 167 167 167 167 167 167 167 167 167 167 167 167 167 167 167 167 167 167 167 167 167 167 114 40 40 40 40 40 76 76 114 114 114 114 114 114 114 114 114 114 114 114 114 114 114 114 114 114 114 114 114 114 114 114 114 114 114 114 114 114 114 114 114 114 76 114 114 114 114 114 114 114 114 114 114 76 114 114 114 114 114 76 114 76 76 76 76 76 76 114 114 76 76 114 114 114 167 167 167 167 167 167 167 167 167 167 167 167 167 167 167 167 167 167 167 167 167 167 167 167 167 167 167 167 167 167 167 114 114 114 114 76 76 76 76 76 76 76 76 76 76 76 76 76 76 76 76 40 76 76 76 76 76 76 76 76 76 76 
114 114 114 114 114 114 167 167 167 114 114 114 114 114 114 114 114 114 114 114 114 114 114 114 114 114 114 114 114 114 114 76 114 76 114 114 76 40 40 40 40 40 40 40 40 40 40 40 40 40 40 40 40 40 40 40 40 40 40 40 40 40 40 76 76 76 40 40 40 40 40 40 40 40 40 40 40 40 40 40 40 40 40 40 40 40 40 40 40 40 40 40 40 40 40 40 40 40 40 40 40 40 40 40 40 40 40 40 40 40 40 40 40 40 40 40 40 40 40 40 40 40 40 40 40 40 40 40 40 40 76 76 76 76 114 114 114 76 76 76 76 114 76 76 76 40 76 76 40 40 40 40 40 40 40 76 40 40 40 40 76 76 76 76 76 114 76 114 114 114 114 114 114 114 76 76 40 40 40 40 40 40 40 40 76 40 40 40 40 40 40 40 40 40 40 40 40 40 40 40 40 40 40 40 40 40 40 76 76 76 76 76 76 76 114 114 114 76 76 114 114 114 114 114 76 76 76 76 76 40 40 40 76 76 76 76 76 114 76 114 114 114 114 114 114 114 114 114 114 114 114 114 114 114 114 114 114 114 114 114 114 114 114 114 114 114 114 114 114 114 114 114 114 114 114 114 114 114 114 114 114 114 114 114 114 114 114 114 114 114 114 114 114 114 114 114 114 114 114 114 114 114 114 114 114 114 114 114 114 114 114 114 114 114 114 114 114 167 167 167 114 167 167 167 167 167 167 167 167 167 167 167 167 167 167 167 167 167 167 167 167 167 167 167 167 167 167 167 167 167 167 167 167 167 167 167 167 167 167 167 167 167 167 167 167 167 167 167 167 167 167 167 167 167 167 167 167 40 40 40 40 40 76 114 76 114 114 76 114 114 114 114 114 114 114 114 114 114 114 114 76 114 114 114 114 114 114 114 114 114 114 114 114 114 114 114 114 114 114 114 114 114 114 114 114 114 114 114 114 114 114 114 114 114 114 114 114 114 76 76 76 76 76 76 114 114 114 114 114 114 167 167 167 167 167 167 167 167 167 167 167 167 167 167 167 167 167 167 167 167 167 167 167 167 167 167 167 167 167 167 114 114 114 114 76 76 76 76 76 76 76 76 76 76 76 76 76 76 76 76 40 76 76 76 76 76 76 76 76 76 76 76 
114 114 114 114 114 167 167 167 167 114 114 114 114 114 114 114 114 114 114 114 114 114 114 114 114 114 114 114 114 114 114 114 76 76 114 114 40 40 40 40 40 40 40 40 40 40 40 40 40 40 40 40 40 40 40 40 40 40 40 40 40 40 40 40 40 40 40 40 40 40 40 40 40 40 40 40 76 40 40 76 40 40 40 40 40 40 40 40 40 40 40 40 40 40 40 40 40 40 40 40 40 40 40 40 40 40 40 40 40 40 40 40 40 40 40 40 76 76 40 40 40 40 40 40 40 40 40 40 40 40 40 76 76 114 114 114 76 76 76 76 76 76 76 76 76 40 40 76 40 40 40 40 40 40 40 76 76 40 40 40 40 40 40 40 40 114 76 76 76 76 114 114 114 114 76 76 76 114 167 114 76 76 76 76 76 40 40 40 40 40 40 40 40 40 40 40 40 40 40 40 40 40 40 40 40 40 40 76 76 76 76 76 76 76 76 114 114 114 114 114 114 114 114 76 114 114 76 76 40 40 40 40 76 76 76 76 76 114 114 114 114 114 114 114 114 114 114 114 114 114 114 114 114 114 114 114 114 114 114 114 114 114 114 114 114 114 114 114 114 114 114 114 114 114 114 114 114 114 114 114 114 114 114 114 114 114 114 114 114 114 114 114 114 114 114 114 114 114 114 114 114 114 114 114 114 114 114 114 114 114 114 114 114 114 114 114 114 167 167 167 167 167 167 167 114 167 167 167 167 167 167 167 167 167 167 167 167 167 167 167 167 167 167 167 167 167 167 167 167 167 167 167 167 167 167 167 167 167 167 167 167 167 167 167 167 167 167 167 167 167 167 167 167 167 167 167 167 76 40 40 40 40 114 114 114 114 114 114 114 114 114 114 114 114 114 114 114 114 114 114 114 114 114 114 114 114 114 114 114 114 114 114 114 114 114 114 114 114 114 114 76 114 114 114 114 114 114 114 114 114 114 114 76 114 114 76 114 114 76 76 114 76 76 114 114 114 114 114 114 114 167 167 167 167 167 167 167 167 167 167 167 167 167 167 167 167 167 167 167 167 167 167 167 167 167 167 167 167 167 114 114 114 114 114 76 76 76 76 76 76 76 76 76 76 76 76 76 76 76 76 76 76 76 76 76 76 76 76 76 76 76 76 
114 114 114 114 114 167 167 167 167 167 167 114 114 114 114 114 114 114 114 114 114 114 114 114 114 114 114 114 114 114 114 76 114 114 114 76 40 40 40 40 40 40 40 40 40 40 40 40 40 40 40 40 40 40 40 40 40 40 40 40 40 40 40 40 40 40 40 40 40 40 40 40 40 40 40 40 40 40 40 40 40 40 40 40 40 40 40 40 40 40 40 40 40 40 40 40 40 40 40 40 40 40 40 40 40 40 40 40 40 40 40 40 40 40 40 40 76 76 40 40 40 40 40 40 40 40 40 40 40 40 40 76 76 114 114 76 76 76 114 114 76 40 76 114 114 76 40 76 76 40 40 40 40 40 40 40 76 40 40 40 40 40 40 40 40 76 40 40 40 40 40 76 76 76 76 76 76 114 167 167 114 114 76 76 40 40 40 40 40 40 40 40 40 40 40 40 40 40 40 40 40 40 40 40 40 40 40 76 76 76 76 76 76 76 114 114 114 114 114 114 114 114 114 76 114 76 76 40 40 40 40 40 40 76 76 76 76 114 114 114 114 114 114 114 114 114 114 114 114 114 114 114 114 114 114 114 114 114 114 114 114 114 114 114 114 114 114 114 114 114 114 114 114 114 114 114 114 114 114 114 114 114 114 114 114 114 114 114 114 114 114 114 114 114 114 114 114 114 114 114 114 114 114 114 114 114 114 114 114 114 114 114 114 114 114 114 114 167 167 114 114 167 167 167 167 167 167 167 167 167 167 167 167 167 167 167 167 167 167 167 167 167 167 167 167 167 167 167 167 167 167 167 167 167 167 167 167 167 167 167 167 167 167 167 167 167 167 167 167 167 167 167 167 167 167 167 167 114 40 40 40 40 114 76 114 114 114 114 114 114 114 114 114 114 114 114 114 114 114 114 114 114 114 114 114 114 114 114 114 114 114 114 114 114 114 114 114 114 114 114 114 114 114 114 114 114 114 114 114 114 114 114 76 114 114 76 114 114 76 76 114 76 76 114 114 114 114 114 114 114 114 167 167 167 167 167 167 167 167 167 167 167 167 167 167 167 167 167 167 167 167 167 167 167 167 167 167 167 167 114 114 114 114 76 76 76 76 76 76 76 76 76 76 76 76 76 76 76 76 76 76 76 76 76 76 76 76 76 76 76 76 76 
114 114 114 114 114 114 167 167 167 167 167 167 114 114 167 167 114 114 114 167 114 114 114 114 114 114 114 114 114 114 114 114 114 114 76 76 40 40 40 40 40 40 40 40 40 40 40 40 40 40 40 40 40 40 40 40 40 40 40 40 40 40 40 40 40 40 40 40 40 40 40 40 40 40 40 40 40 40 40 40 40 40 40 40 40 40 40 40 40 40 40 40 40 40 40 40 40 40 40 40 40 40 40 40 40 40 40 40 40 40 40 40 40 40 40 76 76 76 40 40 40 40 40 40 40 40 40 40 40 40 40 40 76 114 76 40 76 76 114 76 76 40 40 76 114 114 40 40 76 76 40 40 40 40 40 40 76 40 40 40 40 40 40 40 40 40 40 40 40 40 40 40 40 40 40 40 40 40 76 114 76 40 40 76 76 40 40 40 40 40 40 40 40 40 40 40 40 40 40 40 40 40 40 40 40 40 76 76 76 76 76 76 76 114 114 114 114 114 114 114 114 114 114 76 114 76 76 76 40 40 40 40 76 76 76 76 76 114 114 114 114 114 114 114 114 114 114 114 114 114 114 114 114 114 114 114 114 114 114 114 114 114 114 114 114 114 114 114 114 114 114 114 114 114 114 114 114 114 114 114 114 114 114 114 114 114 114 114 114 114 114 114 114 114 114 114 114 114 114 114 114 114 114 114 114 114 114 114 114 114 114 114 114 114 114 114 114 114 114 114 114 167 167 167 167 167 167 167 167 167 167 167 167 167 167 167 167 167 167 167 167 167 167 167 167 167 167 167 167 167 167 167 167 167 167 167 167 167 167 167 167 167 167 167 167 167 167 167 167 167 167 167 167 167 167 167 167 167 40 40 40 40 114 76 114 114 114 114 114 114 114 114 114 114 114 114 114 114 114 114 114 114 114 114 114 114 114 114 114 114 114 114 114 114 114 114 76 114 114 114 114 114 114 114 114 114 114 114 114 114 114 114 114 76 76 114 76 76 76 114 76 114 114 114 114 114 114 114 114 114 114 167 167 167 167 167 167 167 167 167 167 167 167 167 167 167 167 167 167 167 167 167 167 167 167 167 167 167 167 114 114 114 114 76 76 76 76 76 76 76 76 76 76 76 76 76 76 76 76 40 76 76 76 76 76 76 76 76 76 76 76 40 
114 114 114 114 114 114 167 167 167 167 167 167 114 114 167 114 114 114 167 167 114 114 114 167 114 114 114 114 114 114 114 114 114 76 76 40 40 40 40 40 40 40 40 40 40 40 40 40 40 40 40 40 40 40 40 40 40 40 40 40 40 40 40 40 40 40 40 40 40 40 40 40 40 40 40 40 40 40 40 40 40 40 40 40 40 40 40 40 40 40 40 40 40 40 40 40 40 40 40 40 40 40 40 40 40 40 40 40 40 40 40 40 40 40 40 76 76 76 40 40 40 40 76 40 40 40 40 40 40 40 76 40 76 76 76 40 40 76 114 114 76 76 40 40 76 114 114 40 76 114 76 40 40 40 40 40 76 40 40 40 40 40 40 76 40 40 40 40 40 40 40 40 40 40 40 40 40 40 40 40 40 40 40 76 114 114 76 40 40 40 40 40 40 40 40 40 40 40 40 40 40 40 40 40 40 76 76 76 76 76 76 76 114 114 76 76 114 114 114 114 114 114 114 114 114 76 76 76 40 40 40 76 76 76 76 76 114 114 114 114 114 114 114 114 114 114 114 114 114 114 114 114 114 114 114 114 114 114 114 114 114 114 114 114 114 114 114 114 114 114 114 114 114 114 114 114 114 114 114 114 114 114 114 114 114 114 114 114 114 114 114 114 114 114 114 114 114 114 114 114 114 114 114 114 114 114 114 114 114 114 114 114 114 114 114 114 114 114 114 114 114 114 114 167 167 167 167 167 167 167 167 167 167 167 167 167 167 167 167 167 167 167 167 167 167 167 167 167 167 167 167 167 167 167 167 167 167 167 167 167 167 167 167 167 167 167 167 167 167 167 167 167 167 167 167 167 167 167 76 40 40 40 114 76 76 114 114 114 114 114 114 114 114 114 114 114 114 114 114 114 114 114 114 114 114 114 114 114 114 114 114 114 114 114 114 114 114 114 114 114 114 114 114 114 114 114 114 114 114 114 114 114 114 76 76 114 76 76 114 114 114 114 114 114 114 114 114 76 114 114 114 114 167 167 167 167 167 167 167 167 167 167 167 167 167 167 167 167 167 167 167 167 167 167 167 167 167 167 114 114 114 114 114 76 76 76 76 76 76 76 76 76 76 76 76 76 76 76 76 76 76 76 76 76 76 76 76 76 76 76 76 40 
114 114 114 167 114 114 167 167 167 114 167 167 114 167 167 114 114 167 167 114 114 114 114 114 114 114 114 114 114 114 114 114 114 76 76 76 40 40 40 40 40 40 40 40 40 40 40 40 40 40 40 40 40 40 40 40 40 40 40 40 40 40 40 40 40 40 40 40 40 40 40 40 40 40 40 40 40 40 40 40 40 40 40 40 40 40 40 40 40 40 40 40 40 40 40 40 40 40 40 40 40 40 40 40 40 40 40 40 40 40 40 40 40 40 40 76 76 76 40 40 40 40 40 76 76 40 40 40 40 40 76 40 76 76 76 76 76 76 76 114 114 76 76 40 40 76 114 76 76 114 76 40 40 40 40 40 76 76 40 40 40 40 40 40 40 40 40 40 40 40 40 40 40 40 40 40 40 40 40 40 40 40 40 40 40 76 114 76 40 40 40 40 40 40 40 40 40 40 40 40 40 40 40 40 40 76 76 76 76 76 76 114 114 76 76 114 114 76 76 114 114 114 114 114 76 76 76 76 40 40 40 76 76 76 76 76 114 114 114 114 114 114 114 114 114 114 114 114 114 114 114 114 114 114 114 114 114 114 114 114 114 114 114 114 114 114 114 114 114 114 114 114 114 114 114 114 114 114 114 114 114 114 114 114 114 114 114 114 114 114 114 114 114 114 114 114 114 114 114 114 114 114 114 114 114 114 114 114 114 114 114 114 114 114 114 114 114 114 114 114 114 114 114 167 167 167 167 167 167 167 167 167 167 167 167 167 167 167 167 167 167 167 167 167 167 167 167 167 167 167 167 167 167 167 167 167 167 167 167 167 167 167 167 167 167 167 167 167 167 167 167 167 167 167 167 167 167 167 76 40 40 40 114 76 76 114 114 114 114 114 114 114 114 114 114 114 114 114 114 114 114 114 114 114 114 114 114 114 114 114 114 114 114 114 114 114 114 114 114 114 114 114 114 114 114 114 114 114 114 114 114 114 76 114 114 114 114 114 114 114 114 76 114 114 114 114 114 114 114 114 114 114 114 167 167 167 167 167 167 167 167 167 167 167 167 167 167 167 167 167 167 167 167 167 167 167 167 167 114 114 114 114 76 76 76 76 76 76 76 76 76 76 76 76 76 76 76 40 76 76 76 76 76 76 76 76 76 76 76 40 76 40 
114 114 114 167 114 114 167 167 167 167 167 167 114 114 114 114 114 167 167 114 167 114 114 114 114 114 114 114 114 114 114 114 114 76 76 76 40 40 40 40 40 40 40 40 40 40 40 40 40 40 40 40 40 40 40 40 40 40 40 40 40 40 40 40 40 40 40 40 40 40 40 40 40 40 40 40 40 40 40 40 40 40 40 40 40 40 40 40 40 40 40 40 40 40 40 40 40 40 40 40 40 40 40 40 40 40 40 40 40 40 40 40 40 40 40 76 76 76 40 40 40 40 40 40 76 76 40 40 40 40 76 76 76 76 76 76 76 76 76 40 76 114 114 76 40 76 76 114 114 76 114 76 40 40 40 40 76 76 40 40 40 40 40 40 40 40 40 40 40 40 40 40 40 40 40 40 40 40 40 40 40 40 40 40 40 40 76 114 40 40 40 40 40 40 40 40 40 40 40 40 40 40 40 40 40 76 76 76 76 76 76 76 76 76 114 114 114 114 114 114 76 76 114 114 76 76 76 76 40 40 40 76 76 76 76 76 114 114 114 114 114 114 114 114 114 114 114 114 114 114 114 114 114 114 114 114 114 114 114 114 114 114 114 114 114 114 114 114 114 114 114 114 114 114 114 114 114 114 114 114 114 114 114 114 114 114 114 114 114 114 114 114 114 114 114 114 114 114 114 114 114 114 114 114 114 114 114 114 114 114 114 114 114 114 114 114 114 114 114 114 167 167 167 167 167 114 114 167 167 167 167 167 167 167 167 167 167 167 167 167 167 167 167 167 167 167 167 167 167 167 167 167 167 167 167 167 167 167 167 167 167 167 167 167 167 167 167 167 167 167 167 167 167 167 167 167 167 167 114 40 40 76 76 76 114 114 114 114 114 114 114 114 114 114 114 114 114 114 114 114 114 114 114 114 114 114 114 114 76 114 114 114 114 114 114 114 114 114 114 114 114 114 114 114 114 114 114 114 114 114 114 76 76 114 114 114 114 114 114 76 76 114 114 114 114 114 114 114 114 114 114 114 114 114 167 167 167 167 167 167 167 167 167 167 167 167 167 167 167 167 167 167 167 167 167 167 167 167 114 114 114 76 76 76 76 76 76 76 76 76 76 76 76 76 76 40 76 76 76 76 76 76 76 76 76 76 76 40 40 40 40 40 
114 114 114 114 114 114 114 114 167 114 167 167 167 167 167 114 114 167 114 114 167 167 114 114 114 114 114 114 114 114 114 114 114 76 76 76 40 40 40 40 40 40 40 40 40 40 40 40 40 40 40 40 40 40 40 40 40 40 40 40 40 40 40 40 40 40 40 40 40 40 40 40 40 40 40 40 40 40 40 40 40 40 40 40 40 40 40 40 40 40 40 40 40 40 40 40 40 40 40 40 40 40 40 40 40 40 40 40 40 40 40 40 40 40 40 40 40 40 76 76 40 40 40 40 76 114 40 40 40 40 76 76 40 76 76 76 114 76 76 76 76 76 76 76 76 76 76 76 114 114 114 114 40 40 40 40 40 76 40 40 40 40 40 40 40 40 40 40 40 40 40 40 40 40 40 40 40 40 40 40 40 40 40 40 40 40 40 40 40 40 40 40 40 40 40 40 40 40 40 40 40 40 40 40 40 76 76 76 76 76 76 76 76 114 114 76 76 76 114 114 76 76 114 114 76 76 40 40 40 40 40 76 76 76 76 114 114 114 114 114 114 114 114 114 114 114 114 114 114 114 114 114 114 114 114 114 114 114 114 114 114 114 114 114 114 114 114 114 114 114 114 114 114 114 114 114 114 114 114 114 114 114 114 114 114 114 114 114 114 114 114 114 114 114 114 114 114 114 114 114 114 114 114 114 114 114 114 114 114 114 114 114 114 114 114 114 114 114 114 114 114 114 114 114 114 114 167 167 167 167 167 167 167 167 167 167 167 167 167 167 167 167 167 167 167 167 167 167 167 167 167 167 167 167 167 167 167 167 167 167 167 167 167 167 167 167 167 167 167 167 167 167 167 167 167 167 167 167 167 76 40 40 76 76 114 114 114 114 114 114 114 114 114 114 114 114 114 114 114 114 114 114 114 114 114 114 114 114 76 114 114 114 114 114 114 114 114 114 114 114 114 114 114 114 114 114 114 76 76 114 114 114 114 76 114 114 114 76 114 76 114 114 114 114 114 114 114 114 114 114 114 114 114 114 114 114 114 167 167 167 167 167 167 167 167 167 167 167 167 167 167 167 167 167 167 167 167 167 114 114 114 114 76 76 76 76 76 76 76 76 76 76 76 76 76 76 76 76 76 40 76 76 76 76 76 76 76 76 76 40 40 40 
114 114 114 114 114 114 167 167 114 167 167 167 167 114 114 114 114 167 114 114 167 114 114 114 114 114 114 114 114 114 114 114 114 114 76 76 40 40 40 40 40 40 40 40 40 40 40 40 40 40 40 40 40 40 40 40 40 40 40 40 40 40 40 40 40 40 40 40 40 40 40 40 40 40 40 40 40 40 40 40 40 40 40 40 40 40 40 40 40 40 40 40 40 40 40 40 40 40 40 40 40 40 40 40 40 40 40 40 40 40 40 40 40 40 40 40 40 40 40 76 40 40 40 40 40 76 76 40 40 40 76 76 40 40 76 76 76 114 76 40 76 76 40 40 40 76 76 76 76 114 114 114 114 40 40 40 40 76 40 40 40 40 40 40 40 40 40 40 40 40 40 40 40 40 40 40 40 40 40 40 40 40 40 40 40 40 40 40 40 40 40 40 40 40 40 40 40 40 40 40 40 40 40 40 76 76 76 76 76 76 76 76 76 114 76 114 76 114 76 114 76 114 114 76 76 76 40 40 40 40 76 76 76 76 76 76 114 114 114 114 114 114 114 114 114 114 114 114 114 114 114 114 114 114 114 114 114 114 114 114 114 114 114 114 114 114 114 114 114 114 114 114 114 114 114 167 114 114 114 114 114 114 114 114 114 114 114 114 114 114 114 114 114 114 114 114 114 114 114 114 114 114 114 114 114 114 114 114 114 114 114 114 114 114 114 114 114 114 114 114 114 114 114 114 114 167 167 167 167 114 167 167 167 167 167 167 167 167 167 167 167 167 167 167 167 167 167 167 167 167 167 167 167 167 167 167 167 167 167 167 167 167 167 167 167 167 167 167 167 167 167 167 167 167 167 167 167 167 167 114 40 76 76 114 114 114 114 114 114 114 76 114 114 114 114 114 114 114 114 114 114 114 114 114 114 114 114 114 114 114 114 114 114 114 114 114 114 114 114 114 76 114 114 114 114 114 114 114 114 114 76 114 76 114 114 76 76 76 114 114 114 114 114 114 114 114 114 114 114 114 114 114 114 114 114 114 114 114 114 114 114 167 167 167 167 167 167 167 167 167 167 167 167 167 167 167 167 167 114 114 114 114 76 76 76 76 76 76 76 76 76 76 76 76 76 76 40 40 76 40 40 76 76 76 76 76 40 40 40 40 40 40 
114 114 114 114 114 114 114 167 114 167 167 114 167 114 114 167 114 167 114 114 167 114 114 114 114 114 114 114 114 114 114 114 114 76 76 76 76 40 40 40 40 40 40 40 40 40 40 40 40 40 40 40 40 40 40 40 40 40 40 40 40 40 40 40 40 40 40 40 40 40 40 40 40 40 40 40 40 40 40 40 40 40 40 40 40 40 40 40 40 40 40 40 40 40 40 40 40 40 40 40 40 40 40 40 40 40 40 40 40 40 40 40 40 76 76 40 40 40 40 76 76 76 40 40 40 40 76 114 76 40 40 76 40 40 40 40 76 114 114 76 76 76 76 40 40 40 40 76 76 76 114 76 114 76 40 40 40 76 40 40 40 40 40 40 40 40 40 40 40 40 40 40 40 40 40 40 40 40 40 40 40 40 40 40 40 40 40 40 40 40 40 40 40 40 40 40 40 40 40 40 40 40 40 40 76 76 76 76 76 76 76 76 76 76 76 114 76 114 76 76 76 114 76 76 76 76 40 40 40 40 40 76 76 76 76 114 114 114 114 114 114 114 114 114 114 114 114 114 114 114 114 114 114 114 114 114 114 114 114 114 114 114 114 114 114 114 114 114 114 114 114 114 114 114 114 114 114 114 114 114 114 114 114 114 114 114 114 114 114 114 114 114 114 114 114 114 114 114 114 114 114 114 114 114 114 114 114 114 114 114 114 114 114 114 114 114 114 114 114 114 114 114 114 114 114 167 167 167 167 167 167 167 167 167 167 167 167 167 167 167 167 167 167 167 167 167 167 167 167 167 167 167 167 167 167 167 167 167 167 167 167 167 167 167 167 167 167 167 167 167 167 167 167 167 167 167 167 167 167 114 40 76 114 114 114 114 114 114 114 76 76 114 114 114 114 114 114 114 114 114 114 114 114 114 114 114 114 114 114 114 114 114 114 114 114 114 114 114 114 114 114 114 114 114 114 114 114 114 114 114 114 76 114 114 114 114 114 114 114 114 114 114 114 114 114 114 114 114 114 114 114 114 114 114 114 114 114 114 114 114 114 167 167 167 167 167 167 167 167 167 167 167 167 167 167 167 167 167 114 114 114 76 76 76 76 76 76 76 76 76 76 76 76 76 76 76 76 40 76 76 76 76 76 76 76 76 76 76 76 40 40 40 
114 114 114 114 114 114 114 167 114 167 114 114 114 114 114 167 114 114 114 167 114 114 114 114 114 114 114 114 114 114 114 114 114 114 76 76 76 40 40 40 40 40 40 40 40 40 40 40 40 40 40 40 40 40 40 40 40 40 40 40 40 40 40 40 40 40 40 40 40 40 40 40 40 40 40 40 40 40 40 40 40 40 40 40 40 40 40 40 40 40 40 40 40 40 40 40 40 40 40 40 40 40 40 40 40 40 40 40 40 40 40 40 40 76 114 76 40 40 40 40 76 76 40 40 40 40 40 76 114 76 40 40 76 76 40 40 76 76 114 76 76 76 76 40 40 40 40 40 40 76 76 76 114 114 76 40 40 40 40 40 40 40 40 40 40 40 40 40 40 40 40 40 40 40 40 40 40 40 40 40 40 40 40 40 40 40 40 40 40 40 40 40 40 40 40 40 40 40 40 40 40 40 40 76 76 76 76 76 76 76 76 76 76 76 76 114 76 114 114 76 114 114 76 76 76 40 40 40 40 40 76 76 76 76 76 114 114 114 114 114 114 114 114 114 114 114 114 114 114 114 114 114 114 114 114 114 114 114 114 114 114 114 114 114 114 114 114 114 114 114 114 114 114 114 114 114 114 114 114 114 114 114 114 114 114 114 114 114 114 114 114 114 114 114 114 114 114 114 114 114 114 114 114 114 114 114 114 114 114 114 114 114 114 114 114 114 114 114 114 114 114 114 114 114 167 167 167 167 167 167 167 167 167 167 167 167 167 167 167 167 167 167 167 167 167 167 167 167 167 167 167 167 167 167 167 167 167 167 167 167 167 167 167 167 167 167 167 167 167 167 167 167 167 167 167 167 167 167 167 167 76 76 114 114 114 114 114 114 114 76 76 76 114 114 114 114 114 114 114 114 114 114 114 114 114 114 114 114 114 114 114 114 114 114 114 114 114 114 114 114 114 114 114 114 114 114 114 114 114 76 114 114 114 114 114 114 114 114 114 114 114 114 114 114 114 114 114 114 114 114 114 114 114 114 114 114 114 114 114 114 114 167 167 167 167 167 167 167 167 167 167 167 167 167 167 167 167 114 114 114 114 76 76 76 76 76 76 76 76 76 76 76 76 76 76 40 76 40 76 76 76 76 76 76 40 76 76 40 40 40 40 40 
114 114 114 114 114 114 114 114 114 167 114 114 167 114 114 167 114 114 114 114 114 114 114 114 114 114 114 114 114 114 114 114 114 114 114 114 76 40 40 40 40 40 40 40 40 40 40 40 40 40 40 40 40 40 40 40 40 40 40 40 40 40 76 76 40 40 40 40 40 40 40 40 40 40 40 40 40 40 40 40 40 40 40 40 40 40 40 40 40 40 40 40 40 40 40 40 40 40 40 40 40 40 40 40 40 40 40 40 40 40 40 40 40 76 76 40 40 40 40 40 40 76 76 40 40 40 40 40 114 114 76 76 114 114 76 76 76 40 76 114 76 114 76 40 40 40 40 40 40 76 76 76 76 114 76 40 76 76 40 40 40 76 76 40 40 40 40 40 40 40 40 40 40 40 40 40 40 40 40 40 40 40 40 40 40 40 40 40 40 40 40 40 40 40 40 40 40 40 40 40 40 40 40 76 76 76 76 76 76 76 76 76 76 76 76 76 114 114 114 76 114 114 114 76 76 40 40 40 40 76 76 76 76 76 114 114 114 114 114 114 114 114 114 114 114 114 114 114 114 114 114 114 114 114 114 114 114 114 114 114 114 114 114 114 114 114 114 114 114 114 114 114 114 114 114 114 114 114 114 114 114 114 114 114 114 114 114 114 114 114 114 114 114 114 114 114 114 114 114 114 114 114 114 114 114 114 114 114 114 114 114 114 114 114 114 114 114 114 114 114 114 114 114 114 114 167 167 167 167 167 167 167 167 167 167 167 167 167 167 167 167 167 167 167 167 167 167 167 167 167 167 167 167 167 167 167 167 167 167 167 167 167 167 167 167 167 167 167 167 167 167 167 167 167 167 167 167 167 167 167 76 76 76 114 114 114 114 114 114 76 76 76 76 76 76 76 76 76 76 114 114 114 76 114 114 114 114 114 114 114 114 114 114 114 114 114 114 114 114 114 114 114 114 114 114 114 114 114 114 114 114 114 114 114 114 114 114 114 114 114 114 114 114 114 114 114 114 114 114 114 114 114 114 114 114 114 114 114 114 114 114 114 167 167 167 167 167 167 167 167 167 167 167 167 167 167 167 114 114 114 114 76 76 76 76 76 76 76 76 76 76 76 76 76 40 40 76 40 76 76 76 76 76 76 76 76 40 40 40 40 40 40 
114 114 114 114 114 114 114 167 167 167 114 114 167 114 114 114 114 114 114 114 114 114 114 114 114 114 114 114 114 114 114 114 114 114 114 76 76 40 40 40 40 40 40 40 40 40 40 40 40 40 40 40 40 40 40 40 40 40 40 40 76 76 40 40 40 40 40 40 40 40 40 40 40 40 40 40 40 40 40 40 40 40 40 40 40 40 40 40 40 40 40 40 40 40 40 40 40 40 40 76 40 40 40 40 40 40 40 40 40 40 40 40 40 40 40 40 40 40 40 40 40 76 114 40 40 40 40 40 40 114 167 167 114 76 40 114 114 76 40 76 76 76 76 76 76 76 40 40 40 76 76 114 40 114 114 76 76 114 40 40 76 114 76 40 40 40 40 40 40 40 40 40 40 40 40 40 40 40 40 40 40 40 40 40 40 40 40 40 40 40 40 40 40 40 40 40 40 40 40 40 40 40 76 76 76 76 76 76 76 76 76 76 76 76 76 76 114 76 114 76 76 76 76 76 76 40 40 40 40 76 76 76 76 76 114 114 114 114 114 114 114 114 114 114 114 114 114 114 114 114 114 114 114 114 114 114 114 114 114 114 114 114 114 114 114 114 114 114 114 114 114 114 114 114 114 114 114 114 114 114 114 114 114 114 114 114 114 114 114 114 114 114 114 114 114 114 114 114 114 114 114 114 114 114 114 114 114 114 114 114 114 114 114 114 114 114 114 114 114 114 114 114 114 114 114 114 167 167 167 167 167 167 167 167 167 167 167 167 167 167 167 167 167 167 167 167 167 167 167 167 167 167 167 167 167 167 167 167 167 167 167 167 167 167 167 167 167 167 167 167 167 167 167 167 167 167 167 167 167 167 114 76 76 114 114 114 114 114 114 76 76 76 76 76 76 76 76 76 76 114 76 114 76 114 76 114 114 114 114 114 114 114 114 114 114 114 114 114 114 114 114 114 114 114 114 114 114 114 114 114 114 114 114 114 114 114 114 114 114 114 114 114 114 114 114 114 114 114 114 114 114 114 114 114 114 114 114 114 114 114 114 167 167 167 167 167 167 167 167 167 167 167 167 167 167 167 167 114 114 114 114 76 76 76 76 76 76 76 76 76 76 76 76 76 76 76 76 76 76 76 40 76 76 76 40 76 76 40 40 40 40 76 
114 114 114 114 114 114 114 167 167 167 114 167 167 114 114 114 114 167 114 114 167 114 114 114 114 114 114 114 114 114 114 114 114 114 114 76 40 40 40 40 40 40 40 40 40 40 40 40 40 40 40 40 40 40 40 40 40 40 76 76 40 40 40 40 40 40 40 40 40 40 40 40 40 40 40 40 40 40 40 40 40 40 40 40 40 40 40 40 40 40 40 40 40 40 40 40 40 40 40 76 40 40 40 40 40 40 40 40 40 40 40 40 40 40 40 40 40 40 40 40 40 76 76 76 40 40 40 40 40 40 114 167 167 114 40 76 114 114 40 76 76 40 40 76 40 40 40 40 40 40 76 114 76 76 114 114 40 76 40 40 114 114 76 40 40 40 40 40 40 40 40 40 40 40 40 40 40 40 40 40 40 40 40 40 40 40 40 40 40 40 40 40 40 40 40 40 40 40 40 40 40 76 76 76 76 76 76 76 76 76 76 76 76 114 76 114 114 76 114 114 76 76 76 76 76 40 40 40 40 76 76 76 76 76 114 114 114 114 114 114 114 114 114 114 114 114 114 114 114 114 114 114 114 114 114 114 114 114 114 114 114 114 114 114 114 114 114 114 114 114 114 114 114 114 114 114 114 114 114 114 114 114 114 114 114 114 114 114 114 114 114 114 114 114 114 114 114 114 114 114 114 114 114 114 114 114 114 114 114 114 114 114 114 114 114 114 114 114 114 114 114 114 114 114 114 114 114 167 167 167 167 167 167 167 167 167 167 167 167 167 167 167 167 167 167 167 167 167 167 167 167 167 167 167 167 167 167 167 167 167 167 167 167 167 167 167 167 167 167 167 167 167 167 167 167 167 167 167 167 167 167 76 76 114 114 114 114 76 76 76 76 76 76 76 76 76 76 76 76 76 76 76 76 76 76 114 114 114 114 114 114 114 114 114 114 114 114 114 114 114 114 114 114 114 114 114 114 114 114 114 114 114 114 114 114 114 114 114 114 114 114 114 114 114 114 114 114 114 114 114 114 114 114 114 114 114 114 114 114 114 114 167 167 167 167 167 167 167 167 167 167 167 167 167 167 167 114 114 114 114 76 76 76 76 76 76 76 76 76 76 76 76 76 76 76 76 76 76 76 76 76 76 76 76 40 40 40 40 40 40 40 40 
114 114 114 114 114 114 114 167 167 167 114 114 167 114 114 167 114 114 114 114 167 167 114 114 114 114 114 114 114 114 114 114 114 114 114 76 40 40 40 40 76 40 40 40 40 40 40 40 40 40 40 40 40 40 40 40 76 76 76 40 40 40 40 40 40 40 40 40 40 40 40 40 40 40 40 40 40 40 40 40 40 40 40 40 40 40 40 40 40 40 40 40 40 40 40 40 40 40 40 40 40 40 40 40 40 40 40 40 40 40 76 76 40 40 40 40 40 40 40 40 40 40 40 76 76 40 40 40 40 40 40 40 40 40 76 114 76 76 76 76 114 76 40 40 40 40 40 40 40 40 76 76 114 76 76 167 114 76 76 114 167 114 40 40 40 40 40 40 40 40 40 40 40 40 40 40 40 40 40 40 40 40 40 40 40 40 40 40 40 40 40 40 40 40 40 40 40 40 40 40 76 40 76 76 76 76 76 76 76 76 76 114 114 114 76 114 114 76 76 114 76 114 76 76 40 40 40 40 76 76 76 76 76 114 114 114 114 114 114 114 114 114 114 114 114 114 114 114 114 114 114 114 114 114 114 114 114 114 114 114 114 114 114 114 114 114 114 114 114 114 114 114 114 114 114 114 114 114 114 114 114 114 114 114 114 114 114 114 114 114 114 114 114 114 114 114 114 114 114 114 114 114 114 114 114 114 114 114 114 114 114 114 114 114 114 114 114 114 114 114 114 114 114 114 114 114 114 167 167 167 167 167 167 167 167 167 167 167 167 167 167 167 167 167 167 167 167 167 167 167 167 167 167 167 167 167 167 167 167 167 167 167 167 167 167 167 167 167 167 167 167 167 167 167 167 167 167 167 167 167 167 114 76 114 114 114 76 76 76 40 40 76 76 76 76 76 76 76 76 76 76 76 76 76 76 76 114 114 76 76 76 114 114 114 114 114 114 114 114 114 114 114 114 114 114 114 114 114 114 114 114 114 114 114 114 114 114 114 114 114 114 114 114 114 114 114 114 114 114 114 114 114 114 114 114 114 114 114 114 114 114 167 167 167 167 167 167 167 167 167 167 167 167 167 167 167 114 114 114 76 76 76 76 76 76 76 76 76 76 76 76 76 76 76 76 76 76 76 76 76 76 76 40 40 40 40 40 40 40 40 40 76 
114 114 114 114 114 114 114 114 167 167 114 114 167 114 114 167 114 114 114 114 114 114 114 114 114 114 114 114 114 114 114 114 114 114 114 76 40 40 40 40 40 40 40 40 40 40 40 40 40 40 40 40 40 76 40 76 76 40 40 40 40 40 40 40 40 40 40 40 40 40 40 40 40 40 40 40 40 40 40 40 40 40 40 40 40 40 40 40 40 40 40 40 40 40 40 40 40 40 40 40 40 40 40 40 40 40 40 40 40 40 76 76 40 40 40 40 40 40 40 40 40 40 40 76 76 40 40 40 40 40 40 40 40 40 40 40 76 76 76 76 114 76 40 40 40 40 40 40 40 40 40 40 114 114 76 114 167 114 114 114 114 76 40 40 40 40 40 40 40 40 40 40 40 40 40 40 40 40 40 40 40 40 40 40 40 40 40 40 40 40 40 40 40 40 40 40 40 40 40 40 76 40 76 76 76 76 76 76 76 76 76 114 76 76 76 114 76 76 76 114 76 114 76 40 40 40 40 40 76 76 76 76 76 114 114 114 114 114 114 114 114 114 114 114 114 114 114 114 114 114 114 114 114 114 114 114 114 114 114 114 114 114 114 114 114 114 114 114 114 114 114 114 114 114 114 114 114 114 114 114 114 114 114 114 114 114 114 114 114 114 114 114 114 114 114 114 114 114 114 114 114 114 114 114 114 114 114 114 114 114 114 114 114 114 114 114 114 114 114 114 114 114 114 114 114 114 167 167 114 167 167 167 167 167 167 167 167 167 167 167 167 167 167 167 167 167 167 167 167 167 167 167 167 167 167 167 167 167 167 167 167 167 167 167 167 167 167 167 167 167 167 167 167 167 167 167 167 167 167 167 167 114 76 114 114 76 76 76 76 40 40 76 76 76 76 40 76 76 76 76 76 76 76 76 76 76 76 76 76 114 76 114 114 114 114 114 114 114 76 114 114 114 114 114 114 114 114 114 114 114 114 114 114 114 114 114 76 114 114 114 114 114 114 114 114 114 114 114 114 114 114 114 114 114 114 114 114 114 114 114 114 167 167 167 167 167 167 167 167 167 167 167 167 167 167 114 114 114 114 76 76 76 76 76 76 76 76 76 76 76 76 76 76 40 76 76 76 76 76 40 76 40 40 40 40 40 40 40 76 76 76 76 
114 114 114 114 114 114 167 114 114 114 114 114 114 167 167 114 167 167 114 114 167 167 114 114 114 114 114 114 114 114 76 76 114 114 114 76 76 40 40 40 40 40 40 40 40 40 40 40 40 40 40 40 40 40 40 40 40 40 40 40 40 40 40 40 40 40 40 40 40 40 40 40 40 40 40 40 40 40 40 40 40 40 40 40 40 40 40 40 40 40 40 40 40 40 40 40 40 40 40 40 40 40 40 40 40 40 40 40 40 40 76 76 40 40 40 40 40 40 40 40 40 40 76 76 40 40 40 76 40 40 40 40 40 40 40 40 40 40 76 76 114 114 76 76 40 40 40 40 40 40 40 40 40 114 76 76 167 114 167 167 76 40 40 40 40 40 40 40 40 40 40 40 40 40 40 40 40 40 40 40 40 40 40 40 40 40 40 40 40 40 40 40 40 40 40 40 40 40 40 76 76 76 76 76 76 76 76 76 76 114 76 76 114 114 76 114 76 114 114 114 114 76 76 40 40 40 40 40 76 76 76 76 114 76 114 114 114 114 114 114 114 114 114 114 114 114 114 114 114 114 114 114 114 114 114 114 114 114 114 114 114 114 114 114 114 114 114 114 114 114 114 114 114 114 114 114 114 114 114 114 114 114 114 114 114 114 114 114 114 114 114 114 114 114 114 114 114 114 114 114 114 114 114 114 114 114 114 114 114 114 114 114 114 114 114 114 114 114 114 114 114 114 114 114 114 114 114 114 167 167 167 114 167 167 167 167 167 167 167 167 167 167 167 167 167 167 167 167 167 167 167 167 167 167 167 167 167 167 167 167 167 167 167 167 167 167 167 167 167 167 167 167 167 167 167 167 167 167 167 167 167 167 76 114 114 76 76 76 76 76 40 40 40 76 76 76 76 40 76 76 76 76 76 76 76 76 76 76 76 76 76 76 76 76 76 76 114 76 76 114 76 114 114 114 114 114 114 114 76 114 114 114 114 114 114 114 114 114 114 114 114 114 114 114 114 114 114 114 114 114 114 114 114 114 114 114 114 114 114 114 167 167 167 167 167 167 167 167 167 167 167 167 167 167 167 114 114 114 114 76 76 76 76 76 76 76 76 76 76 76 76 40 40 40 76 76 76 76 76 76 40 76 76 40 40 40 40 40 40 40 76 76 
114 114 114 114 114 114 167 114 114 167 167 114 114 114 114 114 167 167 114 114 167 114 114 114 114 114 114 114 114 114 76 76 114 114 114 76 40 40 40 40 76 40 40 40 40 40 40 40 40 40 40 40 40 40 40 40 40 40 40 40 40 40 40 40 40 40 40 40 40 40 40 40 40 40 40 40 40 40 40 40 40 40 40 40 40 40 40 40 40 40 40 40 40 40 40 40 40 40 40 40 40 40 40 40 40 40 40 40 40 40 76 40 40 40 40 40 40 40 40 40 40 40 76 76 76 76 40 40 76 40 40 40 40 40 40 40 40 40 40 40 76 114 114 76 40 40 40 40 40 40 40 40 40 40 76 76 114 114 114 76 40 40 40 40 40 40 40 40 40 40 40 40 40 40 40 40 40 40 40 40 40 40 40 40 40 40 40 40 40 40 40 40 40 40 40 40 40 40 40 40 76 76 76 76 76 76 76 76 76 114 76 76 76 114 114 114 76 76 114 76 76 76 76 40 40 40 40 40 76 76 76 76 114 114 114 114 114 114 114 114 114 114 114 114 114 114 114 114 114 114 114 114 114 114 114 114 114 114 114 114 114 114 114 114 114 114 114 114 114 114 114 114 114 114 114 114 114 114 114 114 114 114 114 114 114 114 114 114 114 114 114 114 114 114 114 114 114 114 114 114 114 114 114 114 114 114 114 114 114 114 114 114 114 114 114 114 114 114 114 114 114 114 114 114 114 114 114 114 167 114 167 167 167 167 167 167 167 167 167 167 167 167 167 167 167 167 167 167 167 167 167 167 167 167 167 167 167 167 167 167 167 167 167 167 167 167 167 167 167 167 167 167 167 167 167 167 167 167 167 167 167 167 114 76 76 76 76 76 76 40 40 40 40 76 76 40 40 40 76 76 76 76 76 76 76 76 76 76 76 76 76 76 76 76 76 76 76 76 76 76 76 114 114 114 114 76 114 114 114 114 114 114 114 114 114 114 114 114 114 114 114 114 114 114 114 114 114 114 114 114 114 114 114 114 114 114 114 114 114 114 167 167 167 167 167 167 167 167 167 167 167 167 167 167 114 114 114 114 114 76 76 76 76 76 76 76 76 76 40 40 40 40 40 76 76 76 76 76 76 40 40 40 40 40 40 40 40 76 40 76 76 76 
114 114 114 114 114 114 114 167 114 114 114 114 114 167 114 114 167 167 114 167 167 114 114 114 114 114 114 114 114 114 114 76 76 114 114 76 40 40 40 40 40 40 40 40 40 40 40 40 40 40 40 40 40 40 40 40 40 40 40 40 40 40 40 40 40 40 40 40 40 40 40 40 40 40 40 40 40 40 40 40 40 40 40 40 40 40 40 40 40 40 40 40 40 40 40 40 40 40 40 40 40 40 40 40 40 40 40 40 40 40 76 40 40 40 40 40 40 40 40 40 76 76 76 76 76 76 40 40 76 76 40 40 40 40 40 40 40 40 40 40 40 114 114 114 40 40 40 40 40 40 76 40 40 40 40 40 76 114 76 76 40 40 40 40 40 40 40 40 40 40 40 40 40 40 40 40 40 40 40 40 40 40 40 40 40 40 40 40 40 40 40 40 40 40 40 40 40 40 40 40 76 76 76 76 76 76 76 76 76 76 76 76 76 76 114 76 76 114 114 76 76 76 40 40 40 40 40 76 76 76 76 114 114 114 114 114 114 114 114 114 114 114 114 114 114 114 114 114 114 114 114 114 114 114 114 114 114 114 114 114 114 114 114 114 114 114 114 114 114 114 114 114 114 114 114 114 114 114 114 114 114 114 114 114 114 114 114 114 114 114 114 114 114 114 114 114 114 114 114 114 114 114 114 114 114 114 114 114 114 114 114 114 114 114 114 114 114 114 114 114 114 114 114 114 114 114 114 167 167 114 167 167 167 167 167 167 167 167 167 167 167 167 167 167 167 167 167 167 167 167 167 167 167 167 167 167 167 167 167 167 167 167 167 167 167 167 167 167 167 167 167 167 167 167 167 167 167 167 167 167 167 167 114 76 76 76 40 40 40 40 40 40 76 76 76 40 40 40 76 40 76 40 40 40 76 76 76 76 76 76 76 76 76 76 76 76 76 76 76 76 76 76 76 76 76 76 76 114 76 76 114 114 114 114 114 114 114 114 114 114 114 114 114 114 114 114 114 114 114 76 76 76 76 76 114 114 114 114 114 114 167 167 167 167 167 167 167 167 167 167 167 167 167 167 114 114 114 114 76 76 76 76 76 76 76 76 76 40 40 40 40 40 40 76 76 76 76 76 40 40 40 40 40 40 40 40 40 40 76 76 76 76 
114 114 114 114 114 114 114 114 114 114 114 114 114 167 167 114 114 114 114 114 167 114 114 114 114 114 114 114 114 114 114 76 76 114 114 76 40 40 40 76 40 40 40 40 40 40 40 40 40 40 40 40 40 40 40 40 40 40 40 40 40 40 40 40 40 40 40 40 40 40 40 40 40 40 40 40 40 40 40 40 40 40 40 40 40 40 40 40 40 40 40 40 40 40 40 40 40 40 40 40 40 40 40 40 40 40 40 40 40 40 40 40 40 40 40 40 40 40 40 40 40 76 76 76 76 114 76 40 40 76 76 40 40 40 40 40 40 40 40 40 40 76 114 114 76 40 40 40 40 40 76 76 76 76 40 40 40 76 114 40 40 40 40 40 40 40 40 40 40 40 40 40 40 40 40 40 40 40 40 40 40 40 40 40 40 40 40 40 40 40 40 40 40 40 40 40 40 40 40 76 76 76 76 76 76 76 76 76 76 76 76 76 76 76 76 76 114 114 114 76 76 76 40 40 40 40 40 76 76 76 76 114 114 114 114 114 114 114 114 114 114 114 114 114 114 114 114 114 114 114 114 114 114 114 114 114 114 114 114 114 114 114 114 114 114 114 114 114 114 114 114 114 114 114 114 114 114 114 114 114 114 114 114 114 114 114 114 114 114 114 114 114 114 114 114 114 114 114 114 114 114 114 114 114 114 114 114 114 114 114 114 114 114 114 114 114 114 114 114 114 114 114 114 114 114 114 114 167 167 167 167 167 167 167 167 167 167 167 167 167 167 167 167 167 167 167 167 167 167 167 167 167 167 167 167 167 167 167 167 167 167 167 167 167 167 167 167 167 167 167 167 167 167 167 167 167 167 167 167 167 167 167 167 76 76 76 40 40 40 40 40 40 40 40 40 40 40 40 40 40 40 40 40 40 76 40 76 76 40 76 76 76 76 76 76 76 76 76 76 76 76 76 76 76 76 76 76 76 76 76 114 114 76 114 114 114 114 114 114 114 114 114 114 114 114 114 114 114 114 114 76 76 76 114 114 114 114 114 114 167 167 167 167 167 167 167 167 167 167 167 167 167 167 167 114 114 114 114 76 76 76 76 76 76 40 76 40 40 40 40 40 40 40 76 76 76 76 76 76 76 40 40 40 40 40 40 76 40 40 76 76 76 
114 114 114 114 114 114 114 114 114 114 114 114 114 114 114 114 167 167 114 167 167 114 114 114 114 114 114 114 114 114 114 76 76 76 114 76 40 40 40 76 40 40 40 40 40 40 40 40 40 40 40 40 40 40 40 40 40 40 40 40 40 40 40 40 40 40 40 40 40 40 40 40 40 40 40 40 40 40 40 40 40 40 40 40 40 40 40 40 40 40 40 40 40 40 40 40 40 40 40 40 40 40 40 40 40 40 40 40 40 76 40 40 40 40 40 40 40 40 40 40 40 76 76 76 76 76 114 40 40 40 40 40 40 40 40 40 40 40 40 40 40 40 40 76 76 40 40 40 40 40 76 76 114 76 76 40 40 40 114 40 40 40 40 40 40 40 40 40 40 40 40 40 40 40 40 40 40 40 40 40 40 40 40 40 40 40 40 40 40 40 40 40 40 40 40 40 40 40 76 76 76 76 76 76 76 76 76 76 76 114 76 114 76 76 76 76 76 76 76 76 76 76 40 40 40 40 40 76 76 76 114 114 114 114 114 114 114 114 114 114 114 114 114 114 114 114 114 114 114 114 114 114 114 114 114 114 114 114 114 114 114 114 114 114 114 114 114 114 114 114 114 114 114 114 114 114 114 114 114 114 114 114 114 114 114 114 114 114 114 114 114 114 114 114 114 114 114 114 114 114 114 114 114 114 114 114 114 114 114 114 114 114 114 114 114 114 114 114 114 114 114 114 114 114 114 114 114 167 167 167 167 167 167 167 167 167 167 167 167 167 167 167 167 167 167 167 167 167 167 167 167 167 167 167 167 167 167 167 167 167 167 167 167 167 167 167 167 167 167 167 167 167 167 167 167 167 167 167 167 167 167 167 167 76 76 40 40 40 76 40 40 40 40 76 40 40 40 76 76 40 40 40 40 40 40 40 76 40 40 40 76 76 76 76 76 76 76 76 76 76 76 76 76 76 76 76 76 76 76 76 76 76 76 114 76 114 114 114 114 114 114 114 114 114 114 114 114 114 114 76 76 76 76 76 114 114 114 114 114 167 167 167 167 167 167 167 167 167 167 167 167 167 114 114 114 114 114 114 76 76 76 76 76 76 40 40 40 40 40 40 40 40 76 76 76 76 76 76 40 40 40 40 40 40 40 40 76 40 76 76 76 76 
114 114 114 114 114 114 114 114 114 114 114 114 114 114 114 114 114 114 114 114 167 114 114 114 114 114 114 114 114 114 114 76 76 76 114 76 40 40 40 76 40 40 40 40 40 40 40 40 40 40 40 40 40 40 40 40 40 40 40 40 40 40 40 40 40 40 40 40 40 40 40 40 40 40 40 40 40 40 40 40 40 40 40 40 40 40 40 40 40 40 40 40 40 40 40 40 40 40 40 40 40 40 40 40 40 40 40 40 40 40 40 40 40 40 40 40 40 40 40 40 40 40 76 76 76 40 114 114 40 40 40 40 40 40 40 40 40 40 40 40 40 40 40 40 40 40 40 40 40 40 76 76 76 76 76 76 40 40 114 76 40 40 40 40 40 40 40 40 40 40 40 40 40 40 40 40 40 40 40 40 40 40 40 40 40 40 40 40 40 40 40 40 40 40 40 40 40 40 76 76 76 76 76 76 76 76 76 76 76 114 76 114 76 76 76 76 114 114 76 76 76 40 40 40 40 40 76 76 76 76 114 114 114 114 114 114 114 114 114 114 114 114 114 114 114 114 114 114 114 114 114 114 114 114 114 114 114 114 114 114 114 114 114 114 114 114 114 114 114 114 114 114 114 114 114 114 114 114 114 114 114 114 114 114 114 114 114 114 114 114 114 114 114 114 114 114 114 114 114 114 114 114 114 114 114 114 114 114 114 114 114 114 114 114 114 114 114 114 114 114 114 114 114 114 114 114 114 114 114 114 167 167 167 167 167 167 167 167 167 167 167 167 167 167 167 167 167 167 167 167 167 167 167 167 167 167 167 167 167 167 167 167 167 167 167 167 167 167 167 167 167 167 167 167 167 167 167 167 167 167 167 167 167 114 76 40 40 40 40 40 40 40 40 40 40 40 40 40 40 40 40 40 40 40 40 40 40 40 76 76 40 40 40 40 40 76 76 40 76 76 76 76 76 76 76 76 76 76 76 76 76 76 76 76 114 114 114 114 114 114 114 114 114 114 114 114 114 114 114 114 114 114 114 114 114 114 114 114 114 167 167 167 167 167 167 167 167 167 167 167 167 167 114 114 114 114 114 76 76 76 76 76 76 40 76 40 76 40 40 40 40 40 76 76 76 76 76 76 40 40 40 40 40 40 40 40 76 76 76 76 76 76 
114 114 114 114 114 114 114 114 114 114 114 114 114 114 114 114 114 167 114 167 167 114 167 114 114 114 114 114 114 114 114 76 76 76 76 76 40 40 40 40 40 40 40 40 40 40 40 40 40 40 40 40 40 40 40 40 40 40 40 40 40 40 40 40 40 40 40 40 40 40 40 40 40 40 40 40 40 40 40 40 40 40 40 40 40 40 40 40 40 40 40 40 40 40 40 40 40 40 40 40 40 40 40 40 40 40 40 40 40 40 40 40 40 40 40 40 76 40 40 76 40 40 40 76 114 40 76 114 76 40 40 40 40 40 76 40 40 40 40 40 40 40 40 40 40 40 40 40 40 40 76 76 40 40 76 76 76 76 76 40 40 40 40 40 40 40 40 40 40 40 40 40 40 40 40 40 40 40 40 40 40 40 40 40 40 40 40 40 40 40 40 40 40 40 40 40 40 76 76 76 76 76 76 76 76 76 76 76 76 76 76 76 76 76 76 76 114 114 76 76 40 40 40 40 40 40 76 76 76 76 114 114 114 114 114 114 114 114 114 114 114 114 114 114 114 114 114 114 114 114 114 114 114 114 114 114 114 114 114 114 114 114 114 114 114 114 114 114 114 114 114 114 114 114 114 114 114 114 114 114 114 114 114 114 114 114 114 114 114 114 114 114 114 114 114 114 114 114 114 114 114 114 114 114 114 114 114 114 114 114 114 114 114 114 114 114 114 114 114 114 114 114 114 114 114 114 114 114 114 114 167 167 167 167 167 167 167 167 167 167 167 167 167 167 167 167 167 167 167 167 167 167 167 167 167 167 167 167 167 167 167 167 167 167 167 167 167 167 167 167 167 167 167 167 167 167 167 167 167 167 167 167 167 167 76 40 40 40 76 76 40 40 76 76 40 40 40 40 40 40 40 40 40 40 40 40 40 40 40 40 40 40 40 40 40 40 40 40 76 76 76 76 40 40 76 76 76 76 76 76 76 76 76 76 76 76 76 114 114 114 114 114 114 114 114 114 114 114 114 114 114 114 114 114 114 114 114 114 114 167 167 167 167 167 167 167 167 167 167 167 167 167 114 114 114 114 76 76 76 76 76 40 76 40 76 40 40 40 40 40 40 40 76 76 76 76 40 40 40 40 40 40 40 40 40 76 76 76 76 76 76 76 
114 114 114 114 114 114 114 114 114 114 114 167 114 114 114 114 114 167 114 114 167 114 167 114 114 114 114 114 114 114 114 76 76 76 76 76 40 40 40 40 40 40 40 40 40 40 40 40 40 40 40 40 40 40 40 40 40 40 40 40 40 40 40 40 40 40 40 40 40 40 40 40 40 40 40 40 40 40 40 40 40 40 40 40 40 40 40 40 40 40 40 40 40 40 40 40 40 40 40 40 40 40 40 40 40 40 40 40 40 40 40 40 40 40 40 40 76 114 76 76 76 76 40 76 114 76 76 114 114 40 40 40 40 40 40 76 40 40 40 40 40 40 40 40 40 40 40 40 40 40 76 76 40 40 40 40 76 114 76 40 40 40 40 40 40 40 40 40 40 40 40 40 40 40 40 40 40 40 40 40 40 40 40 40 40 40 40 40 40 40 40 40 40 40 40 40 40 76 76 76 76 76 76 76 76 76 76 76 76 76 76 114 76 76 114 76 76 76 76 76 40 40 40 40 40 40 76 76 76 114 114 114 114 114 114 114 114 114 114 114 114 114 114 114 114 114 114 114 114 114 114 114 114 114 114 114 114 114 114 114 114 114 114 114 114 114 114 114 114 114 114 114 114 114 114 114 114 114 114 114 114 114 114 114 114 114 114 114 114 114 114 114 114 114 114 114 114 114 114 114 114 114 114 114 114 114 114 114 114 114 114 114 114 114 114 114 114 114 114 114 114 114 114 114 114 114 114 167 114 114 167 167 167 167 114 114 167 167 167 167 167 167 167 167 167 167 167 167 167 167 167 167 167 167 167 167 167 167 167 167 167 167 167 167 167 167 167 167 167 167 167 167 167 167 167 167 167 167 167 167 167 167 167 167 76 40 40 40 40 40 40 40 40 76 40 40 40 40 40 40 40 40 40 40 40 40 40 40 40 40 40 40 40 40 40 40 40 40 40 40 40 76 40 40 40 76 76 40 40 76 76 76 76 76 76 76 76 76 114 114 114 114 114 114 114 114 114 114 114 114 114 114 114 114 114 114 114 114 167 167 167 167 167 167 167 167 167 167 167 167 167 114 114 114 114 76 76 76 76 40 76 76 40 40 40 40 40 40 40 40 40 76 76 76 76 40 40 40 40 40 40 40 40 76 40 76 76 76 76 76 76 40 
114 114 114 114 114 114 114 167 114 114 114 114 114 167 114 114 114 114 114 114 114 167 167 167 114 114 114 114 114 114 114 114 114 76 76 76 76 40 40 40 40 40 40 40 40 40 40 40 40 40 40 40 40 40 40 40 40 40 40 40 40 40 40 40 40 40 40 40 40 40 40 40 40 40 40 40 40 40 40 40 40 40 40 40 40 40 40 40 40 40 40 40 40 40 40 40 40 40 40 40 40 40 40 40 40 40 40 40 40 40 40 40 40 76 40 40 40 76 114 76 76 76 40 40 76 114 76 114 114 114 40 40 40 40 40 40 76 40 40 40 40 40 40 40 40 40 40 40 40 76 114 76 40 40 40 40 76 76 76 40 40 40 40 40 40 40 40 40 40 40 40 40 40 40 40 40 40 40 40 40 40 40 40 40 40 40 40 40 40 40 40 40 40 40 40 76 76 76 76 76 76 76 76 76 76 76 76 76 76 76 76 76 76 76 76 76 76 76 76 40 40 40 40 40 40 76 76 76 114 114 114 114 114 114 114 114 114 114 114 114 114 114 114 114 114 114 114 114 114 114 114 114 114 114 114 114 114 114 114 114 114 114 114 114 114 114 114 114 114 114 114 114 114 114 114 114 114 114 114 114 114 114 114 114 114 114 114 114 114 114 114 114 114 114 114 114 114 114 114 114 114 114 114 114 114 114 114 114 114 114 114 114 114 114 114 114 114 114 114 114 114 114 114 114 114 114 114 167 114 167 167 114 114 167 167 167 114 167 167 167 167 167 167 167 167 167 167 167 167 167 167 167 167 167 167 167 167 167 167 167 167 167 167 167 167 167 167 167 167 167 167 167 167 167 167 167 167 167 167 167 167 167 167 167 76 40 40 76 76 40 40 40 76 40 40 40 76 40 40 40 40 40 40 40 40 40 40 40 40 40 40 40 40 40 40 40 40 40 40 40 40 40 40 40 40 40 40 40 40 40 40 40 76 76 76 76 76 76 114 114 114 114 114 114 114 114 114 114 114 114 114 114 114 114 114 114 114 114 167 167 167 167 167 167 167 167 167 167 167 167 167 114 114 114 114 76 76 76 76 76 40 40 40 40 40 40 40 40 40 40 40 40 40 76 76 40 40 40 40 40 40 40 40 76 76 76 76 76 76 76 40 40 
114 114 114 114 114 114 114 114 114 114 114 114 167 167 167 114 114 114 114 114 167 167 114 114 114 114 114 114 114 114 114 114 76 76 76 76 40 40 40 40 40 40 40 40 40 40 40 40 40 40 40 40 40 40 40 40 40 40 40 40 40 40 40 40 40 40 40 40 40 40 40 40 40 40 40 40 40 40 40 40 40 40 40 40 40 40 40 40 40 40 40 40 40 40 40 40 40 40 40 40 40 40 40 40 40 40 40 40 40 40 40 40 76 76 40 40 40 40 76 76 76 76 76 40 76 76 76 40 114 114 114 40 40 40 40 40 40 76 76 40 40 40 40 40 40 40 40 40 40 114 167 76 40 40 40 40 40 40 40 40 40 40 40 40 40 40 40 40 40 40 40 40 40 40 40 40 40 40 40 40 40 40 40 40 40 40 40 40 40 40 40 40 40 40 76 40 76 76 76 76 76 76 76 114 76 76 76 76 76 76 76 76 76 76 76 76 76 76 40 40 40 40 40 40 76 76 76 76 114 114 114 114 114 114 114 114 114 114 114 114 114 114 114 114 114 114 114 114 114 114 114 114 114 114 114 114 114 114 114 114 114 114 114 114 114 114 114 114 114 114 114 114 114 114 114 114 114 114 114 114 114 114 114 114 114 114 114 114 114 114 114 114 114 114 114 114 114 114 114 114 114 114 114 114 114 114 114 114 114 114 114 114 114 114 114 114 114 114 114 114 114 114 114 114 114 114 114 114 167 167 167 167 167 167 114 167 167 167 167 167 167 167 167 167 167 167 167 167 167 167 167 167 167 167 167 167 167 167 167 167 167 167 167 167 167 167 167 167 167 167 167 167 167 167 167 167 167 167 167 167 167 167 167 167 114 40 40 40 40 40 40 76 76 76 40 76 40 40 40 40 40 40 40 40 40 40 40 40 40 40 40 40 40 40 40 40 40 40 40 40 40 40 40 40 40 40 40 40 40 40 40 40 40 40 40 76 76 76 76 76 76 76 76 114 114 114 167 167 167 167 114 114 114 114 114 114 114 167 167 167 167 167 167 167 167 167 167 167 167 167 114 114 114 114 76 76 76 76 40 40 40 40 40 40 40 40 40 40 40 76 76 40 40 40 40 40 40 40 40 40 40 40 40 76 76 76 76 76 76 76 40 40 
114 114 114 114 114 114 114 114 114 114 114 114 114 114 114 114 114 114 114 167 167 167 114 114 114 114 114 114 114 114 114 114 76 76 76 76 76 40 40 40 40 40 40 40 40 40 40 40 40 40 40 40 40 40 40 40 40 40 40 40 40 40 40 40 40 40 40 40 40 40 40 40 40 40 40 40 40 40 40 40 40 40 40 40 40 40 40 40 40 40 40 40 40 40 40 40 40 40 40 40 40 40 40 40 40 40 40 40 40 40 40 76 76 76 40 40 40 40 40 76 76 40 76 76 76 76 76 40 76 167 167 76 40 76 40 40 40 40 76 76 40 40 76 76 76 76 40 40 40 76 76 40 40 40 40 40 40 40 40 40 40 40 40 40 40 40 40 40 40 40 40 40 40 40 40 40 40 40 40 40 40 40 40 40 40 40 40 40 40 40 40 40 40 40 76 76 76 76 76 76 76 76 76 76 76 76 114 76 76 76 76 76 76 76 76 76 76 76 40 40 40 40 40 40 76 76 76 114 114 114 114 114 114 114 114 114 114 114 114 114 114 114 114 114 114 114 114 114 114 114 114 114 114 114 114 114 114 114 114 114 114 114 114 114 114 114 114 114 114 114 114 114 114 114 114 114 114 114 114 114 114 114 114 114 114 114 114 114 114 114 114 114 114 114 114 114 114 114 114 114 114 114 114 114 114 114 114 114 114 114 114 114 114 114 114 114 114 114 114 114 114 114 114 114 114 114 114 114 114 114 167 114 114 167 167 114 167 167 167 167 167 167 167 167 167 167 167 167 167 167 167 167 167 167 167 167 167 167 167 167 167 167 167 167 167 167 167 167 167 167 167 167 167 167 167 167 167 167 167 167 167 167 167 167 167 76 40 40 40 76 76 76 76 76 76 76 76 76 76 76 40 40 40 40 40 40 40 40 40 40 40 40 40 40 40 40 40 40 40 40 40 40 40 40 40 40 40 40 40 40 40 40 40 40 40 40 76 76 76 76 76 76 76 114 114 114 167 167 167 167 167 167 114 114 114 114 114 167 167 167 167 167 167 167 167 167 167 167 167 167 114 114 114 114 76 76 76 76 40 40 40 40 40 40 40 40 40 40 40 40 76 40 40 40 40 40 40 40 40 40 76 76 76 76 76 76 76 76 76 40 40 40 
114 114 114 114 114 114 114 114 114 114 114 114 114 114 114 114 114 114 114 167 167 167 114 114 114 114 114 114 114 114 114 114 76 76 76 76 76 40 40 40 40 40 40 40 40 40 40 40 40 40 40 40 40 40 40 40 40 40 40 40 40 40 40 40 40 40 40 40 40 40 40 40 40 40 40 40 40 40 40 40 40 40 40 40 40 40 40 40 40 40 40 40 40 40 40 40 40 40 40 40 40 40 40 40 40 40 40 40 40 40 40 40 40 40 40 40 40 40 40 76 76 76 40 40 76 76 76 76 40 76 167 114 76 76 76 40 40 40 40 40 76 76 40 76 114 76 40 40 40 40 40 40 40 40 40 40 40 40 40 40 40 40 40 40 40 40 40 40 40 40 40 40 40 40 40 40 40 40 40 40 40 40 40 40 40 40 40 40 40 40 40 40 40 76 76 76 76 76 76 76 76 76 76 76 76 76 114 76 114 76 76 76 76 76 76 76 76 40 40 40 40 40 40 40 76 76 76 114 114 114 114 114 114 114 114 114 114 114 114 114 114 114 114 114 114 114 114 114 114 114 114 114 114 114 114 114 114 114 114 114 114 114 114 114 114 114 114 114 114 114 114 114 114 114 114 114 114 114 114 114 114 114 114 114 114 114 114 114 114 114 114 114 114 114 114 114 114 114 114 114 114 114 114 114 114 114 114 114 114 114 114 114 114 114 114 114 114 114 114 114 114 114 114 114 114 114 114 114 114 114 114 114 167 167 167 167 167 167 167 167 167 167 167 167 167 167 167 167 167 167 167 167 167 167 167 167 167 167 167 167 167 167 167 167 167 167 167 167 167 167 167 167 167 167 167 167 167 167 167 167 167 167 167 167 167 76 40 40 40 40 40 40 40 40 76 76 40 40 40 76 76 40 76 40 76 40 40 40 40 40 40 40 40 40 40 40 40 40 40 40 40 40 40 40 40 40 40 40 40 40 40 40 40 40 40 40 40 40 76 76 76 76 76 114 167 167 167 167 167 167 167 167 114 114 114 114 114 167 167 167 167 167 167 167 167 167 167 167 167 167 114 114 114 114 76 76 76 76 40 40 40 40 40 40 40 40 40 40 40 40 40 40 40 40 40 40 40 76 40 40 76 76 76 76 76 76 76 76 76 40 40 76 
114 114 114 114 114 114 114 114 114 167 167 167 114 114 114 167 114 114 114 114 114 114 114 114 114 114 114 114 114 114 114 114 76 76 40 76 76 40 40 40 76 40 40 40 40 40 40 40 40 40 40 40 40 40 40 40 40 40 40 40 40 40 40 40 40 40 40 40 40 40 40 40 40 40 40 40 40 40 40 40 40 40 40 40 40 40 40 40 40 40 40 40 40 40 40 40 40 40 40 40 40 40 40 40 40 40 40 40 40 40 40 40 40 40 40 40 40 40 40 40 76 76 76 40 40 76 76 114 76 40 76 114 114 76 114 40 40 40 40 40 40 76 40 76 76 114 76 40 40 40 40 40 40 40 40 40 40 40 40 40 40 40 40 40 40 40 40 40 40 40 40 40 40 40 40 40 40 40 40 40 40 40 40 40 40 40 40 40 40 40 40 40 40 76 76 76 76 76 76 76 76 76 76 76 76 76 76 76 76 76 76 76 76 76 76 76 40 40 40 40 40 40 40 76 76 76 114 114 114 114 114 114 114 114 114 114 114 114 114 114 114 114 114 114 114 114 114 114 114 114 114 114 114 114 114 114 114 114 114 114 114 114 114 114 114 114 114 114 114 114 114 114 114 114 114 114 114 114 114 114 114 114 114 114 114 114 114 114 114 114 114 114 114 114 114 114 114 114 114 114 114 114 114 114 114 114 114 114 114 114 114 114 114 114 114 114 114 114 114 114 114 114 114 114 114 114 114 114 167 114 167 167 114 114 167 167 167 167 167 167 167 167 167 167 167 167 167 167 167 167 167 167 167 167 167 167 167 167 167 167 167 167 167 167 167 167 167 167 167 167 167 167 167 167 167 167 167 167 167 167 167 167 167 167 167 114 40 40 76 76 76 76 76 76 76 76 76 76 76 76 76 76 40 76 76 76 40 40 40 40 40 40 40 40 40 40 40 40 40 40 40 40 40 40 40 40 40 40 40 40 40 40 40 40 40 40 40 40 40 76 76 76 114 114 167 167 167 167 167 167 167 167 114 114 114 114 114 167 167 167 167 167 167 167 167 167 167 167 167 167 114 114 114 76 76 76 40 40 40 40 40 40 40 40 40 40 40 40 40 40 40 40 40 40 40 40 40 76 40 40 76 76 76 76 76 76 76 76 76 76 40 76 
114 114 114 114 114 114 114 114 114 114 114 114 114 114 114 114 114 114 114 114 114 114 114 114 114 114 114 114 114 114 114 76 76 40 40 76 76 76 40 40 76 40 40 40 40 40 40 40 40 40 40 40 40 40 40 40 40 40 40 40 40 40 40 40 40 40 40 40 40 40 40 40 40 40 40 40 40 40 40 40 40 40 40 40 40 40 40 40 40 40 40 40 40 40 40 40 40 40 40 40 40 40 40 40 40 40 40 40 40 40 40 40 40 40 40 40 40 40 40 40 40 40 76 76 40 40 76 114 114 76 76 76 114 114 114 114 40 40 114 114 40 76 76 40 76 76 76 76 40 40 40 40 40 40 40 40 40 40 40 40 40 40 40 40 40 40 40 40 40 40 40 40 40 40 40 40 40 40 40 40 40 40 40 40 40 40 40 40 40 40 40 40 40 76 76 76 76 76 76 76 76 76 76 76 76 76 76 114 76 76 76 76 76 76 76 76 40 40 40 40 40 40 76 76 76 76 114 114 114 114 114 114 114 114 114 114 114 114 114 114 114 114 114 114 114 114 114 114 114 114 114 114 114 114 114 114 114 114 114 114 114 114 114 114 114 114 114 114 114 114 114 114 114 114 114 114 114 114 114 114 114 114 114 114 114 114 114 114 114 114 114 114 114 114 114 114 114 114 114 114 114 114 114 114 114 114 114 114 114 114 114 114 114 114 114 114 114 114 114 114 114 114 114 114 114 114 114 114 114 167 167 114 114 167 167 167 167 167 167 167 167 167 167 167 167 167 167 167 167 167 167 167 167 167 167 167 167 167 167 167 167 167 167 167 167 167 167 167 167 167 167 167 167 167 167 167 167 167 167 167 167 167 167 167 167 167 76 40 76 40 76 76 76 76 76 76 76 76 76 76 76 76 76 40 76 76 40 40 40 40 40 40 40 40 40 40 40 40 40 40 40 40 40 40 40 40 40 40 40 40 40 40 40 40 40 40 40 40 40 40 76 76 114 167 167 167 167 167 167 167 167 114 114 114 114 114 167 167 167 167 167 167 167 167 167 167 167 167 167 114 114 114 76 76 76 76 40 40 40 40 40 40 40 40 40 40 40 40 40 40 40 40 40 40 40 40 40 40 40 40 40 76 76 76 76 76 76 40 40 76 40 40 
114 114 114 114 114 114 114 114 114 114 114 114 114 114 114 114 114 114 114 114 114 114 114 114 114 114 114 114 114 114 114 76 76 40 40 76 76 76 40 40 40 40 40 40 40 40 40 40 40 40 40 40 40 40 40 40 40 40 40 40 40 40 40 40 40 40 40 40 40 40 40 40 40 40 40 40 40 40 40 40 40 40 40 40 40 40 40 40 40 40 40 40 40 40 40 40 40 40 40 40 40 40 40 40 40 40 40 40 40 40 40 40 40 40 40 40 40 40 40 40 40 40 76 76 76 40 76 76 76 114 114 76 40 76 114 114 114 40 114 114 76 40 76 40 40 40 76 76 76 40 40 40 40 40 40 40 40 40 40 40 40 40 40 40 40 40 40 40 40 40 40 40 40 40 40 40 40 40 40 40 40 40 40 40 40 40 40 40 40 40 40 40 40 76 76 76 76 76 76 76 76 76 76 76 76 76 76 76 76 76 76 76 76 76 76 40 40 40 40 40 40 40 76 76 76 114 114 114 114 114 114 114 114 114 114 114 114 114 114 114 114 114 114 114 114 114 114 114 114 114 114 114 114 114 114 114 114 114 114 114 114 114 114 114 114 114 114 114 114 114 114 114 114 114 114 114 114 114 114 114 114 114 114 114 114 114 114 114 114 114 114 114 114 114 114 114 114 114 114 114 114 114 114 114 114 114 114 114 114 114 114 114 114 114 114 114 114 114 114 114 114 114 114 114 114 114 114 114 114 114 114 167 114 114 167 167 167 167 167 167 167 167 167 167 167 167 167 167 167 167 167 167 167 167 167 167 167 167 167 167 167 167 167 167 167 167 167 167 167 167 167 167 167 167 167 167 167 167 167 167 167 167 167 167 167 167 114 40 40 76 76 76 76 76 76 76 76 76 76 76 76 76 76 40 76 76 40 40 40 40 40 40 40 40 40 40 40 40 40 40 40 40 40 40 40 40 40 40 40 40 40 40 40 40 40 40 40 40 40 40 76 114 114 167 167 167 167 167 167 167 167 114 114 114 114 114 167 167 167 167 167 167 167 167 167 167 167 167 167 114 114 114 76 76 76 40 40 40 40 40 40 40 40 40 40 40 40 40 40 40 40 40 40 40 40 40 40 40 76 76 76 76 76 76 76 76 76 40 40 76 40 40 
114 114 114 114 114 114 114 114 114 114 114 114 167 167 114 114 114 114 114 114 167 167 114 114 114 114 114 114 114 114 114 76 40 40 76 76 76 40 40 40 40 40 40 40 40 40 40 40 40 40 40 40 40 40 40 40 40 40 40 40 40 40 40 76 40 40 40 40 40 40 40 40 40 40 40 40 40 40 40 40 40 40 40 40 40 40 40 40 40 40 40 40 40 40 40 40 40 40 40 40 40 40 40 40 40 40 40 40 40 40 40 40 40 40 40 40 40 40 40 40 40 40 40 40 76 76 76 40 76 114 114 114 76 40 40 76 114 114 40 40 76 40 40 76 40 40 40 76 76 76 40 40 40 40 40 40 40 40 40 40 40 40 40 40 40 40 40 40 40 40 40 40 40 40 40 40 40 40 40 40 40 40 40 40 40 40 40 40 40 40 40 40 76 76 76 76 76 76 76 76 114 76 76 76 76 76 76 76 76 114 76 76 76 76 40 40 40 40 40 40 40 76 76 76 76 114 114 114 114 114 114 114 114 114 114 114 114 114 114 114 114 114 114 114 114 114 114 114 114 114 114 114 114 114 114 114 114 114 114 114 114 114 114 114 114 114 114 114 114 114 114 114 114 114 114 114 114 114 114 114 114 114 114 114 114 114 114 114 114 114 114 114 114 114 114 114 114 114 114 114 114 114 114 114 114 114 114 114 114 114 114 114 114 114 114 114 114 114 114 114 114 114 114 114 114 114 114 114 114 114 114 167 167 167 167 167 167 167 167 167 167 167 167 167 167 167 167 167 167 167 167 167 167 167 167 167 167 167 167 167 167 167 167 167 167 167 167 167 167 167 167 167 167 167 167 167 167 167 167 167 167 167 167 167 167 167 114 40 40 40 40 40 40 76 76 76 76 76 76 76 76 76 76 76 76 76 40 76 40 40 76 40 40 40 40 40 40 40 40 40 40 40 40 40 40 40 40 40 40 40 40 40 40 40 40 40 40 40 40 40 76 114 167 167 167 167 167 167 167 167 167 114 114 114 114 114 167 167 167 167 167 167 167 167 167 167 167 167 114 114 114 76 76 76 40 40 40 40 40 40 40 40 40 40 40 40 40 40 40 40 40 40 40 40 40 40 40 76 76 76 76 76 76 76 76 76 76 76 40 40 76 40 
114 114 114 114 114 114 114 114 114 114 114 114 114 114 114 114 114 114 114 114 167 167 114 114 114 114 114 114 114 114 114 76 40 40 40 76 76 40 40 40 40 40 40 40 40 40 40 40 40 40 40 40 40 40 40 40 40 40 40 40 40 40 40 40 40 40 40 40 40 40 40 40 40 40 40 40 40 40 40 40 40 40 40 40 40 40 40 40 40 40 40 40 40 40 40 40 40 40 40 40 40 40 40 40 40 40 40 40 40 40 40 40 40 40 40 40 40 40 40 40 40 40 40 40 40 76 76 76 76 76 114 167 114 76 40 40 76 114 114 40 40 76 40 40 76 40 40 40 40 40 40 40 40 40 40 40 40 40 40 76 40 40 40 40 40 40 40 40 40 40 40 40 40 40 40 40 40 40 40 40 40 40 40 40 40 40 40 40 40 40 40 76 76 76 76 76 76 76 76 76 76 76 76 76 76 76 76 76 114 76 76 76 76 40 40 40 40 40 40 40 40 76 76 76 114 114 114 114 114 114 114 114 114 114 114 114 114 114 114 114 114 114 114 114 114 114 114 114 114 114 114 114 114 114 114 114 114 114 114 114 114 114 114 114 114 114 114 114 114 114 114 114 114 114 114 114 114 114 114 114 114 114 114 114 114 114 114 114 114 114 114 114 114 114 114 114 114 114 114 114 114 114 114 114 114 114 114 114 114 114 114 114 114 114 114 114 114 114 114 114 114 114 114 114 114 114 114 114 114 114 114 114 167 167 167 167 167 167 167 167 167 167 167 167 167 167 167 167 167 167 167 167 167 167 167 167 167 167 167 167 167 167 167 167 167 167 167 167 167 167 167 167 167 167 167 167 167 167 167 167 167 167 167 167 167 167 167 40 40 40 40 76 76 76 76 76 76 76 76 76 76 76 76 76 76 40 76 76 40 40 40 40 76 40 40 40 40 40 40 40 40 40 40 40 40 40 40 40 40 40 40 40 40 40 40 40 40 40 40 40 76 114 167 167 167 167 167 167 167 167 114 114 114 114 114 167 167 167 167 167 167 167 167 167 167 167 167 167 114 114 76 76 76 76 40 40 40 40 40 40 40 40 40 40 40 40 40 40 40 40 40 40 40 40 40 40 40 76 76 76 76 76 76 76 76 40 40 40 40 40 40 40 
114 114 114 114 114 114 114 114 114 167 114 114 114 114 114 114 114 114 114 114 114 167 167 114 114 114 114 114 114 114 114 76 40 40 40 76 76 40 40 40 40 40 40 40 40 40 40 40 40 40 40 40 40 40 40 40 40 40 40 40 40 40 40 40 40 40 40 40 40 40 40 40 40 40 40 40 40 40 40 40 40 40 40 40 40 40 40 40 40 40 40 40 40 40 40 40 40 40 40 40 40 40 40 40 40 40 40 40 40 40 40 40 40 40 40 40 40 40 40 40 40 40 40 40 40 40 40 76 76 76 76 114 114 114 114 40 40 76 114 76 40 40 76 40 40 76 76 76 76 40 40 40 40 40 40 40 40 40 40 40 40 40 40 40 40 40 40 40 40 40 40 40 40 40 40 40 40 40 40 40 40 40 40 40 40 40 40 40 40 40 40 76 76 76 76 76 76 76 76 76 76 76 76 76 76 76 76 76 76 76 76 76 40 40 40 40 40 40 40 40 76 76 76 76 114 114 114 114 114 114 114 114 114 114 114 114 114 114 114 114 114 114 114 114 114 114 114 114 114 114 114 114 114 114 114 114 114 114 114 114 114 114 114 114 114 114 114 114 114 114 114 114 114 114 114 114 114 114 114 114 114 114 114 114 114 114 114 114 114 114 114 114 114 114 114 114 114 114 114 114 114 114 114 114 114 114 114 114 114 114 114 114 114 114 114 114 114 114 114 114 114 114 114 114 114 114 114 114 114 114 114 114 114 114 167 114 167 167 167 167 167 167 167 167 167 167 167 167 167 167 167 167 167 167 167 167 167 167 167 167 167 167 167 167 167 167 167 167 167 167 167 167 167 167 167 167 167 167 167 167 167 167 167 167 167 167 167 76 40 40 40 40 76 76 76 76 76 76 76 76 76 76 76 76 76 76 76 76 76 40 40 40 40 40 40 40 40 40 40 40 40 40 40 40 40 40 40 40 40 40 40 40 40 40 40 40 40 40 40 40 114 114 167 167 167 167 167 167 167 167 114 114 114 114 114 167 167 167 167 167 167 167 167 167 167 167 114 114 114 114 76 40 40 40 40 40 40 40 40 40 40 40 40 40 40 40 40 40 40 40 40 40 40 40 40 40 76 76 76 76 76 76 76 76 76 40 40 40 40 40 40 40 
114 114 114 114 114 114 114 114 114 167 114 167 167 114 114 114 114 114 167 114 114 167 167 114 114 114 114 114 114 114 114 76 76 40 76 114 114 76 40 40 40 40 40 40 40 40 40 40 40 40 40 40 40 40 40 40 40 40 40 40 40 40 40 40 40 40 40 40 40 40 40 40 40 40 40 40 40 40 40 40 40 40 40 40 40 40 40 40 40 40 40 40 40 40 40 40 40 40 40 40 40 40 40 40 40 40 40 40 40 40 40 40 40 40 40 40 40 40 40 40 40 40 40 40 40 40 40 40 76 76 76 76 114 114 114 114 76 76 76 76 40 40 40 76 40 76 76 114 114 76 40 40 40 40 40 40 40 40 40 40 40 40 40 40 40 40 40 40 40 40 40 40 40 40 40 40 40 40 40 40 40 40 40 40 40 40 40 40 40 40 76 76 76 76 76 76 76 76 76 76 76 76 76 76 76 76 76 76 76 76 76 76 40 40 40 40 40 40 40 76 76 76 76 114 114 114 114 114 114 114 114 114 114 114 114 114 114 114 114 114 114 114 114 114 114 114 114 114 114 114 114 114 114 114 114 114 114 114 114 114 114 114 114 114 114 114 114 114 114 114 114 114 114 114 114 114 114 114 114 114 114 114 114 114 114 114 114 114 114 114 114 114 114 114 114 114 114 114 114 114 114 114 114 114 114 114 114 114 114 114 114 114 114 114 114 114 114 114 114 114 114 114 114 114 114 114 114 114 114 114 114 114 114 114 167 114 167 167 167 167 167 167 167 167 167 167 167 167 167 167 167 167 167 167 167 167 167 167 167 167 167 167 167 167 167 167 167 167 167 167 167 167 167 167 167 167 167 167 167 167 167 167 167 167 167 167 167 114 40 40 76 40 40 76 76 76 76 76 76 76 76 76 76 76 76 76 76 76 76 76 40 40 40 40 40 40 40 40 40 40 40 40 40 40 40 40 40 40 40 40 40 40 40 40 40 40 40 40 40 40 76 114 167 167 167 167 167 167 167 167 114 114 114 114 167 167 167 167 167 167 167 167 167 167 167 167 114 114 114 76 76 40 40 40 40 40 40 40 40 40 40 40 40 40 40 40 40 40 40 40 40 40 40 40 40 40 76 76 76 76 76 76 76 76 40 40 40 40 40 40 40 40 
114 114 114 114 114 114 114 114 114 114 167 167 114 167 114 114 114 114 114 167 167 167 114 167 114 114 114 114 114 114 76 40 40 40 40 114 114 76 40 40 40 40 40 40 40 40 40 40 40 40 40 40 40 40 40 40 40 40 40 40 40 40 40 40 40 40 40 40 40 40 40 40 40 40 40 40 40 40 40 40 40 40 40 40 40 40 40 40 40 40 40 40 40 40 40 40 40 40 40 40 40 40 40 40 40 40 40 40 40 40 40 40 40 40 40 40 40 40 40 40 40 40 40 40 40 40 40 40 40 40 76 114 76 76 114 114 76 76 76 76 76 40 40 76 114 40 40 76 76 76 114 40 40 40 40 40 40 40 40 40 40 40 76 40 40 40 40 40 40 40 40 40 40 40 40 40 40 40 40 40 40 40 40 40 40 40 40 40 40 76 76 76 76 76 76 76 76 76 76 76 76 76 114 76 76 76 76 76 76 76 76 40 40 40 40 40 40 40 40 76 76 76 76 114 114 114 114 114 114 114 114 114 114 114 114 114 114 114 114 114 114 114 114 114 114 114 114 114 114 114 114 114 114 114 114 114 114 114 114 114 114 114 114 114 114 114 114 114 114 114 114 114 114 114 114 114 114 114 114 114 114 114 114 114 114 114 114 114 114 114 114 114 114 114 114 114 114 114 114 114 114 114 114 114 114 114 114 114 114 114 114 114 114 114 114 114 114 114 114 114 114 114 114 114 114 114 114 114 114 114 114 114 114 114 167 114 114 114 167 114 167 167 167 167 167 167 167 167 167 167 167 167 167 167 167 167 167 167 167 167 167 167 167 167 167 167 167 167 167 167 167 167 167 167 167 167 167 167 167 167 167 167 167 167 167 167 167 167 40 40 76 76 40 76 76 76 76 76 76 76 76 76 76 76 76 76 76 76 76 76 76 76 76 40 40 40 40 40 40 40 40 40 40 40 40 40 40 40 40 40 40 40 40 40 40 40 40 40 40 76 76 114 167 167 167 167 167 167 167 167 114 114 114 114 167 167 167 167 167 167 167 167 167 167 114 114 114 76 76 76 40 40 40 40 40 40 40 40 40 40 40 40 40 40 40 40 40 40 40 40 40 40 40 40 40 76 76 76 76 76 76 76 40 40 40 40 40 40 40 40 40 40 
114 114 114 114 114 114 114 114 167 114 167 114 114 114 114 114 114 114 114 167 167 167 114 114 114 114 114 114 114 114 76 76 76 40 76 114 76 76 40 40 40 40 40 40 40 40 40 40 40 40 40 40 40 40 40 40 40 40 40 40 40 40 40 40 40 40 40 40 40 40 40 40 40 40 40 40 40 40 40 40 40 40 40 40 40 40 40 40 40 40 40 40 40 40 40 40 40 40 40 40 40 40 40 40 40 40 40 40 40 40 40 40 40 40 40 40 40 40 76 40 40 40 40 40 40 40 40 40 40 40 40 76 114 76 76 114 114 114 114 76 76 76 40 40 76 76 40 40 40 114 76 40 40 40 40 40 40 40 40 40 40 40 40 40 40 40 40 40 40 40 40 40 40 40 40 40 40 40 40 40 40 40 40 40 40 40 40 76 76 40 76 76 76 76 76 76 76 76 76 76 76 76 76 76 76 76 76 76 76 76 40 40 40 40 40 40 40 40 76 76 76 114 76 114 114 114 114 114 114 114 114 114 114 114 114 114 114 114 114 114 114 114 114 114 114 114 114 114 114 114 114 114 114 114 114 114 114 114 114 114 114 114 114 114 114 114 114 114 114 114 114 114 114 114 114 114 114 114 114 114 114 114 114 114 114 114 114 114 114 114 114 114 114 114 114 114 114 114 114 114 114 114 114 114 114 114 114 114 114 114 114 114 114 114 114 114 114 114 114 114 114 114 114 114 114 114 114 114 114 114 114 114 114 114 167 114 167 114 167 167 167 167 167 167 167 167 167 167 167 167 167 167 167 167 167 167 167 167 167 167 167 167 167 167 167 167 167 167 167 167 167 167 167 167 167 167 167 167 167 167 167 167 167 167 167 167 167 167 76 40 76 76 76 76 76 40 76 76 76 76 76 76 76 76 76 76 76 76 76 76 76 76 76 40 40 40 40 40 40 40 40 40 40 40 40 40 40 40 40 40 40 40 40 40 40 40 40 40 40 40 76 114 114 167 167 167 167 167 167 167 167 167 167 167 167 167 167 167 167 167 167 167 167 114 114 114 114 76 40 40 40 40 40 40 40 40 40 40 40 40 40 40 40 40 40 40 40 40 40 40 40 40 40 40 76 76 76 76 76 76 76 40 40 40 40 40 40 40 40 40 40 40 
114 114 114 114 114 114 114 114 167 167 114 114 114 114 114 114 114 114 114 167 167 167 114 114 114 114 114 114 114 114 76 76 76 40 76 76 76 76 40 40 40 40 40 40 40 40 40 40 40 40 40 40 40 40 40 40 40 40 40 40 40 40 40 40 40 40 40 40 40 40 40 40 40 40 40 40 40 40 40 40 40 40 40 40 40 40 40 40 40 40 40 40 40 40 40 40 40 40 40 40 40 40 40 40 40 40 40 40 40 40 40 40 40 40 40 40 40 40 76 40 40 40 40 40 40 40 40 40 40 40 40 40 114 114 76 76 114 114 167 114 114 76 40 76 76 40 76 40 76 76 76 40 40 40 40 40 40 40 40 40 40 40 40 40 40 40 40 40 40 40 40 40 40 40 40 40 40 40 40 40 40 40 40 40 40 40 40 76 40 40 76 76 76 76 76 76 76 76 76 76 76 76 76 76 76 76 76 76 76 40 40 40 40 40 40 40 40 76 76 76 114 114 114 114 114 114 114 114 114 114 114 114 114 114 114 114 114 114 114 114 114 114 114 114 114 114 114 114 114 114 114 114 114 114 114 114 114 114 114 114 114 114 114 114 114 114 114 114 114 114 114 114 114 114 114 114 114 114 114 114 114 114 114 114 114 114 114 114 114 114 114 114 114 114 114 114 114 114 114 114 114 114 114 114 114 114 114 114 114 114 114 114 114 114 114 114 114 114 114 114 114 114 114 114 114 114 114 114 167 114 114 114 114 114 167 114 167 114 167 167 167 167 167 167 167 167 167 167 167 167 167 167 167 167 167 167 167 167 167 167 167 167 167 167 167 167 167 167 167 167 167 167 167 167 167 167 167 167 167 167 167 167 167 167 167 167 167 167 114 40 40 40 40 76 76 76 76 76 76 76 76 76 76 76 76 76 76 76 76 76 40 40 40 40 40 40 40 40 40 40 40 40 40 40 40 40 40 40 40 40 40 40 40 40 40 40 40 40 40 40 76 114 114 167 167 167 167 167 167 167 167 167 167 167 167 167 167 167 167 167 167 167 114 114 114 114 76 76 40 40 40 40 40 40 40 40 40 40 40 40 40 40 40 40 40 40 40 40 40 40 40 40 40 76 76 76 76 76 76 76 40 40 40 40 40 40 40 40 40 40 40 40 
114 114 114 114 114 114 114 114 167 167 114 167 114 114 114 114 114 114 114 167 167 167 167 114 114 114 114 114 114 76 76 76 76 40 76 76 76 76 40 40 40 40 40 40 40 40 40 40 40 40 40 40 40 40 40 40 40 40 40 40 40 40 40 40 40 40 40 40 40 40 40 40 40 40 40 40 40 40 40 40 40 40 40 40 40 40 40 40 40 40 40 40 40 40 40 40 40 40 40 40 40 40 40 40 40 40 40 40 40 40 40 40 40 40 40 40 40 40 40 40 40 40 40 40 40 40 40 40 40 40 40 40 40 76 114 76 76 76 114 114 114 76 40 40 76 40 76 114 114 114 76 76 40 40 40 40 40 40 40 40 40 40 40 40 40 40 40 40 40 40 40 40 40 40 40 40 40 40 40 40 40 40 40 40 40 40 40 40 40 40 76 76 76 76 76 76 76 76 76 76 76 76 76 76 76 76 76 76 40 40 40 40 40 40 40 76 76 76 76 114 114 114 114 114 114 114 114 114 114 114 114 114 114 114 114 114 114 114 114 114 114 114 114 114 114 114 114 114 114 114 114 114 114 114 114 114 114 114 114 114 114 114 114 114 114 114 114 114 114 114 114 114 114 114 114 114 114 114 114 114 114 114 114 114 114 114 114 114 114 114 114 114 114 114 114 114 114 114 114 114 114 114 114 114 114 114 114 114 114 114 114 114 114 114 114 114 114 114 114 114 114 114 114 114 114 114 114 114 114 114 114 114 114 114 114 114 167 114 167 167 167 167 167 167 167 167 167 167 167 167 167 167 167 167 167 167 167 167 167 167 167 167 167 167 167 167 167 167 167 167 167 167 167 167 167 167 167 167 167 167 167 167 167 167 167 167 167 167 167 76 40 40 40 40 76 76 76 76 76 76 76 76 76 76 76 76 76 76 76 76 76 40 40 40 40 40 76 76 40 40 40 40 40 40 40 40 40 40 40 40 40 40 40 40 40 40 40 40 40 40 76 114 114 167 167 167 167 167 167 167 167 167 167 167 167 167 167 167 114 167 114 114 114 114 76 76 40 40 40 40 40 40 40 40 40 40 40 40 40 40 40 40 40 40 40 40 40 40 40 40 40 40 40 76 76 76 76 76 76 40 40 40 40 40 40 40 40 40 40 40 40 40 
114 114 114 114 114 114 114 114 114 114 114 114 114 114 114 167 114 114 114 167 167 167 114 167 114 114 114 114 114 76 76 76 76 40 76 76 76 76 40 40 40 40 40 40 40 40 40 40 40 40 40 40 40 40 40 40 40 40 40 40 40 40 40 40 40 40 40 40 40 40 40 40 40 40 40 40 40 40 40 40 40 40 40 40 40 40 40 40 40 40 40 40 40 76 40 40 40 40 40 40 40 40 40 40 40 40 40 40 40 40 40 40 40 40 40 40 40 40 40 40 40 40 40 40 40 40 40 40 40 40 40 40 40 40 40 76 114 114 114 114 114 114 114 40 40 40 40 76 76 76 76 40 40 40 40 40 40 40 40 40 40 40 40 40 40 40 40 40 40 40 40 40 40 40 40 40 40 40 40 40 40 40 40 40 40 76 76 76 76 76 76 76 76 76 76 76 76 76 76 76 76 76 76 76 76 76 76 40 40 40 40 40 40 40 40 76 76 76 76 114 114 114 114 114 114 114 114 114 114 114 114 114 114 114 114 114 114 114 114 114 114 114 114 114 114 114 114 114 114 114 114 114 114 114 114 114 114 114 114 114 114 114 114 114 114 114 114 114 114 114 114 114 114 114 114 114 114 114 114 114 114 114 114 114 114 114 114 114 114 114 114 114 114 114 114 114 114 114 114 114 114 114 114 114 114 114 114 114 114 114 114 114 114 114 114 114 114 114 114 114 114 114 114 114 114 114 114 114 114 114 114 114 167 114 167 114 114 114 114 114 167 167 167 167 167 167 167 167 167 167 167 167 167 167 167 167 167 167 167 167 167 167 167 167 167 167 167 167 167 167 167 167 167 167 167 167 167 167 167 167 167 167 167 167 167 167 167 167 167 76 76 76 40 76 76 76 76 76 76 76 76 76 76 76 76 76 76 76 76 76 76 76 76 76 76 40 76 76 40 40 40 40 40 40 40 40 40 40 40 40 40 40 40 40 40 40 40 40 40 40 76 114 114 167 167 167 167 167 167 167 167 167 167 167 167 167 167 114 114 114 114 114 114 76 76 76 40 40 40 40 40 40 40 40 40 40 40 40 40 40 40 40 40 40 40 40 40 40 40 40 40 40 40 76 76 76 76 76 40 40 40 40 40 40 40 40 40 40 40 40 40 40 
114 114 114 114 114 114 114 114 114 114 114 167 114 114 114 114 114 114 114 114 114 167 167 167 114 114 114 114 114 114 76 76 76 76 76 76 76 40 40 40 40 40 40 40 40 40 40 40 40 40 40 40 40 40 40 40 40 40 40 40 40 40 40 40 40 40 40 40 40 40 40 40 40 40 40 40 40 40 40 40 40 40 40 40 40 40 40 40 40 40 40 40 40 40 40 40 40 40 40 40 40 40 40 40 40 40 40 40 40 40 40 40 40 40 40 40 40 40 40 40 40 40 40 40 40 40 40 40 40 40 40 40 40 40 40 40 40 40 76 76 76 114 114 114 40 40 76 40 40 40 40 40 40 40 40 40 40 40 40 40 40 40 40 40 40 40 40 40 40 40 40 40 40 40 40 40 40 40 40 40 40 40 40 40 40 76 76 40 76 76 76 76 76 76 76 76 114 76 76 76 76 76 76 76 76 76 40 40 40 40 40 40 40 40 76 76 76 76 114 114 114 114 114 114 114 114 114 114 114 114 114 114 114 114 114 114 114 114 114 114 114 114 114 114 114 114 114 114 114 114 114 114 114 114 114 114 114 114 114 114 114 114 114 114 114 114 114 114 114 114 114 114 114 114 114 114 114 114 114 114 114 114 114 114 114 114 114 114 114 114 114 114 114 114 114 114 114 114 114 114 114 114 114 114 114 114 114 114 114 114 114 114 114 114 114 114 114 114 114 114 114 114 114 114 114 114 114 114 114 114 114 114 114 167 114 114 114 167 114 114 167 167 167 167 167 167 167 167 167 167 167 167 167 167 167 167 167 167 167 167 167 167 167 167 167 167 167 167 167 167 167 167 167 167 167 167 167 167 167 167 167 167 167 167 167 167 167 167 167 114 40 40 76 76 76 40 76 76 76 76 76 76 76 76 76 76 76 76 76 76 76 76 76 40 40 76 40 40 40 40 40 40 40 40 40 40 40 40 40 40 40 40 40 40 40 40 40 40 40 40 76 114 114 167 167 167 167 167 167 167 167 167 167 167 167 167 114 114 114 114 114 114 76 76 40 40 40 40 40 40 40 40 40 40 40 40 40 40 40 40 40 40 40 40 40 40 40 40 40 40 40 76 76 76 76 76 76 76 76 40 40 40 40 40 40 40 40 40 40 40 40 40 
114 114 114 114 114 114 114 114 114 114 114 167 114 114 114 114 114 114 167 167 167 167 167 114 114 114 114 114 114 76 76 76 76 76 76 76 76 40 40 40 40 40 40 40 40 40 40 40 40 40 40 40 40 40 40 40 40 40 40 40 40 40 40 40 40 40 40 40 40 40 40 40 40 40 40 40 40 40 40 40 40 40 40 40 40 40 40 40 40 40 40 40 40 40 40 40 40 40 40 40 40 40 40 40 40 40 40 40 40 40 40 40 40 40 40 40 40 40 40 76 40 40 40 40 40 40 40 40 40 40 40 40 40 76 40 40 40 40 40 40 40 76 114 114 76 76 76 40 40 40 40 40 40 40 40 40 40 40 40 40 40 40 40 40 40 40 40 40 40 40 40 40 40 40 40 40 40 40 40 40 40 40 40 40 40 76 76 76 76 76 76 76 76 76 76 76 76 76 76 76 76 76 76 76 40 40 40 40 40 40 40 40 40 76 76 76 76 76 114 114 114 114 114 114 114 114 114 114 114 114 114 114 114 114 114 114 114 114 114 114 114 114 114 114 114 114 114 114 114 114 114 114 114 114 114 114 114 114 114 114 114 114 114 114 114 114 114 114 114 114 114 114 114 114 114 114 114 114 114 114 114 114 114 114 114 114 114 114 114 114 114 114 114 114 114 114 114 114 114 114 114 114 114 114 114 114 114 114 114 114 114 114 114 114 114 114 114 114 114 114 114 114 114 114 114 114 114 114 114 114 114 114 114 114 114 114 114 114 114 167 167 167 167 167 167 167 167 167 167 167 167 167 167 167 167 167 167 167 167 167 167 167 167 167 167 167 167 167 167 167 167 167 167 167 167 167 167 167 167 167 167 167 167 167 167 167 167 167 167 114 76 40 76 40 40 76 76 40 40 76 76 76 76 76 76 76 76 76 76 76 76 76 76 76 76 76 76 76 76 40 40 40 40 40 40 40 40 40 40 40 40 40 40 40 40 40 40 40 40 76 76 114 114 167 167 167 167 167 167 167 167 167 167 167 167 167 114 114 114 114 114 76 76 76 40 40 40 40 40 40 40 40 40 40 40 40 40 40 40 40 40 40 40 40 40 40 40 40 40 40 40 76 76 76 76 76 76 76 40 40 40 40 40 40 40 40 40 40 40 40 40 40 
114 114 114 114 114 114 114 167 114 114 167 114 114 114 114 114 114 114 167 167 167 167 167 114 114 114 114 114 114 114 76 40 76 76 76 76 76 40 40 40 40 40 40 40 40 40 40 40 40 40 40 40 40 40 40 40 40 40 40 40 40 40 40 40 40 40 40 40 40 40 40 40 40 40 40 40 40 40 40 40 40 40 40 40 40 40 40 40 40 40 40 40 40 40 40 40 40 40 40 40 40 40 40 40 40 40 40 40 40 40 40 40 76 40 40 40 40 40 40 40 40 40 40 40 40 40 40 40 76 40 40 40 40 40 76 40 40 40 76 40 40 40 40 76 114 114 114 76 40 40 40 40 40 40 40 40 40 40 40 40 40 40 40 40 40 40 40 40 40 40 40 40 40 40 40 40 40 40 40 40 40 40 40 76 40 40 40 76 76 76 76 76 76 76 76 76 76 76 76 114 76 76 76 40 40 40 40 40 40 40 40 76 76 76 76 76 76 114 114 114 76 114 114 114 114 114 114 114 114 114 114 114 114 114 114 114 114 114 114 114 114 114 114 114 114 114 114 114 114 114 114 114 114 114 114 114 114 114 114 114 114 114 114 114 114 114 114 114 114 114 114 114 114 114 114 114 114 114 114 114 114 114 114 114 114 114 114 114 114 114 114 114 114 114 114 114 114 114 114 114 114 114 114 114 114 114 114 114 114 114 114 114 114 114 114 114 114 114 114 114 114 114 114 114 114 114 114 114 114 114 114 114 114 114 114 114 114 114 114 167 167 114 167 167 167 167 167 167 167 167 167 167 167 167 167 167 167 167 167 167 167 167 167 167 167 167 167 167 167 167 167 167 167 167 167 167 167 167 167 167 167 167 167 167 167 167 167 167 167 167 76 40 40 40 76 76 40 76 76 76 76 76 76 76 76 76 76 76 76 76 76 40 76 76 76 76 76 40 40 76 76 76 40 40 40 40 40 40 40 40 40 40 40 40 40 40 40 40 40 76 76 114 114 167 167 167 167 167 167 167 167 167 167 167 167 114 114 114 114 76 76 76 40 40 40 40 40 40 40 40 40 40 40 40 40 40 40 40 40 40 40 40 40 40 40 40 40 40 40 76 76 76 76 76 76 76 40 40 40 40 40 40 40 40 40 40 40 40 40 40 40 40 
114 114 114 114 114 114 114 114 114 114 167 114 167 114 114 114 114 114 114 114 114 167 167 114 114 114 114 114 114 114 76 40 76 76 76 76 76 40 40 40 40 40 40 40 40 40 40 40 40 40 40 40 40 40 40 40 40 40 40 40 40 40 40 40 40 40 40 40 40 40 40 40 40 40 40 40 40 40 40 40 40 40 40 40 40 40 40 40 40 40 40 40 40 40 40 40 40 40 40 40 40 40 40 40 40 40 40 40 40 40 40 76 40 40 40 40 40 40 40 40 76 40 40 40 40 40 40 40 76 114 40 40 40 40 76 76 76 40 76 76 40 40 40 40 76 114 114 76 40 40 40 40 40 40 40 40 40 40 40 40 40 40 40 40 40 40 40 40 40 40 40 40 40 40 40 40 40 40 40 40 40 40 40 40 76 40 76 76 76 76 76 76 76 76 76 76 76 76 76 76 76 40 40 40 40 40 40 40 40 40 76 76 76 76 76 114 76 114 114 114 114 114 114 114 114 114 114 114 114 114 114 114 114 114 114 114 114 114 114 114 114 114 114 114 114 114 114 114 114 114 114 114 114 114 114 114 114 114 114 114 114 114 114 114 114 114 114 114 114 114 114 114 114 114 114 114 114 114 114 114 114 114 114 114 114 114 114 114 114 114 114 114 114 114 114 114 114 114 114 114 114 114 114 114 114 114 114 114 114 114 114 114 114 114 114 114 114 114 114 114 114 114 114 114 114 114 114 114 114 114 114 114 114 114 114 114 114 114 114 167 167 167 167 167 114 167 167 167 167 167 167 167 167 167 167 167 167 167 167 167 167 167 167 167 167 167 167 167 167 167 167 167 167 167 167 167 167 167 167 167 167 167 167 167 167 167 167 167 167 167 114 40 40 40 40 76 40 76 76 76 76 76 76 76 76 76 76 76 76 76 76 76 76 76 76 76 76 40 40 40 76 40 40 40 40 40 40 40 40 40 40 40 40 40 76 40 40 40 40 76 76 114 114 167 167 167 167 167 167 167 167 167 167 167 114 114 114 114 76 76 40 40 40 40 40 40 40 40 40 40 40 40 40 40 40 40 40 40 40 40 40 40 40 40 40 40 40 40 40 76 76 76 76 76 76 40 76 40 40 40 40 40 40 40 40 40 40 40 40 40 40 40 
114 114 114 114 114 114 114 167 114 114 167 114 114 114 167 114 114 114 167 167 167 167 167 114 114 114 114 114 114 114 76 40 76 76 76 76 76 40 40 40 40 40 40 40 40 40 40 40 40 40 40 40 40 40 40 40 40 40 40 40 40 40 40 40 40 40 40 40 40 40 40 40 40 40 40 40 40 40 40 40 40 40 40 40 40 40 40 40 40 40 40 40 40 40 40 40 40 40 40 40 40 40 40 40 40 40 40 40 40 40 40 76 76 40 40 40 40 40 40 40 76 40 40 40 40 40 40 40 40 76 76 40 40 40 40 76 76 76 114 76 40 40 40 40 40 76 76 76 76 40 40 40 40 40 40 40 40 40 40 40 40 40 40 40 40 40 40 40 40 40 40 40 40 40 40 40 40 40 40 40 40 40 76 76 76 76 76 76 76 76 76 76 76 76 76 76 76 76 76 76 40 40 40 40 40 40 40 40 40 76 76 76 76 76 76 76 76 76 114 114 114 114 114 114 114 114 114 114 114 114 114 114 114 114 114 114 114 114 114 114 114 114 114 114 114 114 114 114 114 114 114 114 114 114 114 114 114 114 114 114 114 114 114 114 114 114 114 114 114 114 114 114 114 114 114 114 114 114 114 114 114 114 114 114 114 114 114 114 114 114 114 114 114 114 114 114 114 114 114 114 114 114 114 114 114 114 114 114 114 114 114 114 114 114 114 114 114 114 114 114 114 114 114 114 114 114 114 114 114 114 114 114 114 114 114 114 114 114 114 167 167 167 167 167 114 167 167 167 167 167 167 167 167 167 167 167 167 167 167 167 167 167 167 167 167 167 167 167 167 167 167 167 167 167 167 167 167 167 167 167 167 167 167 167 167 167 167 167 167 167 114 76 76 40 40 40 76 76 40 76 76 76 76 76 76 76 76 76 76 76 76 76 76 76 76 76 76 76 40 76 76 76 40 40 40 40 40 40 40 40 40 76 76 40 76 76 76 76 40 76 114 114 114 114 167 167 167 167 167 167 167 167 167 114 114 114 76 76 76 40 40 40 40 40 40 40 40 40 40 40 40 40 40 40 40 40 40 40 40 40 40 40 40 40 40 40 40 40 76 76 76 76 76 76 76 40 76 40 40 40 40 40 40 40 40 40 40 40 40 40 40 40 
114 114 114 114 114 114 167 167 114 114 167 114 114 114 114 114 114 167 167 167 167 167 167 114 114 114 114 114 114 114 76 40 76 76 76 76 40 40 40 40 40 40 40 40 40 40 40 40 40 40 40 40 40 40 40 40 40 40 40 40 40 40 40 40 40 40 40 40 40 40 40 40 40 40 40 40 40 40 40 40 40 40 40 40 40 40 40 40 40 40 40 40 40 40 40 76 40 40 40 40 40 40 40 40 40 40 40 40 40 40 40 40 76 76 40 40 40 40 40 40 76 76 40 40 40 40 40 40 40 76 76 40 40 40 40 76 76 114 114 76 40 40 40 40 40 40 40 40 76 40 40 40 40 40 40 40 40 40 40 40 40 40 40 40 40 40 40 40 40 40 40 40 40 40 40 40 40 40 40 40 40 76 76 76 40 76 76 76 76 76 76 76 76 76 76 76 76 40 40 40 40 40 40 40 40 40 40 76 76 76 76 76 76 76 76 76 76 76 114 114 114 114 114 114 114 114 114 114 114 114 114 114 114 114 114 114 114 114 114 114 114 114 114 114 114 114 114 114 114 114 114 114 114 114 114 114 114 114 114 114 114 114 114 114 114 114 114 114 114 114 114 114 114 114 114 114 114 114 114 114 114 114 114 114 114 114 114 114 114 114 114 114 114 114 114 114 114 114 114 114 114 114 114 114 114 114 114 114 114 114 114 114 114 114 114 114 114 114 114 114 114 114 114 114 114 114 114 114 114 114 114 114 114 114 114 114 167 114 167 167 167 114 114 167 167 167 167 167 167 167 167 167 167 167 167 167 167 167 167 167 167 167 167 167 167 167 167 167 167 167 167 167 167 167 167 167 167 167 167 167 167 167 167 167 167 167 167 167 167 167 167 76 40 76 76 76 76 76 76 76 76 76 76 76 76 76 76 76 76 76 76 76 76 76 76 40 76 76 40 40 40 40 40 76 76 76 76 76 76 76 76 76 76 40 76 76 76 76 40 76 76 114 114 167 167 167 167 167 167 167 167 167 114 114 114 76 76 76 40 40 40 40 40 40 40 40 40 40 40 40 40 40 40 40 40 40 40 40 40 40 40 40 40 40 40 76 76 76 76 76 76 76 76 40 76 40 40 40 40 40 40 40 40 40 40 40 40 40 40 40 40 40 
