P2
# Created by IrfanView
128 128
255
146 149 155 154 146 134 124 118 124 126 135 148 158 161 162 162 161 
163 163 161 158 154 146 140 138 139 144 142 142 144 142 145 146 
147 148 150 152 152 147 141 130 123 120 121 115 96 74 61 64 
76 82 83 84 83 81 81 74 65 60 69 88 110 138 141 123 
99 103 126 143 143 125 112 117 122 113 104 106 137 156 139 109 
85 104 121 121 118 125 143 150 147 134 134 146 152 154 152 143 
148 158 153 137 114 91 88 117 161 203 246 253 253 252 254 255 
255 255 255 254 254 254 254 254 254 254 254 254 254 254 254 145 149 154 155 142 134 123 121 123 125 135 148 157 160 161 162 161 
161 163 162 160 155 145 138 139 140 144 143 143 145 144 146 146 
149 152 153 153 150 145 138 127 122 121 122 115 96 74 61 63 
75 82 83 84 84 83 83 74 69 63 66 71 88 111 118 104 
99 107 130 144 136 122 114 122 118 110 102 113 140 154 135 108 
83 106 127 124 120 127 141 155 151 137 138 148 151 154 153 148 
156 162 149 130 104 85 93 136 182 238 251 252 255 251 253 254 
255 255 255 255 254 254 254 254 254 254 254 254 254 254 254 145 149 156 156 143 132 123 121 124 128 138 149 157 160 161 162 161 
161 163 164 162 155 144 137 141 141 145 144 145 147 147 148 146 
149 153 153 151 145 139 132 123 120 121 123 114 95 74 64 65 
76 85 87 87 85 84 86 81 76 69 66 69 78 90 92 88 
86 94 122 145 134 114 113 120 121 112 110 115 140 150 134 103 
87 111 123 118 121 133 144 155 149 138 142 151 153 156 158 155 
164 163 142 119 90 82 110 164 187 241 253 252 253 253 253 254 
255 255 255 255 255 255 255 255 255 255 255 255 255 255 255 147 149 157 154 146 131 125 120 125 129 139 149 157 161 162 161 161 
162 164 165 161 154 144 138 141 141 143 143 145 147 147 148 145 
148 150 148 144 137 131 127 120 121 124 125 115 96 76 65 66 
76 83 84 84 83 85 90 94 80 70 68 66 57 61 66 67 
89 100 133 160 147 126 110 116 119 101 107 119 144 151 126 91 
92 119 127 122 120 129 147 151 143 139 146 152 155 157 162 160 
169 160 136 110 81 86 135 177 207 245 253 253 253 253 254 254 
254 255 255 255 255 255 255 255 255 255 255 255 255 255 255 147 149 155 155 146 133 125 120 124 128 137 148 157 160 161 160 161 
163 165 164 159 152 143 140 141 141 143 142 144 146 145 148 146 
146 144 140 134 128 125 125 127 129 133 132 119 97 76 65 68 
78 84 84 84 83 86 92 93 87 80 85 85 92 89 94 110 
142 166 185 214 223 199 177 167 162 125 117 120 136 143 116 89 
98 118 119 122 123 132 152 149 141 143 150 155 156 159 163 166 
169 153 131 105 79 98 156 184 242 254 253 253 254 252 253 254 
254 254 255 255 255 255 255 255 255 255 255 255 255 255 255 147 149 153 156 143 134 122 120 123 128 137 148 157 162 161 160 161 
162 164 164 158 150 142 141 141 141 144 143 145 147 146 148 147 
144 140 135 129 126 127 130 139 143 144 141 126 100 77 65 66 
78 87 89 87 82 82 88 104 106 116 156 181 203 210 227 232 
247 250 249 250 250 252 250 253 249 203 191 164 161 138 105 74 
98 128 125 122 124 135 146 150 144 149 156 158 159 161 166 169 
164 144 121 97 84 117 169 198 244 252 251 251 252 254 252 254 
254 254 255 254 254 255 255 255 255 254 254 255 254 255 254 147 149 155 156 144 132 124 122 121 126 134 146 158 163 161 158 161 
160 162 163 158 149 141 138 140 140 143 144 147 149 147 149 148 
143 138 134 132 133 138 143 149 151 153 147 130 103 77 62 66 
76 83 85 85 85 89 97 127 163 206 232 248 252 252 251 251 
248 252 252 251 253 250 251 251 251 254 253 251 226 190 148 118 
113 121 119 116 119 134 143 146 141 149 156 156 160 162 168 170 
157 130 105 86 93 140 182 238 254 254 252 252 253 253 251 253 
254 254 254 255 255 255 255 255 255 254 254 254 254 255 255 146 150 158 155 145 131 126 122 121 124 133 145 157 161 159 157 161 
161 161 163 158 150 141 137 139 139 142 143 146 147 146 148 149 
144 140 138 138 141 148 153 152 156 156 149 132 104 78 64 69 
79 82 84 86 90 104 127 172 206 248 251 250 247 249 251 251 
248 249 252 251 253 253 252 253 252 252 251 251 252 251 251 247 
200 160 149 128 111 131 141 138 135 144 149 152 156 162 168 168 
150 119 92 79 101 158 193 244 252 252 249 251 253 253 253 254 
254 255 255 254 254 254 254 254 254 254 254 255 255 254 253 147 151 155 153 142 132 124 122 123 126 136 149 159 160 158 160 163 
163 163 162 157 150 143 140 141 140 141 144 146 146 148 150 150 
149 147 146 147 149 153 154 155 159 157 154 137 109 83 67 69 
75 87 91 86 80 117 187 250 253 253 252 250 252 251 251 249 
248 246 251 251 249 252 252 252 252 248 251 253 253 251 251 250 
253 250 250 201 152 136 136 132 139 143 141 150 156 164 168 163 
140 111 83 79 113 169 209 247 253 251 253 253 252 253 253 253 
254 254 253 252 253 255 254 252 253 253 253 254 254 253 251 146 149 154 153 142 129 123 123 123 127 137 150 160 161 160 160 161 
161 162 161 157 150 143 140 141 140 141 143 146 147 149 150 149 
149 149 151 153 155 155 156 158 157 160 160 142 120 87 65 73 
71 88 89 94 116 190 251 251 252 252 253 252 251 249 250 248 
243 239 236 237 245 249 251 250 249 249 252 251 252 253 253 253 
250 251 246 250 247 185 146 137 141 142 142 148 160 156 167 160 
133 104 77 81 132 178 234 253 251 254 253 253 254 251 253 254 
254 252 251 252 254 254 254 253 252 253 253 253 252 253 254 146 149 154 155 143 129 124 125 124 128 138 151 159 162 162 161 161 
161 162 161 157 150 143 140 142 141 141 142 145 147 148 149 150 
150 151 154 157 159 158 157 156 154 157 157 140 121 86 63 65 
77 93 99 149 202 243 239 250 252 253 251 252 251 250 246 244 
244 213 202 214 234 242 248 248 247 246 241 250 251 252 251 253 
252 251 252 250 249 244 194 150 142 138 145 153 154 159 165 148 
121 96 78 98 155 189 243 252 251 253 254 252 252 252 252 253 
253 254 253 253 253 252 252 253 253 254 253 254 254 254 251 145 150 155 152 140 129 123 123 125 130 139 150 158 162 163 162 162 
162 162 161 158 152 144 140 140 138 138 140 142 143 143 145 151 
151 151 151 153 154 156 157 158 161 160 158 143 122 85 70 80 
92 110 141 206 223 218 216 248 251 251 249 252 250 249 246 247 
241 212 207 213 217 245 249 247 248 244 225 239 247 251 252 253 
253 252 249 252 252 251 250 191 167 139 153 159 161 170 158 143 
116 88 76 114 166 210 247 252 251 252 253 250 254 254 253 252 
252 253 252 251 251 253 254 254 253 253 253 253 253 253 254 144 152 155 149 138 128 121 121 127 130 138 149 157 161 163 163 163 
163 162 160 158 151 144 139 142 141 142 145 147 147 147 148 149 
151 153 153 151 152 155 157 159 164 160 158 150 123 85 76 110 
154 173 207 249 246 248 251 247 247 248 250 251 244 248 250 243 
244 219 212 210 215 234 240 245 246 245 239 215 233 235 238 242 
240 247 246 251 251 252 251 251 225 164 155 154 158 159 154 135 
104 79 82 137 179 239 254 252 252 253 254 254 246 251 252 253 
252 252 254 253 253 254 252 253 254 253 254 252 255 254 253 144 154 157 149 137 128 122 121 126 131 139 149 157 161 162 161 161 
162 161 159 157 151 144 138 139 139 142 145 147 147 148 149 148 
151 155 157 156 156 158 159 156 160 156 158 155 127 104 96 131 
180 232 252 252 252 252 249 249 246 239 245 250 250 244 238 224 
242 243 222 209 205 212 217 239 244 244 218 211 211 204 212 211 
217 243 246 248 252 252 252 251 249 221 169 156 165 158 138 124 
98 79 97 156 189 244 254 252 247 247 242 241 207 231 249 253 
251 252 253 253 253 255 253 254 255 254 248 235 240 242 248 146 154 158 151 139 128 124 122 122 130 139 150 158 162 162 159 159 
161 161 159 157 152 145 139 139 142 147 149 149 149 150 150 147 
150 153 156 156 157 158 160 157 156 156 160 154 136 145 145 190 
241 251 253 254 252 253 251 250 239 217 237 236 236 223 219 246 
248 247 247 215 214 214 218 236 236 240 210 206 205 201 208 209 
215 235 238 236 238 240 251 254 252 249 214 171 157 148 127 101 
81 79 115 166 194 230 241 240 213 214 199 196 192 197 225 243 
252 254 252 253 248 240 242 247 241 239 223 202 196 199 220 145 152 157 152 139 127 123 123 122 130 141 152 160 163 162 161 161 
161 160 160 159 154 147 140 139 141 144 147 147 146 146 148 149 
151 152 152 154 155 156 157 157 157 160 163 155 152 191 203 250 
252 251 253 252 250 251 247 246 248 240 212 220 220 243 243 245 
249 247 247 226 221 216 211 214 215 236 214 205 202 199 204 204 
206 212 210 208 204 213 236 244 250 251 250 193 161 142 115 94 
81 93 142 177 195 200 200 197 192 195 195 187 184 187 203 219 
247 254 251 251 225 195 197 208 198 195 190 188 184 181 188 145 151 158 151 138 130 125 125 126 131 141 151 159 162 163 164 164 
162 160 161 159 154 144 140 145 142 143 146 149 150 149 150 153 
155 155 154 154 157 157 155 155 161 164 161 168 207 244 251 253 
253 254 252 253 252 249 247 245 249 246 240 249 250 249 252 251 
248 238 235 237 237 233 212 210 214 228 210 200 204 198 200 199 
207 210 202 207 208 211 214 217 240 247 250 227 174 130 110 92 
86 115 165 198 220 229 214 206 208 206 207 193 186 189 205 226 
249 254 251 236 205 191 190 188 190 186 183 178 173 179 177 145 149 157 152 138 128 123 125 127 133 143 153 160 162 163 163 160 
161 162 163 160 153 143 138 139 141 145 148 148 148 150 152 149 
150 152 153 156 159 160 160 159 156 156 169 200 242 236 232 238 
245 247 250 244 243 250 251 251 251 252 252 251 247 249 244 250 
247 219 218 211 207 217 219 208 202 196 204 200 208 205 193 194 
191 203 204 208 211 211 215 219 237 248 249 249 219 133 102 90 
100 153 186 232 251 252 252 245 246 249 245 222 206 216 245 254 
252 252 254 212 201 200 187 185 184 181 177 174 173 177 180 144 147 156 151 137 126 121 123 124 131 141 152 160 162 163 162 158 
161 162 163 160 154 145 140 138 140 144 147 148 148 150 151 151 
151 152 154 156 157 158 158 161 158 169 214 235 210 211 207 205 
214 217 235 220 219 245 252 252 249 243 240 234 234 240 220 233 
236 248 240 220 220 211 211 202 177 171 196 192 197 195 182 171 
178 198 201 210 214 208 215 210 233 248 247 246 247 189 98 82 
117 163 216 248 251 251 253 253 252 252 253 253 253 252 251 253 
252 254 242 210 199 193 185 186 183 181 178 175 178 180 185 146 149 159 154 139 128 123 125 126 132 141 152 160 162 161 161 159 
160 161 162 160 154 147 142 143 141 142 145 148 150 150 150 153 
154 154 153 154 158 158 157 161 163 182 196 201 203 210 209 209 
206 199 218 242 250 252 251 249 236 214 216 217 221 230 213 215 
213 241 243 241 224 201 201 180 178 167 157 175 184 173 164 164 
176 181 181 190 192 198 223 223 222 230 243 248 249 244 128 81 
126 173 241 253 250 253 253 251 252 253 253 253 253 253 254 252 
253 251 212 198 191 187 189 190 185 185 180 179 183 183 189 146 152 160 155 141 129 125 126 128 134 143 154 159 161 161 160 161 
160 161 162 160 154 146 140 143 143 143 144 147 149 151 151 151 
155 156 151 153 160 162 160 166 179 170 174 200 209 198 193 202 
202 209 238 245 250 242 250 246 230 219 236 228 207 212 217 244 
241 206 199 204 171 169 179 172 160 150 140 163 167 148 134 142 
153 171 193 184 171 183 190 226 243 225 229 245 250 249 198 101 
131 184 243 253 253 254 253 253 253 253 253 254 252 252 254 253 
254 237 202 185 186 191 185 187 187 187 182 182 185 183 188 141 148 157 151 137 127 122 122 124 130 140 151 160 162 163 163 161 
161 162 163 161 153 143 137 141 144 146 145 145 147 152 154 152 
156 156 153 152 158 162 164 176 182 150 171 191 193 197 184 189 
206 223 215 220 234 213 242 242 230 208 196 183 187 205 217 208 
189 146 166 177 155 156 161 168 136 123 108 120 140 119 111 141 
171 168 170 172 172 183 196 207 232 243 221 227 247 251 247 146 
158 186 243 254 253 252 253 252 253 254 252 253 253 254 253 251 
253 242 207 189 188 193 188 189 193 192 186 184 185 183 187 139 149 158 149 136 128 122 121 124 129 138 150 159 162 164 163 162 
163 164 164 161 154 146 140 142 145 148 146 145 148 152 154 154 
155 156 156 154 154 161 169 177 153 141 177 197 202 202 210 212 
223 231 213 208 204 212 211 198 175 173 182 184 191 186 190 169 
134 125 146 157 161 156 147 161 163 96 76 88 84 107 124 145 
163 157 153 153 166 189 209 222 222 243 246 210 242 253 248 187 
178 204 246 253 251 252 254 254 253 253 248 251 253 254 251 252 
252 252 207 190 188 192 196 196 205 201 190 187 184 184 187 141 153 162 152 140 131 125 125 128 132 141 152 159 161 162 162 162 
163 164 163 160 153 148 146 145 148 147 147 148 150 150 151 155 
153 155 159 156 153 162 176 162 111 145 172 194 201 201 200 209 
223 206 200 195 203 202 195 190 183 199 198 177 172 158 155 155 
117 115 113 113 115 124 137 136 158 105 49 43 56 89 114 132 
128 122 122 116 129 154 194 234 245 246 250 225 235 250 251 215 
194 242 254 252 251 253 253 253 252 252 252 253 250 252 254 253 
251 252 208 189 191 191 190 198 212 207 194 189 184 182 185 140 150 160 154 138 125 121 127 127 133 142 153 159 161 161 161 161 
159 163 162 160 151 142 142 146 149 146 145 147 149 150 152 155 
154 156 159 156 159 164 177 141 118 167 180 175 177 180 204 204 
202 186 204 202 202 195 208 192 169 158 138 117 113 149 169 131 
110 99 86 78 108 106 83 110 104 90 49 23 31 44 82 90 
93 107 110 106 108 104 134 187 234 250 252 250 224 245 242 208 
223 247 254 252 253 254 252 253 254 253 252 253 252 253 253 252 
252 248 202 192 196 192 193 197 209 213 196 192 186 178 184 143 151 157 151 139 126 121 125 128 133 142 152 159 161 161 162 164 
162 164 162 158 151 143 142 145 147 144 144 147 150 151 153 156 
157 156 155 155 161 169 175 165 166 186 176 172 176 172 173 203 
211 215 214 217 229 222 171 144 118 96 94 122 163 171 144 131 
105 78 103 95 120 135 108 87 73 67 71 27 16 27 28 36 
58 86 100 102 95 96 113 131 189 247 251 250 251 245 219 211 
235 251 254 251 254 254 255 255 253 252 253 250 254 254 252 252 
253 249 214 195 198 199 193 195 206 209 202 193 184 182 180 145 150 156 150 139 129 123 126 128 132 140 151 159 161 161 162 162 
160 164 162 157 150 141 141 144 146 145 146 149 150 150 151 152 
156 157 156 158 163 169 166 162 157 168 155 152 150 159 175 213 
235 237 237 222 176 131 107 99 97 110 128 139 145 134 123 86 
64 77 57 61 104 135 117 98 91 53 50 33 30 22 16 18 
51 74 92 95 95 97 94 113 151 232 252 252 251 240 207 210 
243 252 253 252 253 253 254 255 251 253 253 253 253 252 252 252 
252 246 210 194 198 197 195 195 205 200 198 195 183 178 184 142 149 156 151 141 131 126 127 128 131 140 150 158 161 161 162 159 
159 163 162 157 149 140 140 143 145 147 148 151 150 148 148 152 
154 154 157 159 164 169 164 155 117 135 134 135 150 170 181 197 
197 189 161 140 156 132 124 107 110 111 124 126 103 88 79 55 
61 50 48 90 117 122 122 119 106 75 53 32 21 15 25 30 
41 62 78 100 98 106 99 100 126 200 248 252 239 237 205 203 
243 252 253 254 254 252 253 254 252 252 251 253 249 249 248 250 
254 207 202 205 202 197 198 199 225 214 194 192 189 182 184 141 149 157 152 140 130 124 127 128 131 139 151 158 160 160 162 161 
161 164 160 155 149 142 143 142 145 145 146 149 150 149 151 155 
154 153 155 159 165 169 170 166 152 155 149 154 156 154 145 140 
134 114 114 124 138 133 138 135 126 114 100 80 67 62 41 60 
63 57 97 124 104 93 98 94 111 71 40 56 31 34 47 38 
41 54 65 77 98 104 97 100 127 174 236 244 211 211 201 209 
245 252 253 254 254 252 253 251 253 250 253 255 254 251 251 243 
243 206 200 202 208 206 198 195 215 208 196 195 189 182 184 140 149 157 149 138 129 123 126 128 131 140 152 159 159 160 163 163 
161 164 159 152 146 142 144 144 144 144 145 148 149 151 154 153 
153 153 157 162 170 165 173 166 162 155 161 156 141 137 115 98 
104 92 118 135 148 123 117 99 79 66 60 88 96 50 46 46 
53 89 94 81 74 101 112 90 89 85 53 62 51 54 64 40 
32 62 75 79 81 97 115 90 127 166 198 215 208 196 202 227 
249 253 253 254 254 252 253 252 253 251 252 252 247 251 250 227 
197 201 201 198 204 201 201 207 208 205 211 206 187 181 181 141 149 155 148 137 128 123 125 129 133 144 154 159 159 160 163 160 
161 165 161 154 147 141 143 143 144 144 146 149 149 150 151 150 
153 155 157 163 175 164 176 160 153 130 134 131 119 111 97 79 
66 68 111 133 100 93 89 77 55 45 111 100 54 44 59 38 
79 87 60 42 48 76 84 72 58 75 87 79 59 74 85 89 
59 51 69 74 93 101 107 116 120 163 171 204 196 175 198 241 
253 252 253 253 254 253 254 254 253 253 253 232 211 243 243 227 
200 190 196 198 214 216 205 197 195 201 202 197 190 188 183 141 148 154 148 138 129 124 127 129 134 144 155 159 159 161 162 158 
161 166 164 159 151 143 143 142 144 145 148 150 148 147 149 152 
156 155 154 161 176 166 183 158 154 146 133 113 117 103 78 69 
81 116 146 108 82 69 72 59 55 77 126 81 54 61 49 47 
68 50 34 36 53 75 88 92 73 68 98 98 76 74 55 126 
99 75 97 114 122 115 116 161 133 169 160 199 189 178 198 239 
252 253 252 253 253 253 254 252 253 249 245 205 190 239 249 249 
210 191 191 198 203 196 199 200 196 198 195 197 190 185 190 140 148 155 149 137 126 122 126 130 134 142 155 161 160 162 161 162 
162 163 159 158 154 143 138 144 144 144 144 144 146 147 148 153 
153 157 154 163 169 172 189 178 156 152 132 127 123 78 83 88 
91 118 129 94 91 90 74 60 64 108 79 81 65 94 47 49 
50 37 44 48 91 89 79 67 76 97 128 126 98 98 81 159 
165 116 105 126 147 122 118 168 172 151 148 174 177 183 201 219 
249 253 252 254 252 253 252 251 252 233 197 184 186 226 247 251 
209 191 195 196 196 198 202 194 194 195 195 194 190 188 193 142 150 157 150 137 126 122 126 130 136 144 157 162 161 163 162 163 
160 164 162 158 150 142 142 145 144 145 146 147 148 149 151 151 
156 157 157 161 172 181 183 158 147 157 120 132 99 65 85 67 
89 124 99 89 82 101 86 70 87 102 52 93 71 112 54 50 
47 27 41 58 84 77 79 92 104 130 140 158 113 101 126 171 
180 171 146 144 156 170 150 178 203 147 134 156 173 168 208 247 
253 254 252 253 253 253 253 250 241 210 183 177 182 212 243 252 
214 196 193 192 198 199 196 193 195 196 196 194 191 191 198 143 151 157 149 135 126 123 127 128 135 145 157 162 160 163 164 163 
159 163 164 157 146 140 145 145 143 144 146 147 147 149 151 154 
156 155 158 159 170 182 174 152 153 151 119 135 101 68 80 48 
83 130 111 98 95 110 97 98 107 86 90 109 104 119 68 69 
50 31 51 65 70 84 112 106 118 135 155 165 113 82 127 181 
188 191 162 154 173 183 180 176 178 142 124 151 170 164 222 251 
248 252 252 253 253 254 241 226 204 190 180 172 179 209 243 250 
209 191 188 188 196 198 194 192 195 197 195 192 189 191 201 142 151 156 147 134 126 123 126 126 134 144 156 161 160 163 163 162 
158 162 161 155 145 139 144 146 144 145 147 147 146 147 150 155 
154 154 155 158 166 176 180 165 164 135 137 137 120 92 95 46 
85 145 135 118 118 126 106 132 127 83 125 116 136 115 85 105 
56 48 75 79 77 104 117 94 99 114 143 135 94 82 120 182 
196 202 139 157 194 217 179 181 178 137 112 138 166 171 211 247 
254 253 254 253 252 254 213 194 194 191 177 174 181 211 242 251 
211 191 191 190 190 191 191 190 194 196 194 189 186 188 197 140 150 155 146 134 126 124 127 127 135 144 157 160 159 162 162 162 
159 162 158 154 147 139 141 146 145 145 147 148 147 148 150 152 
151 155 154 159 162 176 199 175 170 143 170 164 146 114 123 78 
117 162 153 133 152 154 142 164 147 133 160 146 171 141 103 141 
75 80 99 75 73 117 112 90 86 111 113 104 80 100 127 175 
175 173 134 153 186 243 196 173 200 177 117 134 172 182 202 245 
254 253 254 253 252 251 206 193 191 189 176 173 182 232 246 248 
207 189 189 186 185 186 189 189 193 195 193 189 184 185 193 139 150 156 147 135 127 126 129 130 136 146 158 160 159 161 161 162 
161 162 158 154 148 141 141 142 143 144 146 147 149 150 150 150 
151 156 153 156 157 169 195 169 177 179 199 202 175 128 130 119 
148 170 164 155 175 174 181 177 165 155 168 168 180 146 143 164 
93 105 130 91 86 117 114 100 92 118 99 96 92 108 120 164 
168 164 122 128 169 234 211 166 214 193 149 154 175 201 187 240 
253 253 254 253 253 235 202 189 192 186 172 179 185 237 252 245 
205 188 184 179 182 187 189 189 193 195 193 189 186 184 187 139 150 156 147 135 128 126 129 131 137 145 158 162 161 161 160 161 
161 164 159 152 146 141 141 141 143 145 144 146 149 150 148 152 
153 154 154 156 155 154 162 168 178 192 207 207 192 164 154 142 
151 171 164 174 183 184 186 169 165 160 168 158 162 145 148 158 
122 132 152 105 106 125 148 108 106 120 104 98 113 122 118 155 
175 145 111 96 143 176 193 169 234 215 185 179 196 188 210 247 
253 253 254 254 253 213 188 191 191 189 181 178 182 238 250 252 
211 189 185 179 179 183 187 188 192 195 193 191 188 184 185 139 151 157 146 134 128 126 129 130 135 144 156 161 162 162 160 161 
161 165 160 152 144 139 143 144 147 146 145 147 150 150 149 152 
152 152 157 158 159 145 126 148 147 153 168 153 161 180 175 150 
153 171 169 173 195 188 172 155 169 156 125 123 132 144 132 138 
140 148 155 125 139 134 155 118 126 124 107 99 114 141 132 153 
172 132 106 102 127 146 175 167 211 215 202 188 202 201 217 247 
254 252 253 253 247 206 186 191 194 190 181 179 189 239 250 251 
205 180 179 177 174 177 186 187 190 193 193 193 190 185 182 139 151 154 144 134 127 125 129 131 137 146 154 159 161 160 161 164 
163 163 161 155 145 141 145 147 146 148 149 148 148 152 155 151 
153 155 159 156 163 148 100 109 118 117 116 99 108 153 160 142 
141 164 155 167 171 168 149 134 151 121 88 109 115 130 114 123 
122 147 131 129 131 134 145 113 144 131 103 110 106 145 153 160 
170 130 105 102 125 122 155 164 175 207 202 190 184 178 205 246 
253 252 253 252 212 191 187 191 189 191 182 184 194 239 251 238 
199 177 174 170 174 177 182 182 188 191 195 196 189 184 180 142 152 154 143 134 127 125 128 128 135 144 154 161 162 163 162 161 
161 162 161 154 144 140 144 145 143 143 145 149 150 151 153 153 
151 152 157 157 162 149 102 66 74 83 76 56 75 98 115 117 
120 133 135 151 154 139 127 116 133 89 66 106 103 115 88 98 
84 114 109 114 107 108 123 100 120 149 114 121 114 150 160 155 
171 136 115 108 108 109 132 159 168 185 188 191 177 173 212 248 
253 254 252 251 208 191 188 191 189 187 178 181 197 239 251 216 
181 173 174 171 173 175 181 184 190 193 196 198 191 185 182 138 148 151 141 132 127 125 129 131 137 146 154 159 160 160 158 157 
160 162 160 153 144 139 143 145 143 143 145 147 149 150 152 155 
152 149 154 156 161 161 129 54 50 66 64 37 54 58 67 94 
116 118 120 130 136 119 111 96 112 87 53 102 97 91 66 78 
60 70 84 91 77 81 96 77 86 136 122 109 93 162 152 154 
165 141 116 109 105 99 126 142 173 181 167 166 165 151 186 240 
247 247 250 252 212 194 190 191 191 189 185 187 206 238 243 219 
188 176 174 174 180 181 181 184 192 196 198 199 192 185 180 138 150 152 143 135 129 127 129 129 136 146 154 160 162 163 161 157 
161 162 160 153 143 141 144 143 145 147 147 144 145 148 151 150 
153 152 155 155 157 169 155 64 37 46 52 30 42 51 47 70 
98 99 107 112 117 104 98 88 101 82 53 90 112 85 60 76 
73 49 72 77 63 63 65 56 80 116 117 101 79 153 145 154 
173 132 119 115 100 95 120 139 166 164 155 139 160 153 180 207 
203 209 241 247 215 191 193 192 189 185 182 180 193 214 216 200 
184 180 180 178 181 185 188 186 192 197 200 199 192 184 178 139 151 154 144 134 127 122 126 129 136 146 154 160 161 162 160 157 
161 161 158 151 143 142 145 143 145 146 145 144 144 147 148 148 
152 155 157 156 154 165 163 85 50 38 42 33 51 52 49 53 
75 82 106 111 109 100 84 72 84 85 63 68 119 73 60 80 
87 45 51 60 55 47 45 51 69 113 114 98 85 129 127 141 
164 123 123 120 104 83 109 132 157 145 139 105 128 171 208 202 
192 193 206 209 200 189 183 186 183 176 177 175 188 205 212 190 
177 175 175 176 181 185 187 184 191 196 197 197 189 181 175 137 149 153 143 133 126 122 127 131 138 148 155 158 159 158 158 158 
161 159 156 149 142 140 143 143 143 143 144 146 149 149 148 150 
150 151 153 155 155 163 162 105 82 53 48 35 55 43 62 66 
79 76 95 93 93 97 82 65 77 77 68 64 92 75 56 74 
82 53 41 55 56 39 36 46 59 110 111 96 84 105 99 127 
139 109 124 117 111 73 98 108 140 118 118 111 110 165 212 218 
204 199 198 193 182 180 176 181 179 172 169 168 177 188 192 186 
176 169 170 176 182 183 181 178 185 189 189 188 183 177 172 134 147 152 142 132 126 126 130 127 136 146 153 158 160 160 159 158 
161 159 155 149 142 139 140 141 142 143 143 146 150 149 149 152 
148 147 149 153 156 161 159 111 119 112 115 74 71 80 118 126 
117 92 114 103 88 95 92 72 62 71 77 94 104 89 74 95 
98 76 60 61 54 34 32 41 67 99 97 94 78 81 83 119 
118 82 117 113 108 79 84 96 133 111 113 116 105 166 242 251 
249 244 225 196 186 187 181 177 174 170 163 165 179 189 189 175 
170 171 175 181 181 181 179 175 180 182 179 179 176 174 171 131 144 147 136 126 120 122 128 129 138 147 153 156 157 156 157 159 
161 159 156 151 143 139 138 138 142 144 143 142 145 148 149 149 
147 148 150 153 154 155 151 113 109 128 198 198 196 199 196 189 
168 144 187 175 130 115 120 106 82 66 78 96 122 132 142 154 
161 154 157 142 115 77 56 46 58 88 92 76 72 74 77 108 
87 65 107 108 118 86 81 93 128 130 128 117 132 190 245 254 
253 252 252 218 194 183 185 185 180 174 161 162 181 196 195 187 
178 170 174 182 186 185 181 175 179 179 175 174 173 174 174 132 145 153 143 133 119 122 128 126 134 144 154 159 157 159 161 159 
160 160 157 150 145 142 141 141 144 147 146 143 143 144 147 150 
148 150 152 155 157 154 146 114 109 123 168 187 195 198 203 203 
201 195 200 197 191 190 188 185 172 130 109 105 133 158 151 141 
131 130 127 139 148 137 117 69 60 72 91 83 72 78 79 96 
82 71 96 97 108 93 86 98 124 139 120 122 143 201 248 254 
253 253 252 251 207 190 194 190 185 172 168 169 185 215 216 196 
181 176 180 185 187 183 181 179 180 180 176 173 172 173 178 137 149 155 141 127 116 119 126 129 136 144 153 159 158 158 158 159 
160 160 156 150 145 142 141 140 141 141 142 143 144 146 147 146 
150 152 152 150 151 153 151 119 117 120 124 143 137 140 157 191 
197 191 195 200 199 197 196 195 197 187 180 136 106 110 107 100 
114 126 129 105 101 99 108 97 91 91 98 87 63 61 73 83 
68 67 78 82 118 116 94 100 108 131 113 112 115 203 251 254 
252 253 252 252 214 199 195 193 187 173 169 171 187 221 218 197 
181 175 178 181 182 179 178 177 179 180 177 176 175 174 178 136 146 149 137 131 125 123 127 129 136 142 149 157 158 156 157 156 
159 160 157 150 145 140 141 144 142 141 141 143 145 146 146 146 
148 149 150 150 150 152 152 133 114 124 167 184 171 144 120 114 
148 180 181 192 192 189 195 190 187 190 143 108 91 95 119 143 
151 153 153 132 107 81 63 68 79 96 108 103 74 54 66 73 
59 58 72 82 121 130 93 104 98 124 121 110 149 238 253 253 
251 252 254 251 250 220 200 189 180 169 167 175 193 232 228 199 
181 173 174 176 176 173 173 173 177 179 179 180 178 175 175 139 148 150 139 133 127 122 124 129 136 142 148 155 158 158 157 154 
157 158 155 149 143 138 139 143 142 142 142 144 145 145 145 144 
146 148 151 151 150 151 148 139 127 128 157 164 149 149 137 116 
97 117 153 179 187 194 186 185 174 171 127 110 114 147 173 174 
168 154 153 137 118 99 81 69 70 81 94 109 100 72 68 73 
51 54 76 63 124 102 94 105 103 120 113 119 179 245 253 252 
253 253 252 252 252 243 210 192 181 171 170 177 192 232 225 198 
179 172 173 175 174 171 172 173 177 179 179 181 179 174 174 137 153 155 140 128 124 123 126 129 138 143 148 155 156 158 157 153 
155 157 154 147 142 138 137 138 139 141 142 143 144 145 144 140 
147 148 151 149 147 150 151 151 135 126 122 81 73 93 100 94 
101 118 128 161 194 196 195 191 175 128 122 141 141 119 104 100 
99 99 110 107 90 81 69 71 77 91 101 113 117 94 73 79 
68 76 72 54 110 83 100 91 113 112 99 118 192 248 252 253 
254 253 254 253 249 252 237 194 175 168 168 176 192 231 224 198 
180 174 176 179 178 175 177 179 181 183 182 182 179 175 175 134 149 150 138 127 126 126 131 129 138 144 148 152 152 154 155 153 
155 156 153 147 142 138 137 139 141 143 143 142 142 143 143 143 
146 143 148 148 147 152 151 155 129 114 92 50 75 92 79 82 
97 92 122 155 201 206 204 189 158 124 142 119 68 57 56 62 
55 36 43 43 62 61 59 80 95 110 112 111 122 120 105 81 
105 100 88 62 106 81 94 89 113 96 87 155 240 251 253 252 
253 253 254 253 252 253 245 201 179 172 169 173 187 219 216 197 
181 174 177 181 180 179 182 186 188 188 185 183 180 176 175 137 147 147 138 128 126 122 127 130 136 142 148 153 152 152 154 153 
155 155 152 147 141 138 138 142 143 142 142 141 140 141 142 143 
146 140 147 149 149 153 149 149 137 109 86 122 152 173 121 136 
183 172 114 153 201 217 206 193 137 134 157 100 95 179 160 100 
110 100 83 28 28 50 99 116 123 125 124 123 128 128 116 90 
122 108 91 80 108 88 88 98 122 65 106 229 253 249 253 253 
253 254 251 253 247 252 235 200 179 172 171 173 189 216 221 200 
180 174 177 180 180 179 184 189 191 191 186 182 178 174 176 135 147 150 141 129 125 120 129 132 136 142 151 156 155 155 155 153 
154 154 151 146 140 137 137 140 140 139 139 139 139 142 141 139 
146 145 150 148 145 152 149 147 145 128 135 158 148 199 165 166 
200 198 187 190 208 216 208 185 140 182 195 137 166 230 231 151 
138 162 138 103 55 78 121 139 144 136 130 125 117 119 115 104 
139 87 95 95 107 109 98 111 105 77 166 245 253 253 253 253 
252 253 254 252 253 250 252 213 187 179 174 173 189 210 219 202 
181 174 177 180 180 181 186 189 191 191 186 181 175 172 174 134 149 149 138 129 123 122 125 125 133 144 152 155 154 154 155 155 
152 152 150 146 140 134 134 138 139 140 140 139 138 140 142 144 
145 144 145 145 145 147 150 151 152 142 167 191 139 134 136 129 
137 159 200 208 209 219 203 181 151 194 203 201 182 143 154 158 
136 133 117 93 104 126 130 129 142 139 130 128 120 116 107 107 
130 127 121 117 116 117 109 127 101 155 239 252 252 252 251 252 
253 253 253 253 254 253 253 224 199 184 174 174 188 204 215 200 
181 176 180 183 181 178 180 186 189 189 189 183 173 171 173 136 147 145 135 128 123 122 124 127 134 144 151 154 153 153 154 156 
155 153 151 146 141 136 136 138 139 140 140 140 139 141 141 139 
142 143 143 145 149 152 150 145 147 153 187 208 190 162 152 148 
169 193 203 206 214 212 199 176 173 190 201 199 192 159 142 140 
139 140 129 125 145 162 169 159 151 138 135 145 135 111 96 103 
135 145 121 95 115 117 119 131 170 238 252 251 251 252 252 253 
254 253 253 253 253 253 253 247 214 189 179 174 185 198 201 195 
182 178 182 184 181 178 181 184 188 188 190 186 178 175 174 138 147 143 134 129 124 122 125 129 133 142 150 152 151 151 153 154 
153 152 150 146 141 138 137 137 138 138 139 139 140 140 140 139 
142 144 142 143 149 150 148 147 147 165 204 204 209 198 205 213 
208 215 210 201 211 205 189 173 176 190 196 202 203 206 192 162 
146 144 150 164 187 190 175 176 161 147 146 157 148 106 89 129 
129 103 79 83 132 135 115 165 238 252 251 250 253 253 251 253 
254 253 253 253 254 254 253 253 217 190 183 176 183 199 201 193 
182 182 186 186 182 178 180 182 187 190 192 190 183 179 174 137 146 143 134 130 124 122 126 129 133 140 148 152 151 151 151 152 
150 150 148 144 140 138 138 136 136 136 136 137 139 140 139 139 
141 143 141 142 145 144 143 146 145 165 209 210 210 213 218 236 
230 214 211 205 206 204 185 166 174 189 195 201 207 208 213 212 
202 200 199 192 191 191 183 180 167 155 137 134 127 98 98 125 
95 68 80 107 133 181 145 208 250 253 253 254 254 253 253 253 
253 253 253 253 253 253 253 250 215 189 181 177 185 195 195 188 
182 184 190 188 182 176 176 180 187 191 193 192 186 181 172 136 146 144 136 128 122 121 126 129 133 141 148 151 152 152 152 154 
152 150 148 144 140 139 138 135 136 136 135 136 139 139 138 139 
138 139 142 142 141 142 144 139 146 167 207 212 213 218 219 227 
241 212 202 204 200 194 181 171 170 189 189 204 213 212 204 211 
210 204 200 201 195 187 185 175 155 137 121 120 113 88 89 110 
82 78 102 109 125 146 174 241 252 252 251 252 247 253 253 253 
253 253 253 253 253 253 254 225 196 178 172 178 191 197 196 187 
179 182 189 188 182 173 171 174 183 187 192 191 184 179 171 137 149 147 138 129 121 122 127 127 132 141 148 151 151 152 153 155 
153 152 149 143 138 136 136 135 137 137 135 136 138 139 138 140 
137 138 142 143 140 141 144 144 149 168 206 206 213 222 242 247 
242 213 202 204 204 193 180 159 142 185 197 203 213 242 223 210 
210 206 202 199 194 188 174 155 140 130 118 111 98 106 127 103 
61 104 101 100 111 142 214 249 253 247 251 254 254 252 249 253 
254 253 253 254 254 253 253 211 189 180 172 172 185 193 196 187 
177 178 185 185 181 173 170 170 177 184 189 187 180 177 172 138 148 146 136 128 119 122 127 127 133 141 148 150 150 151 152 153 
153 151 148 142 137 135 135 134 137 137 135 135 137 138 138 141 
138 139 141 142 140 140 142 147 145 159 208 210 215 221 240 242 
211 188 201 201 201 191 176 143 117 143 182 200 221 243 225 212 
202 199 200 193 189 184 157 146 134 123 120 118 97 111 115 77 
79 96 100 96 110 181 241 245 249 253 249 252 254 251 253 253 
253 254 253 253 253 253 253 211 186 179 173 172 188 202 205 191 
178 175 180 183 183 177 172 171 177 183 187 185 177 174 173 136 145 142 133 124 117 119 125 126 133 141 148 149 149 149 151 151 
151 151 148 142 137 136 135 133 137 137 134 134 136 138 138 139 
139 138 138 139 140 142 140 138 145 156 207 210 210 218 218 212 
186 179 207 208 200 187 171 134 131 131 141 190 203 219 233 213 
206 199 200 197 189 180 166 144 128 117 124 142 133 149 133 105 
99 84 99 105 161 238 250 223 246 254 252 253 252 253 251 252 
254 254 254 253 253 253 254 235 198 179 175 176 195 210 202 193 
180 174 177 183 186 182 176 173 178 184 188 185 175 173 174 134 146 146 135 123 122 124 125 127 134 141 147 150 149 150 154 152 
151 151 148 143 137 135 135 136 137 137 136 138 137 136 137 139 
141 137 141 141 140 143 138 139 142 155 201 204 202 201 207 191 
158 185 197 199 192 169 143 139 142 120 112 189 194 209 212 204 
203 201 198 195 191 175 152 138 126 128 145 160 164 172 153 126 
143 141 121 152 202 246 250 226 243 253 252 253 253 253 253 254 
253 252 253 254 253 253 252 251 213 190 181 182 192 215 213 194 
179 174 181 180 187 184 178 178 184 186 187 183 180 174 175 135 146 145 134 125 123 124 124 129 134 140 146 151 150 150 153 151 
150 150 147 143 137 135 135 135 136 134 134 136 136 136 138 140 
141 138 141 141 140 143 140 142 142 154 194 195 197 196 192 161 
138 179 178 175 134 104 95 96 109 98 95 182 197 190 198 201 
201 198 195 191 186 172 142 130 122 133 156 162 164 189 192 196 
162 198 147 184 243 250 245 244 250 252 252 252 253 252 253 253 
252 253 253 253 253 251 251 253 248 203 182 181 193 208 203 192 
179 173 180 181 188 187 181 182 188 192 191 186 180 175 175 135 143 141 131 123 121 121 122 130 133 138 145 150 150 150 152 150 
150 150 148 143 137 135 135 136 137 134 134 136 136 137 139 140 
141 139 141 142 141 143 142 143 140 148 182 186 189 186 165 124 
134 180 195 183 119 82 96 104 88 107 138 193 191 183 189 192 
190 193 190 183 169 146 133 122 117 135 162 166 170 198 204 203 
172 202 167 205 244 246 222 220 240 247 245 242 242 251 253 253 
253 253 252 252 254 254 253 251 253 205 186 185 199 204 204 193 
179 174 180 183 189 187 182 184 189 196 192 186 177 172 174 137 145 143 134 125 123 123 124 129 133 138 144 149 149 149 152 152 
152 152 149 142 136 134 134 137 138 136 135 136 136 135 137 140 
141 141 142 143 143 143 142 142 138 141 163 176 169 159 134 110 
136 185 196 199 183 132 129 156 181 187 190 184 186 173 172 186 
189 176 170 171 153 131 121 112 117 142 159 163 184 205 198 201 
192 214 185 209 221 220 198 199 216 220 217 215 220 239 246 250 
253 253 253 253 254 252 253 251 250 208 184 180 192 219 202 190 
180 177 184 188 192 189 182 185 189 195 190 186 175 171 173 135 145 145 135 125 122 122 123 127 133 140 145 149 148 150 153 152 
153 154 150 143 136 134 135 134 137 136 136 136 134 133 135 137 
138 141 142 142 142 142 142 142 140 138 147 166 149 136 120 109 
152 197 199 197 192 186 181 186 191 192 190 188 183 165 142 155 
172 155 157 154 135 132 113 104 117 148 149 147 180 196 189 205 
194 213 180 207 215 209 191 191 196 197 200 195 190 213 239 250 
253 254 254 254 252 250 252 250 218 192 184 186 200 215 207 190 
180 181 188 194 196 189 183 184 189 194 188 186 177 173 173 133 143 144 134 123 119 120 122 126 133 140 146 149 149 150 153 151 
152 153 149 142 135 136 136 132 136 136 136 137 136 135 137 135 
136 140 140 141 142 140 142 141 140 138 137 158 145 136 141 128 
139 189 197 197 201 202 201 196 188 186 186 185 180 152 146 141 
142 145 148 136 124 122 108 111 124 153 154 154 189 201 200 201 
197 215 191 198 212 207 195 197 196 196 200 197 194 208 236 252 
253 253 254 254 254 253 253 248 221 190 181 192 208 219 203 183 
175 179 185 194 193 185 182 183 187 190 188 188 182 176 174 137 144 142 134 125 123 124 124 125 131 140 146 150 149 150 151 149 
151 151 146 139 133 134 135 133 136 137 136 137 136 136 138 134 
135 139 138 139 142 140 143 139 131 124 122 142 157 152 169 145 
112 108 98 114 149 185 178 161 146 159 171 161 150 139 131 132 
134 139 135 128 124 111 102 106 121 141 152 161 189 204 206 196 
202 214 192 205 234 218 205 200 208 217 209 199 199 213 244 252 
254 253 252 251 253 253 247 245 211 187 181 192 211 221 220 186 
172 177 180 188 185 178 178 180 186 189 192 192 188 180 177 136 140 138 129 122 120 122 122 124 129 137 145 150 149 148 149 149 
150 149 144 136 130 131 133 133 136 135 134 134 133 134 137 136 
135 139 137 139 142 141 146 138 120 105 105 123 162 161 183 181 
141 151 129 151 158 174 146 153 150 106 98 74 74 64 62 71 
135 140 133 131 118 117 102 109 127 136 147 153 174 195 198 170 
209 219 183 198 215 213 213 197 197 213 216 218 216 218 244 250 
252 253 253 251 252 249 229 217 194 187 182 186 196 213 201 183 
175 178 178 184 180 174 176 179 187 192 198 197 193 184 180 136 141 139 130 121 119 121 124 124 127 135 142 145 146 149 152 149 
150 148 144 137 131 132 134 130 132 134 131 132 135 134 136 140 
137 138 141 141 141 141 140 132 109 95 93 107 146 170 187 189 
190 191 175 161 191 229 229 231 225 185 155 85 85 65 93 137 
179 165 151 134 123 118 111 116 118 135 150 152 175 193 181 165 
212 210 180 181 193 195 192 190 190 193 213 216 218 212 220 219 
246 253 252 252 244 238 219 198 186 178 179 186 193 197 189 180 
173 175 175 177 171 168 170 176 188 194 196 195 188 185 182 135 140 137 128 121 119 120 121 123 126 134 142 146 146 147 149 148 
149 149 146 139 132 131 132 131 132 135 132 133 135 133 136 139 
136 137 141 141 142 144 143 128 109 91 88 105 130 163 188 190 
193 194 182 154 155 170 179 191 156 138 132 129 126 142 173 187 
192 182 172 142 128 109 110 107 116 142 151 153 171 174 156 171 
237 199 176 185 185 177 184 180 188 186 192 191 191 204 211 217 
245 251 249 248 234 219 201 190 181 173 173 181 189 192 184 173 
166 166 167 170 165 167 171 179 188 191 193 192 182 177 175 136 141 138 127 121 120 120 120 122 125 133 142 146 146 146 147 147 
146 145 142 135 132 133 134 131 133 137 135 135 136 134 136 139 
136 135 137 136 138 139 140 139 126 104 90 110 125 143 167 177 
186 193 183 154 152 167 181 173 155 133 122 118 135 162 184 190 
187 184 181 138 117 113 117 112 119 146 149 162 161 141 142 173 
239 213 184 184 185 188 188 188 184 190 189 182 188 194 212 220 
241 252 253 252 246 229 213 199 184 174 172 176 184 187 177 167 
159 157 155 159 159 165 173 182 188 188 189 186 175 168 168 135 142 137 125 117 118 119 119 121 123 130 138 143 145 146 147 147 
147 143 137 131 129 131 133 131 133 136 134 134 136 133 133 134 
133 135 138 137 140 142 143 145 129 111 93 99 110 120 152 178 
184 190 192 176 166 144 118 111 120 129 139 146 162 177 179 174 
179 183 168 130 116 119 112 115 129 139 155 150 136 120 136 184 
242 208 187 210 213 213 202 208 193 183 187 185 190 205 235 247 
251 254 249 250 252 248 248 223 193 175 171 173 183 185 177 165 
155 150 146 150 150 160 171 177 183 182 180 177 167 162 160 132 140 135 120 111 112 114 116 119 121 126 134 140 144 146 147 146 
147 145 139 131 126 125 126 129 130 134 131 131 132 130 131 132 
131 133 137 137 139 141 139 151 181 180 144 108 114 116 121 158 
185 192 195 184 179 179 173 170 159 151 140 145 149 168 169 144 
159 177 142 117 118 111 108 111 122 147 135 118 115 113 130 170 
242 193 193 221 235 239 217 217 214 215 198 190 198 221 247 253 
253 254 254 253 253 250 252 239 201 175 170 174 185 188 185 172 
160 157 152 156 154 160 170 175 183 181 176 174 169 167 163 131 138 134 119 107 107 111 114 116 119 124 132 138 143 145 145 144 
145 142 136 128 126 126 127 128 130 133 130 130 132 129 129 131 
131 132 134 134 136 132 133 169 191 181 173 129 114 111 98 129 
175 193 197 200 194 190 185 184 189 188 183 182 182 180 176 168 
176 172 131 118 115 104 102 115 121 132 101 103 108 105 132 171 
241 192 202 241 250 246 222 235 237 217 211 217 198 239 252 251 
252 252 252 253 253 251 251 248 208 178 171 175 189 194 192 179 
170 170 168 170 164 167 172 176 184 182 176 176 176 176 171 132 136 133 120 108 105 108 110 113 118 126 133 138 140 141 142 142 
141 137 130 124 125 128 128 126 129 133 130 130 130 127 127 126 
125 129 132 135 140 139 136 158 179 175 163 121 106 104 88 78 
132 190 202 205 202 201 204 207 201 196 189 195 187 174 177 183 
172 136 118 121 114 104 99 115 124 89 94 101 103 104 130 174 
236 194 203 246 234 219 221 220 240 236 220 212 210 245 253 253 
253 253 253 254 253 253 252 251 214 188 179 183 200 206 202 185 
177 178 178 181 174 174 177 180 187 183 179 181 183 184 182 130 133 130 120 109 103 103 106 110 118 128 135 138 139 138 137 140 
141 137 129 123 121 121 122 123 125 130 130 129 128 123 123 123 
122 124 127 133 137 138 133 127 134 126 101 85 99 97 87 60 
73 152 189 200 205 206 206 208 204 196 191 190 175 147 151 164 
154 131 121 112 105 90 106 113 89 91 96 99 97 103 118 180 
239 189 205 236 242 241 218 231 241 223 219 209 216 242 252 253 
253 253 254 254 252 253 251 249 216 197 189 192 214 221 214 199 
190 191 191 193 187 188 192 194 198 194 192 196 196 197 198 127 136 129 119 106 99 101 102 109 114 121 128 133 134 134 133 133 
132 129 124 118 113 112 115 122 123 125 124 127 124 122 119 120 
119 123 128 130 134 136 132 107 71 46 55 71 88 97 82 55 
37 73 160 190 199 198 199 198 196 185 186 177 160 145 140 135 
126 122 108 95 91 95 91 79 91 99 94 99 95 96 121 180 
240 220 212 240 239 212 197 220 241 236 222 213 209 244 253 253 
254 249 252 253 252 246 250 248 217 215 198 194 238 239 223 220 
214 213 215 213 211 211 212 218 217 235 237 237 222 231 237 130 133 119 105 96 94 97 96 102 107 114 121 125 128 130 129 124 
124 126 126 122 116 114 114 115 117 120 118 121 118 119 117 120 
120 124 125 127 131 131 124 99 58 51 78 97 98 91 79 51 
34 36 106 171 173 191 187 184 183 173 162 161 136 125 119 108 
96 90 81 77 76 78 74 84 95 97 96 99 93 92 124 188 
235 245 219 235 225 200 192 213 237 246 227 215 212 243 252 253 
252 252 252 250 248 243 247 242 222 214 204 213 240 246 247 225 
214 212 216 220 231 224 232 239 246 251 252 252 249 248 249 126 130 117 105 96 93 93 91 95 101 108 114 119 123 127 129 128 
127 130 132 128 119 113 112 113 116 121 118 119 117 119 118 116 
118 120 122 125 129 124 111 83 61 71 86 107 122 103 85 59 
27 29 61 119 145 139 139 143 137 130 127 118 118 99 81 77 
71 65 66 65 68 73 79 92 98 96 100 99 92 89 118 184 
221 245 244 244 220 197 194 204 222 239 235 220 213 245 253 253 
251 253 252 224 217 220 216 217 212 197 191 206 220 240 249 235 
220 221 218 222 220 237 246 241 250 253 252 250 250 252 253 124 124 112 99 90 87 90 91 91 97 104 112 118 124 127 129 129 
127 129 130 128 122 116 115 114 116 120 117 119 116 118 116 114 
117 120 122 127 129 117 95 61 44 64 88 115 131 120 110 62 
31 50 98 93 93 98 109 95 72 75 71 65 67 62 55 56 
58 58 63 65 73 81 92 93 98 93 94 88 91 92 117 174 
211 244 251 247 218 205 189 211 223 243 240 216 216 245 253 250 
252 253 249 224 199 211 217 214 202 186 186 196 214 241 245 220 
216 213 212 219 215 236 247 248 245 248 252 250 251 253 251 125 117 105 93 87 84 86 92 90 94 101 110 117 121 122 123 125 
121 121 123 123 120 116 115 114 114 116 115 117 114 114 111 111 
114 117 120 126 125 102 73 47 34 46 72 95 108 114 118 79 
46 93 105 69 74 85 118 178 164 99 45 41 40 40 43 53 
61 63 72 77 87 88 91 90 94 94 96 89 94 96 115 163 
203 219 243 245 198 233 215 209 234 243 246 223 216 245 251 252 
253 251 247 204 190 199 201 211 193 179 182 186 207 224 226 212 
206 209 213 216 215 218 221 232 248 224 242 251 228 234 243 131 115 101 92 91 89 87 91 92 95 101 109 116 119 117 118 122 
121 120 121 123 122 117 114 117 115 117 117 119 115 114 112 111 
113 116 118 122 116 89 54 34 38 41 48 64 89 109 108 69 
72 111 86 65 87 82 86 141 199 181 127 62 34 46 53 60 
70 78 85 86 91 91 89 91 90 92 99 95 96 95 111 157 
196 209 213 219 182 191 237 214 201 212 231 213 216 245 252 253 
253 253 226 200 196 189 194 201 190 180 177 182 212 218 216 203 
191 194 210 202 206 217 217 219 243 240 234 223 205 215 219 146 128 107 90 89 91 91 95 94 96 101 109 116 119 118 117 118 
120 122 124 127 129 124 118 114 113 115 115 117 113 114 113 113 
114 117 119 122 114 86 55 35 38 39 38 39 49 68 78 71 
98 104 75 73 83 78 80 84 148 190 189 166 103 65 65 72 
76 85 88 87 87 90 89 95 91 92 99 104 110 114 123 154 
161 162 161 151 169 170 182 152 134 154 199 213 217 244 252 253 
251 252 237 199 196 194 196 193 188 180 174 183 218 235 225 199 
190 196 191 202 194 211 219 218 220 221 221 218 202 209 216 163 152 132 104 95 94 90 93 93 96 102 108 115 120 121 121 123 
125 124 122 125 126 120 111 103 103 107 107 108 104 107 107 106 
107 111 113 115 109 85 57 37 33 35 34 31 35 60 89 98 
117 100 63 83 79 72 77 80 86 159 195 193 187 142 113 96 
84 87 88 88 87 91 89 92 96 110 123 137 152 152 146 140 
142 123 113 98 114 129 107 116 129 140 154 185 198 213 243 249 
250 250 249 218 194 209 216 212 194 178 179 186 209 242 224 210 
194 208 212 211 209 210 206 214 230 223 220 217 215 213 219 181 175 154 128 115 99 91 91 90 90 93 99 108 112 116 119 116 
116 115 115 113 110 101 91 87 84 87 86 90 90 85 93 91 
90 94 97 104 100 84 61 43 33 32 32 28 40 84 98 116 
117 93 59 89 84 65 78 86 70 92 177 193 199 189 184 179 
154 131 111 102 102 101 106 115 126 145 167 175 183 169 145 112 
100 76 84 117 115 90 85 97 114 107 113 120 132 137 170 206 
240 245 229 210 193 214 220 203 189 181 177 182 211 241 237 218 
213 214 218 219 211 217 216 217 237 228 237 241 228 216 229 175 177 174 165 151 121 97 84 84 83 83 86 93 98 102 105 99 
99 100 100 99 97 88 76 68 70 76 72 72 71 65 67 68 
69 71 81 83 89 74 61 52 41 32 34 45 82 113 114 111 
110 94 66 95 93 63 71 81 78 60 97 186 191 194 195 195 
190 181 173 177 178 172 170 172 177 188 193 177 157 125 92 69 
69 95 113 96 85 87 78 82 86 83 94 101 113 122 137 152 
192 214 213 203 188 194 206 202 182 174 166 183 208 217 217 199 
200 205 210 213 202 207 205 215 220 217 241 245 222 217 237 173 169 173 180 177 151 120 97 91 83 72 69 75 81 84 88 88 
90 94 96 96 96 90 80 74 71 71 70 68 67 63 64 66 
62 62 65 78 80 78 67 50 45 53 82 107 118 110 115 117 
104 81 58 92 100 69 62 75 79 64 61 101 166 191 187 178 
181 187 190 188 184 188 190 188 180 168 144 113 91 80 69 85 
105 102 84 76 73 74 86 88 82 80 83 97 109 119 125 128 
138 142 138 135 144 155 181 196 176 170 171 176 200 214 216 190 
188 195 199 198 187 190 189 194 200 213 237 225 214 214 206 165 157 167 180 188 176 152 124 111 103 91 87 92 94 89 88 96 
100 106 110 112 114 107 100 96 86 84 88 81 74 74 71 69 
71 72 74 77 81 83 86 93 111 120 110 115 118 115 113 113 
103 80 57 85 93 74 55 68 72 64 61 53 75 134 161 162 
163 166 172 170 171 169 144 131 118 107 91 80 78 92 101 98 
102 91 75 76 81 78 78 72 79 85 83 100 94 85 83 80 
74 74 75 79 90 93 116 142 167 167 165 179 193 209 199 188 
189 191 192 188 177 178 177 182 192 200 212 203 204 199 191 142 149 167 178 184 183 174 151 134 132 121 114 117 117 109 106 112 
117 123 126 129 131 127 116 107 100 98 98 91 86 89 87 81 
87 87 89 93 106 119 131 118 115 113 111 117 113 114 109 109 
103 77 57 88 96 88 55 64 73 61 66 63 38 52 110 126 
127 123 125 123 121 120 106 98 91 92 95 103 104 108 107 102 
94 78 67 70 74 75 78 86 95 92 83 88 82 75 78 78 
78 76 62 53 49 50 60 75 109 162 168 183 203 218 202 189 
187 190 191 189 178 175 171 177 185 189 196 192 190 186 195 133 147 166 173 178 181 177 163 161 163 154 141 138 137 134 129 124 
129 132 134 137 137 131 120 109 103 101 99 98 98 95 91 91 
93 102 114 140 138 128 116 114 109 109 117 109 105 108 107 107 
108 81 57 77 88 103 76 51 71 62 63 65 44 36 41 85 
101 97 94 101 99 97 105 112 108 108 109 114 109 106 104 98 
79 68 69 71 75 80 79 78 75 72 68 62 62 62 60 58 
55 57 61 62 43 34 34 43 51 98 164 190 210 235 221 196 
187 192 192 191 182 177 171 177 181 188 196 189 188 189 191 125 136 152 161 166 163 155 142 148 162 165 161 158 153 139 129 129 
132 134 133 134 135 127 115 105 99 100 101 100 95 89 93 109 
134 144 145 132 122 110 114 113 111 112 113 106 106 103 106 108 
106 80 61 72 88 101 87 58 60 72 66 66 66 47 31 40 
87 119 121 122 123 119 122 113 113 112 114 114 111 109 111 88 
75 73 75 72 69 67 64 65 59 58 59 55 53 53 46 44 
40 38 40 40 38 62 110 127 120 57 122 196 218 238 225 200 
190 190 188 188 182 180 175 187 186 185 194 189 190 198 201 111 115 124 128 130 126 122 114 122 141 156 166 175 170 150 133 129 
131 131 130 131 131 123 112 102 93 96 95 92 89 108 141 133 
144 139 124 117 110 109 115 113 112 114 103 109 112 104 108 111 
106 84 66 65 85 92 97 78 49 67 64 65 69 58 49 40 
50 92 123 122 116 118 125 115 113 110 114 113 107 89 81 74 
71 68 67 67 66 64 64 61 61 60 55 59 51 46 45 58 
74 70 48 53 100 118 105 122 100 44 61 165 236 229 216 197 
185 187 186 185 182 180 177 182 190 192 194 187 188 197 199 103 98 97 106 104 92 84 86 92 106 125 149 175 175 163 149 135 
124 126 127 127 125 119 102 96 86 94 90 104 169 213 181 133 
133 122 105 95 113 106 112 113 111 111 101 105 111 94 104 111 
109 84 66 56 78 89 91 97 60 52 69 68 64 76 71 43 
42 46 95 122 128 116 120 117 114 107 95 83 80 80 77 78 
77 78 81 77 74 77 77 78 79 76 72 71 69 64 59 59 
53 61 84 115 105 81 95 147 202 160 45 152 223 220 217 192 
188 183 183 188 176 178 182 186 193 190 191 190 185 193 197 104 97 87 87 84 74 60 61 71 86 108 133 165 175 174 159 135 
118 116 120 124 121 109 109 99 95 96 160 218 234 195 145 129 
118 111 90 89 108 116 103 104 107 109 104 104 113 85 82 97 
108 87 67 50 70 78 86 100 87 53 53 72 72 77 86 60 
43 38 56 102 109 103 95 91 82 77 76 75 73 75 78 79 
83 75 76 71 69 70 69 68 69 69 71 75 82 85 83 80 
84 85 88 83 64 65 104 156 235 242 195 183 210 219 216 197 
181 183 185 179 176 183 178 188 194 190 189 187 181 187 192 101 95 80 73 72 68 57 55 61 81 102 119 146 170 181 173 148 
130 131 138 137 136 134 133 124 129 184 240 244 206 153 124 123 
107 90 83 88 97 106 102 104 112 97 91 108 109 83 83 89 
109 94 75 47 57 74 82 89 87 60 49 62 71 70 79 70 
44 56 62 72 76 83 75 73 74 74 73 70 68 70 73 71 
76 65 65 59 62 65 69 67 66 64 62 60 60 57 52 50 
48 44 50 44 63 92 126 182 201 240 251 241 244 243 219 194 
185 182 174 178 174 180 179 186 190 190 186 181 181 183 188 104 100 88 85 80 70 57 56 62 81 99 106 122 151 175 178 160 
148 153 156 150 150 149 145 159 200 234 204 196 174 137 124 117 
100 77 84 87 95 93 103 103 108 88 88 113 97 79 86 86 
97 89 80 53 44 71 75 81 73 70 65 59 64 69 73 88 
50 47 62 57 67 72 72 73 75 73 69 71 75 75 71 72 
65 63 69 62 64 62 63 61 61 61 60 57 53 47 42 37 
33 37 33 41 78 91 151 181 193 219 243 248 251 252 247 219 
190 182 181 176 177 179 188 189 188 197 192 183 185 183 188 111 117 117 115 102 81 57 53 63 73 85 91 100 128 155 167 164 
155 145 140 136 135 131 163 194 198 191 174 167 150 128 126 113 
88 79 77 87 104 101 93 104 98 90 103 104 87 79 79 81 
82 82 84 65 39 55 72 76 70 74 75 69 63 66 75 81 
63 43 48 65 66 64 73 73 70 68 72 78 77 75 81 115 
73 60 61 59 63 60 60 59 59 57 54 51 47 42 37 36 
37 30 35 51 76 117 159 171 178 182 194 203 239 251 252 248 
242 208 184 180 177 186 184 191 197 210 205 192 192 187 191 132 150 151 143 123 97 63 52 61 67 76 86 94 113 131 144 151 
136 110 99 91 94 148 186 186 175 174 169 155 132 123 125 109 
79 79 72 88 100 99 91 103 101 89 102 87 85 80 80 81 
81 84 89 80 49 39 66 71 70 70 72 71 62 57 61 78 
82 51 44 62 68 66 67 69 74 76 78 79 74 75 86 122 
69 62 62 62 63 59 55 57 57 54 51 47 41 36 33 31 
21 30 51 86 113 136 153 155 161 167 166 183 201 242 248 247 
252 246 240 195 175 183 186 195 201 216 212 200 196 190 195 161 176 174 160 134 101 62 48 60 73 85 97 102 108 114 124 126 
109 83 62 55 89 178 188 168 164 174 158 151 130 129 121 103 
77 73 78 87 90 90 92 93 103 86 90 83 81 74 78 78 
79 81 86 83 64 35 47 67 71 69 72 70 63 59 52 57 
75 70 62 57 63 62 58 66 74 73 70 75 78 80 84 92 
60 58 59 59 59 60 60 53 50 48 45 40 34 29 24 22 
29 71 102 114 121 139 144 142 146 152 167 171 181 192 203 241 
251 252 249 242 188 173 179 186 192 203 202 193 188 185 191 162 174 176 169 139 97 56 43 54 80 99 110 108 106 106 116 122 
112 92 56 63 146 183 173 167 172 162 161 151 120 124 120 100 
71 71 82 86 92 99 87 102 103 93 85 84 77 79 77 76 
73 74 83 86 75 52 37 63 74 66 69 71 64 65 62 57 
56 63 65 74 73 64 63 66 71 71 71 74 72 77 94 69 
59 57 58 60 57 58 54 54 50 45 38 33 30 28 26 39 
83 113 117 115 115 135 132 132 140 150 157 159 167 172 183 195 
238 249 249 252 242 188 161 174 179 184 185 178 174 173 180 141 164 177 166 137 102 61 37 54 89 105 113 104 92 97 102 114 
118 98 74 81 177 177 169 170 167 164 163 145 126 116 106 83 
60 73 84 85 85 93 96 109 99 87 84 78 71 75 72 70 
67 70 69 73 75 65 41 52 64 64 58 65 63 66 64 65 
55 57 58 63 68 67 63 66 66 76 66 66 83 104 109 63 
53 57 60 56 56 55 49 46 45 38 30 28 24 22 55 98 
113 115 109 113 115 123 126 125 127 133 134 141 147 157 167 178 
192 200 221 247 249 245 189 159 164 173 175 165 162 159 169 119 148 169 161 136 107 73 47 57 86 97 99 86 73 80 86 99 
107 94 81 111 178 178 172 173 169 166 158 135 124 127 99 63 
60 75 80 81 82 92 102 103 96 84 81 75 69 69 64 67 
64 71 70 72 73 66 45 42 56 59 48 49 52 58 58 59 
60 60 52 55 60 56 77 65 72 56 53 69 107 111 92 62 
61 52 53 59 50 47 48 43 41 35 26 24 30 73 101 114 
115 115 110 114 116 120 125 125 120 116 123 132 133 140 154 156 
163 167 184 196 194 196 233 180 157 175 173 168 162 162 168 110 139 160 154 128 99 73 53 54 71 79 73 60 51 57 64 75 
85 82 84 144 178 178 172 170 167 167 156 123 113 135 104 64 
61 73 85 90 81 88 107 102 84 74 77 71 62 64 67 66 
64 74 78 76 74 73 59 35 44 45 41 40 38 37 37 37 
44 51 55 59 59 53 69 66 63 46 48 79 110 108 75 56 
54 50 49 53 51 45 46 40 29 27 25 44 91 104 116 114 
112 115 111 113 113 119 119 120 118 108 111 116 122 122 128 139 
141 157 161 154 162 171 194 192 165 175 183 178 174 173 176 103 124 143 135 108 85 69 57 52 57 61 52 39 34 36 42 50 
60 64 90 163 180 176 169 168 164 171 164 118 99 130 119 67 
56 60 75 86 84 83 82 78 73 68 68 69 73 77 75 74 
70 76 79 74 72 73 68 45 36 43 50 43 41 42 36 34 
34 28 31 48 46 43 61 55 49 44 50 92 100 111 74 53 
60 51 55 49 42 44 33 30 28 27 56 97 108 109 118 116 
109 110 108 111 113 116 111 113 116 110 108 108 112 109 105 112 
124 127 131 150 150 132 159 153 182 181 180 187 186 183 184 82 95 109 103 83 71 67 64 61 55 52 37 26 23 21 26 33 
35 48 110 166 180 171 169 169 164 166 169 120 68 107 128 106 
62 54 67 70 79 85 72 63 65 80 102 112 109 98 88 82 
77 76 76 70 70 71 69 62 52 45 45 46 44 43 61 78 
72 77 54 56 56 40 43 54 54 49 94 109 112 127 83 28 
30 30 32 34 36 30 34 29 27 69 105 107 105 116 113 115 
111 111 110 112 111 114 108 111 111 112 112 113 107 101 101 102 
101 103 118 154 168 134 146 138 172 179 176 182 188 187 190 60 64 70 67 59 60 66 70 69 58 46 28 18 15 12 17 19 
13 38 134 167 177 166 171 166 166 161 170 133 46 76 103 130 
113 69 54 72 79 67 64 79 95 108 101 90 88 86 82 79 
77 73 69 64 65 66 65 67 66 59 50 47 44 46 74 74 
85 78 68 78 57 48 52 63 53 73 96 136 154 141 70 32 
30 30 33 34 39 42 32 46 77 103 110 107 119 110 106 114 
114 116 113 110 107 110 109 107 108 112 110 114 106 101 101 87 
92 108 115 138 173 173 133 157 131 167 186 173 180 183 193 35 33 37 41 45 58 72 76 72 64 45 24 15 12 9 10 10 
6 40 147 166 171 165 169 166 168 161 169 149 65 58 68 98 
122 124 108 80 72 78 84 85 84 89 85 81 80 75 74 75 
72 67 63 56 57 58 63 61 67 61 54 55 51 47 74 59 
66 89 73 65 83 72 55 55 64 84 75 84 99 88 141 160 
59 36 66 90 73 62 52 97 109 114 112 111 109 115 115 110 
112 115 110 108 105 108 110 105 109 113 107 108 107 101 91 96 
101 92 107 115 149 186 167 146 125 164 185 178 171 181 197 21 17 20 27 37 55 70 74 76 72 49 27 17 11 6 6 6 
8 47 148 165 167 169 168 167 163 157 153 147 98 51 52 64 
83 97 116 117 118 113 100 82 75 75 71 70 73 70 70 67 
66 63 64 58 63 72 88 89 64 57 58 52 53 52 67 74 
58 89 106 65 66 68 53 59 60 67 85 103 160 179 227 235 
179 193 205 214 187 163 125 108 106 112 112 111 115 113 112 108 
108 108 104 109 110 110 111 110 113 109 110 110 106 92 81 93 
100 101 93 103 128 170 190 159 158 152 173 182 176 184 197 12 10 14 23 36 50 61 67 72 74 61 39 22 10 7 6 7 
18 73 152 168 164 167 162 161 158 149 152 146 105 46 48 53 
58 64 75 88 101 111 113 110 113 111 99 88 89 77 78 72 
72 84 84 92 93 100 99 99 84 61 62 58 48 49 64 98 
65 83 125 84 61 120 80 77 125 149 180 221 242 242 243 240 
240 241 245 246 240 235 202 144 126 120 110 110 113 115 112 112 
111 104 100 108 104 110 114 110 110 111 113 116 96 81 70 75 
90 102 95 95 109 139 178 188 179 164 180 183 182 189 209 4 5 10 22 36 49 58 65 75 78 70 53 35 21 11 9 11 
31 104 152 166 160 161 161 158 157 153 154 150 102 47 45 50 
52 56 58 61 66 75 81 86 92 88 82 83 81 83 81 90 
97 95 92 96 91 94 90 92 94 93 93 84 65 50 44 54 
58 62 98 103 64 102 171 147 224 220 204 189 158 172 235 242 
242 236 243 245 246 248 239 226 225 218 153 112 116 118 112 114 
111 110 106 106 108 106 113 113 116 117 114 103 82 67 46 77 
97 97 96 89 98 118 155 193 186 186 191 181 188 197 227 5 7 14 27 42 54 61 65 73 76 74 65 53 37 22 14 13 
39 123 151 159 157 159 164 160 159 155 152 145 96 48 45 49 
51 54 56 57 56 56 56 57 64 62 61 65 67 86 89 92 
101 99 86 82 85 84 87 87 86 88 98 93 72 65 37 37 
53 56 67 92 57 66 144 145 117 99 99 109 132 199 240 242 
239 242 247 245 247 249 247 247 246 245 229 171 123 106 118 112 
102 101 105 108 105 113 113 110 114 117 111 83 78 46 42 92 
101 89 90 86 93 107 141 168 192 217 197 187 192 204 219 3 7 18 33 45 54 58 63 69 72 75 74 66 51 33 20 13 
36 120 155 151 157 162 161 164 163 154 152 139 97 48 43 46 
47 50 54 56 58 58 58 59 57 57 57 65 83 88 90 89 
88 87 81 84 85 80 70 86 87 79 82 78 67 77 54 34 
32 46 47 75 40 39 78 75 59 64 110 155 214 238 243 239 
240 247 249 248 249 247 245 240 243 238 236 235 173 115 107 108 
103 100 99 106 104 113 115 111 117 113 95 83 56 32 61 103 
97 85 80 84 89 104 132 156 184 223 207 188 193 195 211 4 15 30 43 54 62 67 71 75 75 79 79 73 61 42 27 13 
25 117 158 150 156 161 157 163 164 159 160 145 103 52 41 44 
44 45 48 51 55 56 57 61 56 55 56 65 88 83 82 87 
68 76 84 95 93 70 79 84 84 84 75 71 76 67 63 47 
27 43 46 70 122 113 103 152 212 220 231 242 245 242 237 238 
239 244 241 242 250 250 247 244 245 241 239 245 229 221 156 104 
99 93 102 110 112 112 110 117 114 108 86 72 38 24 82 112 
97 87 77 80 81 94 112 132 167 193 221 198 187 191 198 8 22 37 48 55 61 66 70 75 72 74 73 68 63 49 31 10 
27 130 156 152 155 156 158 163 163 164 161 150 105 62 42 47 
46 45 46 48 50 52 53 53 55 55 52 56 69 87 85 94 
89 72 68 74 84 69 90 94 89 89 83 82 81 65 79 54 
37 33 33 41 114 113 92 125 118 123 116 121 160 233 242 242 
241 240 241 245 250 252 250 243 243 242 244 244 246 246 234 191 
111 92 104 106 111 121 119 114 115 91 88 49 29 41 97 111 
97 88 80 76 79 85 95 114 150 176 202 200 194 187 195 28 37 47 52 55 58 61 63 62 60 62 59 58 60 54 35 11 
52 149 151 152 155 155 160 163 160 162 156 147 105 72 49 46 
45 45 44 45 48 50 51 49 47 48 50 57 67 88 82 73 
69 64 66 72 81 64 73 88 88 90 92 83 66 62 84 60 
53 27 21 23 31 40 31 37 34 35 47 88 202 237 240 245 
246 242 242 245 245 248 246 244 242 241 240 244 242 244 244 238 
126 99 105 109 122 118 121 117 101 89 71 34 25 59 101 106 
93 83 79 75 80 84 93 104 134 165 185 221 203 187 204 41 48 53 53 52 54 56 56 53 53 54 49 50 58 59 38 23 
91 161 150 148 155 155 158 159 160 161 158 143 109 76 55 50 
49 45 43 42 44 46 49 48 45 55 63 59 64 62 60 60 
70 80 65 64 73 81 64 67 70 85 91 93 79 62 67 60 
59 36 31 48 29 39 44 32 38 66 124 208 239 204 236 247 
245 215 202 203 212 235 240 242 242 242 243 246 244 246 243 244 
212 111 100 120 117 111 115 113 89 86 48 30 25 69 107 109 
88 81 72 75 76 85 94 101 116 152 175 201 203 207 213 45 48 50 51 52 54 56 58 60 54 55 55 57 63 59 35 34 
124 158 149 150 155 159 160 161 162 157 161 154 112 68 52 50 
47 48 45 43 41 47 50 49 48 60 60 57 55 51 51 53 
59 61 57 55 61 79 62 57 57 69 86 95 79 55 54 57 
52 36 31 75 41 48 99 161 198 205 179 234 217 186 191 207 
239 231 194 191 182 222 241 240 241 241 247 248 244 241 244 242 
243 217 209 124 107 114 113 103 86 68 34 26 28 88 108 102 
87 73 64 64 65 72 80 90 101 129 159 179 195 196 207 44 45 48 54 61 67 70 72 71 67 69 72 71 70 61 37 52 
150 156 145 157 155 156 156 159 157 159 160 153 124 58 45 45 
45 49 46 47 47 51 47 53 62 66 59 59 57 52 50 55 
57 55 52 53 54 60 61 55 57 54 63 68 60 53 55 76 
89 120 65 53 54 17 50 189 246 235 149 190 220 199 175 220 
242 245 230 221 192 228 241 242 243 245 248 242 242 242 242 244 
240 245 222 72 49 66 80 74 80 53 33 25 33 86 109 91 
74 59 51 49 50 56 63 71 84 112 147 173 194 195 211 60 60 61 67 73 77 79 77 72 73 78 79 77 74 62 46 80 
153 149 148 152 149 148 156 157 158 162 156 155 142 84 45 45 
45 47 43 45 48 54 50 56 78 76 64 63 58 56 55 55 
57 60 58 55 53 56 60 55 57 68 59 56 56 60 92 140 
174 183 165 194 197 163 90 79 193 233 184 186 176 179 162 230 
245 241 241 233 192 229 241 245 247 248 246 237 242 247 247 247 
245 241 232 136 109 192 185 155 122 48 15 19 63 104 104 77 
60 48 42 43 46 51 59 60 72 100 128 155 182 200 227 79 76 76 79 81 82 81 78 76 75 77 77 74 70 54 50 103 
141 146 152 148 152 159 152 156 158 153 154 158 158 119 60 47 
45 47 48 47 44 46 45 51 67 69 67 75 66 57 54 60 
60 59 57 56 66 73 60 60 56 57 56 57 55 57 88 147 
183 207 227 219 236 241 210 165 214 238 230 189 155 137 125 168 
210 213 202 190 185 197 234 244 244 244 241 233 236 242 247 245 
239 243 246 234 231 251 251 242 230 205 196 93 53 86 80 57 
48 41 36 39 47 56 61 68 74 88 110 143 172 191 219 66 65 64 66 69 71 73 72 70 69 68 67 63 56 39 45 113 
140 153 157 144 122 156 153 155 153 157 156 155 155 135 88 64 
50 41 42 41 40 40 41 42 46 61 67 72 64 56 58 53 
56 61 78 78 63 68 75 76 77 74 74 76 61 56 118 208 
221 235 232 200 232 239 239 208 231 237 235 197 215 211 184 126 
107 139 175 177 165 181 203 238 245 242 242 242 242 243 243 245 
240 246 249 249 253 250 249 253 254 255 253 224 202 95 42 40 
40 37 32 33 45 55 59 64 71 82 102 133 157 180 220 35 33 34 37 44 53 61 63 63 65 63 60 57 48 31 43 119 
138 162 174 165 113 118 154 158 153 146 147 147 159 138 92 85 
77 69 62 51 44 35 27 22 30 56 60 56 48 42 44 49 
56 67 69 66 61 62 83 85 84 73 67 64 58 72 173 234 
239 210 232 229 238 241 232 226 233 240 239 232 238 235 202 146 
142 176 207 184 171 184 218 238 243 242 241 244 244 245 244 236 
244 250 253 251 250 253 251 251 248 251 250 253 254 201 64 27 
35 34 30 31 43 54 58 53 63 79 93 117 136 173 230 12 11 12 20 31 43 52 57 62 62 57 51 45 39 28 49 132 
143 164 175 179 143 72 82 117 149 143 151 121 146 126 92 84 
86 86 84 75 75 70 67 66 63 69 65 64 56 50 52 58 
52 60 59 59 67 57 57 57 62 54 86 155 147 91 192 237 
240 221 234 240 235 204 233 243 243 233 238 232 210 221 190 181 
200 198 226 220 220 218 234 240 239 239 237 237 238 240 244 243 
247 248 252 254 251 218 243 251 252 251 253 252 230 198 63 25 
31 27 27 30 38 48 52 55 64 72 81 109 130 159 203 57 53 52 57 64 69 70 69 70 68 61 53 52 58 64 86 133 
139 155 170 175 174 130 73 61 110 159 153 143 129 111 94 97 
81 73 79 81 86 82 81 75 80 78 71 62 37 32 36 40 
48 56 61 62 63 53 60 123 125 107 180 226 194 150 216 239 
242 238 239 241 232 225 240 240 214 228 236 232 219 229 222 204 
196 194 225 213 223 231 236 236 212 227 234 237 242 240 244 243 
246 249 250 252 252 208 219 246 216 242 254 251 246 234 188 63 
25 25 27 32 34 37 43 51 64 69 70 97 119 148 187 