P2
128 128
255
115 115 115 115 115 41 41 41 41 41 41 115 115 115 115 115 115 115 115 115 115 115 115 115 115 115 115 115 115 115 115 115 115 115 115 115 115 115 115 115 41 41 41 41 41 41 41 41 41 41 41 41 41 41 41 41 41 41 41 41 41 41 41 115 41 41 41 41 115 115 41 41 41 41 41 41 41 115 115 115 41 41 41 41 41 41 41 115 115 115 41 41 115 115 115 115 115 115 115 115 115 41 41 41 41 115 178 235 235 235 235 235 235 235 235 235 235 235 235 235 235 235 235 235 235 235 235 235 
115 115 115 115 115 41 41 41 41 41 41 115 115 115 115 115 115 115 115 115 115 115 115 115 115 115 115 115 115 115 115 115 115 115 115 115 115 115 115 115 41 41 41 41 41 41 41 41 41 41 41 41 41 41 41 41 41 41 41 41 41 41 41 41 41 41 41 41 115 115 41 41 41 41 41 41 41 115 115 41 41 41 41 41 41 41 41 115 115 115 115 115 115 115 115 115 115 115 115 115 41 41 41 41 115 115 235 235 235 235 235 235 235 235 235 235 235 235 235 235 235 235 235 235 235 235 235 235 
115 115 115 115 115 41 41 41 41 41 115 115 115 115 115 115 115 115 115 115 115 115 115 115 115 115 115 115 115 115 115 115 115 115 115 115 115 115 115 41 41 41 41 41 41 41 41 41 41 41 41 41 41 41 41 41 41 41 41 41 41 41 41 41 41 41 41 41 115 41 41 41 41 41 41 41 41 115 115 41 41 41 41 41 41 41 41 115 115 115 115 115 115 115 115 115 115 115 115 115 41 41 41 41 115 178 235 235 235 235 235 235 235 235 235 235 235 235 235 235 235 235 235 235 235 235 235 235 
115 115 115 115 115 41 41 41 41 41 115 115 115 115 115 115 115 115 115 115 115 115 115 115 115 115 115 115 115 115 115 115 115 115 115 115 115 115 41 41 41 41 41 41 41 41 41 41 41 41 41 41 41 41 41 41 41 41 41 41 41 41 41 41 41 41 41 41 115 115 41 41 41 41 41 41 41 115 115 41 41 41 41 41 41 41 41 115 115 115 115 115 115 115 115 115 115 115 115 115 41 41 41 41 115 178 235 235 235 235 235 235 235 235 235 235 235 235 235 235 235 235 235 235 235 235 235 235 
115 115 115 115 115 41 41 41 41 41 115 115 115 115 115 115 115 115 115 115 115 115 115 115 115 115 115 115 115 115 115 115 115 115 115 115 41 41 41 41 41 41 41 41 41 41 41 41 41 41 41 41 41 41 41 41 41 41 41 41 41 41 41 41 41 115 115 115 178 178 178 115 115 115 41 41 41 115 115 41 41 41 41 41 41 41 41 115 115 115 115 115 115 115 115 115 115 115 115 41 41 41 41 115 178 235 235 235 235 235 235 235 235 235 235 235 235 235 235 235 235 235 235 235 235 235 235 235 
115 115 115 115 115 41 41 41 41 41 115 115 115 115 115 115 115 115 115 115 115 115 115 115 115 115 115 115 115 115 115 115 115 115 115 41 41 41 41 41 115 115 115 115 41 41 41 41 41 41 41 41 41 41 41 41 41 41 41 115 115 178 178 235 235 235 235 235 235 235 235 235 235 235 178 178 115 115 115 41 41 41 41 41 41 41 41 115 115 115 115 115 115 115 115 115 115 115 115 41 41 41 41 115 178 235 235 235 235 235 235 235 235 235 235 235 235 235 235 235 235 235 235 235 235 235 235 235 
115 115 115 115 115 41 41 41 41 41 41 115 115 115 115 115 115 115 115 115 115 115 115 115 115 115 115 115 115 115 115 115 115 115 115 41 41 41 115 115 115 115 115 115 41 41 41 41 41 41 41 41 41 41 41 41 41 115 178 235 235 235 235 235 235 235 235 235 235 235 235 235 235 235 235 235 235 235 178 115 41 41 41 41 41 41 41 115 115 115 115 115 115 115 115 115 115 115 41 41 41 41 115 115 235 235 235 235 235 235 235 235 235 235 235 235 235 235 235 235 235 235 235 235 235 235 235 235 
115 115 115 115 115 41 41 41 41 41 41 115 115 115 115 115 115 115 115 115 115 115 115 115 115 115 115 115 115 115 115 115 115 115 115 115 115 115 115 115 115 115 115 115 41 41 41 41 41 41 41 41 41 41 41 41 115 178 235 235 235 235 235 235 235 235 235 235 235 235 235 235 235 235 235 235 235 235 235 235 235 178 115 115 41 41 41 115 115 41 115 115 115 115 115 115 115 115 41 41 41 41 115 178 235 235 235 235 235 235 235 235 235 235 235 235 235 235 235 235 235 235 235 235 235 235 235 235 
115 115 115 115 115 41 41 41 41 41 115 115 115 115 115 115 115 115 115 115 115 115 115 115 115 115 115 115 115 115 115 115 115 115 115 115 115 115 115 115 115 115 115 115 115 41 41 41 41 41 41 41 41 41 41 115 235 235 235 235 235 235 235 235 235 235 235 235 235 235 235 235 235 235 235 235 235 235 235 235 235 235 235 235 178 115 115 115 41 115 115 115 115 115 115 115 115 115 41 41 41 41 115 178 235 235 235 235 235 235 235 235 235 235 235 235 235 235 235 235 235 235 235 235 235 235 235 235 
115 115 115 115 115 41 41 41 41 41 115 115 115 115 115 115 115 115 115 115 115 115 115 115 115 115 115 115 115 115 115 115 115 115 115 115 115 115 115 115 115 115 115 115 115 41 41 41 41 41 41 41 41 41 115 235 235 235 235 235 235 235 235 235 235 235 235 235 235 235 235 235 235 235 235 235 235 235 235 235 235 235 235 235 235 235 115 115 115 115 115 115 115 115 115 115 115 41 41 41 41 41 115 235 235 235 235 235 235 235 235 235 235 235 235 235 235 235 235 235 235 235 235 235 235 235 235 235 
115 115 115 115 115 41 41 41 41 41 115 115 115 115 115 115 115 115 115 115 115 115 115 115 115 115 115 115 115 115 115 115 115 115 115 115 115 115 115 115 115 115 115 115 115 41 41 41 41 41 41 41 115 178 235 235 235 235 235 235 235 235 235 235 235 235 178 178 178 235 235 235 235 235 235 235 235 235 235 235 235 235 235 235 235 235 235 178 115 115 115 115 115 115 115 115 115 41 41 41 41 115 178 235 235 235 235 235 235 235 235 235 235 235 235 235 235 235 235 235 235 235 235 235 235 235 235 235 
115 115 115 115 115 41 41 41 41 41 115 115 115 115 115 115 115 115 115 115 115 115 115 115 115 115 115 115 115 115 115 115 115 115 115 115 115 115 115 115 115 115 115 115 115 41 41 41 41 41 41 115 178 235 178 178 235 235 235 235 235 235 235 235 235 235 178 178 178 235 235 235 235 235 235 235 235 235 235 235 235 235 235 235 235 235 235 235 115 115 115 115 115 115 115 115 115 41 41 41 41 115 178 235 235 235 235 235 235 235 235 235 235 235 235 235 235 235 235 235 235 235 235 235 235 235 235 235 
115 115 115 115 115 41 41 41 41 41 115 115 115 115 115 115 115 115 115 115 115 115 115 115 115 115 115 115 115 115 115 115 115 115 115 115 115 115 115 115 115 115 115 115 115 41 41 41 41 115 115 178 235 235 235 235 235 235 235 235 235 235 235 235 235 235 235 178 178 235 235 235 235 235 235 235 178 235 235 235 235 235 235 235 235 235 235 235 235 235 115 115 115 115 115 115 41 41 41 41 115 115 235 235 235 235 235 235 235 235 235 235 235 235 235 235 235 235 235 235 235 235 235 235 235 235 235 235 
115 115 115 115 115 41 41 41 41 41 115 115 115 115 115 115 115 115 115 115 115 115 115 115 115 115 115 115 115 115 115 115 115 115 115 115 115 115 115 115 115 115 115 115 115 41 41 41 41 115 235 235 235 235 235 235 235 235 178 235 235 235 235 235 235 235 235 235 178 178 178 178 235 235 235 178 178 178 178 178 178 235 235 235 235 235 235 235 235 235 235 115 115 115 115 115 41 41 41 41 115 115 235 235 235 235 235 235 235 178 235 235 235 235 235 235 235 235 235 235 235 235 235 235 235 235 235 235 
115 115 115 115 115 41 41 41 41 41 115 115 115 115 115 115 115 115 115 115 115 115 115 115 115 115 115 115 115 115 115 115 115 115 115 115 115 115 115 115 115 115 115 115 115 115 115 115 115 235 235 235 235 235 235 235 235 235 235 235 235 178 178 235 235 235 235 235 178 178 235 235 235 235 235 235 178 178 178 178 178 178 178 235 235 235 235 235 235 235 235 178 115 115 115 41 41 41 41 41 115 178 235 235 235 178 178 178 178 178 178 235 235 235 235 235 235 235 235 235 235 235 235 178 178 178 178 235 
115 115 115 115 115 41 41 41 41 41 115 115 115 115 115 115 115 115 115 115 115 115 115 115 115 115 115 115 115 115 115 115 115 115 115 115 115 115 115 115 115 115 115 115 115 115 178 178 235 235 235 235 235 235 235 235 235 235 235 178 235 235 235 235 235 235 235 235 178 235 235 178 178 178 235 178 178 178 178 178 178 178 235 178 178 178 235 235 235 235 235 235 178 115 115 41 41 41 41 115 115 178 178 178 178 178 178 178 115 178 178 178 178 235 235 235 235 235 178 178 178 178 178 178 115 115 115 115 
115 115 115 115 115 41 41 41 41 41 115 115 115 115 115 115 115 115 115 115 115 115 115 115 115 115 115 115 115 115 115 115 115 115 115 115 115 115 115 115 115 115 115 115 115 178 235 235 235 235 235 235 235 235 235 235 235 235 235 235 235 235 235 235 235 235 235 235 235 235 235 178 178 178 235 178 178 178 178 178 178 178 178 178 178 178 235 178 178 235 235 235 178 115 41 41 41 41 41 115 178 178 235 178 178 178 178 178 178 178 178 178 235 235 235 235 235 178 178 115 178 178 115 115 115 115 115 115 
115 115 115 115 115 41 41 41 41 41 115 115 115 115 115 115 115 115 115 115 115 115 115 115 115 115 115 115 115 115 115 115 115 115 115 115 115 115 115 115 115 115 115 115 178 235 235 235 235 235 235 235 235 235 235 235 235 235 235 235 235 235 235 235 235 235 235 178 178 178 178 235 178 178 178 178 178 178 178 178 178 178 178 178 178 178 178 178 235 178 235 235 235 235 41 41 41 41 115 178 235 235 235 235 235 235 235 235 235 178 235 235 235 235 235 235 178 178 178 178 115 115 115 115 115 115 115 115 
115 115 115 115 115 41 41 41 41 41 115 115 115 115 115 115 115 115 115 115 115 115 115 115 115 115 115 115 115 115 115 115 115 115 115 115 115 115 115 115 115 115 115 178 178 178 235 178 178 178 178 235 178 235 235 235 235 235 235 235 178 235 235 235 235 235 235 235 178 235 178 235 178 115 115 178 178 178 178 115 115 115 178 178 178 178 178 178 178 235 235 235 235 235 115 41 41 41 115 235 235 235 235 235 235 235 235 235 235 235 235 235 235 235 235 235 178 178 178 178 115 115 115 115 115 115 115 115 
115 115 115 115 115 41 41 41 41 41 115 115 115 115 115 115 115 115 115 115 115 115 115 115 115 115 115 115 115 115 115 115 115 115 115 115 115 115 115 115 115 115 115 178 178 178 178 178 178 178 178 178 235 235 235 235 235 235 178 235 235 178 235 178 178 178 235 235 235 235 178 178 115 115 115 115 115 115 115 115 115 115 115 115 178 178 178 235 178 178 235 235 235 235 235 41 41 41 115 235 235 235 235 235 235 235 235 235 235 235 235 235 235 235 235 178 178 115 178 115 178 115 115 115 115 115 115 178 
115 115 115 115 115 41 41 41 41 41 115 115 115 115 115 115 115 115 115 115 115 115 115 115 115 115 115 115 115 115 115 115 115 115 115 115 115 115 115 115 115 115 115 115 178 178 178 178 178 178 178 235 235 235 235 235 235 235 235 235 178 178 178 235 235 235 178 178 178 115 115 115 115 115 115 115 115 115 115 41 115 115 115 115 178 115 115 178 235 235 178 178 235 235 235 178 41 41 178 235 235 235 235 235 235 235 235 235 235 235 235 235 235 235 235 178 115 178 178 115 178 115 178 115 115 115 115 115 
115 115 115 115 115 41 41 41 41 41 115 115 115 115 115 115 115 115 115 115 115 115 115 115 115 115 115 115 115 115 115 115 115 115 115 115 115 115 115 115 115 115 115 115 115 178 178 115 178 178 235 178 178 235 178 235 235 235 178 178 115 115 178 178 178 115 115 115 115 115 115 115 115 115 41 41 41 115 41 41 115 115 115 115 115 115 115 178 178 235 235 235 178 235 235 235 115 115 178 235 235 235 235 235 235 235 235 235 235 235 235 235 235 235 235 178 115 178 178 178 178 178 178 115 178 115 115 115 
115 115 115 115 115 41 41 41 41 41 115 115 115 115 115 115 115 115 115 115 115 115 115 115 115 115 115 115 115 115 115 115 115 115 115 115 115 115 115 115 115 115 115 115 178 178 178 178 178 235 235 178 178 178 178 178 178 115 115 115 178 178 115 178 115 41 41 115 115 115 115 115 115 115 41 41 41 41 41 41 115 115 115 115 115 115 178 178 235 178 235 235 178 235 235 235 178 115 178 235 235 235 235 235 235 235 235 235 235 235 235 235 235 235 235 178 178 115 178 178 178 178 178 178 178 178 115 178 
115 115 115 115 115 41 41 41 41 41 115 115 115 115 115 115 115 115 115 115 115 115 115 115 115 115 115 115 115 115 115 115 115 115 115 115 115 115 115 115 115 41 115 115 178 178 178 178 178 235 178 178 178 178 178 178 115 115 178 178 115 115 115 115 115 41 41 41 41 41 41 115 115 115 41 41 41 41 41 41 41 41 41 41 41 41 115 178 235 235 235 235 235 235 235 235 178 178 235 235 235 235 235 235 235 235 235 235 235 235 235 235 235 235 235 178 178 178 115 115 178 178 178 178 115 178 115 178 
115 115 115 115 115 41 41 41 41 41 115 115 115 115 115 115 115 115 115 115 115 115 115 115 115 115 115 115 115 115 115 115 115 115 115 115 115 115 115 115 115 41 115 115 115 115 115 178 178 178 178 178 178 178 178 178 178 115 115 115 41 41 115 115 41 41 41 41 41 41 41 41 41 41 41 41 41 41 41 41 41 41 41 41 41 41 41 41 115 235 235 235 235 235 235 235 178 178 235 235 235 235 235 235 235 235 235 235 235 235 235 235 235 235 235 178 178 178 178 178 178 178 178 178 178 115 115 115 
115 115 115 115 115 41 41 41 41 41 115 115 115 115 115 115 115 115 115 115 115 115 115 115 115 115 115 115 115 115 115 115 115 115 115 115 115 115 115 115 115 115 178 115 115 115 115 115 178 178 178 178 235 235 235 115 115 41 41 41 41 115 115 115 41 41 41 41 41 41 41 41 41 41 41 41 41 41 41 41 41 41 41 41 41 41 41 41 41 115 235 235 235 235 235 235 178 235 235 235 235 235 235 235 235 235 235 235 235 235 235 235 235 235 235 178 178 178 178 178 178 178 178 178 178 115 115 115 
115 115 115 115 115 41 41 41 41 41 115 115 115 115 115 115 115 115 115 115 115 115 115 115 115 115 115 115 115 115 115 115 115 115 115 115 115 115 115 115 115 115 115 115 115 115 115 115 178 235 235 235 235 115 41 41 41 41 41 41 115 115 41 41 41 41 41 41 41 41 41 41 41 41 41 41 41 41 41 41 41 41 41 41 41 41 41 41 41 115 235 235 235 235 235 178 178 235 235 235 235 235 235 235 235 235 235 235 235 235 235 235 235 235 235 178 178 178 178 178 178 178 178 178 178 115 115 115 
115 115 115 115 115 41 41 41 41 41 115 115 115 115 115 115 115 115 115 115 115 115 115 115 115 115 115 115 115 115 115 115 115 115 115 115 115 115 115 115 115 41 41 41 41 115 115 115 178 178 115 115 115 115 41 41 41 41 41 41 41 41 41 41 41 41 41 41 41 41 41 41 41 41 41 41 41 41 41 41 41 41 41 41 41 41 41 41 41 41 178 235 235 235 235 178 178 235 235 235 235 235 235 235 235 235 235 235 235 235 235 235 235 235 178 178 178 178 178 178 178 178 178 178 178 115 115 178 
115 115 115 115 115 41 41 41 41 41 115 115 115 115 115 115 115 115 115 115 115 115 115 115 115 115 115 115 115 115 115 115 115 115 115 115 115 115 115 115 115 115 115 115 115 115 115 115 115 41 41 41 41 115 41 115 41 41 41 41 41 41 41 41 41 41 41 41 41 41 41 41 41 41 41 41 41 41 41 41 41 41 41 41 41 41 41 41 41 41 115 235 235 235 178 178 178 235 235 235 235 235 235 235 235 235 235 235 235 235 235 235 235 235 178 178 178 178 178 178 178 178 178 178 178 115 115 115 
115 115 115 115 115 41 41 41 41 41 115 115 115 115 115 115 115 115 115 115 115 115 115 115 115 115 115 115 115 115 115 115 115 115 115 115 115 115 115 115 115 115 115 115 115 115 115 41 41 41 41 41 41 115 41 41 41 41 41 41 41 41 41 41 41 41 41 41 41 41 41 41 41 41 41 41 41 41 41 41 41 41 41 41 41 41 41 41 41 41 115 178 178 178 178 178 235 235 235 235 235 235 235 235 235 235 235 235 235 235 235 235 178 178 178 178 178 178 178 178 178 178 178 178 178 178 115 115 
115 115 115 115 115 41 41 41 41 41 115 115 115 115 115 115 115 115 115 115 115 115 115 115 115 115 115 115 115 115 115 115 115 115 115 115 115 115 115 115 115 115 41 41 41 41 41 41 41 41 41 41 41 41 41 41 41 41 41 41 41 41 41 41 41 41 41 41 41 41 41 41 41 41 41 41 41 41 41 41 41 41 41 41 41 41 41 41 41 41 115 115 235 178 115 178 235 235 235 235 235 235 235 235 235 235 235 235 235 178 235 235 235 178 178 178 178 178 178 178 178 178 178 178 178 178 115 115 
115 115 115 115 115 41 41 41 41 41 115 115 115 115 115 115 115 115 115 115 115 115 115 115 115 115 115 115 115 115 115 115 115 115 115 115 115 115 115 115 115 115 115 41 41 41 41 41 41 41 41 115 41 41 41 41 41 41 41 41 41 41 41 41 41 41 41 41 41 41 41 41 41 41 41 41 41 41 41 41 41 41 41 41 41 41 41 41 115 41 115 115 178 178 115 178 235 235 235 235 235 235 235 235 235 235 235 235 178 178 235 235 235 178 178 178 178 178 178 178 178 178 178 178 178 178 178 115 
115 115 115 115 115 41 41 41 41 41 115 115 115 115 115 115 115 115 115 115 115 115 115 115 115 115 115 115 115 115 115 115 115 115 115 115 115 115 115 178 115 115 115 41 41 41 41 41 41 41 41 41 41 41 41 41 41 41 41 41 41 41 41 41 41 41 41 41 41 41 41 41 41 41 41 41 41 41 41 41 115 115 41 41 41 115 41 41 115 115 115 115 115 115 115 178 178 235 235 235 235 235 235 235 235 235 235 178 178 178 178 235 235 178 115 178 178 178 178 178 178 178 178 178 178 178 115 178 
115 115 115 115 115 41 41 41 41 115 115 115 115 115 115 115 115 115 115 115 115 115 115 115 115 115 115 115 115 115 115 115 115 115 115 115 115 115 115 115 115 115 115 41 41 41 41 41 41 41 41 41 41 41 41 41 41 41 41 41 41 41 41 41 41 41 41 41 41 41 41 41 41 41 41 115 115 41 41 41 115 115 115 115 115 115 115 115 115 178 115 41 115 115 115 178 235 235 235 235 235 235 235 235 235 235 178 115 115 115 178 235 235 235 178 178 178 178 178 178 178 178 178 178 178 178 115 178 
115 115 115 115 41 41 41 41 41 41 115 115 115 115 115 115 115 115 115 115 115 115 115 115 115 115 115 115 115 115 115 115 115 115 115 115 115 115 115 115 115 115 115 41 41 41 41 41 41 41 41 41 41 41 41 41 41 41 41 41 41 41 41 41 41 41 41 41 41 41 41 41 41 41 115 115 115 41 41 41 115 115 178 115 115 115 115 115 115 115 115 41 115 115 115 178 235 235 235 235 235 235 235 235 235 178 178 115 115 115 235 235 235 178 178 115 178 178 178 178 178 178 178 178 178 178 115 178 
115 115 115 115 41 41 41 41 41 41 115 115 115 115 115 115 115 115 115 115 115 115 115 115 115 115 115 115 115 115 115 115 115 115 115 115 115 115 115 115 115 115 41 115 115 41 41 41 41 41 115 41 41 41 41 41 41 41 41 41 41 115 41 41 41 41 41 41 41 41 41 41 41 41 41 115 41 41 41 41 115 178 178 115 115 178 235 115 115 115 115 41 115 115 115 235 235 235 235 235 235 235 235 178 178 178 115 115 115 115 178 235 235 178 115 115 178 178 178 115 178 178 178 178 178 178 115 178 
115 115 115 115 41 41 41 41 41 41 115 115 115 115 115 115 115 115 115 115 115 115 115 115 115 115 115 115 115 115 115 115 115 115 115 115 115 115 115 178 115 115 115 115 115 115 41 41 41 41 115 115 41 115 115 115 115 115 41 115 115 115 115 41 115 41 41 41 41 41 41 41 41 41 41 41 41 41 41 41 115 115 115 41 115 115 235 178 115 178 115 41 41 115 115 178 235 235 235 235 235 235 235 178 178 178 178 115 115 115 235 235 235 178 115 115 178 115 115 178 115 178 178 178 115 115 115 178 
115 115 115 115 41 41 41 41 41 115 115 115 115 115 115 115 115 115 115 115 115 115 115 115 115 115 115 115 115 115 115 115 115 115 115 115 115 115 115 178 115 115 115 178 178 115 41 41 41 115 115 115 115 115 115 115 115 115 115 115 115 115 115 115 115 41 41 41 41 41 41 41 41 41 41 41 41 41 41 41 115 115 115 41 41 115 235 178 115 178 178 115 115 115 178 115 235 235 235 235 235 235 235 178 115 178 115 115 115 115 235 235 235 178 178 115 115 115 115 178 178 178 178 178 115 115 178 178 
115 115 115 115 41 41 41 41 41 115 115 115 115 115 115 115 115 115 115 115 115 115 115 115 115 115 115 115 115 115 115 115 115 115 115 115 115 115 115 115 115 115 178 178 178 178 115 115 115 115 115 115 115 115 115 115 115 115 115 115 115 115 115 115 115 41 41 115 41 41 41 115 41 41 41 41 41 41 41 41 115 115 115 41 41 115 115 178 115 235 178 115 115 178 115 178 235 235 235 235 235 235 178 178 178 178 178 115 115 115 235 235 235 178 178 115 115 115 115 115 178 178 178 178 178 115 178 115 
115 115 115 115 41 41 41 41 41 41 115 115 115 115 115 115 115 115 115 115 115 115 115 115 115 115 115 115 115 115 115 115 115 115 115 115 115 115 115 41 115 115 115 115 115 115 115 115 115 115 115 115 115 178 178 115 115 115 115 41 41 41 115 41 115 115 115 115 41 115 41 115 41 41 41 41 41 41 115 41 115 115 41 41 41 41 115 115 115 235 178 178 178 178 178 178 235 235 235 235 235 235 178 115 178 178 115 115 115 115 235 235 235 178 115 115 115 115 115 178 115 178 178 178 178 178 115 115 
115 115 115 115 41 41 41 41 41 115 115 115 115 115 115 115 115 115 115 115 115 115 115 115 115 115 115 115 115 115 115 115 115 115 115 115 115 115 115 41 41 41 41 41 41 41 115 115 115 115 115 115 115 115 115 115 41 115 41 41 41 41 41 41 41 41 115 41 41 41 41 115 41 115 41 41 41 41 115 115 115 115 41 41 41 41 41 115 115 115 178 178 178 178 115 178 235 235 235 235 235 178 178 115 115 178 178 115 115 178 235 235 235 178 115 115 115 115 115 115 115 115 178 178 178 115 115 115 
115 115 115 115 41 41 41 41 41 41 115 115 115 115 115 115 115 115 115 115 115 115 115 115 115 115 115 115 115 115 115 115 115 115 115 115 115 115 115 41 41 41 41 41 41 41 41 41 41 41 41 41 115 115 115 41 41 41 41 41 41 41 41 41 41 41 41 41 41 41 41 41 41 41 115 41 41 41 115 115 115 115 115 41 41 41 41 41 115 115 115 115 178 115 115 178 235 235 235 235 235 178 115 178 115 115 115 115 115 178 235 235 178 115 115 115 115 115 115 115 115 178 178 178 178 178 178 115 
115 115 115 41 41 41 41 41 41 115 115 115 115 115 115 115 115 115 115 115 115 115 115 115 115 115 115 115 115 115 115 115 115 115 115 115 115 115 115 41 41 41 41 41 41 41 41 41 41 41 41 41 41 115 41 41 41 41 41 41 41 41 41 41 41 41 41 41 41 41 41 41 41 41 115 41 41 41 115 115 115 115 115 41 41 41 41 41 115 115 115 115 115 115 115 178 235 235 235 235 235 235 178 178 178 178 178 115 115 178 235 235 235 178 115 115 115 115 115 115 178 178 178 178 178 178 178 115 
115 115 115 115 41 41 41 41 41 115 115 115 115 115 115 115 115 115 115 115 115 115 115 115 115 115 115 115 115 115 115 115 115 115 115 115 115 115 115 115 41 41 41 41 41 41 41 41 41 41 41 41 41 41 41 41 41 41 41 41 41 41 41 41 41 41 41 41 41 41 41 41 41 41 41 41 41 41 115 115 115 115 41 41 41 41 41 41 115 115 115 115 115 115 115 115 178 178 178 235 235 178 178 178 178 115 115 115 115 178 178 178 178 115 115 115 115 115 115 178 178 178 178 178 178 178 178 115 
115 115 115 115 41 41 41 41 41 115 115 115 115 115 115 115 115 115 115 115 115 115 115 115 115 115 115 115 115 115 115 115 115 115 115 115 115 115 115 115 41 41 41 41 41 41 41 41 41 41 41 41 41 41 41 41 41 41 41 41 41 41 41 41 41 41 41 41 41 41 41 41 41 41 41 41 41 41 41 41 115 115 41 41 41 41 41 41 41 115 115 115 41 41 115 178 178 178 178 178 178 178 178 115 178 115 115 115 115 115 178 178 178 115 115 115 115 115 178 178 115 178 178 178 178 115 115 115 
115 115 115 115 41 41 41 41 41 115 115 115 115 115 115 115 115 115 115 115 115 115 115 115 115 115 115 115 115 115 115 115 115 115 115 115 115 115 115 115 41 41 41 41 41 41 41 41 41 41 41 41 41 41 41 41 41 41 41 41 41 41 41 41 41 41 41 41 41 41 41 41 41 41 41 41 41 41 41 41 41 115 41 41 41 41 41 41 41 115 41 41 41 41 115 178 178 178 178 178 178 115 115 115 115 115 115 115 115 115 178 178 115 115 115 115 115 115 115 115 115 115 115 178 178 115 115 115 
41 115 115 115 41 41 41 41 41 115 115 115 115 115 115 115 115 115 115 115 115 115 115 115 115 115 115 115 115 115 115 115 115 115 115 115 115 115 115 115 41 41 41 41 41 41 41 41 41 41 41 41 41 41 41 41 41 41 41 41 41 41 41 41 41 41 41 41 41 41 41 41 41 41 41 41 41 41 41 41 41 41 41 41 41 41 41 41 41 41 41 41 41 41 115 235 235 235 235 235 178 115 115 115 115 115 115 115 115 115 115 115 115 115 115 115 115 115 115 115 115 115 115 115 115 115 115 115 
41 115 115 115 41 41 41 41 41 115 115 115 115 115 115 115 115 115 115 115 115 115 115 115 115 115 115 115 115 115 115 115 115 115 115 115 115 115 115 115 41 41 41 178 178 178 178 178 178 115 115 115 115 41 41 41 41 41 41 41 41 41 41 115 115 115 115 115 115 41 41 41 41 41 41 41 41 41 41 41 41 41 41 41 41 41 41 41 41 41 41 41 41 41 115 235 235 235 235 235 178 178 115 115 178 115 115 115 115 115 178 178 178 115 115 115 115 115 115 115 115 115 115 115 115 115 115 115 
41 115 115 115 41 41 41 41 41 41 115 115 115 115 115 115 115 115 115 115 115 115 115 115 115 115 115 115 115 115 115 115 115 115 115 115 115 115 115 115 41 41 41 115 178 178 178 178 178 178 178 178 178 178 115 178 115 115 41 41 41 41 115 115 115 41 41 41 115 115 115 41 41 41 41 41 41 41 41 41 41 41 41 41 41 41 41 41 41 41 41 41 41 115 178 235 235 235 235 235 235 178 178 178 178 178 115 115 115 178 178 235 178 115 115 115 115 115 115 115 115 115 115 115 115 115 115 115 
115 115 115 115 41 41 41 41 41 115 115 115 115 115 115 115 115 115 115 115 115 115 115 115 115 115 115 115 115 115 115 115 115 115 115 115 115 115 115 115 41 41 41 41 115 115 115 115 178 178 178 178 178 178 178 178 178 178 178 115 115 41 41 41 41 41 41 41 41 41 41 41 41 41 41 41 41 41 41 41 41 41 41 41 41 41 41 41 41 41 41 41 41 41 178 235 235 235 235 235 235 235 178 178 178 178 115 115 115 178 178 235 178 115 115 115 115 115 115 115 115 115 115 115 115 115 115 115 
115 115 115 115 41 41 41 41 41 115 115 115 115 115 115 115 115 115 115 115 115 115 115 115 115 115 115 115 115 115 115 115 115 115 115 115 115 115 115 115 41 41 41 115 178 115 115 41 41 115 115 115 178 178 115 178 178 115 178 41 41 41 41 41 115 115 115 115 41 41 41 41 41 41 41 41 41 41 41 41 41 41 41 41 41 41 41 41 41 41 41 41 41 115 235 235 235 235 235 235 235 235 235 178 178 115 115 115 115 178 235 235 178 115 115 115 115 115 115 115 115 115 115 115 115 115 115 115 
115 115 115 115 41 41 41 41 41 115 115 115 115 115 115 115 115 115 115 115 115 115 115 115 115 115 115 115 115 115 115 115 115 115 115 115 115 115 115 115 115 41 41 115 115 115 115 115 41 41 41 115 115 115 178 115 115 115 115 41 41 41 115 115 115 115 115 115 115 41 41 41 41 41 41 41 41 41 41 41 41 41 41 41 41 41 41 41 41 41 41 41 41 115 235 235 235 235 235 235 235 235 235 178 178 115 115 115 115 178 235 235 178 115 115 115 115 115 115 115 115 115 115 115 115 115 115 115 
115 115 115 115 41 41 41 41 41 115 115 115 115 115 115 115 115 115 115 115 115 115 115 115 115 115 115 115 115 115 115 115 115 115 115 115 115 115 115 115 115 41 41 41 41 41 41 41 41 41 41 41 115 178 178 178 115 115 41 41 41 115 41 41 41 41 41 41 41 41 41 41 41 41 41 41 41 41 41 41 41 41 41 41 41 41 41 41 41 41 41 41 41 178 235 235 235 235 235 235 235 235 235 235 178 115 115 115 115 178 235 178 178 115 115 115 115 115 115 115 115 115 115 115 115 115 115 115 
41 115 115 115 41 41 41 41 41 115 115 115 115 115 115 115 115 115 115 115 115 115 115 115 115 115 115 115 115 115 115 115 115 115 115 115 115 115 115 115 115 41 41 41 41 41 41 41 41 41 41 41 115 178 178 178 178 115 41 115 41 41 41 41 41 41 41 41 41 41 41 41 41 41 41 41 41 41 41 41 41 41 41 41 41 41 41 41 41 41 41 41 115 235 235 235 235 235 235 235 235 235 235 235 178 115 115 115 115 178 178 235 178 115 115 115 115 115 115 115 115 178 115 115 115 115 115 115 
115 115 115 115 41 41 41 41 41 115 115 115 115 115 115 115 115 115 115 115 115 115 115 115 115 115 115 115 115 115 115 115 115 115 115 115 115 115 115 115 115 115 41 41 41 115 115 41 115 115 115 41 115 178 235 178 178 115 41 115 41 41 115 115 41 41 41 41 41 41 41 41 41 41 41 41 41 41 41 41 41 41 41 41 41 41 41 41 41 41 41 41 235 235 235 235 235 235 235 235 235 235 235 235 178 115 115 115 115 178 178 235 178 115 115 115 115 115 115 115 178 178 178 178 115 115 115 115 
41 115 115 115 41 41 41 41 41 115 115 115 115 115 115 115 115 115 115 115 115 115 115 115 115 115 115 115 115 115 115 115 115 115 115 115 115 115 115 115 115 115 41 41 115 115 178 115 115 178 178 178 115 235 178 235 178 115 115 178 115 115 235 178 115 115 115 115 41 41 41 41 115 115 115 41 41 41 41 41 41 115 41 41 41 41 41 41 41 41 41 115 235 235 235 235 235 235 235 235 235 235 235 235 178 115 115 115 115 178 178 235 178 115 115 115 115 115 115 178 115 178 115 178 115 115 115 115 
41 115 115 115 41 41 41 41 41 41 115 115 115 115 115 115 115 115 115 115 115 115 41 41 115 115 115 115 115 115 115 115 115 115 115 115 115 115 115 115 115 115 115 115 178 115 41 115 41 115 115 178 178 178 178 178 115 115 178 178 178 115 115 115 115 115 41 41 41 41 41 41 41 115 115 41 41 41 41 41 41 41 41 41 41 41 41 41 41 41 115 235 235 235 235 235 235 235 235 235 235 235 235 235 235 178 115 115 115 178 178 178 178 115 115 115 115 115 115 115 178 178 178 115 115 115 115 115 
115 115 115 41 41 41 41 41 41 41 115 115 115 115 115 115 115 115 115 115 115 115 115 115 115 115 115 115 115 115 115 115 115 115 115 115 115 115 115 115 115 115 115 178 178 115 115 115 115 115 178 178 178 178 178 178 115 115 178 178 178 178 115 115 115 115 115 41 41 115 115 115 115 115 115 41 115 41 41 41 41 41 115 41 41 41 41 41 41 115 235 235 235 235 235 235 235 235 235 235 235 235 235 235 235 178 178 115 115 115 178 178 178 115 115 115 115 115 115 115 178 178 115 178 115 115 115 115 
115 115 115 41 41 41 41 41 41 41 115 115 115 115 115 115 115 115 115 115 115 115 115 115 115 115 115 115 115 115 115 115 41 115 115 115 115 115 115 115 115 115 115 178 178 178 178 178 178 178 178 178 178 178 178 178 115 115 178 178 178 178 178 178 115 115 115 115 115 178 178 115 115 115 115 115 115 115 41 41 41 41 41 41 41 115 41 41 115 235 235 235 235 235 235 235 235 235 235 235 235 235 235 235 235 178 178 115 115 115 178 178 178 115 115 178 178 115 115 115 115 178 178 178 178 115 115 115 
115 115 115 41 41 41 41 41 41 41 115 115 115 115 115 115 115 115 115 115 115 115 115 115 115 115 115 115 115 115 115 115 115 115 115 115 115 115 115 115 115 115 115 178 178 178 178 235 235 235 178 178 178 178 178 178 115 115 115 178 178 178 178 235 178 178 178 178 178 178 115 115 115 115 115 115 41 41 41 41 41 41 41 41 41 41 115 115 178 235 235 235 235 235 235 235 235 235 235 235 235 235 235 235 235 178 115 115 115 178 178 178 178 115 115 178 178 115 115 115 115 115 178 178 178 178 115 115 
115 115 115 115 41 41 41 41 41 41 115 115 115 115 115 115 115 115 115 115 115 115 115 115 41 115 115 41 115 115 115 115 115 115 115 115 115 115 115 115 115 115 115 178 235 178 235 178 235 235 178 178 178 178 178 115 115 115 178 178 178 178 178 178 178 178 178 178 178 178 178 115 115 115 115 41 41 41 41 41 41 41 41 41 41 41 115 115 235 235 235 235 235 235 235 235 235 235 235 235 235 235 235 235 235 178 115 115 115 178 178 178 115 115 115 178 178 115 115 115 115 115 115 178 178 115 115 115 
115 115 115 115 41 41 41 41 41 41 115 115 115 115 115 115 115 115 115 115 115 115 115 115 41 115 115 41 115 115 115 115 115 115 115 115 115 115 115 115 115 115 115 178 178 178 235 235 235 235 178 178 178 178 178 115 115 115 115 178 178 178 235 235 178 178 178 178 178 178 178 115 115 115 41 41 41 41 41 41 41 41 41 41 41 41 115 178 235 235 235 235 235 235 235 235 235 235 235 235 235 235 235 235 178 115 115 115 115 115 178 178 178 115 115 115 115 115 115 115 115 115 115 178 115 115 115 115 
115 115 115 115 41 41 41 41 41 41 115 115 115 115 115 115 115 115 115 115 115 115 41 41 41 115 115 41 41 115 115 115 115 115 115 115 115 115 115 115 115 115 115 178 178 178 235 235 235 178 178 178 178 178 178 115 115 41 115 115 178 235 235 235 178 178 178 178 178 178 115 115 115 41 41 41 41 41 41 41 41 41 41 41 41 41 115 235 235 235 235 235 235 235 235 235 235 235 235 235 235 235 235 235 178 178 115 115 115 178 178 178 178 115 115 115 115 115 115 115 115 115 115 115 115 115 115 115 
115 115 115 41 41 41 41 41 41 41 115 115 115 115 115 115 115 115 115 115 115 115 115 41 41 115 115 41 41 115 115 115 115 115 115 115 115 115 115 115 115 115 115 178 178 178 178 235 178 115 115 178 178 178 178 115 41 41 41 115 115 178 235 235 178 178 178 178 178 115 115 115 115 41 41 41 115 41 115 41 41 41 41 41 41 115 235 235 235 235 235 235 235 235 235 235 235 235 235 235 235 235 235 235 235 178 115 115 115 178 178 178 178 115 115 115 115 115 115 115 115 115 115 178 115 115 115 115 
41 115 115 41 41 41 41 41 41 41 115 115 115 115 115 115 115 115 115 115 115 115 41 41 115 115 115 115 115 115 115 115 115 115 115 115 115 115 115 115 115 115 115 178 178 178 178 178 178 115 115 178 178 178 115 115 115 115 41 41 178 178 178 178 178 178 178 178 178 178 115 115 115 41 41 115 115 115 115 115 41 115 115 41 115 178 235 235 178 235 235 235 235 235 235 235 235 235 235 235 235 235 235 235 235 178 178 115 115 178 178 178 178 115 115 115 115 178 178 115 115 115 178 178 115 115 115 115 
41 115 115 41 41 41 41 41 41 41 115 115 115 115 115 115 115 115 115 115 115 115 41 41 115 115 41 41 115 115 115 115 115 115 115 115 115 115 115 115 115 115 115 178 178 178 178 178 115 115 178 115 115 41 41 41 41 41 41 41 115 178 178 178 178 178 178 178 115 115 115 115 41 41 41 115 115 115 178 178 178 115 178 115 178 235 235 235 235 235 235 235 235 235 235 235 235 235 235 235 235 235 235 235 235 235 178 115 115 178 178 178 178 115 115 115 115 115 178 115 115 178 178 178 115 115 115 115 
41 115 115 41 41 41 41 41 41 41 115 115 115 115 115 115 115 115 115 115 115 115 41 41 115 115 41 41 115 115 115 115 115 115 115 115 115 115 115 115 115 115 115 115 115 178 115 115 41 41 115 178 115 41 41 41 41 41 41 115 178 178 115 115 178 115 178 178 115 115 115 41 41 41 41 115 115 115 178 178 178 115 178 115 178 235 235 235 178 235 235 235 235 235 235 235 235 235 235 235 235 235 235 235 235 235 178 115 178 178 178 178 178 115 115 115 115 178 115 115 115 178 178 178 178 115 115 115 
115 115 115 41 41 41 41 41 41 41 115 115 115 115 115 115 115 115 115 115 115 115 41 41 115 115 115 41 115 115 41 115 115 115 115 115 115 115 115 115 115 115 115 115 115 115 115 41 41 115 115 178 178 115 41 41 115 115 178 115 115 115 115 115 178 115 115 115 115 115 41 41 41 41 115 115 115 115 178 178 178 178 178 115 178 235 178 178 178 178 178 235 178 178 235 235 235 235 235 235 235 235 235 235 235 235 178 115 115 178 235 178 178 115 115 115 178 178 115 115 178 178 178 178 115 115 115 115 
41 115 115 41 41 41 41 41 41 41 115 115 115 115 115 115 115 115 115 115 115 115 41 41 41 115 115 115 115 41 41 41 115 115 115 115 115 115 115 115 115 115 115 115 115 115 115 41 41 115 178 178 178 178 115 115 178 178 178 178 115 115 115 115 115 115 115 115 115 41 41 41 41 41 115 115 115 115 178 178 178 178 178 115 178 178 235 115 178 178 178 178 178 178 178 235 235 235 235 235 235 235 235 235 235 235 178 178 115 178 178 178 115 115 115 178 178 178 178 115 115 178 178 115 115 115 115 115 
41 115 115 41 41 41 41 41 41 41 115 115 115 115 115 115 115 115 115 115 115 41 115 115 41 115 115 115 115 115 41 115 41 41 115 115 115 115 115 115 115 115 115 115 115 115 115 115 41 115 115 178 178 178 178 178 178 115 115 115 178 115 115 115 115 115 115 115 115 41 41 41 41 41 115 115 115 178 178 178 178 178 235 115 178 178 178 178 178 178 178 178 178 178 178 235 235 235 235 235 235 235 235 235 235 235 178 115 178 235 235 178 115 115 115 115 178 178 115 115 115 115 178 178 178 115 115 115 
115 115 115 41 41 41 41 41 41 41 115 115 115 115 115 115 115 115 115 115 115 41 41 41 41 115 115 115 115 115 115 115 41 41 115 115 115 115 115 115 115 41 41 41 115 115 115 115 115 41 41 41 41 115 178 115 115 115 115 115 115 115 115 41 41 41 115 41 41 41 41 41 41 41 115 115 115 178 178 178 178 178 178 178 178 235 178 178 178 178 178 178 178 178 178 235 235 235 235 235 235 235 235 235 235 178 115 115 178 178 178 235 115 115 115 115 178 115 115 115 115 115 178 178 178 178 115 115 
115 115 115 41 41 41 41 41 41 41 115 115 115 115 115 115 115 115 115 115 115 41 41 41 41 115 41 41 41 41 41 115 115 41 115 115 115 115 115 115 115 41 41 41 41 115 115 115 115 115 115 41 115 115 115 115 115 115 41 41 41 41 41 41 41 41 115 41 41 41 41 41 41 41 115 115 115 115 178 178 115 178 235 115 178 235 178 178 178 178 178 235 178 178 235 235 235 235 235 235 235 235 235 235 178 178 115 115 178 178 178 178 115 115 115 115 115 115 115 115 115 178 178 178 178 178 115 115 
115 115 115 41 41 41 41 41 41 41 41 115 115 115 115 115 115 115 115 115 115 41 41 41 41 41 41 41 41 41 41 115 115 115 115 115 115 115 115 115 41 41 41 41 41 115 115 178 115 178 115 115 115 178 235 178 235 235 178 115 41 41 41 41 115 115 115 115 41 41 41 41 41 41 41 115 115 115 178 115 115 178 178 115 115 178 178 178 115 178 178 178 235 178 235 178 235 235 235 235 235 235 235 235 178 178 115 115 115 178 178 115 115 115 115 115 115 115 115 115 115 178 178 178 178 178 178 115 
41 115 115 41 41 41 41 41 41 41 41 115 115 115 115 115 115 115 115 115 115 41 41 41 41 41 41 41 41 41 41 115 115 115 115 115 115 115 115 115 41 41 41 41 41 41 115 115 178 178 178 115 115 115 115 115 115 115 115 41 41 41 115 115 178 178 115 115 115 41 41 41 41 41 115 115 115 115 115 115 115 178 178 115 178 115 115 115 115 115 178 178 178 115 178 178 178 235 235 235 235 235 178 178 115 115 115 115 115 178 178 178 115 115 115 115 115 115 115 115 115 115 178 178 178 115 115 115 
115 115 115 41 41 41 41 41 41 41 41 115 115 115 115 115 115 115 115 115 41 41 41 41 41 41 115 41 41 115 41 115 115 115 41 115 115 115 115 115 115 41 41 41 41 41 115 115 115 178 178 115 115 115 115 115 115 115 41 41 41 41 115 178 178 178 115 115 115 41 41 41 41 41 115 115 115 115 115 115 115 235 178 115 115 178 178 178 115 178 115 115 115 115 178 178 235 235 235 235 235 235 235 178 178 178 115 115 115 115 115 115 115 115 115 115 115 115 115 115 115 115 178 178 178 115 115 115 
41 115 115 41 41 41 41 41 41 41 41 115 115 115 115 115 115 115 115 115 41 41 41 41 41 41 115 41 41 115 41 41 41 41 41 115 115 115 115 115 115 41 41 41 41 41 41 115 115 178 115 178 115 115 115 41 41 41 41 115 115 115 115 115 115 115 115 115 41 41 41 41 41 41 115 115 115 115 41 115 178 235 178 178 178 178 178 178 178 178 115 178 178 115 178 235 235 235 235 235 235 235 235 235 178 178 115 115 115 115 115 115 115 115 115 115 115 115 115 115 115 115 115 115 115 115 115 115 
41 115 41 41 41 41 41 41 41 41 41 41 115 115 115 115 115 115 115 115 41 41 41 41 41 41 41 41 41 41 41 41 41 41 41 115 115 115 115 115 115 115 115 115 41 41 41 41 115 115 178 178 115 115 115 115 115 115 115 115 115 115 115 115 115 115 115 115 41 41 41 41 41 41 115 41 41 41 41 41 115 235 178 178 178 235 235 235 178 235 178 178 178 178 235 235 235 235 235 235 235 235 235 235 235 178 115 115 115 115 178 178 115 115 115 115 115 115 115 115 115 115 115 115 115 115 115 115 
41 115 41 41 41 41 41 41 41 41 41 41 115 115 115 115 115 115 115 115 41 41 41 41 41 41 41 41 41 41 41 41 41 41 41 41 41 115 41 41 115 178 115 115 41 41 41 41 41 115 178 178 178 178 178 178 115 178 178 115 115 115 115 115 115 115 115 41 41 41 41 41 41 41 41 41 41 41 41 41 115 235 178 178 235 235 235 178 235 235 178 178 178 178 235 235 235 235 235 235 235 235 235 235 235 235 115 115 115 178 178 178 115 115 115 115 115 115 115 115 115 115 115 115 115 115 115 115 
41 115 41 41 41 41 41 41 41 41 41 41 115 115 115 115 115 115 115 41 41 41 41 41 41 41 41 41 41 41 41 41 41 41 41 41 41 115 115 115 115 115 115 115 41 41 41 41 41 41 115 178 178 178 178 178 178 178 178 178 178 115 115 115 115 115 115 41 41 41 41 41 41 41 41 41 41 41 41 41 115 235 178 178 235 235 178 178 235 235 235 178 178 235 235 235 235 235 235 235 235 235 235 235 235 178 115 115 115 178 178 178 115 115 115 115 115 115 115 115 115 178 115 115 115 115 115 115 
41 41 41 41 41 41 41 41 41 41 41 41 115 115 115 115 115 115 115 41 41 41 41 41 41 41 41 41 41 41 41 41 41 41 41 41 41 115 115 41 41 41 41 41 41 41 41 41 41 41 115 178 178 178 178 178 178 178 178 178 115 115 115 115 115 115 41 41 41 41 41 41 41 41 41 41 41 41 41 41 115 235 178 178 235 235 235 235 178 235 235 235 178 235 235 235 235 235 235 235 235 235 235 235 235 178 178 115 178 235 178 178 178 178 178 178 178 115 178 178 178 178 178 178 178 178 178 178 
41 115 41 41 41 41 41 41 41 41 41 41 41 41 41 41 41 41 41 41 41 41 41 41 41 41 41 41 41 41 41 41 41 41 41 41 41 41 115 41 41 41 41 41 41 41 41 41 41 41 41 115 178 178 178 178 178 178 115 115 115 115 115 115 41 41 41 41 41 41 41 41 41 41 41 41 41 41 41 41 115 235 178 178 235 178 178 178 178 235 235 178 178 178 235 235 235 235 235 235 235 235 235 235 235 178 235 178 178 235 235 178 235 178 178 178 178 178 178 178 235 178 235 235 235 178 235 235 
41 41 41 41 41 41 41 41 41 41 41 41 41 41 41 41 41 41 41 41 41 41 41 41 41 41 41 41 41 41 41 41 41 41 41 41 41 41 41 41 41 41 41 41 41 41 41 41 41 41 41 41 115 115 178 178 178 115 115 115 115 41 41 41 41 41 41 41 41 41 41 41 41 41 41 41 41 41 41 41 178 178 235 235 235 178 178 178 178 235 235 235 235 178 235 235 235 235 235 235 235 235 235 235 235 235 178 178 178 235 235 235 235 178 178 235 178 178 235 235 235 235 235 235 235 235 235 235 
41 41 41 41 41 41 41 41 41 41 41 41 41 41 41 41 41 41 41 41 41 41 41 41 41 41 41 41 41 41 41 41 41 41 41 41 41 41 41 41 41 41 41 41 41 41 41 41 41 41 41 41 41 115 115 115 41 115 41 41 41 41 41 41 41 41 41 41 41 41 41 41 41 41 41 41 41 41 41 41 178 235 235 235 235 235 178 178 178 235 235 235 178 178 235 235 235 235 235 235 235 178 235 178 178 235 178 178 178 235 235 235 235 178 178 235 235 235 235 235 235 235 235 235 235 235 235 235 
41 41 41 41 41 41 41 41 41 41 41 41 41 41 41 41 41 41 41 41 41 41 41 41 41 41 41 41 41 41 41 41 41 41 41 41 41 41 41 41 41 41 41 41 41 41 41 41 41 41 41 41 41 41 41 41 41 41 41 41 41 41 41 41 41 41 41 41 41 41 41 41 41 41 41 41 41 41 41 41 115 178 235 235 235 235 178 115 178 178 235 235 178 178 235 235 235 235 235 235 178 178 178 235 178 178 115 115 178 178 235 235 235 178 178 178 178 178 235 235 235 235 235 235 235 235 235 235 
41 41 41 41 41 41 41 41 41 41 41 41 41 41 41 41 41 41 41 41 41 41 41 41 41 41 41 41 41 41 41 41 41 41 41 41 41 41 41 41 41 41 41 41 41 41 41 41 41 41 41 41 41 41 41 41 115 115 41 41 41 41 41 41 41 41 41 41 41 41 41 41 41 41 41 41 41 41 41 41 115 178 235 235 235 178 235 235 178 235 235 235 235 235 235 235 235 235 235 235 178 178 178 178 178 178 115 115 115 178 235 178 178 178 178 178 235 178 235 235 235 235 178 235 235 235 235 235 
41 41 41 41 41 41 41 41 41 41 41 41 41 41 41 41 41 41 41 41 41 41 41 41 41 41 41 41 41 41 41 41 41 41 41 41 41 41 41 41 41 41 41 41 41 41 41 41 41 41 41 41 41 41 41 41 115 178 115 41 41 41 41 41 41 41 41 41 41 41 41 41 41 41 41 41 41 41 41 41 115 178 178 178 178 115 115 178 178 178 178 178 178 235 235 235 235 235 235 235 178 178 178 178 178 115 115 115 115 178 235 178 178 178 178 178 178 178 235 235 235 235 235 235 235 178 178 178 
115 41 41 41 41 41 41 41 41 41 41 41 41 41 41 41 41 41 41 41 41 41 41 41 41 41 41 41 41 41 41 41 41 41 41 41 41 41 41 41 41 41 41 41 41 41 41 41 41 41 41 41 41 41 41 41 41 115 178 178 115 41 41 41 41 41 41 41 41 41 41 41 41 41 41 41 41 41 41 41 115 115 115 115 115 115 115 115 115 41 115 178 178 178 235 235 235 235 235 235 178 178 178 178 178 115 115 115 115 178 235 235 178 115 178 178 178 178 178 178 178 235 178 235 178 178 235 178 
115 115 41 41 41 41 41 41 41 41 41 41 41 41 41 41 41 41 41 41 41 41 41 41 41 41 41 41 41 41 41 41 41 41 41 41 41 41 41 41 41 41 41 41 41 41 41 41 41 41 41 41 41 41 41 41 41 41 115 178 178 178 115 41 41 41 41 41 41 41 41 41 41 41 41 41 115 115 115 115 115 115 41 41 41 41 41 41 41 41 115 115 115 178 178 235 235 235 235 235 235 178 178 178 178 178 115 115 178 235 235 178 178 178 178 178 235 178 178 178 235 178 235 235 235 178 178 235 
115 115 115 41 41 41 41 41 41 41 41 41 41 41 41 41 41 41 41 41 41 41 41 41 41 41 41 41 41 41 41 41 41 41 41 41 41 41 41 41 41 41 41 41 41 41 41 41 41 41 41 41 41 41 41 41 41 41 41 115 178 178 178 115 115 115 41 41 41 41 41 41 41 41 115 115 115 115 115 115 41 41 41 41 41 41 41 41 41 41 41 41 41 41 115 115 178 235 235 235 178 178 178 235 178 115 115 115 115 178 235 235 235 178 178 178 235 178 235 235 178 235 235 235 235 235 235 235 
115 115 115 115 115 41 41 41 41 41 41 41 41 41 41 41 41 41 41 41 41 41 41 41 41 41 41 41 41 41 41 41 41 41 41 41 41 41 41 41 41 41 41 41 41 41 41 41 41 41 41 41 41 41 41 41 41 41 41 41 178 115 178 178 178 178 115 115 115 115 115 115 115 115 178 178 115 115 41 41 41 41 41 41 41 41 41 41 41 41 41 41 41 41 41 115 115 178 178 178 178 178 178 178 178 115 115 115 115 178 235 235 178 178 178 178 178 178 178 178 178 235 235 235 235 235 178 235 
115 115 115 115 115 115 41 41 41 41 41 41 41 41 41 41 41 41 41 41 41 41 41 41 41 41 41 41 41 41 41 41 41 41 41 41 41 41 41 41 41 41 41 41 41 41 41 41 41 41 41 41 41 41 41 41 41 41 41 41 41 115 115 178 115 115 115 178 178 115 115 115 115 115 115 115 41 41 41 41 41 41 41 41 41 41 41 41 41 41 41 41 41 41 41 41 41 115 115 115 41 115 115 115 178 115 115 115 115 178 178 178 178 115 178 178 178 115 178 178 178 178 178 235 235 178 178 178 
115 115 115 115 115 115 115 41 41 41 41 41 41 41 41 41 41 41 41 41 41 41 41 41 41 41 41 41 41 41 41 41 41 41 41 41 41 41 41 41 41 41 41 41 41 41 41 41 41 41 41 41 41 41 41 41 41 41 41 41 41 41 41 115 115 115 115 115 115 115 115 115 41 41 41 41 41 41 41 41 41 41 41 41 41 41 41 41 41 41 41 41 41 41 41 41 41 41 41 41 41 41 41 41 115 115 115 115 115 178 178 178 115 115 178 178 178 115 115 115 115 178 178 178 178 178 178 115 
115 115 115 115 178 115 115 115 41 41 41 41 41 41 41 41 41 41 41 41 41 41 41 41 41 41 41 41 41 41 41 41 41 41 41 41 41 41 41 41 41 41 41 41 41 41 41 41 41 41 41 41 41 41 41 41 41 41 41 41 41 41 41 41 41 41 41 41 41 41 41 41 41 41 41 41 41 41 41 41 41 41 41 41 41 41 41 41 41 41 41 41 41 41 41 41 41 41 41 41 41 41 41 41 41 41 115 115 115 178 235 178 178 115 178 178 115 115 115 115 115 115 178 178 178 178 178 178 
41 115 115 115 115 115 115 115 115 115 115 115 115 115 41 41 41 41 41 41 115 115 41 41 41 41 41 41 41 41 41 41 41 41 41 41 115 115 41 41 41 41 41 41 41 41 41 41 41 41 41 41 41 41 41 41 41 41 41 41 41 41 41 41 41 41 41 41 41 41 41 41 41 41 41 41 41 41 41 41 41 41 41 41 41 41 41 41 41 41 41 41 41 41 41 41 41 41 41 41 41 41 41 41 41 41 41 115 115 178 235 178 178 178 178 178 178 115 115 115 115 115 115 178 178 115 115 178 
41 115 115 115 115 115 115 115 115 115 115 115 115 115 115 41 41 41 41 41 41 41 41 41 41 41 41 41 41 41 41 41 41 115 115 115 41 41 41 41 41 41 41 41 41 41 41 41 41 41 41 41 41 41 41 41 41 41 41 41 41 41 41 41 41 41 41 41 41 41 41 41 41 41 41 41 41 41 41 41 41 41 41 41 41 41 41 41 41 41 41 41 41 41 41 41 41 41 41 41 41 41 41 41 41 41 41 41 178 235 235 235 178 178 178 178 178 115 115 115 115 115 178 178 178 115 178 178 
41 41 41 41 41 41 41 41 41 115 115 115 115 115 115 41 41 41 41 41 41 41 41 41 41 41 41 41 41 41 41 115 41 115 115 41 41 41 41 41 41 41 41 41 41 41 41 41 41 41 41 41 41 41 41 41 41 41 41 41 41 41 41 41 41 41 41 41 41 41 41 41 41 41 41 41 41 41 41 41 41 41 41 41 41 41 41 41 41 41 41 41 41 41 41 41 41 41 41 41 41 41 41 41 41 41 41 41 115 235 235 178 178 115 178 115 115 115 115 115 115 178 178 178 115 178 178 178 
41 41 41 41 41 41 41 41 41 41 41 115 115 115 115 115 41 41 41 41 41 41 41 41 41 41 41 41 41 115 178 115 41 41 41 41 41 41 41 41 41 41 41 41 41 41 41 41 41 41 41 41 41 41 41 41 41 41 41 41 41 41 41 41 41 41 41 41 41 41 41 41 41 41 41 41 41 41 41 41 41 41 41 41 41 41 41 41 41 41 41 41 41 41 41 41 41 41 41 41 41 41 41 41 115 178 115 41 115 178 235 235 178 178 115 115 115 115 115 115 115 178 115 178 178 115 178 178 
41 41 41 41 41 41 41 41 41 41 41 41 115 115 115 115 41 41 41 41 41 41 41 41 41 41 41 115 235 178 178 115 41 41 41 41 41 41 41 41 41 41 41 41 41 41 41 41 41 41 41 41 41 41 41 41 41 41 41 41 41 41 41 41 41 41 41 41 41 41 41 41 41 41 41 41 41 41 41 41 41 41 41 41 41 41 41 41 41 41 41 41 41 41 41 41 41 41 41 41 41 41 41 41 115 235 235 115 115 178 178 235 178 115 115 178 115 115 115 115 178 178 178 178 115 115 178 178 
41 41 41 41 41 41 41 41 41 41 41 41 115 115 115 115 115 41 41 115 115 115 41 41 41 41 178 235 235 178 115 41 41 41 41 41 41 41 41 41 41 41 41 41 41 41 41 41 41 41 41 41 41 41 41 41 41 41 41 41 41 41 41 41 41 41 41 41 41 41 41 41 41 41 41 41 41 41 41 41 41 41 41 41 41 41 41 41 41 41 41 41 41 41 41 41 41 41 41 41 41 41 41 41 115 178 235 235 235 235 235 235 178 115 115 115 115 115 115 115 115 115 178 115 115 115 115 178 
41 41 41 41 41 41 41 41 41 41 41 41 41 115 115 115 115 115 115 115 115 115 115 115 115 178 235 178 178 115 115 41 41 41 41 41 41 41 41 41 41 41 41 41 41 41 41 41 41 41 41 41 41 41 41 41 41 41 41 41 41 41 41 41 41 41 41 41 41 41 41 41 41 41 41 41 41 41 41 41 41 41 41 41 41 41 41 41 41 41 41 41 41 41 41 41 41 41 41 41 41 41 41 115 115 178 235 235 235 235 235 235 178 178 115 115 115 115 115 178 115 178 178 178 115 115 115 178 
41 41 41 41 41 41 41 41 41 41 41 41 41 41 115 115 115 115 115 115 115 41 41 115 178 178 115 115 115 115 41 41 41 41 41 41 41 41 41 41 41 41 41 41 41 41 41 41 41 41 41 41 41 41 41 41 41 41 41 41 41 41 41 41 41 41 41 41 41 41 41 41 41 41 41 41 41 41 41 41 41 41 41 41 41 41 41 41 41 41 41 41 41 41 41 41 41 41 41 41 41 41 41 115 115 115 115 178 178 235 235 235 235 235 178 178 115 115 178 178 178 178 178 178 178 178 115 178 
41 115 115 115 41 41 41 41 41 41 41 41 41 41 115 115 115 115 41 41 41 41 115 115 115 115 115 115 115 41 41 41 41 41 41 41 41 41 41 41 41 41 41 41 41 41 41 41 41 41 41 41 41 41 41 41 41 41 41 41 41 41 41 41 41 41 41 41 41 41 41 41 41 41 41 41 41 41 41 41 41 41 41 41 41 41 41 41 41 41 41 41 41 41 41 41 41 41 41 41 41 41 115 115 115 115 115 115 115 178 235 235 235 235 235 235 178 115 115 115 178 178 235 178 178 178 178 178 
115 115 115 115 41 41 41 41 41 41 41 41 41 41 41 41 41 41 41 41 41 41 115 178 115 115 115 115 115 41 41 41 41 41 41 41 41 41 41 41 41 41 41 41 41 41 41 41 41 41 41 41 41 41 41 41 41 41 41 41 41 41 41 41 41 41 41 41 41 41 41 41 41 41 41 41 41 41 41 41 41 41 41 41 41 41 41 41 41 41 41 41 41 41 41 41 41 41 41 41 41 41 115 115 115 115 115 115 115 115 178 178 235 235 235 235 235 115 115 115 178 178 178 178 178 178 115 178 
115 115 115 115 115 41 41 41 41 41 41 41 41 41 41 41 41 41 41 41 41 115 115 115 115 115 115 115 115 41 41 41 41 41 41 41 41 41 41 41 41 41 41 41 41 41 41 41 41 41 41 41 41 41 41 41 41 41 41 41 41 41 41 41 41 41 41 41 41 41 41 41 41 41 41 41 41 41 41 41 41 41 41 41 41 41 41 41 41 41 41 41 41 41 41 41 41 41 41 41 41 41 41 41 41 115 115 115 115 115 115 115 178 235 235 235 235 235 178 115 115 115 115 178 115 115 115 115 
115 115 115 115 115 41 41 41 41 41 41 41 41 41 41 41 41 41 41 41 41 115 115 115 115 115 115 115 115 41 41 41 41 41 41 41 41 41 41 41 41 41 41 41 41 41 41 41 41 41 41 41 41 41 41 41 41 41 41 41 41 41 41 41 41 41 41 41 41 41 41 41 41 41 41 41 41 41 41 41 41 41 41 41 41 41 41 41 41 41 41 41 41 41 41 41 41 41 41 41 41 41 41 41 41 41 41 41 115 115 115 115 115 178 178 178 235 235 235 178 115 115 115 115 115 115 115 115 
41 115 115 115 115 41 41 41 41 41 41 41 41 41 41 41 41 41 41 41 41 115 115 115 115 115 115 115 41 41 41 41 41 41 41 41 41 41 41 41 41 41 41 41 41 41 41 41 41 41 41 41 41 41 41 41 41 41 41 41 41 41 41 41 41 41 41 41 41 41 41 41 41 41 41 41 41 41 41 41 41 41 41 41 41 41 41 41 41 41 41 41 41 41 41 41 41 41 41 41 41 41 41 41 41 41 41 41 41 41 115 115 115 115 115 178 178 178 178 235 115 115 115 115 115 115 115 115 
41 115 115 115 41 41 41 41 41 41 41 41 41 41 41 41 41 41 41 41 115 115 115 115 115 115 115 115 41 41 41 41 41 41 41 41 41 41 41 41 41 41 41 41 41 41 41 41 41 41 41 41 41 41 41 41 41 41 41 41 41 41 41 41 41 41 41 41 41 41 41 41 41 41 41 41 41 41 41 41 41 41 41 41 41 41 41 41 41 41 41 41 41 41 41 41 41 41 41 41 41 41 41 41 41 41 41 41 41 41 41 41 115 115 115 115 115 115 115 178 178 115 115 115 115 115 115 115 
41 41 115 41 41 41 41 41 41 41 41 41 41 41 41 41 41 41 41 41 115 115 115 115 115 115 115 115 41 41 41 41 41 41 41 41 41 41 41 41 41 41 41 41 41 41 41 41 41 41 41 41 41 41 41 41 41 41 41 41 41 41 41 41 41 41 41 41 41 41 41 41 41 41 41 41 41 41 41 41 41 41 41 41 41 41 41 41 41 41 41 41 41 41 41 41 41 41 41 41 41 41 41 41 41 41 41 41 41 41 41 41 41 41 41 41 115 115 41 115 115 115 115 115 178 115 115 178 
41 41 41 41 41 41 41 41 41 41 41 41 41 41 41 41 41 41 41 41 115 115 115 115 115 115 115 115 41 41 41 41 41 41 41 41 41 41 41 41 41 41 41 41 41 41 41 41 41 41 41 41 41 41 41 41 41 41 41 41 41 41 41 41 41 41 41 41 41 41 41 41 41 41 41 41 41 41 41 41 41 41 41 41 41 41 41 41 41 41 41 41 41 41 41 41 41 41 41 41 41 41 41 41 41 41 41 41 41 41 41 41 41 41 41 41 115 115 41 115 115 115 115 115 115 178 115 178 
41 41 41 41 41 41 41 41 41 41 41 41 41 41 41 41 41 41 41 41 115 115 115 115 115 115 115 115 41 41 41 41 41 41 41 41 41 41 41 41 41 41 41 41 41 41 41 41 41 41 41 41 41 41 41 41 41 41 41 41 41 41 41 41 41 41 41 41 41 41 41 41 41 41 41 41 115 115 115 41 41 41 41 41 41 41 41 41 41 41 41 41 41 41 41 41 41 41 41 41 41 41 41 41 41 41 41 41 41 41 41 41 41 41 41 41 115 115 115 41 115 41 115 115 115 115 115 178 
41 41 41 41 41 41 41 41 41 41 41 41 41 41 41 41 41 41 41 115 115 115 115 115 115 115 115 115 115 41 41 41 41 41 41 41 41 41 41 41 41 41 41 41 41 41 41 41 41 41 41 41 41 41 41 41 41 41 41 41 41 41 41 41 41 41 41 41 41 41 41 41 41 41 41 41 41 41 41 115 115 41 41 41 41 41 41 41 41 41 41 41 41 41 41 41 41 41 41 41 41 41 41 41 41 41 41 41 41 41 41 41 41 41 41 41 41 115 178 115 115 41 115 178 115 115 115 178 
41 41 41 41 41 41 41 41 41 41 41 41 41 41 41 41 41 41 41 115 115 115 115 115 115 115 115 115 115 41 41 41 41 41 41 41 41 41 41 41 41 41 41 41 41 41 41 41 41 41 41 41 41 41 41 41 41 41 41 41 41 41 41 41 41 41 41 41 41 41 41 41 41 41 41 41 41 115 115 235 235 115 178 178 178 178 115 41 41 41 41 41 41 41 41 41 41 41 41 41 41 41 41 41 41 41 41 41 41 41 41 41 41 41 41 41 41 41 115 178 115 115 115 115 115 115 115 178 
41 41 41 41 41 41 41 41 41 41 41 41 41 41 41 41 41 41 41 115 115 115 115 115 115 115 115 115 115 41 41 41 41 41 41 41 41 41 41 41 41 41 41 41 41 41 41 41 41 41 41 41 41 41 41 41 41 41 41 41 41 41 41 41 41 41 41 41 41 41 41 41 41 41 115 115 235 235 235 235 235 235 235 235 235 235 235 178 115 41 41 41 41 41 41 41 41 41 41 41 41 41 41 41 41 41 41 41 41 41 41 41 41 41 41 41 41 41 115 115 178 115 115 115 115 115 178 178 
41 41 41 41 41 41 41 41 41 41 41 41 41 41 41 41 41 41 41 115 115 115 115 115 115 115 115 115 115 41 41 41 41 41 41 41 41 41 41 41 41 41 41 41 41 41 41 41 41 41 41 41 41 41 41 41 41 41 41 41 41 41 41 41 41 41 41 41 41 41 41 115 115 235 178 178 115 115 115 235 235 235 235 235 235 235 235 235 235 235 235 115 41 41 41 41 41 41 41 41 41 41 41 41 41 41 41 41 41 41 41 41 41 41 41 41 41 41 41 115 178 178 115 115 115 115 178 235 
41 41 41 41 41 41 41 41 41 41 41 41 41 41 41 41 41 41 41 115 115 115 115 115 115 115 115 115 115 41 41 41 41 41 41 41 41 41 41 41 41 41 41 41 41 41 41 41 41 41 41 41 41 41 41 41 41 41 41 41 41 41 41 41 41 41 41 41 41 41 41 115 115 41 41 41 41 41 178 235 235 178 235 235 235 235 235 235 235 235 235 178 115 41 41 41 41 41 41 41 41 41 41 41 41 41 41 41 41 41 41 41 41 41 41 41 41 41 41 115 115 178 235 178 178 178 178 178 
41 41 41 41 41 41 41 41 41 41 41 41 41 41 41 41 41 41 41 115 115 115 115 115 115 115 115 115 115 41 41 41 41 41 41 41 41 41 41 41 41 41 41 41 41 41 41 41 41 41 41 41 41 41 41 41 41 41 41 41 41 41 41 41 41 41 41 41 41 41 41 41 41 41 41 41 115 178 178 235 235 235 235 235 235 235 235 235 235 235 235 235 235 115 41 41 41 41 41 41 41 41 41 41 41 41 41 41 41 41 41 41 41 41 41 41 41 41 41 41 115 115 235 178 115 178 178 178 
41 41 41 41 41 41 41 41 41 41 41 41 41 41 41 41 41 41 41 115 115 115 115 115 115 115 115 115 115 41 41 41 41 41 41 41 41 41 41 41 41 41 41 41 41 41 41 41 41 41 41 41 41 41 41 41 41 41 41 41 41 41 41 41 41 41 41 41 41 41 41 41 115 178 235 178 235 235 235 235 235 235 235 235 235 235 235 235 235 235 235 235 235 178 235 115 41 41 41 41 41 41 41 41 41 41 41 41 41 41 41 41 41 41 41 41 41 41 41 41 41 115 178 235 178 178 115 178 
41 41 41 41 41 41 41 41 41 41 41 41 41 41 41 41 41 41 41 115 115 115 115 115 115 115 115 115 115 41 41 41 41 41 41 41 41 41 41 41 41 41 41 41 41 41 41 41 41 41 41 41 41 41 41 41 41 41 41 41 41 41 41 41 41 41 41 41 41 41 41 41 41 41 41 41 41 115 178 235 235 235 235 235 235 235 235 235 235 235 235 235 235 235 235 235 115 41 41 41 41 41 41 41 41 41 41 41 41 41 41 41 41 41 41 41 41 41 41 41 41 115 115 178 178 178 115 178 
41 41 41 41 41 41 41 41 41 41 41 41 41 41 41 41 41 41 115 115 115 115 115 115 115 115 115 115 115 41 41 41 41 41 41 41 41 41 41 41 41 41 41 41 41 41 41 41 41 41 41 41 41 41 41 41 41 41 41 41 41 41 41 41 41 41 41 41 41 41 41 41 41 41 41 41 41 178 235 235 235 235 235 235 235 235 235 235 235 235 235 235 235 235 235 235 235 41 41 41 41 41 41 41 41 41 41 41 41 41 41 41 41 41 41 41 41 41 41 41 41 41 115 178 235 178 178 178 
41 41 41 41 41 41 41 41 41 41 41 41 41 41 41 41 41 41 115 115 115 115 115 115 115 115 115 115 115 41 41 41 41 41 41 41 41 41 41 41 41 41 41 41 41 41 41 41 41 41 41 41 41 41 41 41 41 41 41 41 41 41 41 41 41 41 41 41 41 41 41 41 41 41 41 41 178 235 178 235 235 235 178 178 178 178 235 235 235 235 235 235 235 235 235 235 235 178 41 41 41 41 41 41 41 41 41 41 41 41 41 41 41 41 41 41 41 41 41 41 41 41 115 115 178 178 178 178 
41 41 41 41 41 41 41 41 41 41 41 41 41 41 41 41 41 41 115 115 115 115 115 115 115 115 115 115 115 41 41 41 41 41 41 41 41 41 41 41 41 41 41 41 41 41 41 41 41 41 41 41 41 41 41 41 41 41 41 41 41 41 41 41 41 41 41 41 41 41 41 41 115 178 178 115 235 178 178 115 178 235 178 178 115 115 235 235 235 235 235 235 235 235 235 235 235 235 178 178 41 41 41 41 41 41 41 41 41 41 41 41 41 41 41 41 41 41 41 41 41 41 41 115 115 178 178 178 
41 41 41 41 41 41 41 41 41 41 41 41 41 41 41 41 41 115 115 115 115 115 115 115 115 115 115 115 115 41 41 41 41 41 41 41 41 41 41 41 41 41 41 41 41 41 41 41 41 41 41 41 41 41 41 41 41 41 41 41 41 41 41 41 41 41 41 41 41 41 41 41 115 235 235 115 178 235 115 115 235 235 235 178 235 178 235 235 235 235 235 235 235 235 235 235 235 235 235 178 41 41 41 41 41 41 41 41 41 41 41 41 41 41 41 41 41 41 41 41 41 41 41 115 115 178 178 235 
41 41 41 41 41 41 41 41 41 41 41 41 41 41 41 41 41 115 115 115 115 115 115 115 115 115 115 115 115 115 41 41 41 41 41 41 41 41 41 41 41 41 41 41 41 41 41 41 41 41 41 41 41 41 41 41 41 41 41 41 41 41 41 41 115 115 115 115 178 178 115 41 41 178 235 115 178 115 115 115 235 235 235 235 235 178 178 235 235 235 235 235 235 235 235 235 235 235 235 235 115 41 178 178 115 41 41 41 41 41 41 41 41 41 41 41 41 41 41 41 41 41 41 41 115 115 178 235 
41 41 41 41 41 41 41 41 41 41 41 41 41 41 41 41 41 115 115 115 115 115 115 115 115 115 115 115 115 115 41 41 41 41 41 41 41 41 41 41 41 41 41 41 41 41 41 41 41 41 41 41 41 41 41 41 41 41 41 41 41 41 41 41 115 115 178 178 235 178 235 178 115 178 235 235 178 115 115 41 115 178 235 178 178 178 178 235 235 235 235 235 235 235 235 235 235 178 235 235 235 178 235 235 235 235 178 178 41 41 41 41 41 41 41 41 41 41 41 41 41 41 41 41 115 115 178 178 
41 41 41 41 41 41 41 41 41 41 41 41 41 41 41 41 41 115 115 115 115 41 115 115 115 115 115 115 115 115 41 41 41 41 41 41 41 41 41 41 41 41 41 41 41 41 41 41 41 41 41 41 41 41 41 41 41 41 41 41 41 41 41 41 178 178 235 235 178 235 235 235 178 235 235 235 178 178 178 115 41 41 115 115 115 115 115 178 235 235 235 235 235 235 235 235 235 235 235 235 235 235 235 235 235 235 235 235 235 178 41 41 41 41 41 41 41 41 41 41 41 41 41 41 41 115 115 235 
41 41 41 41 41 41 41 41 41 41 41 41 41 41 41 41 41 115 115 115 115 41 41 115 115 115 115 115 115 115 115 41 41 41 41 41 41 41 41 41 41 41 41 41 41 41 41 41 41 41 41 41 41 41 41 41 41 41 41 41 41 41 41 115 235 235 178 235 178 235 235 178 235 178 235 235 235 235 235 178 115 115 115 178 115 115 178 178 235 235 235 235 235 235 235 235 235 235 235 235 235 235 235 235 235 235 235 235 235 235 178 41 41 41 41 41 41 41 41 41 41 41 41 41 41 115 115 235 
41 41 41 41 41 41 41 41 41 41 41 41 41 41 41 41 41 115 115 115 115 115 41 41 41 115 115 115 41 115 41 41 41 41 41 41 41 41 41 41 41 41 41 41 41 41 41 41 41 41 41 41 41 41 41 41 41 41 41 41 115 115 41 178 235 235 178 235 235 178 178 235 235 235 235 235 235 178 235 115 115 178 178 178 178 235 178 235 235 235 235 235 235 235 235 235 235 235 235 235 235 235 235 235 235 235 235 235 235 235 178 41 41 41 41 41 41 41 41 41 41 41 41 41 41 41 115 178 
41 41 41 41 41 41 41 41 41 41 41 41 41 41 41 41 41 115 115 115 115 115 41 41 41 41 115 115 115 41 41 41 41 41 41 41 41 41 41 41 41 41 41 41 41 41 41 41 41 41 41 41 41 41 41 41 41 41 41 115 235 178 115 178 235 235 235 235 235 235 235 235 235 178 178 235 235 235 235 235 178 178 178 235 178 178 235 235 235 178 178 235 235 235 235 235 235 235 235 235 235 235 178 235 235 235 235 235 235 235 235 178 41 41 41 41 41 41 41 41 41 41 41 41 41 41 115 178 
