P2
181 217
255
0 0 0 0 0 0 0 0 0 0 0 0 0 0 0 0 0 0 0 0 0 0 0 0 0 0 0 0 0 0 0 0 0 0 0 0 0 0 0 0 0 0 0 0 0 0 0 0 0 0 0 0 0 0 0 0 0 0 0 0 0 0 0 0 0 0 0 0 0 0 0 0 0 0 0 0 0 0 0 0 0 0 0 0 0 0 0 0 0 0 0 0 0 0 0 0 0 0 0 0 0 0 0 0 0 0 0 0 0 0 0 0 0 0 0 0 0 0 0 0 0 0 0 0 0 0 0 0 0 0 0 0 0 0 0 0 0 0 0 0 0 0 0 0 0 0 0 0 0 0 0 0 0 0 0 0 0 0 0 0 0 0 0 0 0 0 0 0 0 0 0 0 0 0 0 0 0 0 0 0 0
0 0 0 0 0 0 0 0 0 0 0 0 0 0 0 0 0 0 0 0 0 0 0 0 0 0 0 0 0 0 0 0 0 0 0 0 0 0 0 0 0 0 0 0 0 0 0 0 0 0 0 0 0 0 0 0 0 0 0 0 0 0 0 0 0 0 0 0 0 0 0 0 0 0 0 0 0 0 0 0 0 0 0 0 0 0 0 0 0 0 0 0 0 0 0 0 0 0 0 0 0 0 0 0 0 0 0 0 0 0 0 0 0 0 0 0 0 0 0 0 0 0 0 0 0 0 0 0 0 0 0 0 0 0 0 0 0 0 0 0 0 0 0 0 0 0 0 0 0 0 0 0 0 0 0 0 0 0 0 0 0 0 0 0 0 0 0 0 0 0 0 0 0 0 0 0 0 0 0 0 0
0 0 0 0 0 0 0 0 0 0 0 0 0 0 0 0 0 0 0 0 0 0 0 0 0 0 0 0 0 0 0 0 0 0 0 0 0 0 0 0 0 0 0 0 0 0 0 0 0 0 0 0 0 0 0 0 0 0 0 0 0 0 0 0 0 0 0 0 0 0 0 0 0 0 0 0 0 0 0 0 0 0 0 0 0 0 0 0 0 0 0 0 0 0 0 0 0 0 0 0 0 0 0 0 0 0 0 0 0 0 0 0 0 0 0 0 0 0 0 0 0 0 0 0 0 0 0 0 0 0 0 0 0 0 0 0 0 0 0 0 0 0 0 0 0 0 0 0 0 0 0 0 0 0 0 0 0 0 0 0 0 0 0 0 0 0 0 0 0 0 0 0 0 0 0 0 0 0 0 0 0
0 0 0 0 0 0 0 0 0 0 0 0 0 0 0 0 0 0 0 0 0 0 0 0 0 0 0 0 0 0 0 0 0 0 0 0 0 0 0 0 0 0 0 0 0 0 0 0 0 0 0 0 0 0 0 0 0 0 0 0 0 0 0 0 0 0 0 0 0 0 0 0 0 0 0 0 0 0 0 0 0 0 0 0 0 0 0 0 0 0 0 0 0 0 0 0 0 0 0 0 0 0 0 0 0 0 0 0 0 0 0 0 0 0 0 0 0 0 0 0 0 0 0 0 0 0 0 0 0 0 0 0 0 0 0 0 0 0 0 0 0 0 0 0 0 0 0 0 0 0 0 0 0 0 0 0 0 0 0 0 0 0 0 0 0 0 0 0 0 0 0 0 0 0 0 0 0 0 0 0 0
0 0 0 0 0 0 0 0 0 0 0 0 0 0 0 0 0 0 0 0 0 0 0 0 0 0 0 0 0 0 0 0 0 0 0 0 0 0 0 0 0 0 0 0 0 0 0 0 0 0 0 0 0 0 0 0 0 0 0 0 0 0 0 0 0 0 0 0 0 0 0 0 0 0 0 0 0 0 0 0 0 0 0 0 0 0 0 0 0 0 0 0 0 0 0 0 0 0 0 0 0 0 0 0 0 0 0 0 0 0 0 0 0 0 0 0 0 0 0 0 0 0 0 0 0 0 0 0 0 0 0 0 0 0 0 0 0 0 0 0 0 0 0 0 0 0 0 0 0 0 0 0 0 0 0 0 0 0 0 0 0 0 0 0 0 0 0 0 0 0 0 0 0 0 0 0 0 0 0 0 0
0 0 0 0 0 0 0 0 0 0 0 0 0 0 0 0 0 0 0 0 0 0 0 0 0 0 0 0 0 0 0 0 0 0 0 0 0 0 0 0 0 0 0 0 0 0 0 0 0 0 0 0 0 0 0 0 0 0 0 0 0 0 0 0 0 0 0 0 0 0 0 0 0 0 0 0 0 0 0 0 0 142 142 142 142 142 142 142 142 142 142 0 0 0 0 0 0 0 0 0 0 0 0 0 0 0 0 0 0 0 0 0 0 0 0 0 0 0 0 0 0 0 0 0 0 0 0 0 0 0 0 0 0 0 0 0 0 0 0 0 0 0 0 0 0 0 0 0 0 0 0 0 0 0 0 0 0 0 0 0 0 0 0 0 0 0 0 0 0 0 0 0 0 0 0 0 0 0 0 0 0
0 0 0 0 0 0 0 0 0 0 0 0 0 0 0 0 0 0 0 0 0 0 0 0 0 0 0 0 0 0 0 0 0 0 0 0 0 0 0 0 0 0 0 0 0 0 0 0 0 0 0 0 0 0 0 0 0 0 0 0 0 0 0 0 0 0 0 0 0 0 0 0 0 142 142 142 142 142 142 142 142 142 142 142 142 142 142 142 142 142 142 142 142 142 142 142 142 142 142 142 142 142 142 142 0 0 0 0 0 0 0 0 0 0 0 0 0 0 0 0 0 0 0 0 0 0 0 0 0 0 0 0 0 0 0 0 0 0 0 0 0 0 0 0 0 0 0 0 0 0 0 0 0 0 0 0 0 0 0 0 0 0 0 0 0 0 0 0 0 0 0 0 0 0 0 0 0 0 0 0 0
0 0 0 0 0 0 0 0 0 0 0 0 0 0 0 0 0 0 0 0 0 0 0 0 0 0 0 0 0 0 0 0 0 0 0 0 0 0 0 0 0 0 0 0 0 0 0 0 0 0 0 0 0 0 0 0 0 0 0 0 0 0 0 0 0 0 0 142 142 142 142 142 142 142 142 142 142 142 142 142 142 142 142 142 142 142 170 170 170 170 170 142 142 142 142 142 142 142 142 142 142 142 142 142 142 142 142 142 142 142 142 0 0 0 0 0 0 0 0 0 0 0 0 0 0 0 0 0 0 0 0 0 0 0 0 0 0 0 0 0 0 0 0 0 0 0 0 0 0 0 0 0 0 0 0 0 0 0 0 0 0 0 0 0 0 0 0 0 0 0 0 0 0 0 0 0 0 0 0 0 0
0 0 0 0 0 0 0 0 0 0 0 0 0 0 0 0 0 0 0 0 0 0 0 0 0 0 0 0 0 0 0 0 0 0 0 0 0 0 0 0 0 0 0 0 0 0 0 0 0 0 0 0 0 0 0 0 0 0 0 0 0 0 0 142 142 142 142 142 142 142 142 142 28 28 28 28 28 28 28 28 28 28 28 28 28 28 28 28 170 28 28 28 28 28 170 170 170 170 170 170 170 170 170 170 170 142 142 142 142 142 142 142 142 142 142 142 0 0 0 0 0 0 0 0 0 0 0 0 0 0 0 0 0 0 0 0 0 0 0 0 0 0 0 0 0 0 0 0 0 0 0 0 0 0 0 0 0 0 0 0 0 0 0 0 0 0 0 0 0 0 0 0 0 0 0 0 0 0 0 0 0
0 0 0 0 0 0 0 0 0 0 0 0 0 0 0 0 0 0 0 0 0 0 0 0 0 0 0 0 0 0 0 0 0 0 0 0 0 0 0 0 0 0 0 0 0 0 0 0 0 0 0 0 0 0 0 0 0 0 0 0 0 142 142 142 142 142 142 142 28 28 28 28 28 28 28 28 28 28 28 28 28 28 28 28 28 28 28 28 28 28 28 28 28 28 28 28 28 28 28 28 28 28 28 28 170 170 170 170 170 170 170 142 142 142 142 142 142 142 142 0 0 0 0 0 0 0 0 0 0 0 0 0 0 0 0 0 0 0 0 0 0 0 0 0 0 0 0 0 0 0 0 0 0 0 0 0 0 0 0 0 0 0 0 0 0 0 0 0 0 0 0 0 0 0 0 0 0 0 0 0 0
0 0 0 0 0 0 0 0 0 0 0 0 0 0 0 0 0 0 0 0 0 0 0 0 0 0 0 0 0 0 0 0 0 0 0 0 0 0 0 0 0 0 0 0 0 0 0 0 0 0 0 0 0 0 0 0 0 0 142 142 142 142 142 142 28 28 28 28 28 28 28 28 85 85 85 85 85 85 227 227 227 227 198 198 198 198 85 85 85 85 85 85 85 85 85 85 28 28 28 28 28 28 28 28 28 28 28 28 28 28 28 28 28 28 28 28 142 142 142 142 142 142 0 0 0 0 0 0 0 0 0 0 0 0 0 0 0 0 0 0 0 0 0 0 0 0 0 0 0 0 0 0 0 0 0 0 0 0 0 0 0 0 0 0 0 0 0 0 0 0 0 0 0 0 0 0 0 0 0 0 0
0 0 0 0 0 0 0 0 0 0 0 0 0 0 0 0 0 0 0 0 0 0 0 0 0 0 0 0 0 0 0 0 0 0 0 0 0 0 0 0 0 0 0 0 0 0 0 0 0 0 0 0 0 0 0 0 142 142 142 142 142 28 28 28 28 28 28 28 85 85 85 227 227 198 198 198 198 198 85 85 85 85 85 198 57 198 198 57 227 227 227 227 198 198 198 85 85 85 85 85 85 85 85 85 85 85 85 28 28 28 28 28 28 28 28 28 28 28 28 142 142 142 142 142 142 0 0 0 0 0 0 0 0 0 0 0 0 0 0 0 0 0 0 0 0 0 0 0 0 0 0 0 0 0 0 0 0 0 0 0 0 0 0 0 0 0 0 0 0 0 0 0 0 0 0 0 0 0 0 0 0
0 0 0 0 0 0 0 0 0 0 0 0 0 0 0 0 0 0 0 0 0 0 0 0 0 0 0 0 0 0 0 0 0 0 0 0 0 0 0 0 0 0 0 0 0 0 0 0 0 0 0 0 0 142 142 142 142 142 28 28 28 28 28 28 28 85 85 198 227 198 198 255 255 85 85 85 85 85 85 28 28 28 28 85 255 85 255 255 255 255 255 255 255 57 57 57 57 57 57 57 57 57 57 57 227 227 198 198 85 85 85 85 85 85 85 85 85 28 28 28 28 28 142 142 142 142 142 142 0 0 0 0 0 0 0 0 0 0 0 0 0 0 0 0 0 0 0 0 0 0 0 0 0 0 0 0 0 0 0 0 0 0 0 0 0 0 0 0 0 0 0 0 0 0 0 0 0 0 0 0 0
0 0 0 0 0 0 0 0 0 0 0 0 0 0 0 0 0 0 0 0 0 0 0 0 0 0 0 0 0 0 0 0 0 0 0 0 0 0 0 0 0 0 0 0 0 0 0 0 0 0 0 142 142 142 142 142 142 28 28 28 28 85 85 198 227 227 57 57 255 255 85 85 85 28 28 28 28 28 28 170 170 170 28 28 28 28 28 28 28 28 85 85 85 255 255 255 255 255 255 255 255 255 255 255 255 255 57 57 57 57 57 57 57 227 227 227 198 85 85 28 28 28 28 28 142 142 142 142 142 142 0 0 0 0 0 0 0 0 0 0 0 0 0 0 0 0 0 0 0 0 0 0 0 0 0 0 0 0 0 0 0 0 0 0 0 0 0 0 0 0 0 0 0 0 0 0 0 0 0 0 0
0 0 0 0 0 0 0 0 0 0 0 0 0 0 0 0 0 0 0 0 0 0 0 0 0 0 0 0 0 0 0 0 0 0 0 0 0 0 0 0 0 0 0 0 0 0 0 0 0 0 142 142 142 142 142 28 28 28 85 85 85 227 198 198 255 255 255 255 85 28 28 28 28 28 142 28 28 28 28 28 28 28 28 28 28 170 170 170 170 28 28 28 28 28 28 28 28 28 28 28 28 28 28 28 85 85 255 255 255 255 255 255 255 255 255 198 198 198 227 198 85 85 85 28 28 28 28 142 142 142 142 0 0 0 0 0 0 0 0 0 0 0 0 0 0 0 0 0 0 0 0 0 0 0 0 0 0 0 0 0 0 0 0 0 0 0 0 0 0 0 0 0 0 0 0 0 0 0 0 0 0
0 0 0 0 0 0 0 0 0 0 0 0 0 0 0 0 0 0 0 0 0 0 0 0 0 0 0 0 0 0 0 0 0 0 0 0 0 0 0 0 0 0 0 0 0 0 0 0 142 142 142 142 28 28 28 28 28 85 85 227 198 198 255 255 85 85 28 28 28 28 28 28 142 142 142 142 0 0 0 142 0 0 0 0 142 142 170 170 170 170 170 170 170 170 170 170 170 170 170 170 170 170 170 170 28 28 28 28 28 28 28 28 28 28 28 85 85 255 198 198 227 198 85 85 28 28 28 28 28 28 142 142 142 0 0 0 0 0 0 0 0 0 0 0 0 0 0 0 0 0 0 0 0 0 0 0 0 0 0 0 0 0 0 0 0 0 0 0 0 0 0 0 0 0 0 0 0 0 0 0 0
0 0 0 0 0 0 0 0 0 0 0 0 0 0 0 0 0 0 0 0 0 0 0 0 0 0 0 0 0 0 0 0 0 0 0 0 0 0 0 0 0 0 0 0 0 0 0 142 142 142 142 28 28 28 28 85 85 227 57 57 85 85 85 28 28 28 170 170 170 170 142 0 0 0 0 0 142 142 0 0 0 0 142 0 0 0 0 0 0 0 0 0 0 0 0 0 170 170 170 170 170 170 170 170 170 170 28 170 170 170 170 28 28 170 170 28 28 28 28 85 85 198 227 85 85 255 85 28 28 28 28 28 142 142 142 0 0 0 0 0 0 0 0 0 0 0 0 0 0 0 0 0 0 0 0 0 0 0 0 0 0 0 0 0 0 0 0 0 0 0 0 0 0 0 0 0 0 0 0 0 0
0 0 0 0 0 0 0 0 0 0 0 0 0 0 0 0 0 0 0 0 0 0 0 0 0 0 0 0 0 0 0 0 0 0 0 0 0 0 0 0 0 0 0 0 0 142 142 142 142 28 28 28 28 255 255 57 57 255 255 255 85 28 28 28 170 170 170 0 0 0 142 0 0 0 0 0 142 170 170 0 0 142 142 142 142 142 142 142 142 142 142 142 142 142 142 142 142 142 142 142 170 0 0 0 0 0 0 0 0 0 0 0 142 142 142 28 28 170 28 28 28 85 85 255 57 57 255 255 85 85 28 28 28 28 142 142 0 0 0 0 0 0 0 0 0 0 0 0 0 0 0 0 0 0 0 0 0 0 0 0 0 0 0 0 0 0 0 0 0 0 0 0 0 0 0 0 0 0 0 0 0
0 0 0 0 0 0 0 0 0 0 0 0 0 0 0 0 0 0 0 0 0 0 0 0 0 0 0 0 0 0 0 0 0 0 0 0 0 0 0 0 0 0 0 142 142 142 142 28 28 28 28 255 255 57 57 57 255 255 85 28 28 28 170 142 142 0 0 0 0 142 142 142 142 142 142 0 170 170 142 142 142 170 170 170 170 170 170 170 170 170 170 170 170 170 170 170 170 142 142 170 170 170 142 142 170 142 142 142 142 142 142 142 0 0 0 142 142 142 170 28 28 28 28 85 255 57 113 57 255 255 85 85 85 28 28 142 142 142 0 0 0 0 0 0 0 0 0 0 0 0 0 0 0 0 0 0 0 0 0 0 0 0 0 0 0 0 0 0 0 0 0 0 0 0 0 0 0 0 0 0 0
0 0 0 0 0 0 0 0 0 0 0 0 0 0 0 0 0 0 0 0 0 0 0 0 0 0 0 0 0 0 0 0 0 0 0 0 0 0 0 0 0 0 142 142 142 142 28 28 28 255 255 255 113 57 255 255 255 28 142 142 142 142 142 0 0 0 0 0 170 170 170 170 142 142 142 142 142 142 142 142 142 142 142 142 142 170 170 170 170 170 170 170 170 170 170 170 170 170 170 170 170 170 170 170 142 142 142 142 142 170 170 170 170 170 0 0 0 0 142 142 28 28 28 28 85 255 255 57 113 57 255 85 85 85 28 28 142 142 142 0 0 0 0 0 0 0 0 0 0 0 0 0 0 0 0 0 0 0 0 0 0 0 0 0 0 0 0 0 0 0 0 0 0 0 0 0 0 0 0 0 0
0 0 0 0 0 0 0 0 0 0 0 0 0 0 0 0 0 0 0 0 0 0 0 0 0 0 0 0 0 0 0 0 0 0 0 0 0 0 0 0 0 142 142 142 28 28 28 85 255 255 57 113 255 255 255 85 28 28 170 170 0 0 0 0 0 0 142 142 142 142 142 142 28 28 28 28 28 28 28 28 28 28 28 28 28 28 170 170 170 170 170 170 170 170 170 170 170 170 170 170 170 170 170 170 170 170 170 170 170 170 170 170 170 170 170 170 0 142 0 0 0 142 142 28 28 28 85 255 57 113 113 57 198 85 85 28 28 28 142 142 0 0 0 0 0 0 0 0 0 0 0 0 0 0 0 0 0 0 0 0 0 0 0 0 0 0 0 0 0 0 0 0 0 0 0 0 0 0 0 0 0
0 0 0 0 0 0 0 0 0 0 0 0 0 0 0 0 0 0 0 0 0 0 0 0 0 0 0 0 0 0 0 0 0 0 0 0 0 0 0 142 142 142 142 28 28 85 85 255 57 113 57 255 255 255 28 28 142 142 0 0 0 0 0 0 0 142 142 142 28 28 28 28 28 85 85 28 28 28 85 85 85 85 255 255 85 85 28 28 28 170 170 170 170 170 170 170 170 170 142 142 142 142 142 28 28 28 28 28 28 28 142 142 142 0 0 170 170 0 0 0 0 0 0 142 142 28 28 85 255 255 57 113 255 255 85 85 28 28 28 142 142 0 0 0 0 0 0 0 0 0 0 0 0 0 0 0 0 0 0 0 0 0 0 0 0 0 0 0 0 0 0 0 0 0 0 0 0 0 0 0 0
0 0 0 0 0 0 0 0 0 0 0 0 0 0 0 0 0 0 0 0 0 0 0 0 0 0 0 0 0 0 0 0 0 0 0 0 0 0 142 142 142 28 28 85 85 255 255 57 113 255 255 255 255 28 142 170 0 0 0 0 0 170 170 142 142 28 28 28 28 85 85 198 198 198 198 85 85 85 198 198 198 198 57 57 57 85 85 28 28 28 28 170 170 170 170 170 142 142 28 28 28 28 28 28 28 28 28 28 28 28 28 28 28 142 142 142 142 142 0 0 0 142 0 0 142 142 28 28 28 85 255 57 57 255 255 255 85 85 28 28 142 142 0 0 0 0 0 0 0 0 0 0 0 0 0 0 0 0 0 0 0 0 0 0 0 0 0 0 0 0 0 0 0 0 0 0 0 0 0 0 0
0 0 0 0 0 0 0 0 0 0 0 0 0 0 0 0 0 0 0 0 0 0 0 0 0 0 0 0 0 0 0 0 0 0 0 0 0 142 142 142 28 28 85 85 255 255 57 113 255 255 255 85 28 142 0 0 142 0 170 170 0 142 142 142 28 28 85 85 198 57 57 57 227 198 227 227 227 198 198 57 57 57 113 57 57 198 198 85 198 85 85 28 170 170 170 28 28 28 28 28 28 28 85 198 198 198 85 85 85 255 85 85 85 28 28 28 28 142 142 142 0 170 170 0 0 0 142 170 28 28 85 255 57 113 57 255 255 85 85 28 28 142 142 0 0 0 0 0 0 0 0 0 0 0 0 0 0 0 0 0 0 0 0 0 0 0 0 0 0 0 0 0 0 0 0 0 0 0 0 0 0
0 0 0 0 0 0 0 0 0 0 0 0 0 0 0 0 0 0 0 0 0 0 0 0 0 0 0 0 0 0 0 0 0 0 0 142 142 142 28 28 28 85 255 255 255 113 113 255 255 255 28 28 170 0 142 142 170 142 0 0 142 142 28 28 85 85 198 57 113 57 57 57 57 198 198 198 198 198 198 57 113 113 57 57 57 227 198 198 57 198 198 85 28 170 170 170 85 227 227 227 85 85 198 57 57 227 198 198 57 57 57 198 198 85 85 85 85 28 28 142 142 0 170 170 0 0 0 142 142 28 28 85 255 255 113 113 57 255 255 85 28 28 142 142 142 0 0 0 0 0 0 0 0 0 0 0 0 0 0 0 0 0 0 0 0 0 0 0 0 0 0 0 0 0 0 0 0 0 0 0 0
0 0 0 0 0 0 0 0 0 0 0 0 0 0 0 0 0 0 0 0 0 0 0 0 0 0 0 0 0 0 0 0 0 0 142 142 142 28 28 28 85 255 255 57 113 57 255 255 255 28 170 142 142 142 170 170 170 170 0 142 142 28 28 85 198 227 57 57 57 57 198 198 85 85 85 85 85 85 198 57 113 113 57 57 227 198 198 227 57 198 198 198 85 170 170 170 85 227 227 85 85 198 113 57 198 227 198 57 57 113 57 57 227 198 198 198 255 255 85 28 28 142 142 0 0 142 142 0 142 142 28 28 28 255 255 57 113 57 255 255 85 85 28 28 142 142 0 0 0 0 0 0 0 0 0 0 0 0 0 0 0 0 0 0 0 0 0 0 0 0 0 0 0 0 0 0 0 0 0 0 0
0 0 0 0 0 0 0 0 0 0 0 0 0 0 0 0 0 0 0 0 0 0 0 0 0 0 0 0 0 0 0 0 0 142 142 142 28 28 85 255 255 255 113 113 57 255 255 255 28 170 0 142 142 170 170 170 170 0 142 142 28 28 85 227 227 198 57 57 227 227 198 85 85 170 170 170 28 85 198 57 113 113 57 198 227 198 57 57 57 227 227 198 85 170 170 227 170 85 85 85 85 57 57 57 227 227 198 57 113 113 57 57 227 198 57 57 57 57 198 255 255 28 142 142 0 170 170 142 0 0 142 28 28 28 255 255 57 113 57 255 255 85 85 28 28 142 142 0 0 0 0 0 0 0 0 0 0 0 0 0 0 0 0 0 0 0 0 0 0 0 0 0 0 0 0 0 0 0 0 0 0
0 0 0 0 0 0 0 0 0 0 0 0 0 0 0 0 0 0 0 0 0 0 0 0 0 0 0 0 0 0 0 0 142 142 142 28 28 85 255 255 255 113 113 255 255 255 85 28 170 142 142 142 170 170 170 0 142 142 142 142 28 85 198 227 198 198 198 227 227 227 198 198 28 28 28 28 170 85 198 57 113 113 57 198 198 227 57 57 57 227 227 198 85 170 170 170 170 170 28 85 85 113 57 57 227 198 198 57 113 57 57 227 227 198 57 113 113 57 57 57 57 85 28 28 142 0 170 170 142 0 0 142 142 28 28 255 255 57 113 113 255 255 85 85 28 28 142 142 0 0 0 0 0 0 0 0 0 0 0 0 0 0 0 0 0 0 0 0 0 0 0 0 0 0 0 0 0 0 0 0 0
0 0 0 0 0 0 0 0 0 0 0 0 0 0 0 0 0 0 0 0 0 0 0 0 0 0 0 0 0 0 0 142 142 142 28 85 85 255 255 57 113 113 255 255 255 85 28 142 142 0 142 170 170 170 142 142 142 142 170 170 28 85 227 227 227 227 227 227 227 198 198 198 198 85 85 85 85 85 85 57 113 113 57 198 198 57 57 198 198 227 227 198 255 85 170 170 170 170 28 85 198 113 57 57 227 198 57 57 113 57 57 227 227 198 57 113 113 113 113 57 57 57 85 85 28 142 0 170 170 170 142 0 142 142 28 28 255 255 255 113 113 255 255 85 28 28 28 142 142 0 0 0 0 0 0 0 0 0 0 0 0 0 0 0 0 0 0 0 0 0 0 0 0 0 0 0 0 0 0 0 0
0 0 0 0 0 0 0 0 0 0 0 0 0 0 0 0 0 0 0 0 0 0 0 0 0 0 0 0 0 0 142 142 28 28 85 85 255 255 57 113 57 255 255 255 85 28 142 142 0 0 0 170 0 142 142 28 28 28 28 28 28 85 227 227 227 227 198 85 198 57 57 198 227 198 198 198 198 85 198 57 113 113 113 57 113 57 57 198 227 198 227 198 255 85 170 170 170 28 28 85 57 113 113 57 198 198 57 113 113 57 57 227 198 198 57 113 113 113 113 113 57 57 198 198 85 28 142 142 170 170 170 142 0 142 142 142 28 85 255 255 113 113 255 255 85 85 28 28 142 142 0 0 0 0 0 0 0 0 0 0 0 0 0 0 0 0 0 0 0 0 0 0 0 0 0 0 0 0 0 0 0
0 0 0 0 0 0 0 0 0 0 0 0 0 0 0 0 0 0 0 0 0 0 0 0 0 0 0 0 0 142 142 142 28 85 85 255 255 113 113 57 255 255 255 28 28 142 142 0 0 0 0 142 142 28 28 28 28 28 28 28 85 85 198 198 85 85 85 198 198 113 57 198 227 227 198 57 57 57 57 113 113 113 113 113 57 57 57 198 85 198 227 227 198 85 170 170 28 28 85 198 57 113 113 57 198 198 57 113 113 57 57 227 198 198 113 113 113 113 113 113 57 57 227 227 198 85 28 142 142 170 170 170 142 0 142 142 142 28 85 255 255 255 113 57 255 85 85 28 28 142 142 0 0 0 0 0 0 0 0 0 0 0 0 0 0 0 0 0 0 0 0 0 0 0 0 0 0 0 0 0 0
0 0 0 0 0 0 0 0 0 0 0 0 0 0 0 0 0 0 0 0 0 0 0 0 0 0 0 0 142 142 28 28 85 85 255 255 113 113 57 255 255 85 28 170 142 0 0 0 0 142 142 142 28 28 85 85 85 198 85 85 198 198 198 198 198 198 198 198 113 57 57 198 227 198 198 57 57 113 113 113 113 113 113 57 57 57 198 198 85 198 227 227 198 85 170 28 28 85 198 57 113 57 113 113 57 57 113 113 113 57 57 227 198 57 113 113 113 113 113 57 57 57 227 227 227 198 85 28 28 142 142 0 0 0 0 142 142 28 28 85 255 255 255 113 255 255 85 85 28 28 142 142 0 0 0 0 0 0 0 0 0 0 0 0 0 0 0 0 0 0 0 0 0 0 0 0 0 0 0 0 0
0 0 0 0 0 0 0 0 0 0 0 0 0 0 0 0 0 0 0 0 0 0 0 0 0 0 0 142 142 142 28 85 85 255 255 113 113 255 255 255 85 28 170 142 0 0 0 0 0 142 142 28 28 198 198 198 198 198 198 198 198 198 57 57 57 57 57 113 113 57 198 198 85 85 57 57 113 113 113 113 113 113 57 57 57 198 198 227 85 198 227 227 198 255 170 28 85 198 113 57 57 57 57 57 113 113 113 113 113 57 57 198 198 57 113 113 113 113 57 57 198 227 227 227 227 227 198 85 28 142 142 0 0 0 0 0 0 142 142 28 28 28 255 57 113 255 255 85 85 28 28 142 142 0 0 0 0 0 0 0 0 0 0 0 0 0 0 0 0 0 0 0 0 0 0 0 0 0 0 0 0
0 0 0 0 0 0 0 0 0 0 0 0 0 0 0 0 0 0 0 0 0 0 0 0 0 0 142 142 142 28 85 85 255 255 113 113 255 255 255 85 28 28 142 0 0 0 0 0 142 142 28 28 85 198 57 198 57 57 57 57 57 57 57 57 57 57 113 113 113 57 198 198 85 198 57 113 113 113 113 113 57 57 57 198 255 85 85 28 85 198 227 227 198 85 28 28 198 57 113 57 57 198 198 57 113 113 113 113 113 57 57 198 57 113 113 113 113 57 57 57 227 227 227 227 227 227 227 198 85 28 142 0 0 0 0 0 0 142 142 170 170 28 255 255 113 113 255 255 85 85 85 28 142 142 0 0 0 0 0 0 0 0 0 0 0 0 0 0 0 0 0 0 0 0 0 0 0 0 0 0 0
0 0 0 0 0 0 0 0 0 0 0 0 0 0 0 0 0 0 0 0 0 0 0 0 0 0 142 142 28 85 85 255 255 113 113 255 255 255 85 28 142 142 0 0 0 0 0 0 142 142 28 85 198 198 57 57 113 113 113 113 113 113 113 113 113 113 113 113 113 57 57 198 198 198 57 113 113 113 113 113 57 57 198 85 85 85 170 28 85 227 227 227 198 198 28 85 57 113 57 57 85 85 198 57 113 113 113 113 113 113 113 57 113 113 113 113 57 57 57 227 227 227 227 227 227 227 227 227 198 85 28 142 0 0 0 0 0 0 142 142 170 28 28 255 255 113 113 255 255 85 85 28 28 142 142 0 0 0 0 0 0 0 0 0 0 0 0 0 0 0 0 0 0 0 0 0 0 0 0 0 0
0 0 0 0 0 0 0 0 0 0 0 0 0 0 0 0 0 0 0 0 0 0 0 0 0 142 142 28 28 85 255 255 57 113 255 255 255 85 28 170 142 0 0 0 0 0 0 142 142 142 28 85 198 57 57 113 113 113 113 113 113 113 113 113 113 113 113 113 113 113 57 57 57 57 113 113 113 113 113 57 57 198 85 85 170 170 28 85 198 227 227 57 198 227 85 198 113 57 57 255 85 85 255 57 113 113 113 113 113 113 113 113 113 113 113 113 57 57 227 227 227 227 227 227 227 227 227 227 198 85 28 142 142 0 0 0 0 0 0 142 142 170 28 28 255 255 113 113 255 255 85 85 28 28 142 142 0 0 0 0 0 0 0 0 0 0 0 0 0 0 0 0 0 0 0 0 0 0 0 0 0
0 0 0 0 0 0 0 0 0 0 0 0 0 0 0 0 0 0 0 0 0 0 0 0 142 142 28 28 85 85 255 255 113 57 255 255 85 28 142 142 0 0 0 0 0 0 142 142 142 142 28 85 198 198 57 113 113 113 113 113 113 113 113 113 113 113 113 113 113 113 113 57 113 113 113 113 113 113 113 113 57 198 85 85 170 170 28 85 227 227 227 198 198 85 85 198 113 57 57 255 170 28 85 57 57 113 113 113 113 113 113 113 113 113 113 113 57 198 227 227 227 227 227 227 227 227 227 227 227 198 85 28 142 0 0 0 142 142 0 0 142 142 142 28 28 255 57 113 113 255 85 85 85 28 28 142 142 0 0 0 0 0 0 0 0 0 0 0 0 0 0 0 0 0 0 0 0 0 0 0 0
0 0 0 0 0 0 0 0 0 0 0 0 0 0 0 0 0 0 0 0 0 0 0 0 142 142 28 85 85 255 255 113 113 255 255 255 28 170 0 0 0 142 170 142 0 142 142 28 28 28 170 85 198 198 198 57 113 113 113 113 113 113 113 113 113 113 113 113 113 113 113 113 113 113 113 113 113 57 57 113 57 57 198 85 28 170 28 85 227 227 227 198 198 85 85 57 113 57 57 198 85 170 85 198 57 57 113 113 113 113 113 113 113 113 113 113 57 57 198 227 227 227 227 227 227 227 227 227 227 198 85 28 142 142 0 0 142 142 142 0 0 142 142 28 28 255 255 57 113 57 255 255 85 85 28 142 142 0 0 0 0 0 0 0 0 0 0 0 0 0 0 0 0 0 0 0 0 0 0 0 0
0 0 0 0 0 0 0 0 0 0 0 0 0 0 0 0 0 0 0 0 0 0 0 142 142 28 28 85 255 255 57 113 255 255 255 28 142 142 0 0 0 0 170 142 142 142 28 28 85 85 85 85 198 198 198 57 113 113 113 113 113 113 113 113 113 113 113 113 113 113 113 113 113 113 113 113 57 57 57 57 57 227 198 255 85 170 28 85 198 227 198 198 198 28 85 57 113 57 57 198 85 85 85 85 198 57 113 113 113 113 113 113 113 113 113 113 113 57 57 198 227 227 227 227 227 227 227 227 227 227 198 85 28 142 142 0 142 170 170 142 0 0 142 142 142 28 255 255 57 113 57 255 85 85 28 28 142 142 0 0 0 0 0 0 0 0 0 0 0 0 0 0 0 0 0 0 0 0 0 0 0
0 0 0 0 0 0 0 0 0 0 0 0 0 0 0 0 0 0 0 0 0 0 142 142 142 28 85 85 255 57 113 57 255 255 28 28 142 0 0 0 0 0 142 142 142 28 28 85 198 198 198 198 227 198 198 57 113 113 113 113 113 113 113 57 113 113 113 113 113 113 113 113 113 113 113 57 57 57 198 198 57 198 198 198 85 28 28 85 227 227 198 85 198 28 85 198 113 113 227 198 255 85 170 85 85 198 57 113 113 113 113 113 113 113 113 113 113 113 57 57 198 227 227 227 227 227 227 227 227 227 198 85 85 28 28 142 0 170 170 142 142 0 0 142 142 142 28 255 255 57 113 255 255 85 85 28 28 142 142 0 0 0 0 0 0 0 0 0 0 0 0 0 0 0 0 0 0 0 0 0 0
0 0 0 0 0 0 0 0 0 0 0 0 0 0 0 0 0 0 0 0 0 0 142 142 28 85 85 255 255 113 57 255 255 85 28 142 142 0 0 0 0 142 142 28 28 85 198 198 198 227 227 227 227 227 198 57 113 113 113 113 113 57 57 57 113 113 113 113 113 113 113 113 113 113 113 57 57 198 198 198 198 198 227 227 85 28 85 227 227 227 198 85 170 28 85 198 227 113 57 57 255 255 170 170 85 85 57 57 113 113 113 113 113 113 113 113 113 113 113 113 57 198 227 227 227 227 227 227 227 227 227 227 198 85 28 28 142 0 142 170 170 142 0 0 142 142 28 28 255 255 57 113 255 85 85 85 28 142 142 0 0 0 0 0 0 0 0 0 0 0 0 0 0 0 0 0 0 0 0 0 0
0 0 0 0 0 0 0 0 0 0 0 0 0 0 0 0 0 0 0 0 0 142 142 28 28 85 255 255 113 113 255 255 255 28 142 0 0 0 0 0 142 142 28 28 85 198 198 198 57 57 198 227 227 198 198 57 113 113 113 113 113 113 57 57 113 113 113 113 113 113 113 113 113 113 57 57 198 198 85 85 227 227 227 227 85 85 227 227 227 227 198 85 170 28 198 198 227 113 57 57 255 85 170 170 28 85 198 57 113 113 113 113 113 113 113 113 113 113 113 113 57 57 198 227 198 227 227 227 227 227 227 227 227 198 85 28 28 142 0 142 170 142 142 0 0 142 142 28 85 255 255 113 57 255 255 85 28 170 142 142 0 0 0 0 0 0 0 0 0 0 0 0 0 0 0 0 0 0 0 0 0
0 0 0 0 0 0 0 0 0 0 0 0 0 0 0 0 0 0 0 0 142 142 28 28 85 85 255 255 113 255 255 255 28 142 142 0 0 0 0 142 142 28 28 85 227 227 198 198 113 57 198 227 227 198 198 57 113 113 113 113 113 113 113 113 113 113 113 113 113 113 113 113 113 57 57 57 198 85 170 170 227 198 198 227 227 227 227 227 227 227 198 85 170 28 198 227 227 57 57 198 198 85 28 28 28 85 198 57 113 113 113 113 113 113 113 113 113 113 113 113 57 57 198 198 227 227 227 227 227 227 227 227 227 227 198 85 28 28 0 142 170 170 142 142 0 0 142 28 28 255 255 57 113 255 255 85 28 28 170 142 142 0 0 0 0 0 0 0 0 0 0 0 0 0 0 0 0 0 0 0 0
0 0 0 0 0 0 0 0 0 0 0 0 0 0 0 0 0 0 0 0 142 142 28 85 85 255 255 113 57 255 255 28 170 170 0 0 0 0 142 142 28 28 198 198 198 198 57 113 57 57 198 227 227 198 198 198 57 113 113 113 113 113 113 113 113 113 113 113 113 113 113 113 57 57 57 198 227 227 85 85 227 227 227 227 227 198 198 198 227 227 198 85 170 28 198 227 227 57 198 198 227 85 85 85 85 198 57 113 57 57 113 113 113 113 113 113 113 113 113 113 57 57 198 198 227 227 227 227 227 227 198 198 227 227 198 198 85 28 142 0 0 170 0 142 0 0 142 142 28 28 255 255 113 57 255 85 85 28 170 142 142 0 0 0 0 0 0 0 0 0 0 0 0 0 0 0 0 0 0 0 0
0 0 0 0 0 0 0 0 0 0 0 0 0 0 0 0 0 0 0 142 142 28 28 85 255 255 57 113 255 255 85 28 142 0 0 0 0 142 142 28 85 85 198 198 198 57 113 113 57 57 198 198 85 227 198 198 57 57 113 113 113 113 113 113 113 113 113 113 113 113 113 57 57 57 198 198 227 85 198 227 227 227 227 227 198 198 85 85 198 227 198 85 170 28 198 227 198 198 227 227 198 85 85 198 57 57 113 57 57 57 57 113 113 113 113 113 113 113 113 113 113 57 198 198 85 198 198 198 198 198 198 57 57 57 198 198 85 28 28 142 142 0 170 170 142 0 0 142 142 28 28 255 57 113 255 255 85 85 170 170 142 142 0 0 0 0 0 0 0 0 0 0 0 0 0 0 0 0 0 0 0
0 0 0 0 0 0 0 0 0 0 0 0 0 0 0 0 0 0 142 142 142 28 85 85 255 255 113 255 255 255 28 170 0 0 0 0 142 142 28 28 198 198 198 57 113 113 113 113 113 57 198 198 198 198 227 227 198 57 113 113 113 113 113 113 113 113 113 113 113 113 57 57 198 198 85 227 85 85 227 227 227 227 227 198 198 85 85 28 85 227 198 85 170 28 198 227 198 227 227 227 198 198 227 113 57 57 57 57 57 198 198 57 113 113 113 113 113 113 113 113 113 113 57 198 198 198 198 198 198 57 57 57 57 57 198 227 198 85 28 28 142 142 142 170 0 142 0 0 142 142 28 255 255 113 57 255 255 85 170 170 142 142 0 0 0 0 0 0 0 0 0 0 0 0 0 0 0 0 0 0 0
0 0 0 0 0 0 0 0 0 0 0 0 0 0 0 0 0 0 142 142 28 28 85 255 255 113 57 255 255 28 170 170 170 142 142 0 142 142 28 85 198 198 57 113 57 57 113 113 113 113 57 57 57 198 227 227 198 57 113 113 113 113 113 113 113 113 113 113 113 57 57 57 198 85 170 85 85 227 227 227 227 227 198 198 85 170 28 28 227 198 85 85 28 85 227 227 227 227 198 227 227 227 57 57 57 57 57 198 85 85 85 57 57 113 113 113 113 113 113 113 113 113 57 57 57 57 57 57 57 57 113 113 113 57 57 227 227 198 198 85 28 142 0 0 142 170 142 0 142 142 28 28 255 57 113 255 255 85 170 170 28 142 142 0 0 0 0 0 0 0 0 0 0 0 0 0 0 0 0 0 0
0 0 0 0 0 0 0 0 0 0 0 0 0 0 0 0 0 142 142 142 28 85 85 255 255 113 255 255 255 28 170 0 170 170 142 142 142 28 85 198 198 57 113 57 57 57 57 57 113 113 113 113 57 57 198 198 198 57 113 113 113 113 113 113 113 113 113 113 57 57 57 198 85 170 28 85 227 227 227 227 227 227 198 198 85 28 28 85 227 198 85 170 28 85 227 198 227 227 198 227 227 227 57 227 227 227 198 85 85 28 85 57 57 57 113 113 113 113 113 113 113 113 113 113 113 113 113 113 113 113 113 113 113 57 57 198 227 227 227 198 85 28 142 0 142 170 170 0 0 142 142 28 255 255 113 57 255 255 85 170 28 142 142 0 0 0 0 0 0 0 0 0 0 0 0 0 0 0 0 0 0
0 0 0 0 0 0 0 0 0 0 0 0 0 0 0 0 0 142 142 28 28 85 255 255 113 113 255 255 28 170 170 0 170 170 0 142 28 28 198 198 57 57 57 57 198 198 198 57 57 113 113 113 113 113 57 57 57 113 113 113 113 113 113 113 113 113 113 113 57 57 198 85 170 28 85 227 227 227 227 227 227 227 198 198 85 85 85 227 227 85 85 170 28 198 227 198 227 198 227 227 227 227 227 227 227 227 198 85 28 170 85 85 198 57 113 113 113 113 113 113 113 113 113 113 113 113 113 113 113 113 113 113 113 113 57 57 227 227 227 198 85 28 28 142 0 142 0 0 0 142 142 28 28 255 57 113 255 255 85 28 28 28 142 142 0 0 0 0 0 0 0 0 0 0 0 0 0 0 0 0 0
0 0 0 0 0 0 0 0 0 0 0 0 0 0 0 0 142 142 142 28 28 85 255 255 113 255 255 255 28 142 142 170 170 170 0 142 28 85 198 227 57 57 57 198 198 198 198 198 198 57 57 113 113 113 113 57 57 113 113 113 113 113 113 113 113 113 113 57 57 57 198 198 170 28 198 227 227 227 227 227 227 227 227 198 198 198 198 227 198 85 85 28 85 227 198 198 227 198 227 227 227 227 227 227 227 227 198 85 85 85 170 170 85 198 57 113 113 113 113 113 113 113 113 113 113 113 113 113 113 113 113 57 57 57 57 198 198 227 227 227 198 85 28 28 142 0 0 0 0 0 142 28 28 255 255 113 57 255 255 85 85 28 142 142 0 0 0 0 0 0 0 0 0 0 0 0 0 0 0 0 0
0 0 0 0 0 0 0 0 0 0 0 0 0 0 0 0 142 142 28 28 85 255 255 57 113 255 255 28 170 0 142 170 170 142 142 142 28 85 198 198 198 198 198 85 85 85 198 227 227 198 57 113 113 113 113 113 113 113 113 113 113 113 113 113 113 113 57 57 57 255 85 170 28 85 227 227 227 227 227 227 227 227 227 227 227 227 227 227 198 85 170 28 85 227 198 227 85 85 227 227 227 227 227 227 227 227 227 198 198 198 85 85 170 85 198 57 113 113 113 113 113 113 113 113 113 113 113 113 113 113 57 57 57 198 198 198 198 227 227 227 198 85 85 28 142 0 0 142 0 0 0 142 28 28 255 255 113 255 255 85 85 170 28 142 0 0 0 0 0 0 0 0 0 0 0 0 0 0 0 0 0
0 0 0 0 0 0 0 0 0 0 0 0 0 0 0 0 142 142 28 28 85 255 255 113 255 255 255 28 170 0 0 170 170 0 142 142 28 28 85 198 227 227 227 170 170 85 198 227 227 198 198 57 113 113 113 113 113 113 113 113 113 113 113 113 113 113 57 57 57 198 85 28 28 198 227 227 227 227 227 227 227 227 227 227 227 227 227 227 198 198 85 85 198 227 198 227 85 198 227 227 198 198 198 227 227 227 227 227 57 57 198 198 85 85 85 198 57 113 113 113 113 113 113 113 113 113 113 113 113 57 57 198 198 198 198 198 227 198 227 227 227 198 198 85 28 142 0 142 142 170 0 142 28 28 255 255 113 57 255 255 85 170 28 28 142 0 0 0 0 0 0 0 0 0 0 0 0 0 0 0 0
0 0 0 0 0 0 0 0 0 0 0 0 0 0 0 142 142 142 28 28 255 255 255 113 255 255 85 28 0 0 170 142 142 0 142 142 28 28 170 85 85 85 85 85 85 85 198 227 227 227 198 57 113 113 113 113 113 113 113 113 113 113 113 113 113 57 57 57 198 227 85 28 85 227 227 227 227 227 227 227 227 227 227 227 227 227 227 227 227 198 227 85 198 227 227 227 227 198 227 57 198 227 227 227 227 227 227 227 227 227 227 57 85 85 85 85 198 57 113 113 113 113 113 113 113 113 113 113 57 57 57 198 198 198 85 170 85 85 198 198 227 227 198 198 85 28 142 0 142 170 0 0 142 28 28 255 255 113 255 255 85 85 28 28 142 0 0 0 0 0 0 0 0 0 0 0 0 0 0 0 0
0 0 0 0 0 0 0 0 0 0 0 0 0 0 0 142 142 28 28 85 255 255 113 255 255 255 28 170 0 0 170 142 0 142 142 28 85 85 85 85 198 198 85 85 85 198 227 227 227 227 198 198 57 113 113 113 113 113 113 113 113 113 113 113 57 57 57 198 85 170 85 227 227 227 227 227 227 227 227 227 227 227 227 227 227 57 227 227 198 198 227 85 198 227 227 227 227 198 227 227 198 198 198 198 227 227 227 198 57 113 57 227 198 198 85 85 198 57 57 113 113 113 113 113 113 113 113 57 57 198 198 227 227 227 85 28 85 198 198 57 57 57 227 198 85 28 142 0 0 142 0 0 142 142 28 255 255 113 113 255 255 85 170 28 142 142 0 0 0 0 0 0 0 0 0 0 0 0 0 0 0
0 0 0 0 0 0 0 0 0 0 0 0 0 0 0 142 142 28 28 85 255 255 113 255 255 85 28 170 142 170 142 0 142 142 28 85 227 227 198 227 227 227 227 227 227 227 227 227 227 227 227 198 57 113 113 113 113 113 113 113 113 113 113 113 57 255 85 85 170 28 227 198 198 227 227 227 227 227 227 227 227 227 227 227 57 113 57 57 198 198 227 85 198 227 227 198 198 198 57 57 198 198 198 198 227 227 227 227 198 57 113 57 57 198 198 227 85 198 57 113 113 113 113 113 113 113 57 57 57 227 227 227 85 85 85 85 198 198 57 113 57 57 227 227 198 85 28 142 0 0 142 170 0 142 28 28 255 255 113 255 255 85 170 28 28 142 0 0 0 0 0 0 0 0 0 0 0 0 0 0 0
0 0 0 0 0 0 0 0 0 0 0 0 0 0 142 142 28 28 85 255 255 57 113 255 255 28 170 0 170 170 0 142 142 28 85 227 227 198 198 227 227 227 227 227 227 227 227 227 227 227 227 198 57 113 113 113 113 113 113 113 113 113 113 57 57 255 85 170 28 227 198 85 85 85 198 227 227 227 113 227 227 227 227 57 57 57 227 57 198 198 227 85 198 227 198 198 198 57 57 57 57 57 57 57 227 227 227 227 227 198 57 113 227 57 198 85 227 85 57 57 113 113 113 113 113 113 57 57 227 227 227 227 198 198 198 198 198 198 57 57 57 198 227 227 227 85 85 28 142 0 142 170 170 0 142 28 28 255 113 57 255 85 170 85 28 142 142 0 0 0 0 0 0 0 0 0 0 0 0 0 0
0 0 0 0 0 0 0 0 0 0 0 0 0 0 142 142 28 28 85 255 255 113 255 255 85 28 0 0 170 142 142 142 28 85 198 198 198 57 57 198 198 227 227 227 227 227 227 227 227 227 227 198 57 113 113 113 113 113 113 113 113 113 57 57 255 85 170 28 85 198 85 85 170 85 198 227 227 227 227 57 198 227 227 227 198 198 227 57 198 198 227 85 198 57 57 57 113 113 113 113 113 113 57 57 57 198 227 227 227 198 198 198 57 227 57 198 227 198 198 57 113 113 113 113 113 113 57 57 198 227 227 227 227 227 227 198 198 57 113 57 57 227 227 227 227 198 85 28 142 0 0 142 170 0 142 28 28 255 255 113 255 255 85 85 28 28 142 0 0 0 0 0 0 0 0 0 0 0 0 0 0
0 0 0 0 0 0 0 0 0 0 0 0 0 142 142 142 28 85 255 255 57 57 255 255 28 170 0 0 142 0 142 142 28 85 198 198 57 57 57 57 57 198 198 227 227 227 227 227 227 227 227 198 57 113 113 113 113 113 113 113 113 113 57 255 255 85 28 85 227 198 85 170 170 85 198 227 227 198 227 227 57 227 227 227 227 198 198 227 198 198 227 85 198 57 57 57 57 57 57 57 113 113 57 57 57 227 227 227 198 198 85 198 198 57 57 57 227 227 198 57 113 113 113 113 113 113 57 57 198 227 227 227 227 227 198 198 57 113 113 57 57 227 227 227 227 198 85 28 142 142 0 142 170 170 142 142 28 28 255 57 57 255 85 85 85 28 142 0 0 0 0 0 0 0 0 0 0 0 0 0 0
0 0 0 0 0 0 0 0 0 0 0 0 0 142 142 28 28 85 255 255 113 255 255 28 170 170 0 142 142 142 142 28 85 198 198 57 57 113 113 113 57 57 57 198 227 227 227 227 227 227 227 198 57 113 113 113 113 113 113 113 113 57 57 255 85 170 28 227 198 85 170 28 28 85 227 227 198 198 198 57 57 198 227 227 227 227 198 198 198 198 85 85 198 227 198 57 57 198 198 57 113 113 57 57 227 227 227 198 198 85 85 85 85 198 57 57 227 227 198 57 57 113 113 113 113 113 113 57 198 227 227 227 227 227 57 57 113 113 57 57 198 227 227 227 227 227 198 85 28 142 0 142 142 170 0 142 170 28 255 255 113 255 255 85 85 28 142 142 0 0 0 0 0 0 0 0 0 0 0 0 0
0 0 0 0 0 0 0 0 0 0 0 0 0 142 142 28 85 85 255 57 57 255 255 28 170 170 170 142 0 142 28 28 198 227 198 57 113 113 113 113 113 113 57 57 57 57 227 227 227 227 198 198 57 113 113 113 113 113 113 113 113 57 255 198 170 85 85 227 198 85 28 85 85 85 227 227 227 198 198 57 57 227 198 198 227 227 227 198 198 85 85 85 198 227 227 198 227 198 198 57 113 113 57 57 227 227 198 198 85 85 170 170 85 85 198 113 227 227 227 198 57 113 113 113 113 113 113 57 57 198 198 198 198 198 57 113 113 113 57 57 227 227 227 227 227 227 227 198 85 28 142 0 142 170 0 142 170 28 28 255 57 57 255 85 85 85 28 142 142 0 0 0 0 0 0 0 0 0 0 0 0
0 0 0 0 0 0 0 0 0 0 0 0 142 142 28 28 85 85 255 113 255 255 28 170 170 170 170 170 0 142 28 85 227 227 198 57 57 57 57 113 113 113 113 113 57 57 57 57 227 198 198 57 57 113 113 113 113 113 113 113 57 57 255 85 170 85 227 227 85 85 85 227 227 227 227 227 227 227 198 198 227 227 227 227 227 227 227 198 85 85 170 28 198 198 227 227 227 198 198 57 113 113 57 57 227 227 227 198 85 85 28 170 28 85 198 227 227 227 227 198 57 113 113 113 113 113 113 113 57 57 57 57 57 57 113 113 113 113 113 57 57 227 227 227 227 227 227 198 85 28 142 0 0 142 0 0 142 170 28 28 255 113 255 85 85 85 28 28 142 0 0 0 0 0 0 0 0 0 0 0 0
0 0 0 0 0 0 0 0 0 0 0 0 142 142 28 85 85 255 57 57 255 255 28 170 170 170 142 0 142 142 28 198 227 227 227 57 57 57 57 57 113 113 113 113 113 113 57 57 57 198 198 57 113 113 113 113 113 113 113 113 57 57 198 227 85 85 227 227 227 198 227 227 227 227 227 227 198 227 227 198 227 227 227 227 198 198 227 85 85 170 170 28 85 198 227 227 198 198 57 113 113 113 113 57 57 227 227 227 198 85 85 85 170 85 198 198 227 227 227 198 57 57 113 113 113 113 113 113 113 113 57 57 113 113 113 113 113 113 113 57 57 227 227 227 227 227 227 227 198 85 28 142 0 0 0 0 142 28 170 28 255 57 57 255 85 85 85 28 142 142 0 0 0 0 0 0 0 0 0 0 0
0 0 0 0 0 0 0 0 0 0 0 142 142 28 28 85 255 255 113 255 255 85 170 170 142 170 142 0 142 28 28 198 227 227 227 227 227 227 57 57 57 113 113 113 113 113 113 57 57 57 57 113 113 113 113 113 113 113 113 57 57 57 198 170 85 198 227 227 227 227 227 227 227 227 227 227 227 227 227 227 198 198 198 227 227 227 227 198 85 170 170 170 28 85 198 198 198 57 113 57 57 57 113 113 57 57 227 227 227 227 198 198 85 85 198 227 227 227 227 198 57 57 113 113 113 113 113 113 113 113 113 113 113 113 113 113 113 57 57 57 57 227 227 227 227 227 227 227 198 85 28 142 0 0 0 0 142 28 28 85 85 255 113 57 255 85 85 28 28 142 0 0 0 0 0 0 0 0 0 0 0
0 0 0 0 0 0 0 0 0 0 0 142 142 28 85 85 255 57 57 255 255 28 170 170 142 170 0 142 142 28 85 198 227 227 227 227 227 227 57 227 113 113 113 113 113 113 113 113 113 113 113 113 113 113 113 113 113 113 57 57 57 198 85 170 85 198 227 227 227 227 227 227 227 227 227 227 227 227 227 227 198 85 85 198 227 227 198 198 85 170 170 170 28 28 198 198 57 113 57 57 57 57 57 113 57 57 227 227 227 227 227 227 227 227 198 227 227 227 227 198 198 57 113 113 113 113 113 113 113 113 113 113 113 113 57 57 57 57 57 57 198 198 198 198 227 227 227 227 198 85 28 28 142 0 0 0 142 142 28 85 28 255 57 57 255 85 85 28 28 142 142 0 0 0 0 0 0 0 0 0 0
0 0 0 0 0 0 0 0 0 0 142 142 28 28 85 255 255 113 255 255 85 85 142 170 142 0 0 142 142 28 85 198 227 227 227 227 57 57 57 57 113 113 113 113 113 113 113 113 113 113 113 113 113 113 113 113 113 113 57 57 227 198 198 170 85 198 227 227 227 227 227 227 227 227 227 227 227 227 227 198 85 170 170 85 198 227 198 85 85 170 170 170 28 85 198 198 57 57 57 198 227 198 57 57 57 227 227 227 227 227 227 227 227 227 227 227 227 227 227 198 198 57 113 113 113 113 113 113 113 113 113 113 113 57 57 57 57 198 227 227 198 198 198 198 227 227 227 227 227 198 85 28 28 142 0 0 142 142 28 85 85 85 255 113 57 198 85 85 28 28 142 0 0 0 0 0 0 0 0 0 0
0 0 0 0 0 0 0 0 0 0 142 142 28 28 85 255 57 57 255 85 170 85 28 142 0 0 142 142 170 28 85 198 227 227 198 57 57 113 113 113 113 113 113 113 113 113 113 113 113 113 113 113 113 113 113 113 113 57 57 198 227 198 85 170 85 198 227 227 227 227 227 227 227 227 227 227 227 227 227 198 85 85 170 85 198 227 198 85 85 170 170 170 28 85 198 198 57 57 227 227 198 198 227 57 57 227 227 227 227 227 227 227 227 227 227 227 227 227 227 198 198 57 113 113 113 113 113 113 113 113 113 57 57 57 57 198 227 227 227 227 198 85 227 85 198 227 227 227 227 227 198 85 85 28 142 0 0 142 28 85 227 85 255 57 57 57 198 85 28 28 142 0 0 0 0 0 0 0 0 0 0
0 0 0 0 0 0 0 0 0 142 142 28 28 85 255 255 113 255 255 85 85 85 28 0 0 142 142 142 28 170 28 85 227 227 227 198 57 57 57 57 57 57 113 113 113 113 113 113 113 113 113 113 113 113 113 113 113 57 198 198 227 198 85 170 85 198 227 227 227 227 227 227 227 227 227 227 227 227 227 227 227 85 85 85 227 198 198 85 170 170 170 170 170 85 85 198 198 227 227 227 198 227 57 57 227 227 227 227 227 227 227 227 227 227 227 227 227 227 227 198 198 57 113 113 113 113 113 113 113 113 113 57 57 198 227 227 227 227 227 227 227 85 85 85 227 227 227 227 227 227 227 198 85 85 28 142 0 142 142 28 227 227 85 255 113 57 198 85 85 28 28 142 0 0 0 0 0 0 0 0 0
0 0 0 0 0 0 0 0 0 142 142 28 85 85 255 57 57 255 85 85 85 28 142 0 142 142 142 28 28 28 85 85 227 227 227 198 198 198 198 57 57 57 57 57 113 113 113 113 113 113 113 113 113 113 113 113 57 255 198 85 198 227 198 85 227 227 227 227 227 227 227 227 227 227 227 227 227 227 227 227 227 227 227 227 198 198 85 85 170 170 170 170 170 28 85 85 198 227 198 198 198 113 57 57 227 227 227 227 227 227 227 227 227 227 227 227 227 198 198 85 198 57 57 113 113 113 113 113 113 113 57 57 227 227 227 227 227 227 227 227 227 198 198 198 227 227 198 198 198 227 227 227 198 255 28 142 0 0 142 28 85 227 85 255 57 113 57 255 85 85 28 142 142 0 0 0 0 0 0 0 0
0 0 0 0 0 0 0 0 0 142 142 28 85 85 255 113 255 255 170 85 85 28 142 0 142 142 28 85 198 198 198 227 227 227 227 227 198 198 198 198 198 198 198 57 57 113 113 113 113 113 113 113 113 113 113 113 57 255 85 28 85 227 198 198 227 227 227 227 227 227 227 227 227 227 227 227 227 227 227 227 227 227 227 227 198 85 28 170 170 170 170 170 170 170 28 28 85 198 198 57 113 57 57 227 227 227 227 227 227 227 227 227 227 227 227 227 227 198 198 85 85 198 57 113 113 113 113 113 113 57 57 198 227 227 227 227 227 227 227 227 198 198 198 198 198 198 198 57 57 57 198 227 198 255 28 142 142 0 142 28 85 227 227 85 255 113 57 255 255 85 28 142 142 0 0 0 0 0 0 0 0
0 0 0 0 0 0 0 0 142 142 142 28 85 85 198 57 255 198 85 85 85 142 142 0 142 28 28 85 227 198 198 198 227 227 227 198 227 227 227 85 227 227 227 198 57 57 113 113 113 113 113 113 113 113 113 113 57 255 85 170 85 198 227 227 227 227 227 227 227 227 227 227 227 227 227 227 227 227 198 198 227 227 227 227 85 85 170 170 170 170 170 170 170 170 28 28 85 198 57 57 57 57 57 227 227 227 227 227 227 227 227 227 227 227 227 227 198 198 85 28 85 198 57 113 113 113 113 113 113 57 57 198 227 198 198 198 198 198 198 198 198 198 198 198 198 57 57 57 57 57 198 227 198 85 28 28 142 0 142 142 28 198 227 85 198 57 113 57 255 85 28 170 142 142 0 0 0 0 0 0 0
0 0 0 0 0 0 0 0 142 142 28 28 85 255 57 255 255 85 227 85 28 142 0 142 142 28 85 227 227 198 198 198 198 198 198 198 85 85 85 170 227 227 227 227 198 198 57 57 113 113 113 113 113 113 113 113 57 255 85 170 28 85 227 198 227 227 227 227 227 227 227 227 227 227 227 227 227 198 198 85 227 227 227 227 85 85 170 170 170 170 170 170 170 170 170 28 85 198 57 57 57 57 227 227 227 227 227 227 227 227 227 227 227 227 227 227 198 85 85 28 85 198 57 113 113 113 113 113 113 113 57 57 198 198 198 198 198 198 57 57 57 57 57 57 113 113 113 113 57 57 198 227 227 198 85 28 142 0 0 142 28 85 227 227 85 255 57 113 255 255 28 170 170 142 142 0 0 0 0 0 0
0 0 0 0 0 0 0 142 142 142 28 85 255 255 113 255 255 170 85 255 28 142 0 142 142 28 198 227 198 198 57 57 198 198 198 198 198 198 198 198 227 227 227 227 227 227 198 57 57 113 113 113 113 113 113 113 57 255 85 170 28 85 57 227 198 227 227 227 227 227 227 227 227 227 227 227 227 85 85 170 85 227 227 227 85 85 170 170 170 170 170 170 170 170 170 28 85 85 198 198 227 227 227 227 227 227 227 227 227 227 227 227 227 227 227 227 198 85 170 28 85 198 57 113 113 113 113 113 113 113 113 57 57 57 57 57 57 57 57 113 113 113 113 113 113 57 57 57 113 57 198 198 227 227 85 85 28 142 0 142 28 28 227 227 227 85 255 113 255 255 28 170 170 170 142 0 0 0 0 0 0
0 0 0 0 0 0 0 142 142 28 28 85 255 57 113 255 198 227 85 85 28 0 142 142 28 85 198 227 57 57 113 113 113 57 57 57 198 198 198 198 227 227 227 227 227 227 227 198 57 113 113 113 113 113 113 113 255 255 28 170 170 28 85 57 57 198 227 227 227 198 227 227 227 227 227 227 227 198 85 170 85 227 227 227 198 85 170 170 170 170 170 170 170 170 170 170 28 85 198 227 227 227 198 227 227 227 227 227 227 227 227 227 227 227 227 198 198 85 85 85 198 198 57 113 113 113 113 113 113 113 113 113 113 113 113 113 113 113 113 113 113 113 113 57 57 57 57 57 57 113 57 198 198 198 198 85 28 142 0 142 142 28 198 227 227 85 255 57 57 255 85 170 170 170 28 142 0 0 0 0 0
0 0 0 0 0 0 142 142 142 28 85 85 255 113 57 255 85 198 85 28 142 0 142 142 28 85 198 227 57 57 57 57 113 113 113 57 57 57 57 198 227 227 227 227 227 227 227 198 57 113 113 113 113 113 113 57 255 255 28 170 170 28 28 255 57 198 198 198 198 227 227 227 227 227 227 227 198 227 227 85 85 227 227 198 85 85 170 170 170 170 170 170 170 170 170 170 170 28 85 85 227 227 227 227 227 227 227 227 227 227 227 227 227 227 227 227 198 85 85 198 227 198 198 57 113 113 113 113 113 113 113 113 113 113 113 113 113 113 113 113 113 57 57 57 198 198 198 198 198 57 57 113 57 227 198 198 85 28 142 0 142 28 85 227 227 227 85 255 113 255 255 28 170 170 170 142 0 0 0 0 0
0 0 0 0 0 0 142 142 28 28 85 85 57 113 255 198 227 198 85 28 142 0 142 142 28 198 227 227 57 57 57 57 57 57 113 113 113 113 57 57 198 198 227 227 227 227 227 198 57 113 113 113 113 113 113 57 255 255 28 170 170 170 28 28 57 57 198 198 198 85 227 227 227 227 227 227 198 227 227 85 227 227 227 198 85 28 170 170 170 170 170 170 170 170 170 170 170 28 28 85 227 227 227 227 227 227 227 227 227 227 227 227 227 227 227 227 227 85 198 227 198 198 85 198 57 113 113 113 113 113 113 113 113 113 113 113 113 113 113 113 57 57 57 198 227 198 198 198 198 198 198 57 113 57 227 198 85 28 142 0 142 28 85 227 227 227 198 255 57 255 255 28 170 170 170 142 0 0 0 0 0
0 0 0 0 0 142 142 142 28 28 85 198 57 57 255 198 227 85 85 28 0 0 142 142 28 198 227 227 227 198 198 198 198 198 57 57 113 113 113 57 57 57 198 198 198 198 198 198 57 113 113 113 113 113 113 57 255 255 28 170 170 170 170 28 255 57 113 198 198 198 227 227 227 227 227 227 227 170 85 198 227 227 227 198 85 170 170 170 170 170 170 170 170 170 170 170 170 28 85 198 227 227 227 227 227 227 227 227 227 198 198 198 227 227 227 227 198 198 227 198 198 85 28 255 57 113 113 113 113 113 113 113 113 113 113 113 113 113 113 57 57 198 227 227 198 227 227 85 198 227 227 227 227 227 227 198 85 85 28 0 142 142 28 198 227 227 227 85 255 57 255 85 28 170 170 28 142 0 0 0 0
0 0 0 0 0 142 142 28 28 85 85 198 113 57 198 227 85 85 28 142 0 142 142 28 85 198 227 227 227 227 227 227 227 227 57 57 113 113 113 113 113 57 57 57 198 198 57 57 113 113 113 113 113 113 113 57 255 255 28 170 170 170 170 170 28 255 57 57 198 198 198 198 227 198 198 198 85 85 85 227 227 227 198 85 85 170 170 170 170 170 170 170 170 170 170 170 170 28 85 227 227 227 227 227 227 227 198 198 198 198 198 227 227 227 227 198 198 227 198 255 85 170 28 255 57 113 113 113 113 113 113 113 113 113 113 113 113 113 57 57 198 227 227 227 227 85 85 85 227 227 227 227 227 227 227 227 198 255 28 142 0 142 28 85 227 227 227 85 255 113 255 85 28 170 170 28 142 0 0 0 0
0 0 0 0 0 142 142 28 28 85 198 57 57 57 198 227 198 85 28 142 0 0 142 28 85 198 227 227 227 227 227 227 227 227 227 57 57 113 113 113 113 113 57 57 57 57 113 113 113 113 113 113 113 113 113 113 255 255 28 170 170 170 170 170 170 28 255 57 113 57 198 198 198 198 198 198 198 198 227 227 227 227 198 85 85 170 170 170 170 170 170 170 170 170 170 170 28 28 85 227 227 227 227 198 198 227 227 198 227 227 170 85 85 227 198 198 227 57 198 255 28 170 28 255 57 113 113 113 113 113 113 113 113 113 113 113 113 113 57 57 227 227 227 227 227 227 198 227 227 227 227 227 227 227 227 227 198 85 28 142 0 142 28 85 227 227 227 198 85 57 57 255 85 170 170 170 142 0 0 0 0
0 0 0 0 142 142 170 28 28 85 198 113 57 57 227 227 198 85 28 0 0 0 142 28 28 198 227 227 227 227 227 227 227 227 227 57 57 113 113 113 113 113 113 113 113 113 113 113 113 113 113 113 113 113 113 113 255 255 28 170 170 170 170 170 170 170 28 255 57 57 57 57 57 57 198 227 227 227 227 227 227 227 198 85 28 170 170 170 170 170 170 170 170 170 170 170 28 85 198 227 227 227 227 227 227 227 227 227 85 85 85 85 198 198 198 227 57 255 85 85 170 28 28 255 113 113 113 113 113 113 113 113 113 113 113 113 57 57 57 57 227 227 227 227 227 227 227 227 227 227 227 227 227 227 227 227 198 85 28 142 0 142 142 28 198 227 227 227 198 57 113 255 255 170 170 170 142 142 0 0 0
0 0 0 0 142 142 170 28 28 85 198 113 57 57 227 198 85 85 142 0 0 142 142 28 28 198 227 227 227 227 227 227 227 227 198 57 113 113 113 113 113 113 113 113 113 113 113 113 113 113 113 113 113 113 113 113 57 255 28 170 170 170 170 170 170 170 170 28 255 57 113 113 113 57 57 198 198 227 227 227 227 227 198 85 28 170 170 170 170 170 170 170 170 170 28 28 28 85 227 227 227 198 227 227 227 227 198 198 85 85 85 198 198 198 227 57 255 255 85 170 170 28 28 255 113 113 113 113 113 113 113 113 113 113 57 57 57 57 57 227 227 227 198 198 198 227 227 227 227 227 227 227 227 227 227 227 198 85 28 28 142 142 142 28 85 227 227 227 198 198 113 255 255 28 170 170 142 142 0 0 0
0 0 0 142 142 170 170 28 85 198 57 113 57 198 227 198 255 28 142 0 0 142 142 28 28 85 198 227 227 227 227 227 227 198 57 57 113 113 113 113 113 113 113 113 113 113 113 113 113 113 113 113 113 113 113 113 57 255 85 170 170 170 170 170 170 170 170 28 28 255 57 113 113 113 113 57 57 198 227 227 227 227 198 85 28 170 170 170 170 170 170 170 28 28 28 28 85 227 227 227 227 227 227 227 198 227 198 198 198 198 198 198 198 57 57 255 85 28 170 170 170 28 28 57 113 113 113 113 113 113 113 113 113 57 57 57 198 227 227 227 198 198 198 85 198 227 227 227 227 227 227 227 227 227 227 227 227 198 85 28 142 0 142 28 85 227 227 227 198 198 113 57 255 28 170 170 28 142 0 0 0
0 0 0 142 142 170 28 28 85 57 113 57 57 198 227 198 255 28 142 0 142 142 142 170 28 85 85 227 198 227 227 227 227 227 57 57 57 57 113 113 113 113 113 113 113 113 113 113 113 113 113 113 113 113 113 113 57 255 255 28 170 170 170 170 170 170 170 170 28 85 57 113 113 113 113 113 57 198 227 227 227 227 198 85 28 170 170 170 170 170 170 28 28 85 85 198 227 227 227 227 227 227 85 85 198 198 198 198 198 198 57 57 57 255 255 85 170 170 170 170 170 28 85 57 113 113 113 113 113 113 113 113 57 57 57 198 227 227 227 198 198 85 85 85 85 85 198 227 227 227 227 227 227 227 227 227 227 198 85 28 142 0 142 28 85 198 227 227 227 85 57 57 255 85 170 170 28 142 0 0 0
0 0 142 142 170 170 28 28 255 57 113 57 57 198 227 198 255 28 142 0 142 142 170 170 170 170 85 85 85 227 227 227 227 227 198 57 57 57 57 57 57 57 57 113 113 113 113 113 113 113 113 113 113 113 113 113 113 57 255 28 170 170 170 170 170 170 170 28 28 85 57 113 113 113 113 113 57 57 227 227 227 227 198 85 28 170 170 170 170 170 170 28 85 227 227 227 227 227 227 227 227 227 198 198 198 198 57 57 57 57 113 57 255 255 85 170 170 170 170 170 170 28 255 57 113 113 113 113 113 113 113 113 57 57 198 227 227 227 198 198 85 170 170 170 85 85 85 198 198 198 227 227 227 227 227 227 227 198 85 28 142 0 142 28 28 198 227 227 227 85 57 57 255 85 170 170 28 142 0 0 0
0 0 142 142 170 170 28 28 255 57 113 57 57 227 227 85 85 28 0 142 142 142 170 170 170 170 170 85 85 198 227 227 227 227 198 198 198 198 198 57 57 57 57 57 113 113 113 113 113 113 113 113 113 113 113 113 113 57 255 85 28 170 170 170 170 170 28 28 85 198 57 113 113 113 113 57 57 57 227 227 227 227 198 85 85 170 170 170 170 170 170 28 85 227 227 227 227 227 227 227 227 198 198 198 57 57 57 113 113 113 57 255 255 85 170 170 170 170 170 170 28 28 255 113 113 113 113 113 113 113 113 113 57 57 198 227 227 227 227 198 85 85 28 28 170 170 85 85 85 85 198 198 198 227 227 227 227 198 85 28 28 0 142 142 28 85 227 227 227 198 198 113 255 255 170 170 28 142 0 0 0
0 0 142 142 170 170 28 85 57 113 113 57 57 227 198 85 28 142 0 142 142 28 28 28 28 170 170 170 85 85 198 198 198 198 227 227 227 227 227 227 198 198 198 57 57 113 113 113 113 113 113 113 113 113 113 113 113 57 255 255 28 170 170 170 170 28 28 85 198 57 113 57 57 57 57 57 57 227 227 227 227 227 227 198 85 28 170 170 170 170 170 28 85 227 227 227 227 227 227 227 198 198 198 57 113 113 113 113 113 113 57 255 85 28 170 170 170 170 170 170 28 28 255 113 113 113 113 113 113 113 113 113 113 57 57 198 198 198 227 198 198 198 85 85 28 170 170 170 170 85 85 85 227 227 227 227 227 198 85 28 28 142 142 142 28 85 227 227 227 198 198 57 255 255 28 170 170 142 142 0 0
0 0 142 142 170 28 28 85 57 113 113 57 57 227 198 85 28 142 142 142 28 85 85 85 85 85 85 170 170 85 85 227 227 227 227 227 227 227 227 227 227 227 227 198 57 57 113 113 113 113 113 113 113 113 113 113 113 113 57 255 28 170 170 170 28 28 85 198 57 57 57 57 57 57 57 227 227 227 198 198 227 227 198 198 85 28 170 170 170 170 170 28 85 85 198 227 227 227 227 227 198 57 113 113 113 113 113 113 113 113 57 255 85 28 170 170 170 170 170 28 28 85 57 113 113 113 113 113 113 113 113 113 113 113 57 57 57 198 198 227 227 227 227 198 85 85 85 28 170 170 170 170 85 85 227 227 227 198 85 28 28 142 0 142 28 85 227 227 227 227 198 57 255 255 28 170 170 142 142 0 0
0 0 142 142 170 28 28 255 57 113 57 57 198 227 198 85 28 0 142 28 85 198 227 198 198 198 85 85 170 170 170 85 227 227 227 227 227 227 227 227 227 227 227 227 198 57 57 113 113 113 113 113 113 113 113 113 113 113 57 255 85 170 28 28 28 85 198 57 57 57 57 57 227 227 227 227 227 198 198 198 198 198 198 85 85 170 170 170 170 170 170 170 28 85 85 198 227 227 227 227 57 57 57 57 57 113 113 113 113 113 57 57 85 85 28 28 170 170 170 28 28 198 113 113 113 113 113 113 113 113 113 113 113 113 113 113 113 57 57 227 227 227 227 227 227 198 198 85 85 28 28 170 85 227 227 227 227 198 85 28 28 142 0 142 28 85 227 227 227 227 198 198 57 255 28 170 170 142 142 0 0
0 0 142 170 170 28 28 85 57 113 57 57 198 227 198 255 28 0 142 28 85 227 227 227 227 227 198 85 28 28 85 198 85 227 227 227 227 227 227 227 227 227 227 227 198 198 57 113 113 113 113 113 113 113 113 113 113 113 57 255 85 28 28 85 198 227 227 227 227 227 227 227 227 227 227 227 198 198 85 85 85 85 85 85 170 170 170 170 170 170 170 170 170 28 85 85 198 198 198 198 198 198 198 198 57 57 57 57 57 57 57 57 57 198 85 28 28 28 28 28 85 57 113 113 113 113 113 113 113 113 113 113 113 113 113 113 57 57 113 113 227 227 227 227 227 227 227 198 198 85 85 85 227 227 227 227 227 198 85 28 28 142 0 142 28 85 227 227 227 227 198 198 57 255 28 170 170 28 142 0 0
0 0 142 170 170 28 28 85 57 57 57 57 227 227 198 255 28 0 142 28 85 227 227 227 227 227 227 198 85 85 227 227 227 227 227 227 227 227 227 227 227 227 227 227 198 57 113 113 113 113 113 113 113 113 113 113 113 113 113 57 198 85 85 227 227 227 227 227 227 227 227 227 227 227 227 198 198 85 170 170 28 170 170 170 170 170 170 170 170 170 170 170 170 170 28 28 85 255 255 85 85 198 198 198 198 57 57 57 57 57 57 57 227 198 198 198 85 85 28 85 198 57 113 113 113 113 113 113 113 113 113 113 113 113 57 57 57 57 57 57 57 57 227 227 227 227 227 227 227 227 227 227 227 227 227 227 227 227 198 85 28 28 0 142 28 85 227 227 227 227 198 198 57 255 28 170 170 28 142 0 0
0 0 142 142 170 28 28 198 113 227 57 57 227 227 85 85 28 0 142 28 85 227 227 227 227 227 227 227 227 227 227 227 227 227 227 227 227 227 227 227 227 227 227 198 57 57 113 113 113 113 113 113 113 113 113 113 113 113 113 57 57 198 227 227 227 227 227 227 198 227 227 227 198 198 198 198 85 85 170 170 170 170 170 170 170 170 170 170 170 170 170 170 170 170 170 170 28 28 28 28 85 85 85 198 227 198 198 198 227 227 227 227 227 198 227 198 198 198 85 198 57 113 113 113 113 113 113 113 113 113 113 113 113 113 57 57 57 227 227 227 227 227 227 227 227 227 227 227 227 227 227 227 227 227 227 227 227 227 227 198 85 28 142 142 28 28 198 227 227 227 198 198 57 255 85 170 170 28 142 0 0
0 0 142 142 170 28 85 57 113 227 57 198 227 227 85 85 28 142 142 28 85 227 227 227 227 227 227 227 227 227 227 227 227 227 227 227 227 227 227 227 227 227 198 57 57 113 113 113 113 113 113 113 113 113 113 113 113 113 113 57 57 198 227 227 227 227 227 227 198 198 198 198 227 227 227 85 85 170 170 170 170 170 170 170 170 170 170 170 170 170 170 170 170 170 170 170 170 170 170 170 170 170 85 85 198 227 227 227 227 227 227 227 198 198 227 198 227 227 198 198 57 113 113 113 113 113 113 113 113 113 113 113 113 113 113 57 57 198 227 227 227 227 227 227 227 227 227 227 198 198 198 198 227 227 227 227 227 227 227 198 255 28 142 0 142 28 198 227 227 227 198 198 113 255 85 170 170 28 142 0 0
0 0 142 142 170 28 85 57 113 57 57 198 227 227 85 85 142 142 142 28 85 227 227 227 227 227 227 227 227 227 227 227 227 227 227 227 227 227 227 227 227 198 57 57 113 113 113 113 113 113 113 113 113 113 113 113 113 113 113 113 57 57 198 198 227 227 227 57 113 57 198 198 227 227 85 85 85 28 28 28 28 170 170 170 170 170 170 170 170 170 170 170 170 170 170 170 170 170 170 170 28 170 170 28 198 227 227 198 227 227 227 198 198 57 57 198 227 198 198 198 113 113 113 113 113 113 113 113 113 113 113 113 113 113 113 113 57 57 198 198 198 227 227 227 227 227 227 57 57 57 57 57 198 198 198 198 198 227 227 198 255 85 28 0 142 28 85 227 227 227 227 198 113 255 85 170 170 28 142 0 0
0 0 142 142 170 28 28 57 113 57 57 198 227 198 85 85 142 142 28 28 85 227 227 227 227 227 227 227 227 198 198 198 198 227 227 227 227 227 227 227 198 198 57 113 113 113 113 113 113 113 113 113 113 113 113 113 113 113 113 113 113 57 57 198 198 198 227 227 113 113 57 198 198 198 198 198 198 198 85 85 85 28 28 170 170 170 170 170 170 170 170 170 170 170 170 170 170 170 28 28 28 28 28 85 227 227 227 227 85 198 198 198 57 113 57 198 198 198 198 57 113 113 113 113 113 113 113 113 113 113 113 113 113 113 113 113 113 57 57 57 57 57 198 198 198 198 57 57 57 113 113 57 57 57 57 57 57 57 198 198 85 85 28 0 142 28 85 227 227 227 227 85 113 255 85 28 28 28 142 0 0
0 0 142 142 170 28 28 255 113 57 57 198 227 198 85 28 142 142 28 28 85 227 227 227 227 227 227 198 198 198 85 85 198 227 227 227 227 227 227 198 198 57 113 113 113 113 113 57 57 57 57 113 113 113 113 113 113 113 113 113 113 113 57 57 57 57 57 57 113 113 57 227 198 198 227 227 227 227 227 227 198 85 85 170 170 170 170 170 170 170 170 170 170 170 170 170 170 28 28 85 85 85 198 198 198 198 198 85 85 198 57 113 113 113 113 57 198 57 57 113 113 113 113 113 113 113 113 113 113 113 113 113 113 113 113 113 113 113 113 113 57 57 57 57 57 57 57 113 113 113 113 113 113 113 113 113 57 57 198 198 85 28 28 0 142 28 85 227 227 227 227 85 57 255 255 28 28 28 142 0 0
0 0 142 142 170 28 28 255 113 57 57 198 227 227 85 85 142 142 142 28 85 227 227 227 227 227 198 198 198 227 170 85 85 198 227 227 227 227 198 198 57 113 113 113 113 113 57 57 57 57 57 57 113 113 113 113 113 113 113 113 113 113 113 113 113 113 113 57 113 113 57 57 227 227 227 227 227 227 227 227 227 198 85 28 170 170 170 170 170 170 170 170 170 170 170 170 28 85 85 198 227 227 227 227 198 198 198 198 198 57 113 113 113 113 113 57 57 113 113 113 113 113 113 113 113 113 113 113 113 113 113 113 113 113 113 113 113 113 113 113 113 113 113 113 113 113 113 113 113 113 113 57 57 57 57 113 113 57 198 198 255 85 28 0 142 28 85 227 227 227 227 85 57 255 255 28 28 28 142 0 0
0 0 0 142 170 28 28 255 57 57 57 198 227 227 85 85 28 0 142 28 85 198 198 227 227 227 227 227 85 28 28 28 85 198 227 198 198 198 198 57 113 113 113 113 57 57 57 57 198 198 198 57 57 113 113 113 113 113 113 113 113 113 113 113 113 113 113 113 57 57 113 57 227 57 227 227 227 227 227 227 227 227 198 85 28 170 170 170 170 170 170 170 170 170 170 28 28 85 227 227 227 227 227 227 227 57 57 57 57 113 113 113 113 113 113 113 113 113 113 113 113 113 113 113 113 113 113 113 113 113 113 113 57 113 113 113 113 113 113 113 113 113 113 113 113 113 113 113 113 113 57 57 57 57 57 57 57 57 57 198 255 85 28 0 142 28 85 227 227 227 227 85 57 255 85 170 28 28 142 0 0
0 0 0 142 170 28 28 255 57 113 57 198 227 227 85 85 28 0 142 28 85 85 85 198 227 227 198 198 85 85 85 198 198 198 198 198 198 57 57 113 113 113 113 57 57 57 198 198 227 227 198 198 57 113 113 113 113 113 113 113 113 113 113 113 113 113 113 113 113 113 113 57 57 227 227 227 227 227 227 227 227 227 198 85 28 170 170 170 170 170 170 170 170 170 170 28 85 227 227 227 227 227 227 227 227 57 57 113 113 113 113 113 113 113 113 113 113 113 113 113 113 113 113 113 113 113 113 113 113 113 113 57 57 57 57 113 113 113 113 113 113 113 113 113 113 113 113 113 113 57 57 57 198 198 198 198 198 57 57 198 255 85 28 0 142 28 85 227 227 227 227 85 227 255 85 170 28 142 142 0 0
0 0 0 142 142 28 28 85 57 113 57 198 227 227 85 85 28 0 142 170 170 170 28 85 198 198 198 198 198 198 198 198 198 198 57 57 57 113 113 113 113 57 57 57 57 198 227 227 227 198 198 198 57 113 113 113 113 113 113 113 113 113 113 113 113 113 113 113 113 113 57 57 57 227 227 227 227 227 227 227 227 227 198 85 85 170 170 170 170 170 170 170 170 170 28 28 198 227 227 227 227 227 227 227 227 57 57 113 113 113 113 113 113 113 113 113 113 113 113 113 113 113 113 113 113 113 113 113 113 57 57 57 198 198 57 57 57 113 113 113 113 113 113 113 113 113 113 113 113 57 57 198 227 227 227 227 227 227 227 198 255 28 142 0 142 28 85 227 227 227 227 85 227 255 85 170 28 142 142 0 0
0 0 0 142 142 28 28 85 57 113 57 198 227 227 198 85 28 0 142 142 170 28 28 85 198 198 198 198 198 57 57 57 113 113 113 113 113 113 57 57 57 57 57 198 227 227 227 227 227 198 198 57 113 113 113 113 113 113 113 113 113 113 113 113 113 113 113 113 113 113 57 57 227 227 227 227 227 227 227 227 227 227 227 198 85 28 170 170 170 170 170 170 170 170 28 28 198 227 227 227 227 227 227 227 227 57 57 113 113 113 113 113 113 113 113 113 113 113 113 113 113 113 113 113 113 113 113 113 113 57 57 198 227 227 227 198 57 57 57 113 113 113 113 113 113 113 113 113 113 57 57 198 227 227 227 227 227 227 198 198 255 28 142 142 142 28 85 227 227 227 227 85 198 255 85 28 28 142 0 0 0
0 0 0 142 142 28 28 85 198 113 57 198 227 227 198 255 28 0 142 142 170 28 85 198 198 198 57 57 57 113 113 113 113 57 57 57 57 57 57 57 57 198 198 227 227 227 227 198 198 198 57 113 113 57 57 57 57 113 113 113 113 113 113 113 113 113 113 113 113 113 57 57 227 227 227 227 227 227 227 227 227 227 227 198 198 85 28 170 170 170 170 170 170 170 28 85 227 227 227 227 227 227 227 227 227 57 57 113 113 113 113 113 113 113 113 113 113 113 113 113 113 113 113 113 113 113 113 113 113 57 57 198 227 227 227 227 198 198 57 57 113 113 113 113 113 113 113 113 113 113 57 57 198 227 227 227 227 198 198 85 85 28 142 142 142 28 85 227 227 227 227 85 227 255 85 28 28 142 0 0 0
0 0 0 142 142 28 28 85 198 113 57 198 227 227 198 85 28 0 142 142 28 28 85 198 198 57 113 113 113 113 57 57 57 57 57 57 57 57 198 198 198 198 198 227 227 227 198 198 198 57 113 113 57 57 57 198 57 57 113 113 113 113 113 113 113 113 113 113 113 113 57 57 227 227 227 227 227 227 227 227 227 227 227 227 198 85 85 170 170 170 170 170 170 28 28 198 227 227 227 227 227 227 227 227 227 227 57 113 113 113 113 113 113 113 113 113 113 113 113 113 113 113 113 113 57 57 57 57 113 113 57 57 198 227 227 227 227 227 198 57 57 113 113 113 113 113 113 113 113 113 113 57 198 198 198 227 227 198 85 85 28 28 142 0 142 28 85 227 227 227 227 85 227 255 85 28 28 142 0 0 0
0 0 0 0 142 28 28 85 255 113 57 198 227 227 85 85 28 142 142 142 28 28 85 198 198 57 113 57 57 57 57 57 57 198 198 198 198 198 198 198 198 198 227 227 227 198 198 198 57 57 113 57 57 57 198 198 198 57 57 113 113 113 113 113 113 113 113 113 113 113 113 57 57 227 227 227 227 227 227 227 227 227 227 227 227 198 85 28 170 170 170 170 28 28 85 227 227 227 227 227 227 227 227 227 227 227 57 113 113 113 113 113 113 113 113 113 113 113 113 113 113 113 113 57 57 57 57 57 57 113 113 57 57 198 227 227 227 227 227 198 57 57 57 57 113 113 113 113 113 113 113 113 57 57 198 198 227 198 85 28 28 28 142 0 142 28 85 227 227 227 227 85 57 255 85 28 28 142 0 0 0
0 0 0 0 142 142 28 28 255 113 57 198 227 227 198 85 28 142 0 142 28 28 198 198 198 57 57 57 57 57 198 198 198 198 198 198 85 85 85 85 85 85 85 198 198 198 198 57 113 113 113 57 57 198 227 227 198 198 57 113 113 113 113 113 113 113 113 113 113 113 113 113 57 57 227 227 227 227 227 227 227 227 227 227 227 227 198 85 170 170 170 170 28 85 227 227 227 227 227 227 227 227 227 227 227 57 57 113 113 113 113 113 113 113 113 113 113 113 113 113 113 113 57 57 198 198 198 198 57 57 113 113 57 57 198 227 227 227 227 227 198 198 57 57 57 57 113 113 113 113 113 113 113 57 57 57 227 198 198 85 28 28 142 142 142 28 85 227 227 227 227 198 57 255 85 28 28 142 0 0 0
0 0 0 0 142 142 28 28 255 113 57 198 227 227 198 85 28 142 0 142 28 28 85 198 227 57 57 227 227 227 198 198 85 85 85 85 227 170 170 170 170 85 85 198 198 57 57 113 113 113 57 57 198 198 198 227 198 198 57 113 113 113 113 113 113 113 113 113 113 113 113 113 113 57 227 227 227 227 227 227 227 227 227 227 227 227 198 85 28 170 170 28 28 85 227 227 227 227 227 227 227 227 227 227 227 57 57 113 113 113 113 113 113 113 113 113 113 113 113 113 113 57 57 57 198 198 198 198 198 57 113 113 113 57 198 198 227 227 227 227 227 198 198 198 57 57 57 57 57 57 57 57 113 113 113 57 227 227 198 198 85 28 142 0 142 28 85 227 227 227 227 198 57 255 28 28 28 142 0 0 0
0 0 0 0 142 142 28 28 255 57 57 198 227 227 227 85 28 142 0 142 142 28 85 198 227 227 227 227 227 198 227 85 170 170 170 170 170 85 85 85 85 198 198 198 57 57 113 113 113 57 57 57 198 198 227 85 198 198 57 113 113 113 113 113 113 113 113 113 113 113 113 113 113 113 57 57 227 227 227 227 227 227 227 227 227 227 227 198 85 28 170 28 85 198 227 227 227 227 227 227 227 227 227 227 57 57 113 113 113 113 113 113 113 113 113 113 113 113 113 113 113 57 57 198 198 198 85 198 198 57 57 113 113 113 57 57 198 227 227 227 227 227 198 198 198 198 198 57 57 198 198 57 57 113 113 113 57 57 198 198 255 28 142 0 142 28 85 227 227 227 227 198 57 255 85 28 28 142 0 0 0
0 0 0 0 142 142 28 28 85 57 57 198 227 227 227 85 85 142 0 0 142 28 85 198 227 227 227 227 227 227 227 198 85 85 85 85 85 85 85 85 227 227 198 57 57 113 113 113 57 57 198 198 198 85 85 85 198 198 57 113 113 113 113 113 113 113 113 113 113 113 113 113 113 113 113 57 227 227 227 227 227 227 227 227 227 227 227 198 85 85 170 28 85 227 227 227 227 227 227 227 227 227 227 227 57 57 113 113 113 113 113 113 113 113 113 113 113 113 113 113 113 57 57 198 198 227 85 198 198 198 57 57 113 113 113 57 57 198 227 227 227 227 198 198 198 227 227 198 227 227 227 227 57 57 113 113 57 57 198 198 255 28 142 0 142 28 85 227 227 227 227 198 57 255 85 28 28 142 0 0 0
0 0 0 0 142 142 28 28 85 198 57 198 227 227 227 198 255 28 142 0 142 142 28 85 198 227 227 227 227 227 227 227 198 198 198 227 227 227 227 227 227 227 227 57 57 113 57 57 57 57 198 198 85 170 28 85 198 198 57 113 113 113 113 113 113 113 113 113 113 113 113 113 113 113 113 113 57 227 227 227 227 227 227 227 227 227 227 227 198 85 170 85 198 227 227 227 227 227 227 227 227 227 227 57 57 113 113 113 113 113 113 113 113 113 113 113 113 113 113 113 113 57 57 198 85 85 170 85 198 198 198 57 113 113 113 113 57 57 198 227 227 198 227 85 198 227 227 227 227 227 227 227 198 57 57 113 57 57 57 198 255 28 142 0 142 28 85 227 227 227 227 198 57 255 85 28 28 142 0 0 0
0 0 0 0 142 142 28 28 85 198 113 57 198 227 227 198 255 28 142 0 142 142 28 28 85 227 227 227 227 227 227 227 227 227 227 227 227 227 227 227 227 227 227 57 113 57 57 57 57 198 198 85 85 28 28 198 198 57 113 113 113 113 113 113 113 113 113 113 113 113 113 113 113 113 113 113 113 113 57 57 227 227 227 227 227 227 227 227 198 85 170 85 227 227 227 227 227 227 227 227 227 227 57 57 113 113 113 113 113 113 113 113 113 113 113 113 113 113 113 113 113 57 57 198 198 85 170 85 198 198 198 57 57 57 113 113 113 57 57 227 227 198 198 170 85 198 227 227 227 227 227 227 198 198 57 113 113 57 57 198 255 28 142 0 142 28 85 227 227 227 227 198 57 255 28 28 28 142 0 0 0
0 0 0 0 142 142 28 28 85 198 113 57 198 227 227 198 255 28 142 0 142 142 142 28 85 198 227 227 227 227 227 227 227 227 227 227 227 227 227 227 227 227 227 57 57 57 57 198 198 198 85 170 28 28 85 198 198 57 113 113 113 57 57 113 113 113 113 113 113 113 113 113 113 113 113 113 113 113 227 57 227 227 227 227 227 227 227 227 198 85 85 85 227 227 227 227 227 227 227 227 227 57 113 57 113 113 113 113 113 113 113 113 113 113 113 113 113 113 113 113 113 113 57 198 198 85 85 170 85 198 198 227 198 57 57 57 57 113 57 57 227 198 198 85 85 85 198 227 227 227 227 227 198 198 57 113 113 57 57 198 255 28 142 142 142 28 85 227 227 227 198 198 57 255 28 28 28 142 0 0 0
0 0 0 0 0 142 28 28 85 85 113 57 198 227 227 198 85 28 142 0 0 142 142 28 28 85 227 227 227 227 227 227 227 227 227 227 227 227 227 227 227 227 227 57 57 57 198 198 227 227 85 85 85 85 227 198 198 57 113 57 113 57 57 113 113 113 113 113 113 113 113 113 113 113 113 57 57 227 227 227 227 227 227 227 227 227 227 227 227 198 227 227 227 227 227 227 227 227 227 227 227 57 113 113 113 113 113 113 113 113 113 113 113 113 113 113 113 113 113 113 113 113 57 198 198 198 85 170 170 85 198 198 198 198 57 57 57 57 113 57 57 198 198 85 170 85 85 198 227 227 227 227 198 198 57 113 113 57 57 198 255 28 142 142 142 28 85 227 227 227 198 198 57 255 28 28 28 142 0 0 0
0 0 0 0 0 142 28 28 85 85 113 57 198 227 227 227 85 28 28 0 0 142 142 28 28 85 227 227 227 227 227 227 227 227 227 227 227 227 227 227 227 227 57 198 198 198 198 227 227 227 198 198 227 198 198 198 57 113 113 113 113 57 113 113 113 113 113 113 113 113 113 113 113 113 113 57 227 227 227 227 227 227 227 227 227 227 227 227 227 227 227 227 227 227 227 227 227 227 227 227 227 227 57 57 113 113 113 113 113 113 113 113 113 113 113 113 113 113 113 113 113 113 113 57 198 198 198 85 170 170 85 198 198 85 85 198 198 198 57 113 57 227 227 198 85 170 28 85 227 227 227 227 227 198 57 113 113 57 57 198 255 28 142 142 142 28 85 227 227 227 198 198 57 85 28 28 28 142 0 0 0
0 0 0 0 0 142 28 28 85 85 113 57 198 227 227 227 85 85 28 142 0 142 142 28 28 85 198 227 227 227 227 227 227 227 227 227 227 227 227 227 227 57 57 198 85 85 85 85 227 227 227 227 227 198 198 57 113 113 113 113 113 113 113 113 113 113 113 113 113 113 113 113 113 113 57 57 227 227 227 227 227 227 227 227 227 227 227 227 227 227 227 227 227 227 227 227 227 227 227 227 227 227 227 227 113 113 113 113 113 113 113 113 113 113 113 113 113 113 113 113 113 113 113 57 198 198 227 198 85 85 170 227 85 170 85 85 198 198 227 57 57 227 227 227 198 85 170 85 198 227 227 227 198 198 57 113 113 57 198 198 255 28 142 142 142 28 85 227 227 227 227 227 57 85 28 28 28 142 0 0 0
0 0 0 0 0 142 142 28 85 85 113 57 198 227 227 227 198 85 28 142 0 142 142 170 28 28 198 227 227 227 227 227 227 227 227 227 227 227 227 227 227 57 255 85 28 170 28 85 227 227 227 227 198 57 57 57 113 113 113 113 113 57 57 113 113 113 113 113 113 113 113 113 113 113 113 113 227 227 227 227 227 227 227 227 227 227 227 227 227 227 227 227 227 227 227 227 227 227 227 227 227 227 227 113 113 57 113 113 113 113 113 113 113 113 113 113 113 113 113 113 113 113 113 113 57 198 227 227 198 198 85 85 28 170 170 28 85 198 227 227 227 57 227 227 198 85 170 170 85 198 227 227 227 227 57 57 57 57 198 85 255 28 0 142 142 28 85 227 227 227 227 227 198 85 28 28 142 0 0 0 0
0 0 0 0 0 142 142 28 85 85 113 57 198 227 227 227 198 85 28 142 0 142 142 170 170 28 85 198 227 227 227 227 227 227 227 227 227 227 227 57 57 198 85 85 170 28 28 198 227 227 227 227 227 57 57 113 113 113 113 113 113 113 113 113 113 113 113 113 113 113 113 113 113 113 113 113 113 227 227 227 227 227 227 227 227 227 227 227 227 227 227 227 227 227 227 227 227 227 227 227 227 227 227 113 227 57 113 113 113 113 113 113 113 113 113 113 113 113 113 113 113 113 113 113 57 57 198 227 227 227 198 198 85 85 28 170 85 198 198 227 227 227 227 227 227 198 85 170 85 85 198 227 227 227 198 198 57 57 198 255 85 28 0 142 142 28 85 227 227 227 227 227 198 85 28 28 142 0 0 0 0
0 0 0 0 0 142 142 28 85 85 113 57 198 227 227 227 198 85 28 142 0 142 142 170 170 28 28 198 227 227 227 227 227 227 227 227 227 198 198 198 57 198 85 85 28 28 85 198 227 227 227 227 227 198 57 57 113 113 113 113 113 113 113 113 113 113 113 113 113 113 113 113 113 113 57 113 113 113 113 113 227 227 227 227 227 227 227 227 227 227 227 227 227 227 227 227 227 227 227 227 227 227 227 113 57 57 113 113 113 113 113 113 113 113 113 113 113 113 113 113 113 113 113 113 57 57 57 57 198 198 227 227 227 198 85 170 28 85 198 227 227 227 227 227 227 198 85 28 170 85 85 198 227 227 227 227 227 227 198 255 28 28 0 142 142 28 85 227 227 227 227 227 198 85 28 28 142 0 0 0 0
0 0 0 0 0 142 142 28 85 85 113 57 198 227 227 227 198 85 28 142 0 0 142 170 170 28 28 198 227 227 227 227 227 227 227 198 198 198 85 85 198 227 85 85 85 85 227 198 198 198 198 227 227 198 198 57 113 113 113 113 113 113 113 113 113 113 113 113 113 113 113 113 113 113 113 113 113 113 113 113 227 227 227 227 227 227 227 227 227 227 227 227 227 227 227 227 227 227 227 227 227 227 227 227 57 57 113 113 113 113 113 113 113 113 113 113 113 113 113 113 113 57 113 113 113 113 113 113 57 198 227 227 227 227 85 85 170 28 85 198 227 227 227 227 227 198 198 85 170 170 85 85 198 227 227 227 227 198 198 255 28 142 0 142 142 28 85 227 227 227 227 227 198 85 28 28 142 0 0 0 0
0 0 0 0 0 142 142 28 85 85 113 57 198 227 227 227 227 85 28 28 0 0 142 142 170 28 85 198 227 227 227 227 227 227 227 198 198 85 85 85 85 198 198 198 198 198 85 85 85 85 198 227 227 198 198 57 113 113 113 113 113 113 113 113 57 113 113 113 113 113 113 113 113 113 113 113 113 113 113 227 113 227 227 227 227 227 227 227 227 227 227 227 227 227 227 227 227 227 227 113 227 227 227 227 57 57 113 113 113 113 113 113 113 113 113 113 113 113 113 113 113 57 113 113 57 57 57 57 57 57 57 227 227 227 198 85 170 170 28 85 198 227 227 227 227 227 198 85 85 170 170 85 85 198 198 198 198 198 85 85 28 142 0 142 28 28 198 227 227 227 227 198 85 85 28 28 142 0 0 0 0
0 0 0 0 0 142 142 28 85 85 113 57 198 227 227 227 227 85 85 28 142 0 142 142 28 28 85 227 227 227 227 227 227 227 227 198 85 170 170 28 85 227 227 227 227 198 85 85 170 28 85 198 227 227 198 57 113 113 113 113 113 113 113 57 57 57 57 113 113 113 113 113 113 113 113 113 113 57 113 227 113 113 113 113 57 57 227 227 198 198 198 198 227 227 227 227 227 227 113 113 227 227 227 57 57 57 113 113 113 113 113 113 113 113 57 57 57 113 113 113 113 57 113 113 57 57 198 57 57 57 227 227 227 227 198 85 28 170 170 28 85 198 227 227 227 227 227 198 85 85 170 170 85 85 85 85 85 85 85 28 28 0 0 142 28 85 227 227 227 198 227 57 255 85 28 28 142 0 0 0 0
0 0 0 0 0 142 142 28 85 85 113 57 198 227 227 227 227 198 85 28 142 0 142 142 28 28 85 227 227 227 227 227 227 227 227 198 85 28 28 28 198 198 198 198 227 198 198 85 28 170 28 198 227 227 198 57 113 113 113 113 113 113 57 57 227 57 57 113 113 113 113 113 113 113 113 113 113 113 57 227 113 113 113 113 57 57 227 198 198 198 85 198 227 227 227 227 227 113 113 227 227 227 227 57 57 57 113 113 113 113 113 113 113 113 57 57 227 57 113 113 113 57 113 113 57 198 227 227 227 227 227 227 227 198 85 85 170 170 170 170 85 85 198 198 227 227 227 227 227 85 85 85 170 85 85 85 85 85 170 28 142 0 142 142 28 85 227 227 227 198 227 57 85 85 28 28 142 0 0 0 0
0 0 0 0 0 142 142 28 28 85 113 57 198 227 227 227 227 198 85 28 142 0 142 142 28 28 85 227 227 227 227 227 227 227 227 227 198 85 85 198 198 198 198 227 57 227 227 198 85 85 85 198 227 227 198 57 57 113 113 113 113 113 57 227 227 227 57 57 113 113 113 113 113 113 113 113 113 113 57 57 227 227 227 57 57 57 227 198 198 85 85 85 198 227 227 227 113 113 227 227 227 227 57 57 113 113 113 113 113 113 113 113 113 113 57 227 227 57 113 113 113 57 113 113 57 198 227 227 198 198 227 227 227 198 85 170 28 28 28 28 28 170 227 198 198 198 227 227 227 227 198 85 170 170 170 170 170 170 170 28 142 0 142 142 28 85 227 227 227 198 227 57 85 85 28 28 142 0 0 0 0
0 0 0 0 0 142 142 28 28 255 57 57 198 227 227 227 227 198 255 28 142 0 142 142 28 28 198 227 227 227 227 227 227 227 198 198 198 198 198 198 198 113 113 57 57 227 227 227 227 227 227 227 227 227 227 198 57 113 113 113 113 113 113 57 113 227 57 57 113 113 113 113 113 113 113 113 113 113 113 113 57 227 227 227 227 227 227 198 85 85 170 85 198 227 227 57 227 57 227 227 57 227 57 113 113 113 113 113 113 113 113 113 113 113 57 57 227 227 113 113 113 57 113 57 57 198 227 227 198 198 198 198 227 198 85 85 85 85 85 198 198 85 85 227 227 198 198 227 227 227 198 198 85 170 170 170 170 170 170 28 142 0 142 142 28 85 227 227 227 198 227 57 255 28 28 28 0 0 0 0 0
0 0 0 0 0 142 142 28 28 255 57 57 198 227 227 227 227 198 255 28 142 0 142 142 28 85 227 227 227 227 198 198 198 198 198 198 198 57 57 57 113 57 57 198 227 227 227 227 227 227 227 227 227 227 198 198 57 113 113 113 113 113 113 113 57 227 227 57 57 113 113 113 113 113 113 113 113 113 113 113 57 113 57 57 227 227 227 198 85 28 170 28 85 227 227 198 57 113 57 227 113 57 57 113 113 113 113 113 113 113 113 113 113 57 57 227 227 113 113 113 113 57 113 113 57 198 198 198 85 227 85 85 198 227 227 85 198 227 227 227 227 198 198 198 85 227 227 198 198 198 198 85 170 170 170 170 170 170 170 28 142 0 142 142 28 85 227 227 227 198 227 57 255 28 28 142 0 0 0 0 0
0 0 0 0 0 142 142 28 28 85 198 113 57 198 227 227 227 198 85 28 142 0 142 142 28 85 227 227 198 198 198 198 198 57 57 57 57 57 113 57 57 57 198 198 198 227 227 227 227 198 227 227 227 227 198 198 57 113 113 113 113 113 113 113 57 227 227 57 57 113 113 113 113 113 113 113 113 113 113 113 57 113 57 57 57 227 198 198 85 28 28 28 85 227 227 198 57 113 113 113 113 113 57 113 113 113 113 113 113 113 113 113 57 57 227 227 57 113 113 113 113 57 113 113 57 57 198 198 198 85 170 170 85 85 198 227 227 227 227 227 227 227 227 227 198 85 85 227 85 85 85 85 85 170 170 170 170 170 170 28 142 0 142 142 28 198 227 227 227 198 227 57 85 28 28 142 0 0 0 0 0
0 0 0 0 0 142 142 28 28 85 198 113 57 198 227 227 227 198 85 28 142 0 142 142 28 85 198 198 57 57 57 113 113 113 113 113 113 113 113 57 57 198 198 85 85 198 227 227 227 227 227 227 198 198 198 198 57 113 113 57 113 113 113 113 57 57 227 227 57 57 113 113 113 113 113 113 113 113 113 113 113 57 113 57 57 198 198 227 85 255 255 85 227 198 198 57 198 113 113 113 113 113 113 113 113 113 113 113 113 113 113 113 57 57 227 227 57 113 113 113 113 57 113 113 57 57 227 198 198 198 85 85 85 170 85 198 198 227 227 227 198 198 227 227 227 227 198 85 170 170 85 85 170 170 170 170 170 170 170 28 142 0 142 28 28 227 227 227 227 198 227 255 85 28 28 142 0 0 0 0 0
0 0 0 0 0 142 142 28 28 85 198 113 57 198 227 227 227 198 85 28 142 0 142 142 28 85 198 198 57 113 57 57 57 57 57 57 57 113 113 57 198 198 85 170 28 85 227 227 227 227 227 227 227 198 57 113 57 113 113 57 113 113 113 113 57 57 227 227 57 57 113 113 113 113 113 113 113 113 113 113 113 57 57 57 255 85 85 85 198 57 57 57 198 85 85 198 198 57 113 113 113 113 113 113 113 113 113 113 113 113 113 57 57 57 227 227 227 57 113 113 113 57 57 113 113 57 57 198 198 198 227 198 198 85 170 85 85 198 227 198 57 57 198 198 227 227 227 198 85 28 170 170 170 170 28 28 28 170 28 28 142 0 142 28 85 227 227 227 227 198 227 255 85 28 28 142 0 0 0 0 0
0 0 0 0 0 142 142 142 28 85 198 113 57 198 227 227 227 198 85 28 142 142 0 142 28 85 198 198 57 57 57 57 57 57 198 198 57 113 113 57 198 198 198 85 85 227 227 227 227 227 227 227 57 57 113 113 57 113 113 57 113 113 113 113 113 227 227 227 227 57 57 113 113 113 113 113 113 113 113 113 113 57 57 255 85 28 28 85 57 113 113 57 255 85 28 85 85 57 57 57 113 113 113 113 113 113 113 113 113 113 113 57 57 227 227 227 227 227 113 113 57 57 113 113 113 113 57 57 57 198 227 227 227 198 85 170 85 85 198 198 57 57 57 57 198 198 227 227 198 85 85 28 28 28 28 85 85 28 28 142 0 0 142 28 85 227 227 227 227 85 227 255 85 28 28 142 0 0 0 0 0
0 0 0 0 0 142 142 142 28 85 198 113 255 85 227 227 227 227 85 28 142 142 0 142 28 85 198 198 198 57 198 85 198 227 227 227 198 57 113 57 57 198 227 198 227 227 227 227 227 227 198 198 57 57 57 57 57 113 113 57 113 113 113 113 113 227 227 227 227 57 57 113 113 113 113 113 113 113 113 113 57 57 255 85 170 170 28 28 255 57 113 57 255 85 170 28 85 198 198 57 57 113 113 113 113 113 113 113 113 113 57 57 227 227 227 227 227 113 113 113 227 57 113 113 113 113 113 57 113 57 198 227 227 198 85 170 28 85 198 198 57 113 113 57 57 57 198 198 227 198 198 85 85 85 85 198 85 85 28 142 142 0 142 28 85 227 227 227 227 85 57 255 28 170 28 142 0 0 0 0 0
0 0 0 0 0 142 142 142 28 85 198 113 57 85 170 85 227 227 85 85 28 142 0 142 28 28 198 198 227 198 198 227 85 227 227 198 198 57 113 57 57 198 227 227 227 227 227 227 227 198 198 198 198 198 198 198 57 57 113 57 57 113 113 57 227 227 227 227 227 57 57 113 113 113 113 113 113 113 57 57 57 198 85 85 170 170 170 28 255 198 57 57 255 28 170 170 28 85 198 198 57 57 113 113 113 113 113 113 113 113 57 57 227 227 227 227 57 113 57 227 227 57 113 113 57 57 57 57 57 57 57 227 227 227 198 85 170 85 198 198 57 57 113 113 113 57 57 198 198 198 198 198 198 85 227 227 198 85 28 28 142 0 142 28 85 227 227 227 198 198 57 255 28 28 28 0 0 0 0 0 0
0 0 0 0 0 142 142 142 28 85 198 113 57 85 170 227 227 227 85 85 28 142 0 142 142 28 85 198 227 227 85 85 198 227 198 198 57 113 113 57 57 227 227 198 198 198 198 198 198 198 85 85 85 85 198 227 198 57 113 113 57 113 113 113 227 227 227 227 227 198 57 113 113 113 113 113 113 113 57 57 198 198 85 28 170 170 170 28 28 198 57 255 85 170 170 170 170 28 85 198 198 57 113 113 113 113 113 113 113 113 57 57 227 227 227 227 227 113 113 227 227 57 113 57 57 227 198 198 198 198 198 227 227 227 198 198 85 85 198 198 198 57 113 113 113 113 113 113 57 57 198 198 198 198 227 227 198 85 85 28 0 142 142 28 85 227 227 227 85 198 57 255 28 28 142 0 0 0 0 0 0
0 0 0 0 0 142 142 142 28 85 85 57 57 198 227 227 227 227 85 85 28 142 0 142 142 28 28 28 85 227 198 198 198 198 198 57 57 113 113 57 57 227 198 198 85 85 227 227 85 85 170 170 28 28 85 198 198 57 57 113 57 57 57 113 227 227 227 227 227 198 57 113 113 113 113 113 113 113 57 57 198 198 85 28 170 170 170 170 28 85 198 255 85 170 170 170 170 28 85 198 198 198 57 113 113 113 113 113 113 113 57 57 227 227 227 227 227 113 57 227 227 57 113 57 57 227 227 198 198 198 198 198 198 198 198 227 227 227 227 198 198 57 113 113 57 57 57 57 113 113 57 198 198 198 227 227 227 85 85 28 0 142 142 28 198 227 227 227 85 198 57 255 28 28 142 0 0 0 0 0 0
0 0 0 0 0 0 142 142 28 28 85 57 57 198 227 227 227 227 198 85 28 142 0 0 142 142 28 28 198 227 227 198 198 198 57 57 113 113 57 57 57 227 198 85 170 170 85 227 85 85 28 28 170 28 28 198 198 198 57 113 57 57 227 227 227 227 227 227 227 198 57 113 113 113 113 113 113 57 57 198 227 198 85 28 170 170 170 170 28 28 198 85 28 170 170 170 170 28 28 198 198 198 57 113 113 113 113 113 113 113 57 57 227 227 227 227 227 113 57 227 198 57 113 57 57 227 198 198 85 85 85 85 198 198 198 85 85 198 227 198 198 113 113 57 57 57 198 57 57 57 113 113 57 57 198 227 198 255 85 28 0 142 142 28 198 227 227 227 85 198 57 255 28 28 142 0 0 0 0 0 0
0 0 0 0 0 0 142 142 28 28 85 57 57 198 227 227 227 227 198 85 28 142 0 142 142 28 28 85 227 227 227 198 57 57 113 113 113 113 57 57 198 227 198 198 85 28 85 198 198 85 85 85 28 28 85 198 227 198 57 113 57 57 227 227 227 227 227 227 227 198 57 113 113 113 113 113 113 57 57 227 227 198 85 85 170 170 170 170 170 28 198 85 170 170 170 170 170 28 28 198 227 198 57 57 113 113 113 113 113 57 57 227 227 227 227 227 227 113 227 227 57 113 113 57 198 227 198 198 170 170 170 170 170 227 85 170 85 85 198 198 57 113 113 57 57 227 227 198 198 198 57 57 113 57 57 227 198 255 28 142 0 142 28 28 198 227 227 227 85 198 57 255 28 28 142 0 0 0 0 0 0
0 0 0 0 0 0 142 142 28 28 255 57 57 198 227 227 227 227 227 85 28 28 0 142 142 28 85 85 227 198 198 57 113 113 113 113 113 57 57 57 227 227 227 198 85 85 198 227 227 227 227 198 198 85 227 227 227 198 57 113 113 57 227 227 227 227 227 227 227 198 57 113 113 113 113 113 57 57 57 227 227 227 198 85 28 170 170 170 170 28 85 85 170 170 170 170 170 28 85 227 227 198 57 57 113 113 113 113 113 57 57 227 227 227 227 227 227 227 227 57 57 113 57 57 198 227 227 227 85 85 85 85 85 85 85 28 28 85 227 198 198 57 113 57 198 227 198 198 85 198 198 198 57 57 57 198 198 255 28 142 0 142 28 85 227 227 227 227 85 198 57 255 28 28 142 0 0 0 0 0 0
0 0 0 0 0 0 142 142 28 28 255 57 57 198 227 227 227 227 227 85 85 28 142 0 142 28 28 85 227 198 198 57 113 113 113 113 113 57 57 198 198 198 198 198 198 198 227 227 227 227 227 227 227 227 227 227 227 198 57 57 113 57 57 57 227 227 227 227 227 57 57 113 113 113 113 113 57 57 198 227 227 227 198 85 28 170 170 170 170 170 85 170 170 170 170 170 170 28 85 227 227 227 198 57 113 113 113 113 113 113 57 57 227 227 227 227 227 227 57 57 57 113 57 57 227 227 227 227 227 198 198 198 198 198 85 85 85 227 227 227 198 57 113 57 198 198 198 85 85 85 198 198 198 198 227 198 198 85 28 142 0 142 28 85 227 227 227 227 85 198 57 255 28 28 142 0 0 0 0 0 0
0 0 0 0 0 0 142 142 28 28 255 57 57 198 198 227 227 227 227 198 255 28 142 0 142 28 28 85 198 198 198 57 113 113 113 113 113 113 57 57 198 198 198 198 57 57 57 227 227 227 227 198 198 85 198 227 227 198 198 57 113 113 57 57 227 227 227 227 227 57 57 113 113 113 113 57 57 57 227 227 227 227 227 198 85 170 170 170 170 170 170 170 170 170 170 170 28 28 85 227 227 227 198 198 57 113 113 113 113 113 57 57 227 227 227 227 227 227 57 57 113 113 57 57 227 227 227 227 227 227 227 227 227 227 198 198 198 227 227 198 198 57 113 57 57 198 85 85 170 170 85 198 198 198 198 198 85 85 28 142 0 142 28 85 227 227 227 227 85 198 57 255 28 28 142 0 0 0 0 0 0
0 0 0 0 0 0 142 142 28 28 255 57 57 57 198 227 227 227 227 198 85 28 142 142 142 28 28 85 198 198 57 113 113 113 113 113 113 113 113 57 57 57 57 113 113 57 57 227 227 198 198 198 85 85 85 198 227 198 198 57 113 113 57 57 227 227 227 227 198 57 57 113 113 113 113 57 57 227 227 227 227 227 227 198 85 28 170 170 170 170 170 170 170 170 170 170 28 28 198 227 227 227 227 227 57 57 57 113 113 113 57 57 57 227 227 227 227 227 57 57 113 57 57 198 227 227 198 227 198 198 227 227 227 198 198 198 198 198 198 198 57 113 113 57 57 198 198 85 85 28 170 170 85 85 85 85 85 28 142 142 142 142 28 85 227 227 227 227 85 57 57 255 28 142 142 0 0 0 0 0 0
0 0 0 0 0 0 142 142 28 28 28 57 57 57 198 227 227 227 227 227 85 28 142 0 142 28 28 85 198 198 198 57 57 57 57 57 57 57 57 113 113 113 113 57 57 57 198 227 198 198 85 85 170 28 85 227 227 198 57 57 113 113 113 57 227 227 227 227 198 57 113 113 113 113 57 57 198 227 227 227 227 227 227 198 85 28 170 170 170 170 170 170 170 170 170 170 28 85 198 227 227 227 227 227 198 198 57 113 113 113 113 57 57 227 227 227 227 227 57 57 113 57 57 227 227 198 198 227 85 85 227 227 198 57 57 198 198 198 198 57 113 113 113 113 57 57 198 198 198 198 85 85 85 85 85 85 170 170 28 142 142 142 28 198 227 227 227 227 85 198 198 255 28 142 142 0 0 0 0 0 0
0 0 0 0 0 0 0 142 142 28 28 57 113 255 198 227 227 227 227 227 85 85 142 0 142 28 28 85 198 227 198 57 57 57 57 198 198 57 57 57 57 57 57 57 198 198 198 198 198 198 85 28 28 28 85 227 227 198 57 57 57 113 113 57 57 227 227 227 198 57 113 113 113 113 57 57 227 227 227 227 227 227 227 198 85 28 170 170 170 170 170 170 170 170 170 170 28 85 227 227 227 227 227 227 227 198 57 57 113 113 113 113 57 57 227 227 227 57 57 113 57 57 227 227 227 198 227 85 85 227 227 227 198 57 57 113 113 113 113 113 57 57 113 113 113 113 57 198 198 227 227 198 85 28 170 170 170 170 28 142 142 28 28 227 227 227 227 198 85 57 57 255 28 142 142 0 0 0 0 0 0
0 0 0 0 0 0 0 142 142 28 28 255 113 57 198 227 227 227 227 227 198 85 28 0 142 28 28 85 85 198 227 198 198 198 198 198 198 198 198 198 57 57 57 227 227 198 85 85 85 227 85 85 85 85 227 227 227 227 57 57 57 57 113 113 57 57 227 227 198 57 113 113 113 57 57 227 227 227 227 227 227 227 227 198 85 28 170 170 170 170 170 170 170 170 170 170 28 85 227 227 227 227 227 227 227 227 198 57 57 113 113 113 57 57 227 227 227 57 57 113 57 57 227 227 198 198 227 198 227 227 227 227 198 57 113 113 57 57 57 57 57 57 57 57 57 57 57 113 57 198 227 227 198 85 170 170 170 170 28 0 142 28 85 227 227 227 227 85 85 57 57 255 28 142 142 0 0 0 0 0 0
0 0 0 0 0 0 0 142 142 28 28 255 113 57 57 198 227 227 227 227 198 85 28 0 142 170 170 28 85 198 198 198 198 198 85 85 85 85 227 227 227 227 227 227 198 85 85 85 170 85 85 198 227 227 227 227 227 227 227 227 57 57 113 113 57 57 57 198 57 113 113 113 57 57 227 227 227 227 227 227 227 227 227 198 85 170 170 170 170 170 170 170 170 170 170 170 28 85 227 227 227 227 227 227 227 227 227 198 57 113 113 113 113 57 57 57 57 57 113 57 57 198 227 198 198 198 198 227 227 227 227 227 198 57 113 57 57 57 198 198 198 198 198 57 198 57 57 57 57 227 227 198 198 85 170 170 170 170 142 0 142 28 85 227 227 227 227 85 85 57 57 255 28 142 142 0 0 0 0 0 0
0 0 0 0 0 0 0 142 142 28 28 255 57 57 57 198 227 227 227 227 227 85 28 142 0 142 170 170 28 85 85 85 85 85 85 28 28 85 85 227 227 227 227 198 198 85 170 170 170 28 85 198 227 227 227 227 227 227 227 227 227 57 57 113 113 113 57 57 113 113 113 57 57 57 227 227 227 227 227 227 227 227 198 198 85 170 170 170 170 170 170 170 170 170 170 170 28 85 227 227 227 227 227 227 227 227 227 198 57 57 113 113 113 113 57 57 57 113 113 57 57 198 198 198 85 85 85 198 227 227 227 198 57 57 113 57 57 198 227 227 227 227 227 198 198 198 198 198 198 198 198 85 85 85 170 170 170 28 142 142 142 28 85 227 227 227 227 227 198 57 57 255 28 28 142 0 0 0 0 0 0
0 0 0 0 0 0 0 142 142 28 28 255 57 113 57 198 227 227 227 227 227 85 85 28 0 142 142 170 170 28 85 170 170 170 170 170 170 28 85 227 227 227 227 198 85 85 170 170 28 28 85 227 227 227 227 227 227 227 227 227 227 198 57 57 113 113 113 113 113 113 113 57 57 227 227 227 227 227 227 227 227 227 198 85 28 170 170 170 170 170 170 170 170 170 170 170 28 85 198 227 227 227 227 227 227 227 227 227 198 57 57 113 113 113 113 113 113 113 113 57 57 198 198 85 85 170 85 198 227 227 227 198 57 57 57 57 57 227 227 227 227 227 227 227 227 227 198 198 85 85 85 85 28 170 170 170 170 28 0 142 142 28 198 227 227 227 227 227 198 198 57 255 28 28 142 0 0 0 0 0 0
0 0 0 0 0 0 0 0 142 142 28 85 255 113 57 198 227 227 227 227 227 198 85 28 142 0 142 170 170 170 170 28 28 28 28 28 28 170 85 85 227 227 227 198 85 85 170 28 28 85 227 227 227 227 227 227 227 227 198 198 198 227 198 57 57 113 113 113 113 113 57 57 227 227 227 227 227 227 227 227 227 198 85 85 170 170 170 170 170 170 170 170 170 170 170 170 28 28 85 227 227 227 227 227 227 227 227 227 227 198 57 113 113 113 113 113 113 113 113 57 57 198 227 198 85 170 170 85 198 227 227 227 198 57 57 57 57 227 227 227 227 227 227 227 227 227 198 85 85 85 170 170 170 170 170 170 170 142 0 142 28 85 227 227 227 227 227 227 198 198 57 255 28 28 142 0 0 0 0 0 0
0 0 0 0 0 0 0 0 142 142 28 28 255 57 57 198 227 227 227 227 227 198 85 28 142 0 142 170 170 28 28 85 85 85 85 85 28 28 170 85 227 227 227 198 85 85 28 28 198 198 227 227 227 227 227 227 227 227 227 85 198 198 198 198 57 113 113 113 113 113 57 57 227 227 227 227 227 227 227 227 198 198 85 170 170 170 170 170 170 170 170 170 170 170 170 170 170 28 85 198 227 227 227 227 227 227 227 227 227 198 57 57 113 113 113 113 113 113 113 57 57 198 227 227 198 85 170 85 85 198 198 227 227 198 198 198 57 227 227 227 227 227 227 227 227 198 85 85 170 170 170 28 28 170 170 170 170 142 0 142 28 85 227 227 227 227 227 198 198 198 255 255 28 28 142 0 0 0 0 0 0
0 0 0 0 0 0 0 0 142 142 28 28 255 57 57 57 198 227 227 227 227 227 85 85 142 0 142 142 28 28 85 227 198 198 198 198 198 85 85 85 227 227 227 227 198 85 85 85 198 227 227 227 227 227 227 227 227 198 85 170 85 198 198 198 57 113 113 113 113 113 57 57 57 227 227 227 227 227 227 198 198 85 170 170 170 170 170 170 170 170 170 170 170 170 170 170 170 170 28 85 198 227 227 227 227 227 227 227 227 198 57 57 113 113 113 113 113 113 113 57 57 57 227 227 198 198 85 170 170 85 198 198 198 198 198 198 198 198 227 227 227 227 227 227 227 198 85 85 170 28 28 28 85 28 170 170 170 142 0 142 28 85 227 227 227 227 227 85 85 113 255 255 28 28 142 0 0 0 0 0 0
0 0 0 0 0 0 0 0 0 142 28 28 255 57 57 57 198 227 227 227 227 227 85 85 28 0 142 142 28 28 85 198 227 198 198 198 198 198 198 198 198 227 227 198 198 198 85 85 198 227 227 227 227 227 227 227 227 198 85 170 170 85 198 198 57 57 113 113 113 113 57 57 227 227 227 227 227 227 198 198 85 170 170 170 170 170 170 170 170 142 170 85 170 170 170 170 170 170 28 85 85 198 227 227 227 227 227 227 227 227 198 57 113 113 113 113 113 113 113 57 57 227 227 227 227 198 85 85 28 170 227 227 198 85 85 85 85 85 198 198 198 198 198 198 198 85 170 170 28 85 85 198 198 85 28 170 28 142 0 142 28 85 227 227 227 227 227 85 85 113 255 255 28 28 142 0 0 0 0 0 0
0 0 0 0 0 0 0 0 0 142 142 28 85 57 113 57 198 227 227 227 227 227 198 85 28 142 142 142 28 28 85 198 198 57 57 57 198 198 198 198 198 198 198 198 198 198 198 198 227 57 57 227 227 227 227 227 227 227 198 85 85 85 85 198 198 57 113 113 113 113 57 57 198 227 227 198 198 198 85 85 170 170 170 170 170 170 170 170 170 28 28 85 28 170 170 170 170 170 170 170 85 85 198 227 227 227 227 227 227 227 198 57 113 113 113 113 113 113 57 57 57 227 227 227 227 227 198 85 85 85 85 85 85 170 170 170 85 85 85 85 198 198 85 85 85 227 28 28 85 198 227 227 198 85 85 28 28 142 142 142 28 85 227 227 227 227 227 85 198 113 255 255 28 142 0 0 0 0 0 0 0
0 0 0 0 0 0 0 0 0 142 142 28 28 255 113 57 198 227 227 227 227 227 198 85 28 142 0 142 28 28 85 227 198 57 57 113 57 57 57 198 198 198 57 57 57 57 57 113 57 57 57 227 227 198 198 198 227 227 227 198 85 85 198 198 198 57 113 113 113 113 57 57 198 227 198 198 85 85 85 170 170 170 170 170 170 170 170 170 28 28 85 85 85 28 170 170 170 170 170 170 170 28 85 85 198 198 198 227 227 227 198 198 113 113 113 113 113 113 57 57 198 227 198 227 227 227 227 227 198 198 198 198 85 85 28 28 28 170 170 170 170 170 170 170 170 85 85 85 198 198 227 227 198 85 85 28 142 0 142 28 28 198 227 227 227 227 227 85 198 57 255 255 28 142 0 0 0 0 0 0 0
0 0 0 0 0 0 0 0 0 0 142 28 28 255 57 57 198 227 227 227 227 227 227 85 28 142 0 142 142 28 85 198 227 198 57 113 113 113 57 57 57 57 113 113 113 113 57 57 57 227 227 227 198 198 85 198 198 227 227 227 198 227 227 198 198 57 113 113 113 113 113 57 198 198 198 85 28 170 170 170 170 170 170 170 170 170 170 28 28 28 85 198 85 28 28 28 28 170 170 170 170 170 28 85 85 85 198 198 227 227 198 57 113 113 113 113 113 113 57 57 198 198 227 227 227 227 227 227 227 227 198 198 198 198 85 85 85 85 85 85 85 85 28 28 85 85 85 198 198 57 198 198 198 85 85 28 142 0 142 28 85 227 227 227 227 227 198 85 57 57 255 85 28 142 0 0 0 0 0 0 0
0 0 0 0 0 0 0 0 0 0 142 142 28 85 57 113 57 198 227 227 227 227 227 85 85 28 0 142 142 28 28 85 198 227 198 57 113 113 113 113 113 113 113 113 113 113 57 57 227 227 227 198 198 85 170 28 85 198 227 227 227 227 227 198 57 57 113 113 113 113 113 57 255 255 85 170 170 170 170 170 170 170 170 170 170 28 28 28 28 85 57 57 255 255 255 255 28 28 28 28 170 170 170 170 28 28 85 85 198 198 57 57 113 113 113 113 113 113 57 57 198 227 227 227 227 227 227 227 198 198 198 198 198 198 198 198 198 198 85 85 85 85 85 85 198 198 198 57 113 57 57 198 198 85 28 28 142 142 142 28 85 227 227 227 227 227 198 198 113 57 255 85 28 142 0 0 0 0 0 0 0
0 0 0 0 0 0 0 0 0 0 142 142 28 28 255 113 57 198 227 227 227 227 227 198 255 28 0 142 142 170 28 28 198 198 198 57 57 113 113 113 113 113 113 113 113 113 57 57 57 227 227 227 198 85 28 170 85 198 227 227 227 227 227 198 57 113 113 113 113 113 113 57 255 85 170 170 170 170 170 170 170 170 170 28 28 28 85 85 198 57 113 113 113 57 57 255 255 255 255 28 28 28 170 170 170 170 28 28 85 198 57 57 113 113 113 113 113 113 57 57 198 227 227 227 227 227 227 227 57 57 57 57 57 57 198 198 198 198 198 198 198 198 57 57 57 57 113 57 57 57 198 227 198 85 28 142 0 142 28 28 227 227 227 227 227 227 198 198 57 255 85 28 28 142 0 0 0 0 0 0 0
0 0 0 0 0 0 0 0 0 0 0 142 28 28 255 57 57 198 227 227 227 227 227 198 255 28 0 0 142 142 28 28 85 198 198 57 57 113 113 113 113 113 113 113 113 113 113 57 57 198 198 198 198 198 85 85 85 227 227 227 227 227 227 198 57 113 113 113 113 113 57 255 255 85 170 170 170 170 170 170 170 28 28 28 28 85 57 57 113 113 113 113 113 113 113 113 57 57 57 255 255 28 28 28 170 170 170 170 28 85 57 57 113 113 113 113 113 113 57 57 198 227 227 227 227 227 227 198 57 57 113 113 113 113 113 57 57 57 113 113 57 57 113 113 113 113 57 57 57 198 198 198 198 85 28 142 0 142 28 85 227 227 227 227 227 227 198 227 57 255 85 28 142 0 0 0 0 0 0 0 0
0 0 0 0 0 0 0 0 0 0 0 142 142 28 255 255 113 57 198 227 227 227 227 198 85 28 142 0 142 142 28 28 85 198 198 198 57 113 113 57 113 113 113 113 113 113 113 113 57 57 57 57 198 198 198 198 227 227 227 227 227 227 227 198 57 57 113 113 113 113 57 255 255 28 170 170 170 170 170 28 28 28 85 255 198 57 113 113 113 113 113 113 113 113 113 113 113 113 113 113 57 255 255 85 28 28 28 170 28 85 85 57 113 113 113 113 113 113 113 57 198 227 227 227 227 227 227 198 57 57 113 113 113 113 113 113 113 113 113 113 113 113 113 113 113 57 57 198 227 227 198 85 85 85 28 142 0 142 28 85 227 227 227 227 227 198 85 113 255 255 85 28 142 0 0 0 0 0 0 0 0
0 0 0 0 0 0 0 0 0 0 0 142 142 28 28 255 113 57 198 227 227 227 227 227 85 28 142 0 142 142 28 85 198 227 198 57 57 57 57 57 57 57 113 113 113 113 113 113 113 113 57 57 57 57 198 198 227 227 227 227 227 227 227 198 57 57 113 113 113 113 57 255 255 28 170 170 170 170 28 28 28 85 198 57 113 113 113 113 113 113 113 113 113 113 113 113 113 113 113 113 113 57 57 255 255 255 28 28 28 85 198 57 113 113 113 113 113 113 113 57 198 227 227 227 227 227 227 57 57 57 113 113 113 113 113 113 113 113 113 113 113 113 113 113 113 57 57 198 227 198 85 85 170 170 142 0 142 142 28 85 227 227 227 227 227 198 198 57 255 85 28 28 142 0 0 0 0 0 0 0 0
0 0 0 0 0 0 0 0 0 0 0 0 142 142 28 255 57 57 255 227 227 227 227 227 85 28 28 142 0 142 28 85 198 227 227 57 57 57 57 198 57 57 57 113 113 113 113 113 113 113 113 113 113 57 57 57 198 227 227 227 227 227 227 198 57 57 113 113 113 113 57 255 255 28 170 28 28 28 28 85 198 57 113 113 113 113 113 113 113 113 113 113 113 113 113 113 113 113 113 113 113 113 113 113 57 255 255 255 85 85 198 57 113 113 113 113 113 113 113 113 57 198 198 227 227 227 227 57 57 57 113 113 113 113 113 113 113 113 113 113 113 113 113 113 113 57 57 198 198 198 85 28 170 170 142 0 142 142 28 85 227 227 227 227 198 85 57 57 255 85 28 142 0 0 0 0 0 0 0 0 0
0 0 0 0 0 0 0 0 0 0 0 0 142 142 28 85 255 113 255 198 227 227 227 227 85 85 28 142 0 142 28 28 85 198 227 227 198 198 198 227 227 198 57 113 113 113 113 113 113 113 113 113 113 113 113 57 57 198 227 227 227 227 198 198 57 57 113 113 113 113 113 57 255 85 28 28 28 85 255 57 113 113 113 113 113 113 113 113 113 113 113 113 113 113 113 113 113 113 113 113 113 113 113 113 113 113 57 57 57 57 57 113 113 113 113 113 113 113 113 113 113 57 198 198 198 198 198 227 57 113 113 113 113 113 113 113 113 113 113 113 113 113 113 113 113 113 57 57 198 198 85 28 28 142 0 142 142 28 28 198 227 227 227 227 85 85 57 255 255 85 28 142 0 0 0 0 0 0 0 0 0
0 0 0 0 0 0 0 0 0 0 0 0 0 142 28 28 255 57 57 198 227 227 227 227 198 85 28 142 0 142 142 28 85 198 198 198 227 227 227 227 227 198 57 57 113 113 113 113 113 113 113 113 113 113 113 113 57 57 198 198 198 198 198 198 57 113 113 113 113 113 113 113 57 255 85 255 255 198 113 113 113 113 113 113 113 113 113 113 113 113 113 113 113 113 113 113 113 113 113 113 113 113 113 113 113 113 113 113 113 113 113 113 113 113 113 113 113 113 113 113 113 113 57 57 57 57 57 57 57 113 113 113 113 113 113 113 113 113 113 113 113 113 57 57 113 113 57 57 198 198 85 85 28 142 0 142 142 28 85 227 227 227 227 198 255 57 57 255 255 28 28 142 0 0 0 0 0 0 0 0 0
0 0 0 0 0 0 0 0 0 0 0 0 0 142 142 28 85 198 113 198 227 227 227 227 198 85 28 142 0 0 142 28 85 85 198 198 227 227 198 198 227 198 198 57 113 113 113 113 113 113 113 113 113 113 113 113 113 57 57 57 198 198 198 57 113 113 113 113 113 113 113 113 113 57 57 57 57 113 113 113 113 113 113 113 113 113 113 113 113 113 113 57 57 57 57 57 57 57 113 113 113 113 113 113 113 113 113 113 113 113 113 113 113 113 113 113 113 113 113 113 113 113 113 113 113 113 113 113 113 113 113 113 113 113 113 113 113 113 113 113 113 57 57 57 57 57 57 57 198 198 85 28 28 142 0 142 142 28 85 227 227 227 227 85 255 113 57 255 85 28 142 0 0 0 0 0 0 0 0 0 0
0 0 0 0 0 0 0 0 0 0 0 0 0 142 142 28 28 255 113 57 198 227 227 227 198 85 28 142 0 0 142 142 28 85 85 198 227 227 227 198 198 198 198 57 113 113 113 113 113 113 113 113 113 113 113 113 113 113 57 57 57 57 57 113 113 113 113 113 113 113 113 113 113 113 113 113 113 113 113 113 113 113 113 113 113 113 113 113 57 57 57 255 255 255 255 255 57 57 57 113 113 113 113 113 113 113 113 113 113 113 113 113 113 113 113 113 113 113 113 113 113 113 113 113 113 113 113 113 113 113 113 113 113 113 113 113 113 113 113 113 57 57 57 198 198 198 57 227 227 198 85 28 142 0 0 142 142 28 85 227 227 227 227 85 255 113 255 255 85 28 142 0 0 0 0 0 0 0 0 0 0
0 0 0 0 0 0 0 0 0 0 0 0 0 0 142 28 28 255 57 57 198 227 227 227 198 255 28 142 0 0 142 142 170 170 28 85 227 227 227 227 85 198 198 57 57 113 113 113 113 113 113 113 113 113 113 113 113 113 113 113 113 113 113 113 113 113 113 113 113 113 113 113 113 113 113 113 113 113 113 113 113 113 113 113 57 57 57 57 57 57 255 255 255 85 85 28 198 198 198 57 113 113 113 113 113 113 113 113 113 113 113 113 113 113 113 113 113 113 113 113 113 113 113 113 113 113 113 113 113 113 57 113 113 113 113 113 113 113 113 113 57 57 198 227 198 198 198 198 198 198 85 28 142 0 0 142 142 28 85 227 227 227 198 85 57 57 255 255 28 142 0 0 0 0 0 0 0 0 0 0 0
0 0 0 0 0 0 0 0 0 0 0 0 0 0 142 142 28 28 255 113 57 198 227 227 198 85 28 142 0 0 142 142 28 28 28 85 198 227 227 227 85 85 198 57 57 113 113 113 113 113 113 113 113 113 113 113 113 113 113 113 113 113 113 113 113 113 113 113 113 113 113 113 113 113 113 113 113 113 113 113 113 113 113 57 57 57 57 198 198 198 85 28 28 170 28 28 198 198 198 57 113 113 113 113 113 113 113 113 113 113 113 113 113 113 113 113 113 113 113 113 113 113 113 113 113 113 113 57 57 57 57 57 57 57 57 57 57 57 113 57 57 57 198 227 198 198 85 85 85 85 28 170 0 0 0 142 142 28 85 227 227 227 85 198 57 255 255 85 28 142 0 0 0 0 0 0 0 0 0 0 0
0 0 0 0 0 0 0 0 0 0 0 0 0 0 0 142 28 28 85 57 57 198 227 227 227 85 28 142 142 0 0 142 28 28 85 227 227 198 198 227 85 85 198 57 57 113 113 113 113 113 113 113 113 113 113 113 113 113 113 113 113 113 113 113 113 113 113 113 113 113 113 113 113 113 113 113 113 113 113 113 113 113 57 57 198 227 227 227 227 198 85 28 170 28 28 85 198 198 198 57 57 57 57 113 113 113 113 113 113 113 113 113 113 113 113 113 113 113 113 113 113 113 113 113 113 113 57 57 198 198 198 57 198 198 198 198 57 57 57 113 57 198 227 198 198 85 85 28 28 170 170 142 0 0 0 142 28 85 227 227 227 198 85 198 57 255 85 28 28 142 0 0 0 0 0 0 0 0 0 0 0
0 0 0 0 0 0 0 0 0 0 0 0 0 0 0 142 142 28 85 198 113 57 198 227 227 198 85 28 142 0 0 142 28 28 85 227 227 227 198 227 85 85 198 57 57 113 113 113 113 113 113 113 113 113 113 113 113 113 113 113 113 113 113 113 113 113 113 113 113 113 113 113 113 113 113 113 113 113 113 113 113 113 113 57 198 227 227 227 227 198 85 28 170 28 85 198 198 198 57 57 57 57 57 57 57 113 113 113 113 113 113 113 113 113 113 113 113 113 113 113 113 113 113 113 113 57 57 57 227 198 198 198 198 198 198 198 198 198 57 57 113 57 198 227 198 85 85 170 170 170 170 142 0 0 142 142 28 85 227 227 227 85 85 113 255 255 85 28 142 142 0 0 0 0 0 0 0 0 0 0 0
0 0 0 0 0 0 0 0 0 0 0 0 0 0 0 142 142 28 28 85 57 57 198 227 227 227 85 28 142 0 0 142 142 28 85 198 227 227 198 198 227 85 198 198 57 113 113 113 113 113 113 113 113 113 113 57 57 57 113 113 113 113 113 113 113 113 113 113 113 113 113 113 113 113 113 113 113 113 113 113 113 113 113 57 57 227 227 227 227 198 198 85 28 28 198 227 227 227 57 57 198 198 198 198 57 57 113 113 113 113 113 113 113 113 113 113 113 113 113 113 113 113 113 113 113 57 57 198 227 227 227 227 227 227 85 85 85 198 198 198 57 113 57 198 198 198 85 28 28 170 170 142 142 0 142 142 28 227 227 227 198 85 57 57 255 85 28 28 142 0 0 0 0 0 0 0 0 0 0 0 0
0 0 0 0 0 0 0 0 0 0 0 0 0 0 0 0 142 142 28 85 198 57 198 227 227 227 85 85 142 142 0 0 142 28 85 198 227 227 227 198 85 85 85 198 57 113 57 57 57 57 57 57 57 57 57 57 57 57 57 113 113 113 113 113 113 113 113 113 113 113 113 113 113 113 113 113 113 113 113 113 113 113 57 57 57 227 227 227 198 198 198 227 28 85 227 227 227 198 198 198 227 227 227 198 198 57 113 113 113 113 113 113 113 113 113 113 113 113 113 113 113 113 113 113 113 113 57 57 198 198 198 198 198 85 85 170 170 85 85 198 198 57 57 57 198 198 85 85 28 142 0 142 170 142 142 28 85 227 227 227 85 85 113 255 255 85 28 142 0 0 0 0 0 0 0 0 0 0 0 0 0
0 0 0 0 0 0 0 0 0 0 0 0 0 0 0 0 0 142 28 28 85 198 198 227 227 227 198 85 28 142 0 0 142 28 28 85 227 227 227 198 85 85 198 198 57 57 57 57 57 57 57 57 57 57 198 198 198 198 57 57 113 113 113 113 113 113 113 113 113 113 113 113 113 113 113 113 113 113 113 113 113 57 57 57 227 227 227 198 198 85 85 28 85 198 227 227 227 198 198 227 227 227 227 227 198 57 113 113 113 113 113 113 113 113 113 113 113 113 113 113 113 113 113 113 113 113 113 57 57 57 198 198 198 198 85 85 28 170 85 85 198 198 198 57 227 198 85 85 28 0 142 170 170 142 28 28 227 227 227 198 85 198 57 255 85 28 28 142 0 0 0 0 0 0 0 0 0 0 0 0 0
0 0 0 0 0 0 0 0 0 0 0 0 0 0 0 0 0 142 142 28 85 198 57 198 198 227 227 85 85 28 0 0 0 142 28 85 198 227 227 198 198 198 227 57 57 57 198 198 227 227 227 227 227 198 198 198 227 198 198 57 113 113 113 113 113 113 113 113 113 113 113 113 113 113 113 113 113 113 113 113 113 57 57 198 227 227 198 85 85 85 170 28 85 227 227 227 198 227 227 227 227 227 227 227 198 57 113 113 113 113 113 113 113 113 113 113 113 113 113 113 113 113 113 113 113 113 113 113 57 57 57 198 198 198 198 198 85 28 170 85 85 198 198 198 198 198 85 28 170 0 142 170 142 142 28 85 227 227 227 85 198 57 255 255 85 28 142 0 0 0 0 0 0 0 0 0 0 0 0 0 0
0 0 0 0 0 0 0 0 0 0 0 0 0 0 0 0 0 0 142 28 28 255 57 57 85 227 227 227 85 28 142 0 0 142 28 28 85 198 227 57 227 227 57 57 57 198 227 227 227 227 227 227 227 198 198 227 198 198 198 57 113 113 113 113 113 113 113 113 113 113 113 113 113 113 113 113 113 113 113 113 113 57 57 198 227 198 85 85 170 170 28 28 85 227 227 227 227 227 227 227 227 227 227 227 198 57 113 113 113 113 113 113 113 113 113 113 113 113 113 57 57 57 113 113 113 113 113 113 113 113 113 57 57 198 198 198 198 198 85 28 170 85 85 198 85 85 85 28 142 0 142 142 142 28 85 227 227 227 85 85 57 57 255 85 85 28 142 0 0 0 0 0 0 0 0 0 0 0 0 0 0
0 0 0 0 0 0 0 0 0 0 0 0 0 0 0 0 0 0 142 142 28 85 198 113 198 198 227 227 198 85 28 142 0 142 142 28 85 198 227 227 57 57 57 57 198 198 227 227 227 227 227 227 198 198 227 85 85 198 57 113 113 113 113 113 113 113 113 113 113 113 113 113 113 113 113 113 113 113 113 113 113 57 57 198 198 198 85 28 170 170 28 28 85 198 198 227 227 227 198 227 227 227 227 227 198 57 57 113 113 113 113 113 113 113 113 113 113 113 57 57 57 57 57 113 113 113 113 113 113 113 113 113 113 57 57 57 198 198 198 198 85 170 85 85 85 85 28 170 170 0 142 142 28 85 227 227 227 227 85 198 113 255 255 28 28 142 142 0 0 0 0 0 0 0 0 0 0 0 0 0 0
0 0 0 0 0 0 0 0 0 0 0 0 0 0 0 0 0 0 142 142 28 28 85 57 57 198 198 227 227 85 28 142 0 0 142 28 85 198 227 198 57 198 198 198 198 227 227 227 227 227 227 227 227 227 85 85 198 198 57 113 113 113 113 113 113 113 113 113 113 113 113 113 113 113 113 113 113 57 57 57 113 113 57 198 198 198 198 85 85 170 170 28 85 85 85 227 227 227 227 227 227 227 227 227 227 57 57 113 113 113 113 113 113 113 113 113 113 57 57 227 227 198 57 57 113 113 113 113 113 113 113 113 113 113 113 57 57 198 198 227 198 85 85 170 170 170 142 0 0 142 142 28 28 85 227 227 227 85 85 57 57 255 85 28 28 142 0 0 0 0 0 0 0 0 0 0 0 0 0 0 0
0 0 0 0 0 0 0 0 0 0 0 0 0 0 0 0 0 0 0 142 142 28 85 255 113 57 198 227 227 198 85 28 142 0 142 142 28 85 198 198 198 198 198 198 227 85 198 227 227 227 227 227 227 227 198 198 198 57 113 113 113 57 57 57 113 113 113 113 113 113 113 113 113 113 113 113 57 57 57 57 57 57 113 57 198 198 227 198 85 28 170 170 170 28 28 85 227 227 227 227 227 227 227 227 227 57 57 57 113 113 113 113 113 113 113 113 113 57 57 227 227 227 227 198 57 113 113 57 57 57 57 113 113 113 113 113 57 57 57 227 227 198 85 28 170 170 142 0 0 142 142 28 85 227 227 227 85 85 57 57 255 255 28 28 142 0 0 0 0 0 0 0 0 0 0 0 0 0 0 0 0
0 0 0 0 0 0 0 0 0 0 0 0 0 0 0 0 0 0 0 142 142 28 28 85 57 113 57 198 227 227 85 28 142 0 0 142 28 85 85 198 85 198 198 227 28 85 227 227 227 227 227 227 227 227 198 198 57 113 113 113 57 57 57 57 57 113 113 113 113 113 113 113 113 113 113 57 57 198 198 198 198 57 57 57 227 227 227 198 198 85 28 170 170 28 28 85 227 227 227 227 227 227 227 227 227 198 57 57 113 113 113 113 113 113 113 113 113 57 57 198 227 227 227 198 57 57 57 57 198 57 57 57 57 113 113 113 113 57 57 198 227 198 255 28 28 170 170 0 142 142 28 28 227 227 227 227 85 255 113 255 255 85 28 28 142 0 0 0 0 0 0 0 0 0 0 0 0 0 0 0 0
0 0 0 0 0 0 0 0 0 0 0 0 0 0 0 0 0 0 0 0 142 142 28 85 255 113 57 198 227 227 198 85 28 142 0 142 142 28 85 85 85 85 170 28 85 227 227 198 198 227 227 227 227 198 198 57 113 113 113 57 57 57 198 198 57 57 113 113 113 113 113 113 113 113 57 57 198 227 227 227 227 198 198 198 57 57 227 227 227 198 85 170 28 28 198 227 227 227 227 227 227 227 227 227 198 198 57 57 113 113 113 113 113 113 113 113 113 113 57 57 227 227 227 227 198 57 57 57 227 227 198 198 57 57 113 113 113 57 57 227 227 198 255 28 28 142 0 0 142 142 28 85 227 227 227 85 85 57 57 255 85 28 28 142 0 0 0 0 0 0 0 0 0 0 0 0 0 0 0 0 0
0 0 0 0 0 0 0 0 0 0 0 0 0 0 0 0 0 0 0 0 0 142 28 28 85 57 57 198 85 227 227 85 28 142 0 0 142 142 28 28 170 28 28 85 227 227 198 198 57 57 57 57 198 198 57 57 113 113 57 57 198 227 227 227 198 57 57 113 113 113 113 113 113 113 57 57 198 227 227 227 227 227 227 227 198 198 227 227 227 198 85 170 28 85 227 227 227 227 227 227 227 227 227 227 198 198 57 113 113 113 113 113 113 113 113 113 113 113 57 57 198 227 227 227 227 227 227 57 227 227 227 227 198 57 57 113 57 57 57 227 198 198 85 28 142 0 0 142 142 28 28 227 227 227 198 85 198 57 255 255 85 28 142 142 0 0 0 0 0 0 0 0 0 0 0 0 0 0 0 0 0
0 0 0 0 0 0 0 0 0 0 0 0 0 0 0 0 0 0 0 0 0 142 142 28 85 255 57 57 198 85 227 198 85 28 142 0 0 142 142 170 170 28 28 198 227 227 198 57 57 57 57 57 57 57 57 113 113 57 57 198 227 227 227 227 227 198 57 57 113 113 113 113 113 113 113 57 57 198 227 227 227 227 227 227 227 227 227 227 227 198 85 170 28 85 227 227 227 227 227 227 227 227 227 227 198 198 57 113 113 113 113 113 113 113 113 113 113 113 113 57 57 198 227 227 227 227 227 227 57 198 227 227 227 198 57 57 57 57 198 198 85 85 28 142 142 0 142 142 142 28 85 227 227 227 85 198 57 255 255 85 28 28 142 0 0 0 0 0 0 0 0 0 0 0 0 0 0 0 0 0 0
0 0 0 0 0 0 0 0 0 0 0 0 0 0 0 0 0 0 0 0 0 0 142 28 28 85 57 113 57 85 85 227 198 28 142 0 0 0 170 142 28 28 85 198 227 227 198 57 113 113 57 57 57 113 113 113 113 57 57 198 227 227 227 227 227 227 198 57 113 113 113 113 113 113 113 113 57 198 198 227 227 227 227 227 227 227 227 227 227 198 85 227 85 198 227 227 227 227 227 227 227 227 227 198 198 198 113 113 113 113 113 113 113 113 113 113 113 113 113 57 57 198 227 227 227 227 198 227 113 198 198 227 227 227 198 57 57 227 198 85 85 28 170 142 0 0 142 142 28 85 227 227 198 85 85 57 57 255 255 85 28 142 0 0 0 0 0 0 0 0 0 0 0 0 0 0 0 0 0 0 0
0 0 0 0 0 0 0 0 0 0 0 0 0 0 0 0 0 0 0 0 0 0 142 142 28 28 255 57 57 255 255 170 227 85 28 142 0 0 0 142 170 28 28 198 198 227 198 57 113 113 113 113 113 113 113 113 57 57 198 227 227 227 198 227 227 227 198 57 113 113 113 113 113 113 113 113 113 57 57 198 227 227 227 227 227 227 227 227 198 198 198 85 85 85 227 227 227 227 227 227 227 227 227 198 198 57 113 113 113 113 113 113 113 113 113 113 113 113 113 113 57 198 227 227 227 198 198 198 57 57 198 227 227 227 227 227 227 227 198 85 28 142 0 0 142 0 142 142 28 227 227 198 85 255 255 57 255 255 85 28 142 142 0 0 0 0 0 0 0 0 0 0 0 0 0 0 0 0 0 0 0
0 0 0 0 0 0 0 0 0 0 0 0 0 0 0 0 0 0 0 0 0 0 0 142 142 28 85 255 255 57 255 85 85 85 85 28 0 0 142 0 142 142 28 85 85 198 198 198 57 57 113 113 113 113 113 57 57 198 227 227 227 85 85 198 227 198 198 57 113 113 113 113 113 113 113 113 113 113 57 57 198 198 227 227 227 227 227 227 198 198 85 170 28 85 227 227 227 227 227 227 227 227 227 198 198 57 113 113 113 113 113 113 113 113 113 113 113 113 113 113 57 57 198 198 198 85 198 198 227 227 227 227 227 227 227 227 227 198 198 85 28 142 0 142 142 142 142 28 85 227 227 85 255 255 57 255 255 85 85 28 142 0 0 0 0 0 0 0 0 0 0 0 0 0 0 0 0 0 0 0 0
0 0 0 0 0 0 0 0 0 0 0 0 0 0 0 0 0 0 0 0 0 0 0 142 142 28 28 85 255 57 113 255 85 85 85 28 142 0 170 170 0 170 170 28 85 85 198 198 198 57 57 113 113 113 57 57 198 198 227 198 85 85 85 85 198 198 198 57 113 113 113 113 113 113 113 113 113 113 113 113 57 57 227 227 227 227 227 198 85 85 170 170 28 85 227 227 227 227 227 227 227 227 198 198 198 57 113 113 113 113 113 113 113 113 113 113 113 113 113 113 57 57 198 198 198 85 85 198 198 227 113 57 227 227 227 227 198 198 85 85 142 0 142 170 170 142 28 28 227 227 85 255 255 113 255 255 255 85 28 142 142 0 0 0 0 0 0 0 0 0 0 0 0 0 0 0 0 0 0 0 0
0 0 0 0 0 0 0 0 0 0 0 0 0 0 0 0 0 0 0 0 0 0 0 0 142 142 28 28 255 255 113 57 255 85 85 28 28 0 170 170 142 170 170 170 28 85 85 198 198 198 57 57 113 113 57 57 198 198 198 85 85 170 28 85 198 198 198 57 113 113 113 113 113 113 113 113 57 57 57 57 57 57 227 227 227 227 227 198 85 85 170 170 28 85 227 227 227 227 227 227 227 198 198 198 57 113 113 113 113 113 113 113 113 113 113 113 113 113 113 113 57 57 198 227 198 85 170 85 198 227 57 57 227 227 227 198 198 85 85 28 142 0 142 170 170 142 28 85 227 198 255 255 113 57 255 255 28 28 28 142 0 0 0 0 0 0 0 0 0 0 0 0 0 0 0 0 0 0 0 0 0
0 0 0 0 0 0 0 0 0 0 0 0 0 0 0 0 0 0 0 0 0 0 0 0 0 142 142 28 28 255 255 113 255 255 85 28 28 142 142 170 170 170 142 170 170 28 85 198 198 227 57 57 113 57 57 198 227 198 85 85 170 170 28 85 198 198 198 57 113 113 113 113 113 113 113 57 57 57 198 198 198 227 227 227 227 227 227 227 198 85 170 170 170 85 227 227 227 227 227 227 227 85 198 198 57 113 113 113 113 113 113 113 113 113 113 113 113 113 57 57 57 57 227 227 198 85 170 85 198 227 227 227 227 227 198 198 85 85 170 170 170 0 0 170 142 28 85 227 198 85 255 57 113 255 255 85 28 28 142 0 0 0 0 0 0 0 0 0 0 0 0 0 0 0 0 0 0 0 0 0 0
0 0 0 0 0 0 0 0 0 0 0 0 0 0 0 0 0 0 0 0 0 0 0 0 0 0 142 142 28 85 255 255 113 255 255 28 28 142 0 142 170 170 170 170 170 170 28 85 198 198 198 198 57 57 57 198 198 198 85 170 170 28 28 85 198 198 57 113 113 113 113 113 113 113 113 57 57 198 227 227 227 198 198 198 198 198 227 227 198 85 170 170 170 170 85 227 85 227 227 227 85 85 198 198 113 113 113 113 113 113 113 113 113 113 113 113 113 57 57 227 227 227 227 198 198 85 170 28 198 227 227 227 227 198 85 85 85 170 170 0 170 170 170 142 142 28 227 198 85 255 57 113 255 255 85 28 28 142 0 0 0 0 0 0 0 0 0 0 0 0 0 0 0 0 0 0 0 0 0 0 0
0 0 0 0 0 0 0 0 0 0 0 0 0 0 0 0 0 0 0 0 0 0 0 0 0 0 0 142 28 28 85 255 255 113 255 255 28 28 142 142 170 170 170 170 170 170 170 28 85 198 198 227 57 57 57 198 198 85 85 170 28 28 85 198 198 198 57 113 113 113 113 113 113 113 113 113 57 198 227 227 227 227 198 198 198 198 198 198 198 85 170 170 170 28 85 85 85 198 198 198 198 198 198 57 113 113 113 113 113 57 57 57 57 57 113 113 113 57 57 57 198 227 227 198 85 85 170 28 198 227 227 227 198 85 85 28 170 170 170 170 170 170 170 142 28 85 198 85 255 57 113 255 255 255 28 170 142 142 0 0 0 0 0 0 0 0 0 0 0 0 0 0 0 0 0 0 0 0 0 0 0
0 0 0 0 0 0 0 0 0 0 0 0 0 0 0 0 0 0 0 0 0 0 0 0 0 0 0 142 142 28 28 255 255 113 255 255 85 28 142 0 142 170 170 170 170 170 170 170 28 85 198 198 198 57 227 198 198 85 170 28 28 85 198 198 198 57 113 113 113 113 113 113 113 113 113 113 57 57 198 227 227 227 227 198 85 85 85 85 85 170 170 170 170 28 85 227 227 227 227 198 198 198 57 113 113 113 113 57 57 57 57 57 57 57 57 113 113 57 57 57 198 227 227 198 85 170 28 28 198 227 227 198 85 85 28 170 0 142 170 170 170 170 142 28 28 198 85 255 255 113 255 255 255 85 28 170 142 0 0 0 0 0 0 0 0 0 0 0 0 0 0 0 0 0 0 0 0 0 0 0 0
0 0 0 0 0 0 0 0 0 0 0 0 0 0 0 0 0 0 0 0 0 0 0 0 0 0 0 0 142 142 28 28 255 255 113 255 255 85 28 142 0 142 170 170 170 170 170 170 28 28 85 198 198 198 198 198 85 170 170 28 85 198 198 198 57 113 113 113 113 113 113 113 113 113 113 113 113 57 198 227 227 227 198 85 85 170 170 85 170 170 170 170 28 85 85 227 227 227 198 198 198 57 113 113 113 113 57 57 198 198 198 198 198 198 57 57 113 113 57 57 227 227 198 198 85 170 170 85 198 198 198 85 85 28 170 170 142 170 170 170 0 142 142 28 198 198 255 255 113 255 255 255 28 28 28 142 0 0 0 0 0 0 0 0 0 0 0 0 0 0 0 0 0 0 0 0 0 0 0 0 0
0 0 0 0 0 0 0 0 0 0 0 0 0 0 0 0 0 0 0 0 0 0 0 0 0 0 0 0 142 142 28 28 255 255 57 113 255 255 28 28 142 142 142 170 170 170 170 170 170 28 28 85 85 85 85 85 85 170 28 85 198 198 57 57 113 113 113 113 113 113 113 113 113 113 113 113 113 57 57 198 198 227 227 85 85 170 170 170 170 170 170 28 28 85 227 227 227 198 198 198 57 113 113 113 113 57 57 57 198 85 85 198 198 227 198 57 57 113 57 57 227 198 198 198 85 170 170 28 85 85 85 85 28 170 170 142 170 170 142 170 142 142 28 85 198 85 255 113 255 255 255 85 170 28 142 142 0 0 0 0 0 0 0 0 0 0 0 0 0 0 0 0 0 0 0 0 0 0 0 0 0
0 0 0 0 0 0 0 0 0 0 0 0 0 0 0 0 0 0 0 0 0 0 0 0 0 0 0 0 0 142 142 28 28 255 255 113 57 255 85 85 28 142 142 142 170 170 170 170 170 142 28 28 28 85 28 170 170 28 28 85 227 198 198 57 113 113 113 113 113 113 113 113 113 113 113 113 113 113 57 57 198 198 227 198 85 85 28 28 170 170 170 28 28 85 227 227 198 198 57 57 113 113 113 113 57 57 198 198 85 85 85 85 198 227 227 198 57 113 57 57 227 198 198 85 85 170 170 170 85 85 28 170 170 170 170 170 170 170 142 142 142 28 28 198 255 255 57 57 255 255 85 170 170 142 142 0 0 0 0 0 0 0 0 0 0 0 0 0 0 0 0 0 0 0 0 0 0 0 0 0 0
0 0 0 0 0 0 0 0 0 0 0 0 0 0 0 0 0 0 0 0 0 0 0 0 0 0 0 0 0 0 142 142 28 28 255 255 113 57 255 85 85 28 142 142 0 142 170 170 170 170 142 170 170 170 170 170 170 28 28 85 227 198 198 113 113 113 113 57 57 57 57 57 57 57 57 57 113 113 113 57 57 57 198 227 198 198 85 85 85 170 170 28 28 198 227 227 198 57 57 113 113 113 113 57 57 57 198 85 85 170 170 28 85 198 227 198 57 57 57 57 198 198 85 85 170 170 170 170 170 170 170 170 170 170 170 170 170 170 142 142 142 28 85 85 255 57 113 255 255 85 28 170 142 142 0 0 0 0 0 0 0 0 0 0 0 0 0 0 0 0 0 0 0 0 0 0 0 0 0 0 0
0 0 0 0 0 0 0 0 0 0 0 0 0 0 0 0 0 0 0 0 0 0 0 0 0 0 0 0 0 0 0 142 142 28 28 255 255 113 57 198 85 85 28 142 142 0 142 170 170 0 0 170 170 170 170 170 170 28 28 85 198 227 57 57 57 57 57 57 57 57 57 57 57 57 57 57 57 57 113 113 113 57 198 227 227 227 198 198 85 28 170 28 28 198 227 198 198 57 113 113 113 113 113 57 57 198 198 85 85 170 170 28 85 85 227 227 198 57 57 198 198 85 85 170 170 170 170 170 170 170 170 170 170 170 170 170 170 142 142 142 28 85 255 255 57 113 255 255 85 28 170 170 142 0 0 0 0 0 0 0 0 0 0 0 0 0 0 0 0 0 0 0 0 0 0 0 0 0 0 0 0
0 0 0 0 0 0 0 0 0 0 0 0 0 0 0 0 0 0 0 0 0 0 0 0 0 0 0 0 0 0 0 0 142 28 28 28 255 255 113 57 198 85 85 28 28 142 142 0 170 0 142 170 170 170 170 170 170 170 28 85 198 198 198 57 57 57 57 57 227 227 227 227 227 227 198 198 57 57 57 57 113 113 57 198 198 227 227 198 85 85 170 28 28 198 227 227 57 57 113 113 113 113 57 57 198 227 227 198 85 170 170 170 28 85 198 227 227 198 227 198 198 85 170 170 170 170 170 170 170 170 170 170 170 170 0 0 142 142 28 28 85 85 255 57 113 255 255 85 85 28 142 142 0 0 0 0 0 0 0 0 0 0 0 0 0 0 0 0 0 0 0 0 0 0 0 0 0 0 0 0 0
0 0 0 0 0 0 0 0 0 0 0 0 0 0 0 0 0 0 0 0 0 0 0 0 0 0 0 0 0 0 0 0 0 142 170 28 28 255 255 57 57 198 85 85 85 28 28 142 170 142 142 170 170 170 0 170 170 170 28 85 85 198 198 198 198 227 227 227 227 227 227 227 227 227 227 227 198 198 198 57 57 57 113 57 57 227 227 227 198 85 170 28 28 198 227 227 227 57 57 113 113 113 57 57 227 227 198 198 85 28 170 170 170 85 85 198 198 198 198 198 85 28 170 170 170 170 170 170 170 170 170 170 170 0 142 142 142 28 85 85 255 255 57 255 255 255 85 28 28 170 142 0 0 0 0 0 0 0 0 0 0 0 0 0 0 0 0 0 0 0 0 0 0 0 0 0 0 0 0 0 0
0 0 0 0 0 0 0 0 0 0 0 0 0 0 0 0 0 0 0 0 0 0 0 0 0 0 0 0 0 0 0 0 0 142 142 170 170 28 85 255 57 57 255 255 85 85 28 28 142 0 142 170 170 170 142 142 170 170 170 28 85 85 85 198 198 198 227 227 227 227 227 227 227 227 227 227 227 227 198 198 198 57 57 113 57 57 227 227 198 85 28 170 28 198 227 227 227 227 57 57 113 113 57 57 227 227 227 198 85 85 170 170 170 28 85 85 198 198 85 85 28 170 170 170 170 142 142 170 170 170 170 170 0 142 142 28 28 85 85 255 255 113 57 255 255 85 28 28 142 142 0 0 0 0 0 0 0 0 0 0 0 0 0 0 0 0 0 0 0 0 0 0 0 0 0 0 0 0 0 0 0
0 0 0 0 0 0 0 0 0 0 0 0 0 0 0 0 0 0 0 0 0 0 0 0 0 0 0 0 0 0 0 0 0 0 142 142 142 170 28 28 255 255 57 57 255 255 85 85 28 142 0 170 170 170 170 170 170 170 170 170 28 28 28 85 85 198 198 227 227 227 227 227 227 227 227 198 227 227 227 85 198 198 198 57 57 57 227 227 198 85 85 170 28 85 198 227 227 227 198 57 113 113 57 57 227 227 227 198 85 85 170 170 170 170 170 85 85 85 85 28 170 170 170 170 142 142 170 170 170 170 170 142 142 142 28 28 255 255 255 57 113 57 255 255 28 28 28 142 142 0 0 0 0 0 0 0 0 0 0 0 0 0 0 0 0 0 0 0 0 0 0 0 0 0 0 0 0 0 0 0 0
0 0 0 0 0 0 0 0 0 0 0 0 0 0 0 0 0 0 0 0 0 0 0 0 0 0 0 0 0 0 0 0 0 0 0 142 142 142 170 28 85 255 255 113 113 57 255 255 28 28 142 170 170 170 170 170 170 170 170 170 170 170 28 28 28 85 85 198 198 198 227 227 227 227 227 227 227 198 85 227 85 85 198 198 57 227 227 227 198 85 85 170 28 85 198 227 227 227 227 198 57 57 57 57 227 227 227 198 85 85 170 170 170 170 170 170 28 28 28 170 170 170 170 142 142 170 170 170 170 170 170 142 28 28 28 255 255 255 57 57 255 255 255 85 170 170 142 142 0 0 0 0 0 0 0 0 0 0 0 0 0 0 0 0 0 0 0 0 0 0 0 0 0 0 0 0 0 0 0 0 0
0 0 0 0 0 0 0 0 0 0 0 0 0 0 0 0 0 0 0 0 0 0 0 0 0 0 0 0 0 0 0 0 0 0 0 0 142 142 142 170 28 85 255 255 255 113 57 255 255 255 28 28 142 0 170 28 85 170 170 170 170 170 170 142 28 28 28 85 85 85 198 198 198 227 227 227 227 198 198 85 170 85 85 85 198 198 227 198 198 85 85 170 170 28 85 85 198 227 227 227 198 57 227 227 227 227 227 198 85 85 170 170 170 170 170 170 170 170 170 170 170 170 142 142 170 85 28 170 170 142 142 28 28 255 255 255 57 113 57 255 255 255 28 170 170 142 142 0 0 0 0 0 0 0 0 0 0 0 0 0 0 0 0 0 0 0 0 0 0 0 0 0 0 0 0 0 0 0 0 0 0
0 0 0 0 0 0 0 0 0 0 0 0 0 0 0 0 0 0 0 0 0 0 0 0 0 0 0 0 0 0 0 0 0 0 0 0 0 0 142 142 28 28 28 85 255 255 57 113 57 255 255 255 28 142 142 142 170 170 170 170 170 170 142 0 142 142 28 28 28 85 85 85 85 198 198 198 198 198 198 198 85 85 85 85 85 85 198 198 85 85 170 170 170 170 28 85 85 198 227 227 227 227 227 227 227 227 227 198 85 85 170 170 170 170 170 170 170 170 170 142 142 170 170 170 85 85 170 170 142 28 28 28 255 255 255 113 57 255 255 255 85 28 170 170 142 142 0 0 0 0 0 0 0 0 0 0 0 0 0 0 0 0 0 0 0 0 0 0 0 0 0 0 0 0 0 0 0 0 0 0 0
0 0 0 0 0 0 0 0 0 0 0 0 0 0 0 0 0 0 0 0 0 0 0 0 0 0 0 0 0 0 0 0 0 0 0 0 0 0 0 142 142 170 28 28 85 255 255 255 57 113 57 255 255 28 28 142 142 170 170 170 170 170 170 142 142 142 170 170 170 28 28 28 85 85 85 85 85 85 85 85 85 170 170 170 28 85 85 85 85 170 170 170 170 170 170 28 28 85 198 198 198 198 198 227 227 227 198 198 85 85 170 170 170 170 170 170 170 170 170 170 170 170 170 28 28 170 142 28 28 255 255 255 255 113 113 255 255 255 255 85 28 28 170 170 142 0 0 0 0 0 0 0 0 0 0 0 0 0 0 0 0 0 0 0 0 0 0 0 0 0 0 0 0 0 0 0 0 0 0 0 0
0 0 0 0 0 0 0 0 0 0 0 0 0 0 0 0 0 0 0 0 0 0 0 0 0 0 0 0 0 0 0 0 0 0 0 0 0 0 0 0 142 142 28 28 28 28 85 255 255 255 113 113 57 255 255 28 28 28 142 170 170 170 170 170 170 170 170 170 170 170 170 170 28 28 28 28 28 28 28 28 170 170 170 170 170 170 170 170 170 170 170 170 170 170 170 170 170 28 85 85 85 85 85 198 198 198 85 85 85 28 170 170 170 170 142 142 170 170 170 170 170 170 170 170 170 142 28 28 255 255 255 113 113 255 255 255 255 85 28 28 28 142 142 142 0 0 0 0 0 0 0 0 0 0 0 0 0 0 0 0 0 0 0 0 0 0 0 0 0 0 0 0 0 0 0 0 0 0 0 0 0
0 0 0 0 0 0 0 0 0 0 0 0 0 0 0 0 0 0 0 0 0 0 0 0 0 0 0 0 0 0 0 0 0 0 0 0 0 0 0 0 0 142 142 142 170 28 28 28 85 255 255 255 113 113 255 255 255 28 28 142 142 170 170 170 170 170 170 170 170 170 170 170 170 170 170 170 170 170 170 170 170 170 170 170 170 170 170 170 170 170 170 170 170 170 170 170 170 170 28 28 85 85 85 85 85 85 85 85 28 170 0 0 142 142 142 170 170 170 170 170 170 170 170 142 28 28 255 255 255 113 113 255 255 255 255 85 28 28 28 28 142 142 0 0 0 0 0 0 0 0 0 0 0 0 0 0 0 0 0 0 0 0 0 0 0 0 0 0 0 0 0 0 0 0 0 0 0 0 0 0 0
0 0 0 0 0 0 0 0 0 0 0 0 0 0 0 0 0 0 0 0 0 0 0 0 0 0 0 0 0 0 0 0 0 0 0 0 0 0 0 0 0 0 0 142 142 28 170 170 28 85 85 255 255 255 113 113 255 255 255 28 28 142 142 170 170 170 170 170 170 170 170 142 142 170 170 170 170 170 170 170 170 170 170 170 170 170 170 28 170 170 170 170 170 170 170 170 170 170 170 170 170 28 28 28 28 28 28 170 170 142 142 142 170 170 170 170 170 170 170 170 142 28 28 28 28 255 57 57 57 255 255 255 255 255 85 28 170 170 142 142 0 0 0 0 0 0 0 0 0 0 0 0 0 0 0 0 0 0 0 0 0 0 0 0 0 0 0 0 0 0 0 0 0 0 0 0 0 0 0 0 0
0 0 0 0 0 0 0 0 0 0 0 0 0 0 0 0 0 0 0 0 0 0 0 0 0 0 0 0 0 0 0 0 0 0 0 0 0 0 0 0 0 0 0 0 142 142 142 28 28 28 28 85 255 255 255 255 113 113 255 255 255 255 28 28 142 170 170 170 170 170 170 170 170 170 170 142 170 170 170 170 170 0 0 0 0 0 0 0 142 142 28 28 170 170 170 170 170 170 170 170 170 170 170 170 170 170 170 142 142 142 170 170 170 170 170 170 170 170 28 28 28 28 255 255 255 113 57 255 255 255 255 255 85 28 28 170 170 142 142 0 0 0 0 0 0 0 0 0 0 0 0 0 0 0 0 0 0 0 0 0 0 0 0 0 0 0 0 0 0 0 0 0 0 0 0 0 0 0 0 0 0
0 0 0 0 0 0 0 0 0 0 0 0 0 0 0 0 0 0 0 0 0 0 0 0 0 0 0 0 0 0 0 0 0 0 0 0 0 0 0 0 0 0 0 0 0 0 142 142 142 28 28 28 85 85 255 255 255 57 113 113 255 255 255 255 28 28 142 142 170 170 170 170 170 170 170 170 170 170 170 170 170 142 142 142 142 142 142 142 142 0 142 170 170 170 170 170 0 170 170 142 142 142 142 142 170 170 170 170 170 170 170 170 170 170 170 28 28 28 28 28 255 255 255 57 57 57 255 255 255 255 85 28 28 28 28 142 142 142 0 0 0 0 0 0 0 0 0 0 0 0 0 0 0 0 0 0 0 0 0 0 0 0 0 0 0 0 0 0 0 0 0 0 0 0 0 0 0 0 0 0 0
0 0 0 0 0 0 0 0 0 0 0 0 0 0 0 0 0 0 0 0 0 0 0 0 0 0 0 0 0 0 0 0 0 0 0 0 0 0 0 0 0 0 0 0 0 0 0 0 142 142 142 28 28 28 85 85 255 255 255 255 113 113 57 255 255 255 28 28 28 28 142 170 170 170 170 170 170 170 170 170 170 170 170 170 170 170 170 170 142 142 142 170 170 170 170 170 170 170 170 170 170 170 170 170 170 170 170 170 170 170 170 142 28 28 28 28 28 255 255 255 255 113 113 113 255 255 255 85 28 28 28 28 28 142 142 142 0 0 0 0 0 0 0 0 0 0 0 0 0 0 0 0 0 0 0 0 0 0 0 0 0 0 0 0 0 0 0 0 0 0 0 0 0 0 0 0 0 0 0 0 0
0 0 0 0 0 0 0 0 0 0 0 0 0 0 0 0 0 0 0 0 0 0 0 0 0 0 0 0 0 0 0 0 0 0 0 0 0 0 0 0 0 0 0 0 0 0 0 0 0 0 142 142 28 28 28 28 85 85 255 255 255 255 57 113 113 255 255 255 255 28 28 28 142 142 142 170 170 170 170 170 170 170 170 170 170 170 170 170 170 170 170 170 170 170 170 170 170 170 170 170 170 170 170 170 170 170 170 170 142 28 28 28 28 28 255 255 255 255 57 113 113 255 255 255 255 255 85 28 28 28 28 142 142 142 0 0 0 0 0 0 0 0 0 0 0 0 0 0 0 0 0 0 0 0 0 0 0 0 0 0 0 0 0 0 0 0 0 0 0 0 0 0 0 0 0 0 0 0 0 0 0
0 0 0 0 0 0 0 0 0 0 0 0 0 0 0 0 0 0 0 0 0 0 0 0 0 0 0 0 0 0 0 0 0 0 0 0 0 0 0 0 0 0 0 0 0 0 0 0 0 0 0 142 142 142 142 28 28 28 85 255 255 255 255 255 255 113 113 57 255 255 255 255 28 28 28 142 142 142 170 170 142 170 170 170 170 170 170 170 170 170 170 170 170 170 170 170 170 170 170 170 170 170 170 170 142 142 142 28 28 28 28 255 255 255 255 255 113 113 57 255 255 255 255 255 85 85 28 28 28 142 142 142 0 0 0 0 0 0 0 0 0 0 0 0 0 0 0 0 0 0 0 0 0 0 0 0 0 0 0 0 0 0 0 0 0 0 0 0 0 0 0 0 0 0 0 0 0 0 0 0 0
0 0 0 0 0 0 0 0 0 0 0 0 0 0 0 0 0 0 0 0 0 0 0 0 0 0 0 0 0 0 0 0 0 0 0 0 0 0 0 0 0 0 0 0 0 0 0 0 0 0 0 0 0 142 142 142 142 28 28 28 85 85 255 255 255 255 255 57 57 113 57 255 255 255 255 28 28 28 28 142 142 142 170 170 170 170 170 170 170 170 170 170 170 170 170 170 170 170 142 142 142 142 142 28 28 28 28 255 255 255 255 255 57 113 113 113 255 255 255 255 255 255 85 28 28 28 28 142 142 142 0 0 0 0 0 0 0 0 0 0 0 0 0 0 0 0 0 0 0 0 0 0 0 0 0 0 0 0 0 0 0 0 0 0 0 0 0 0 0 0 0 0 0 0 0 0 0 0 0 0 0
0 0 0 0 0 0 0 0 0 0 0 0 0 0 0 0 0 0 0 0 0 0 0 0 0 0 0 0 0 0 0 0 0 0 0 0 0 0 0 0 0 0 0 0 0 0 0 0 0 0 0 0 0 0 0 142 142 142 142 28 28 85 85 85 85 85 255 255 255 255 57 113 113 57 255 255 255 255 255 28 28 28 28 28 142 142 142 142 142 142 142 142 142 142 142 142 142 142 142 28 28 28 28 255 255 255 255 255 255 113 113 57 255 255 255 255 255 255 255 85 85 85 28 28 28 142 142 0 0 0 0 0 0 0 0 0 0 0 0 0 0 0 0 0 0 0 0 0 0 0 0 0 0 0 0 0 0 0 0 0 0 0 0 0 0 0 0 0 0 0 0 0 0 0 0 0 0 0 0 0 0
0 0 0 0 0 0 0 0 0 0 0 0 0 0 0 0 0 0 0 0 0 0 0 0 0 0 0 0 0 0 0 0 0 0 0 0 0 0 0 0 0 0 0 0 0 0 0 0 0 0 0 0 0 0 0 0 0 142 142 142 142 28 28 28 85 85 85 85 255 255 255 255 255 57 57 113 113 57 255 255 255 255 255 28 28 28 28 28 28 28 28 28 28 28 28 28 28 28 28 28 255 255 255 255 57 113 113 113 113 255 255 255 255 255 255 255 255 85 85 85 28 28 28 142 142 142 0 0 0 0 0 0 0 0 0 0 0 0 0 0 0 0 0 0 0 0 0 0 0 0 0 0 0 0 0 0 0 0 0 0 0 0 0 0 0 0 0 0 0 0 0 0 0 0 0 0 0 0 0 0 0
0 0 0 0 0 0 0 0 0 0 0 0 0 0 0 0 0 0 0 0 0 0 0 0 0 0 0 0 0 0 0 0 0 0 0 0 0 0 0 0 0 0 0 0 0 0 0 0 0 0 0 0 0 0 0 0 0 0 0 142 142 142 142 28 28 28 28 85 85 85 85 85 255 255 255 255 255 255 57 113 113 113 255 255 255 255 255 255 255 255 28 28 28 85 85 85 85 85 198 57 57 113 113 57 255 255 255 255 255 255 255 255 85 85 85 85 28 28 28 28 28 142 142 0 0 0 0 0 0 0 0 0 0 0 0 0 0 0 0 0 0 0 0 0 0 0 0 0 0 0 0 0 0 0 0 0 0 0 0 0 0 0 0 0 0 0 0 0 0 0 0 0 0 0 0 0 0 0 0 0 0
0 0 0 0 0 0 0 0 0 0 0 0 0 0 0 0 0 0 0 0 0 0 0 0 0 0 0 0 0 0 0 0 0 0 0 0 0 0 0 0 0 0 0 0 0 0 0 0 0 0 0 0 0 0 0 0 0 0 0 0 0 142 142 142 142 142 28 28 28 28 85 85 85 85 255 85 85 255 255 255 255 255 255 57 57 113 113 113 113 57 57 227 57 57 57 57 198 57 57 57 255 255 255 255 255 255 255 255 255 255 85 85 85 85 28 28 28 28 142 142 142 142 0 0 0 0 0 0 0 0 0 0 0 0 0 0 0 0 0 0 0 0 0 0 0 0 0 0 0 0 0 0 0 0 0 0 0 0 0 0 0 0 0 0 0 0 0 0 0 0 0 0 0 0 0 0 0 0 0 0 0
0 0 0 0 0 0 0 0 0 0 0 0 0 0 0 0 0 0 0 0 0 0 0 0 0 0 0 0 0 0 0 0 0 0 0 0 0 0 0 0 0 0 0 0 0 0 0 0 0 0 0 0 0 0 0 0 0 0 0 0 0 0 0 0 0 142 142 142 142 28 28 28 28 28 28 28 28 85 85 255 255 255 255 255 255 255 255 255 255 255 255 255 255 255 255 255 85 85 255 255 255 255 255 255 85 85 85 85 85 28 28 28 28 28 28 142 142 142 142 0 0 0 0 0 0 0 0 0 0 0 0 0 0 0 0 0 0 0 0 0 0 0 0 0 0 0 0 0 0 0 0 0 0 0 0 0 0 0 0 0 0 0 0 0 0 0 0 0 0 0 0 0 0 0 0 0 0 0 0 0 0
0 0 0 0 0 0 0 0 0 0 0 0 0 0 0 0 0 0 0 0 0 0 0 0 0 0 0 0 0 0 0 0 0 0 0 0 0 0 0 0 0 0 0 0 0 0 0 0 0 0 0 0 0 0 0 0 0 0 0 0 0 0 0 0 0 0 0 142 142 142 142 142 28 28 28 28 28 28 28 28 28 28 28 85 85 85 85 85 85 85 85 85 85 85 85 85 170 28 28 85 85 85 28 28 28 28 28 28 28 28 28 28 142 142 142 142 0 0 0 0 0 0 0 0 0 0 0 0 0 0 0 0 0 0 0 0 0 0 0 0 0 0 0 0 0 0 0 0 0 0 0 0 0 0 0 0 0 0 0 0 0 0 0 0 0 0 0 0 0 0 0 0 0 0 0 0 0 0 0 0 0
0 0 0 0 0 0 0 0 0 0 0 0 0 0 0 0 0 0 0 0 0 0 0 0 0 0 0 0 0 0 0 0 0 0 0 0 0 0 0 0 0 0 0 0 0 0 0 0 0 0 0 0 0 0 0 0 0 0 0 0 0 0 0 0 0 0 0 0 0 0 142 142 142 142 142 28 28 28 28 28 28 28 28 28 85 85 85 28 28 28 170 28 28 85 28 28 28 28 28 28 28 28 28 28 28 28 28 28 28 142 142 142 0 0 0 0 0 0 0 0 0 0 0 0 0 0 0 0 0 0 0 0 0 0 0 0 0 0 0 0 0 0 0 0 0 0 0 0 0 0 0 0 0 0 0 0 0 0 0 0 0 0 0 0 0 0 0 0 0 0 0 0 0 0 0 0 0 0 0 0 0
0 0 0 0 0 0 0 0 0 0 0 0 0 0 0 0 0 0 0 0 0 0 0 0 0 0 0 0 0 0 0 0 0 0 0 0 0 0 0 0 0 0 0 0 0 0 0 0 0 0 0 0 0 0 0 0 0 0 0 0 0 0 0 0 0 0 0 0 0 0 0 0 0 0 0 142 142 142 142 142 142 142 28 28 28 28 28 28 28 28 28 28 28 28 28 28 28 28 28 28 28 28 142 142 142 142 142 142 142 0 0 0 0 0 0 0 0 0 0 0 0 0 0 0 0 0 0 0 0 0 0 0 0 0 0 0 0 0 0 0 0 0 0 0 0 0 0 0 0 0 0 0 0 0 0 0 0 0 0 0 0 0 0 0 0 0 0 0 0 0 0 0 0 0 0 0 0 0 0 0 0
0 0 0 0 0 0 0 0 0 0 0 0 0 0 0 0 0 0 0 0 0 0 0 0 0 0 0 0 0 0 0 0 0 0 0 0 0 0 0 0 0 0 0 0 0 0 0 0 0 0 0 0 0 0 0 0 0 0 0 0 0 0 0 0 0 0 0 0 0 0 0 0 0 0 0 0 0 0 0 0 142 142 142 142 142 142 142 142 142 28 28 142 142 142 142 142 142 142 142 142 142 142 142 0 0 0 0 0 0 0 0 0 0 0 0 0 0 0 0 0 0 0 0 0 0 0 0 0 0 0 0 0 0 0 0 0 0 0 0 0 0 0 0 0 0 0 0 0 0 0 0 0 0 0 0 0 0 0 0 0 0 0 0 0 0 0 0 0 0 0 0 0 0 0 0 0 0 0 0 0 0
0 0 0 0 0 0 0 0 0 0 0 0 0 0 0 0 0 0 0 0 0 0 0 0 0 0 0 0 0 0 0 0 0 0 0 0 0 0 0 0 0 0 0 0 0 0 0 0 0 0 0 0 0 0 0 0 0 0 0 0 0 0 0 0 0 0 0 0 0 0 0 0 0 0 0 0 0 0 0 0 0 0 0 0 0 0 0 0 0 142 142 142 142 142 0 0 0 0 0 0 0 0 0 0 0 0 0 0 0 0 0 0 0 0 0 0 0 0 0 0 0 0 0 0 0 0 0 0 0 0 0 0 0 0 0 0 0 0 0 0 0 0 0 0 0 0 0 0 0 0 0 0 0 0 0 0 0 0 0 0 0 0 0 0 0 0 0 0 0 0 0 0 0 0 0 0 0 0 0 0 0
0 0 0 0 0 0 0 0 0 0 0 0 0 0 0 0 0 0 0 0 0 0 0 0 0 0 0 0 0 0 0 0 0 0 0 0 0 0 0 0 0 0 0 0 0 0 0 0 0 0 0 0 0 0 0 0 0 0 0 0 0 0 0 0 0 0 0 0 0 0 0 0 0 0 0 0 0 0 0 0 0 0 0 0 0 0 0 0 0 0 0 0 0 0 0 0 0 0 0 0 0 0 0 0 0 0 0 0 0 0 0 0 0 0 0 0 0 0 0 0 0 0 0 0 0 0 0 0 0 0 0 0 0 0 0 0 0 0 0 0 0 0 0 0 0 0 0 0 0 0 0 0 0 0 0 0 0 0 0 0 0 0 0 0 0 0 0 0 0 0 0 0 0 0 0 0 0 0 0 0 0
