P2
181 217
255
0 0 0 0 0 0 0 0 0 0 0 0 0 0 0 0 0 0 0 0 0 0 0 0 0 0 0 0 0 0 0 0 0 0 0 0 0 0 0 0 0 0 0 0 0 0 0 0 0 0 0 0 0 0 0 0 0 0 0 0 0 0 0 0 0 0 0 0 0 0 0 0 0 0 0 0 0 0 0 0 0 0 0 0 0 0 0 0 0 0 0 0 0 0 0 0 0 0 0 0 0 0 0 0 0 0 0 0 0 0 0 0 0 0 0 0 0 0 0 0 0 0 0 0 0 0 0 0 0 0 0 0 0 0 0 0 0 0 0 0 0 0 0 0 0 0 0 0 0 0 0 0 0 0 0 0 0 0 0 0 0 0 0 0 0 0 0 0 0 0 0 0 0 0 0 0 0 0 0 0 0
0 0 0 0 0 0 0 0 0 0 0 0 0 0 0 0 0 0 0 0 0 0 0 0 0 0 0 0 0 0 0 0 0 0 0 0 0 0 0 0 0 0 0 0 0 0 0 0 0 0 0 0 0 0 0 0 0 0 0 0 0 0 0 0 0 0 0 0 0 0 0 0 0 0 0 0 0 0 0 0 0 0 0 0 0 0 0 0 0 0 0 0 0 0 0 0 0 0 0 0 0 0 0 0 0 0 0 0 0 0 0 0 0 0 0 0 0 0 0 0 0 0 0 0 0 0 0 0 0 0 0 0 0 0 0 0 0 0 0 0 0 0 0 0 0 0 0 0 0 0 0 0 0 0 0 0 0 0 0 0 0 0 0 0 0 0 0 0 0 0 0 0 0 0 0 0 0 0 0 0 0
0 0 0 0 0 0 0 0 0 0 0 0 0 0 0 0 0 0 0 0 0 0 0 0 0 0 0 0 0 0 0 0 0 0 0 0 0 0 0 0 0 0 0 0 0 0 0 0 0 0 0 0 0 0 0 0 0 0 0 0 0 0 0 0 0 0 0 0 0 0 0 0 0 0 0 0 0 0 0 0 0 0 0 0 0 0 0 0 0 0 0 0 0 0 0 0 0 0 0 0 0 0 0 0 0 0 0 0 0 0 0 0 0 0 0 0 0 0 0 0 0 0 0 0 0 0 0 0 0 0 0 0 0 0 0 0 0 0 0 0 0 0 0 0 0 0 0 0 0 0 0 0 0 0 0 0 0 0 0 0 0 0 0 0 0 0 0 0 0 0 0 0 0 0 0 0 0 0 0 0 0
0 0 0 0 0 0 0 0 0 0 0 0 0 0 0 0 0 0 0 0 0 0 0 0 0 0 0 0 0 0 0 0 0 0 0 0 0 0 0 0 0 0 0 0 0 0 0 0 0 0 0 0 0 0 0 0 0 0 0 0 0 0 0 0 0 0 0 0 0 0 0 0 0 0 0 0 0 0 0 0 0 0 0 0 0 0 0 0 0 0 0 0 0 0 0 0 0 0 0 0 0 0 0 0 0 0 0 0 0 0 0 0 0 0 0 0 0 0 0 0 0 0 0 0 0 0 0 0 0 0 0 0 0 0 0 0 0 0 0 0 0 0 0 0 0 0 0 0 0 0 0 0 0 0 0 0 0 0 0 0 0 0 0 0 0 0 0 0 0 0 0 0 0 0 0 0 0 0 0 0 0
0 0 0 0 0 0 0 0 0 0 0 0 0 0 0 0 0 0 0 0 0 0 0 0 0 0 0 0 0 0 0 0 0 0 0 0 0 0 0 0 0 0 0 0 0 0 0 0 0 0 0 0 0 0 0 0 0 0 0 0 0 0 0 0 0 0 0 0 0 0 0 0 0 0 0 0 0 0 0 0 0 0 0 0 0 0 0 0 0 0 0 0 0 0 0 0 0 0 0 0 0 0 0 0 0 0 0 0 0 0 0 0 0 0 0 0 0 0 0 0 0 0 0 0 0 0 0 0 0 0 0 0 0 0 0 0 0 0 0 0 0 0 0 0 0 0 0 0 0 0 0 0 0 0 0 0 0 0 0 0 0 0 0 0 0 0 0 0 0 0 0 0 0 0 0 0 0 0 0 0 0
0 0 0 0 0 0 0 0 0 0 0 0 0 0 0 0 0 0 0 0 0 0 0 0 0 0 0 0 0 0 0 0 0 0 0 0 0 0 0 0 0 0 0 0 0 0 0 0 0 0 0 0 0 0 0 0 0 0 0 0 0 0 0 0 0 0 0 0 0 0 0 0 0 0 0 0 0 0 0 0 0 0 0 0 0 0 0 0 0 0 0 0 0 0 0 0 0 0 0 0 0 0 0 0 0 0 0 0 0 0 0 0 0 0 0 0 0 0 0 0 0 0 0 0 0 0 0 0 0 0 0 0 0 0 0 0 0 0 0 0 0 0 0 0 0 0 0 0 0 0 0 0 0 0 0 0 0 0 0 0 0 0 0 0 0 0 0 0 0 0 0 0 0 0 0 0 0 0 0 0 0
0 0 0 0 0 0 0 0 0 0 0 0 0 0 0 0 0 0 0 0 0 0 0 0 0 0 0 0 0 0 0 0 0 0 0 0 0 0 0 0 0 0 0 0 0 0 0 0 0 0 0 0 0 0 0 0 0 0 0 0 0 0 0 0 0 0 0 0 0 0 0 0 0 0 0 0 0 0 0 0 0 0 0 0 0 0 0 0 0 0 0 0 0 0 0 0 0 0 0 0 0 0 0 0 0 0 0 0 0 0 0 0 0 0 0 0 0 0 0 0 0 0 0 0 0 0 0 0 0 0 0 0 0 0 0 0 0 0 0 0 0 0 0 0 0 0 0 0 0 0 0 0 0 0 0 0 0 0 0 0 0 0 0 0 0 0 0 0 0 0 0 0 0 0 0 0 0 0 0 0 0
0 0 0 0 0 0 0 0 0 0 0 0 0 0 0 0 0 0 0 0 0 0 0 0 0 0 0 0 0 0 0 0 0 0 0 0 0 0 0 0 0 0 0 0 0 0 0 0 0 0 0 0 0 0 0 0 0 0 0 0 0 0 0 0 0 0 0 0 0 0 0 0 0 0 0 0 0 0 0 0 0 0 0 0 0 0 0 0 0 0 0 0 0 0 0 0 0 0 0 0 0 0 0 0 0 0 0 0 0 0 0 0 0 0 0 0 0 0 0 0 0 0 0 0 0 0 0 0 0 0 0 0 0 0 0 0 0 0 0 0 0 0 0 0 0 0 0 0 0 0 0 0 0 0 0 0 0 0 0 0 0 0 0 0 0 0 0 0 0 0 0 0 0 0 0 0 0 0 0 0 0
0 0 0 0 0 0 0 0 0 0 0 0 0 0 0 0 0 0 0 0 0 0 0 0 0 0 0 0 0 0 0 0 0 0 0 0 0 0 0 0 0 0 0 0 0 0 0 0 0 0 0 0 0 0 0 0 0 0 0 0 0 0 0 0 0 0 0 0 0 0 0 0 0 0 0 0 0 0 0 0 0 0 0 0 0 0 0 0 0 0 0 0 0 0 0 0 0 0 0 0 0 0 0 0 0 0 0 0 0 0 0 0 0 0 0 0 0 0 0 0 0 0 0 0 0 0 0 0 0 0 0 0 0 0 0 0 0 0 0 0 0 0 0 0 0 0 0 0 0 0 0 0 0 0 0 0 0 0 0 0 0 0 0 0 0 0 0 0 0 0 0 0 0 0 0 0 0 0 0 0 0
0 0 0 0 0 0 0 0 0 0 0 0 0 0 0 0 0 0 0 0 0 0 0 0 0 0 0 0 0 0 0 0 0 0 0 0 0 0 0 0 0 0 0 0 0 0 0 0 0 0 0 0 0 0 0 0 0 0 0 0 0 0 0 0 0 0 0 0 0 0 0 0 0 0 0 0 0 0 0 0 0 0 0 0 0 0 0 0 0 0 0 0 0 0 0 0 0 0 0 0 0 0 0 0 0 0 0 0 0 0 0 0 0 0 0 0 0 0 0 0 0 0 0 0 0 0 0 0 0 0 0 0 0 0 0 0 0 0 0 0 0 0 0 0 0 0 0 0 0 0 0 0 0 0 0 0 0 0 0 0 0 0 0 0 0 0 0 0 0 0 0 0 0 0 0 0 0 0 0 0 0
0 0 0 0 0 0 0 0 0 0 0 0 0 0 0 0 0 0 0 0 0 0 0 0 0 0 0 0 0 0 0 0 0 0 0 0 0 0 0 0 0 0 0 0 0 0 0 0 0 0 0 0 0 0 0 0 0 0 0 0 0 0 0 0 0 0 0 0 0 0 0 0 0 0 0 0 0 0 0 0 0 0 0 0 122 122 122 122 0 0 0 0 0 0 0 0 122 0 0 0 0 0 0 0 0 0 0 0 0 0 0 0 0 0 0 0 0 0 0 0 0 0 0 0 0 0 0 0 0 0 0 0 0 0 0 0 0 0 0 0 0 0 0 0 0 0 0 0 0 0 0 0 0 0 0 0 0 0 0 0 0 0 0 0 0 0 0 0 0 0 0 0 0 0 0 0 0 0 0 0 0
0 0 0 0 0 0 0 0 0 0 0 0 0 0 0 0 0 0 0 0 0 0 0 0 0 0 0 0 0 0 0 0 0 0 0 0 0 0 0 0 0 0 0 0 0 0 0 0 0 0 0 0 0 0 0 0 0 0 0 0 0 0 0 0 0 0 0 0 0 0 122 122 122 122 122 99 99 99 99 99 99 99 99 99 99 99 99 99 99 99 99 99 99 99 99 99 99 99 99 99 122 122 122 122 122 122 122 0 0 0 0 0 0 0 0 0 0 0 0 0 0 0 0 0 0 0 0 0 0 0 0 0 0 0 0 0 0 0 0 0 0 0 0 0 0 0 0 0 0 0 0 0 0 0 0 0 0 0 0 0 0 0 0 0 0 0 0 0 0 0 0 0 0 0 0 0 0 0 0 0 0
0 0 0 0 0 0 0 0 0 0 0 0 0 0 0 0 0 0 0 0 0 0 0 0 0 0 0 0 0 0 0 0 0 0 0 0 0 0 0 0 0 0 0 0 0 0 0 0 0 0 0 0 0 0 0 0 0 0 0 0 0 0 0 0 0 0 122 122 99 99 99 99 99 99 249 249 249 249 249 249 249 249 249 249 249 249 249 249 249 249 249 249 249 249 249 249 249 249 249 249 249 249 249 99 99 99 99 99 99 99 122 122 0 0 0 0 0 0 0 0 0 0 0 0 0 0 0 0 0 0 0 0 0 0 0 0 0 0 0 0 0 0 0 0 0 0 0 0 0 0 0 0 0 0 0 0 0 0 0 0 0 0 0 0 0 0 0 0 0 0 0 0 0 0 0 0 0 0 0 0 0
0 0 0 0 0 0 0 0 0 0 0 0 0 0 0 0 0 0 0 0 0 0 0 0 0 0 0 0 0 0 0 0 0 0 0 0 0 0 0 0 0 0 0 0 0 0 0 0 0 0 0 0 0 0 0 0 0 0 0 0 0 0 0 0 122 99 99 249 249 249 249 128 128 128 128 128 128 128 128 128 128 128 128 104 104 104 104 104 104 104 104 104 104 104 104 104 104 128 128 128 128 128 128 128 128 128 128 249 249 249 249 99 99 99 99 122 0 0 0 0 0 0 0 0 0 0 0 0 0 0 0 0 0 0 0 0 0 0 0 0 0 0 0 0 0 0 0 0 0 0 0 0 0 0 0 0 0 0 0 0 0 0 0 0 0 0 0 0 0 0 0 0 0 0 0 0 0 0 0 0 0
0 0 0 0 0 0 0 0 0 0 0 0 0 0 0 0 0 0 0 0 0 0 0 0 0 0 0 0 0 0 0 0 0 0 0 0 0 0 0 0 0 0 0 0 0 0 0 0 0 0 0 0 0 0 0 0 0 0 0 0 0 122 122 99 99 249 249 128 128 104 104 104 104 104 104 104 104 197 197 104 104 104 104 104 104 104 197 197 197 197 226 197 197 197 197 226 197 197 197 104 104 104 104 104 104 104 104 104 128 128 128 128 249 249 249 99 99 99 122 0 0 0 0 0 0 0 0 0 0 0 0 0 0 0 0 0 0 0 0 0 0 0 0 0 0 0 0 0 0 0 0 0 0 0 0 0 0 0 0 0 0 0 0 0 0 0 0 0 0 0 0 0 0 0 0 0 0 0 0 0 0
0 0 0 0 0 0 0 0 0 0 0 0 0 0 0 0 0 0 0 0 0 0 0 0 0 0 0 0 0 0 0 0 0 0 0 0 0 0 0 0 0 0 0 0 0 0 0 0 0 0 0 0 0 0 0 0 0 122 122 99 99 99 249 249 249 128 104 104 197 197 104 104 104 116 116 226 104 104 116 116 226 226 116 168 168 168 168 116 226 116 116 116 116 116 116 116 116 226 226 116 116 226 226 226 104 104 104 104 197 197 104 104 104 104 128 128 249 249 99 99 99 122 0 0 0 0 0 0 0 0 0 0 0 0 0 0 0 0 0 0 0 0 0 0 0 0 0 0 0 0 0 0 0 0 0 0 0 0 0 0 0 0 0 0 0 0 0 0 0 0 0 0 0 0 0 0 0 0 0 0 0
0 0 0 0 0 0 0 0 0 0 0 0 0 0 0 0 0 0 0 0 0 0 0 0 0 0 0 0 0 0 0 0 0 0 0 0 0 0 0 0 0 0 0 0 0 0 0 0 0 0 0 0 0 0 122 122 99 99 249 249 249 249 128 104 104 104 197 197 226 116 116 168 168 168 168 52 52 168 168 81 168 168 52 81 64 64 81 52 52 52 64 64 52 52 81 81 81 81 168 81 81 52 52 52 52 52 226 116 104 104 197 197 197 197 197 104 104 116 128 249 249 99 99 99 122 0 0 0 0 0 0 0 0 0 0 0 0 0 0 0 0 0 0 0 0 0 0 0 0 0 0 0 0 0 0 0 0 0 0 0 0 0 0 0 0 0 0 0 0 0 0 0 0 0 0 0 0 0 0 0 0
0 0 0 0 0 0 0 0 0 0 0 0 0 0 0 0 0 0 0 0 0 0 0 0 0 0 0 0 0 0 0 0 0 0 0 0 0 0 0 0 0 0 0 0 0 0 0 0 0 0 0 0 122 99 99 249 249 249 128 128 104 104 104 104 226 116 116 116 168 180 81 81 64 64 75 75 75 75 75 75 75 75 35 35 46 46 46 35 35 35 35 35 35 75 75 255 255 64 64 64 64 64 64 64 81 81 81 81 168 168 116 226 226 197 197 197 197 104 104 104 116 128 249 249 249 99 122 122 0 0 0 0 0 0 0 0 0 0 0 0 0 0 0 0 0 0 0 0 0 0 0 0 0 0 0 0 0 0 0 0 0 0 0 0 0 0 0 0 0 0 0 0 0 0 0 0 0 0 0 0 0
0 0 0 0 0 0 0 0 0 0 0 0 0 0 0 0 0 0 0 0 0 0 0 0 0 0 0 0 0 0 0 0 0 0 0 0 0 0 0 0 0 0 0 0 0 0 0 0 0 122 122 99 99 249 128 128 128 104 104 197 197 226 226 168 168 168 81 52 64 255 12 46 46 70 12 12 12 12 93 93 93 203 203 17 17 17 17 255 64 255 255 255 255 255 93 93 162 70 70 70 46 46 46 12 12 12 255 255 64 81 81 81 168 226 226 104 226 226 197 197 197 104 104 104 128 249 249 99 99 122 0 0 0 0 0 0 0 0 0 0 0 0 0 0 0 0 0 0 0 0 0 0 0 0 0 0 0 0 0 0 0 0 0 0 0 0 0 0 0 0 0 0 0 0 0 0 0 0 0 0 0
0 0 0 0 0 0 0 0 0 0 0 0 0 0 0 0 0 0 0 0 0 0 0 0 0 0 0 0 0 0 0 0 0 0 0 0 0 0 0 0 0 0 0 0 0 0 0 0 122 99 99 249 249 128 104 197 104 226 116 116 168 168 180 180 145 64 75 35 12 162 232 203 203 17 17 17 17 145 145 145 145 145 81 81 81 81 52 52 52 52 52 81 64 64 17 17 238 17 17 203 203 203 203 93 93 93 93 70 46 12 255 255 64 64 52 168 168 168 116 226 104 197 197 197 197 104 128 128 249 99 99 122 0 0 0 0 0 0 0 0 0 0 0 0 0 0 0 0 0 0 0 0 0 0 0 0 0 0 0 0 0 0 0 0 0 0 0 0 0 0 0 0 0 0 0 0 0 0 0 0 0
0 0 0 0 0 0 0 0 0 0 0 0 0 0 0 0 0 0 0 0 0 0 0 0 0 0 0 0 0 0 0 0 0 0 0 0 0 0 0 0 0 0 0 0 0 0 122 99 99 99 128 104 104 104 104 104 116 168 81 180 145 145 145 255 70 162 93 255 17 238 238 145 145 81 81 81 168 168 168 168 168 168 168 116 116 116 116 116 116 116 116 116 116 168 52 81 81 81 81 81 81 81 64 64 17 17 17 17 203 203 93 162 70 35 75 64 64 64 81 168 168 116 116 104 197 197 197 104 128 128 249 99 99 122 0 0 0 0 0 0 0 0 0 0 0 0 0 0 0 0 0 0 0 0 0 0 0 0 0 0 0 0 0 0 0 0 0 0 0 0 0 0 0 0 0 0 0 0 0 0 0
0 0 0 0 0 0 0 0 0 0 0 0 0 0 0 0 0 0 0 0 0 0 0 0 0 0 0 0 0 0 0 0 0 0 0 0 0 0 0 0 0 0 0 0 0 99 99 249 128 128 104 104 104 116 168 168 168 81 17 203 93 29 174 41 232 191 17 64 81 81 180 168 168 220 220 220 128 128 128 128 128 128 128 128 128 128 128 116 116 116 116 116 116 116 116 116 116 116 116 116 168 168 52 52 52 52 52 52 81 145 17 17 17 255 255 93 70 46 93 255 64 81 81 168 168 116 104 197 197 104 128 128 249 99 99 122 0 0 0 0 0 0 0 0 0 0 0 0 0 0 0 0 0 0 0 0 0 0 0 0 0 0 0 0 0 0 0 0 0 0 0 0 0 0 0 0 0 0 0 0 0
0 0 0 0 0 0 0 0 0 0 0 0 0 0 0 0 0 0 0 0 0 0 0 0 0 0 0 0 0 0 0 0 0 0 0 0 0 0 0 0 0 0 0 122 99 249 249 128 104 116 116 116 168 81 81 145 17 93 29 29 232 232 191 191 238 145 81 168 116 116 128 128 128 128 99 99 122 122 0 122 122 122 122 122 0 0 0 122 122 122 243 128 128 128 128 128 128 128 116 116 116 116 116 116 104 104 104 116 116 116 52 52 52 52 64 145 17 203 203 162 46 12 255 145 145 180 168 116 226 226 104 116 116 128 249 99 99 122 0 0 0 0 0 0 0 0 0 0 0 0 0 0 0 0 0 0 0 0 0 0 0 0 0 0 0 0 0 0 0 0 0 0 0 0 0 0 0 0 0 0 0
0 0 0 0 0 0 0 0 0 0 0 0 0 0 0 0 0 0 0 0 0 0 0 0 0 0 0 0 0 0 0 0 0 0 0 0 0 0 0 0 0 0 122 99 249 128 104 226 116 168 180 81 145 145 17 255 70 162 232 191 238 238 238 145 81 168 116 128 128 122 122 122 0 0 0 0 0 122 122 99 99 99 99 99 99 99 99 99 99 99 99 122 122 122 122 0 122 0 122 122 122 122 128 128 116 116 116 116 116 104 104 104 104 226 226 226 116 81 145 17 203 93 93 70 203 17 145 145 180 168 116 226 226 116 116 220 249 99 99 122 0 0 0 0 0 0 0 0 0 0 0 0 0 0 0 0 0 0 0 0 0 0 0 0 0 0 0 0 0 0 0 0 0 0 0 0 0 0 0 0 0
0 0 0 0 0 0 0 0 0 0 0 0 0 0 0 0 0 0 0 0 0 0 0 0 0 0 0 0 0 0 0 0 0 0 0 0 0 0 0 0 122 99 99 249 128 116 226 116 168 145 145 145 17 162 174 133 232 232 238 145 145 81 168 116 116 128 243 122 122 122 122 122 122 122 122 122 122 122 99 243 243 243 243 243 243 243 243 128 128 128 128 249 249 99 99 122 122 122 122 122 0 0 122 122 99 99 99 99 128 128 116 116 116 104 104 104 104 104 226 168 81 64 17 203 29 174 162 203 238 145 81 52 226 226 226 116 116 128 249 99 122 0 0 122 0 0 0 0 0 0 0 0 0 0 0 0 0 0 0 0 0 0 0 0 0 0 0 0 0 0 0 0 0 0 0 0 0 0 0 0 0
0 0 0 0 0 0 0 0 0 0 0 0 0 0 0 0 0 0 0 0 0 0 0 0 0 0 0 0 0 0 0 0 0 0 0 0 0 0 0 122 99 249 249 220 116 168 168 81 81 17 162 29 174 41 232 191 191 17 81 52 116 116 116 116 243 243 122 122 122 122 122 122 243 243 122 122 122 122 122 243 243 243 243 243 243 243 104 197 197 197 197 197 197 104 104 243 243 243 243 122 122 122 122 122 122 122 0 122 122 122 243 128 128 128 116 116 116 226 104 104 226 226 81 17 238 232 232 133 29 232 17 145 81 52 139 226 226 116 116 128 99 122 0 0 0 0 0 0 0 0 0 0 0 0 0 0 0 0 0 0 0 0 0 0 0 0 0 0 0 0 0 0 0 0 0 0 0 0 0 0 0
0 0 0 0 0 0 0 0 0 0 0 0 0 0 0 0 0 0 0 0 0 0 0 0 0 0 0 0 0 0 0 0 0 0 0 0 0 0 122 99 249 249 116 168 52 81 145 17 203 29 133 232 156 191 238 238 145 168 116 116 128 243 122 122 122 122 122 122 243 243 243 243 122 128 99 99 99 249 249 220 220 220 220 249 128 243 243 243 104 104 104 104 104 104 243 243 243 243 243 99 122 122 0 0 0 0 122 122 122 122 122 122 122 99 99 128 128 128 116 116 104 104 226 52 81 145 238 203 232 174 29 203 17 81 52 52 52 226 226 116 128 249 99 122 0 0 0 0 0 0 0 0 0 0 0 0 0 0 0 0 0 0 0 0 0 0 0 0 0 0 0 0 0 0 0 0 0 0 0 0 0
0 0 0 0 0 0 0 0 0 0 0 0 0 0 0 0 0 0 0 0 0 0 0 0 0 0 0 0 0 0 0 0 0 0 0 0 0 99 99 249 220 116 52 52 64 17 203 162 174 41 232 191 238 238 145 168 116 128 128 128 243 122 122 122 122 122 243 243 243 243 243 128 249 185 185 185 220 220 220 180 180 180 180 180 220 220 128 243 243 243 243 243 99 128 249 249 249 249 249 249 249 99 99 99 99 99 99 99 99 243 122 122 0 0 0 0 122 99 128 128 116 116 116 116 116 52 52 81 238 191 41 174 41 203 17 64 64 139 139 226 116 128 128 99 122 0 0 0 0 0 0 0 0 0 0 0 0 0 0 0 0 0 0 0 0 0 0 0 0 0 0 0 0 0 0 0 0 0 0 0 0
0 0 0 0 0 0 0 0 0 0 0 0 0 0 0 0 0 0 0 0 0 0 0 0 0 0 0 0 0 0 0 0 0 0 0 122 99 99 249 220 52 52 64 64 17 93 174 41 232 191 191 145 81 168 116 128 243 243 122 0 122 122 122 243 243 243 243 243 243 128 249 185 185 180 180 180 168 168 52 64 17 17 17 17 81 168 116 116 104 104 128 128 220 220 168 168 168 168 168 168 116 128 128 249 220 249 249 249 128 128 249 249 99 99 122 122 122 0 0 122 99 128 128 116 116 116 52 52 81 145 238 232 133 133 232 203 255 64 52 226 226 226 116 128 99 122 0 0 0 0 0 0 0 0 0 0 0 0 0 0 0 0 0 0 0 0 0 0 0 0 0 0 0 0 0 0 0 0 0 0 0
0 0 0 0 0 0 0 0 0 0 0 0 0 0 0 0 0 0 0 0 0 0 0 0 0 0 0 0 0 0 0 0 0 0 122 99 249 249 220 116 52 64 255 203 162 174 232 191 191 238 145 168 116 128 122 0 122 122 122 122 122 122 243 122 122 122 122 99 99 220 220 180 81 17 17 17 64 64 75 12 12 70 162 93 255 64 81 168 116 104 104 226 52 52 52 64 64 64 139 139 226 197 104 116 168 168 180 168 168 220 185 185 185 185 249 99 122 122 122 122 0 122 122 128 128 128 116 116 116 168 81 145 203 41 6 41 203 255 64 52 52 52 116 116 128 99 122 0 0 0 0 0 0 0 0 0 0 0 0 0 0 0 0 0 0 0 0 0 0 0 0 0 0 0 0 0 0 0 0 0 0
0 0 0 0 0 0 0 0 0 0 0 0 0 0 0 0 0 0 0 0 0 0 0 0 0 0 0 0 0 0 0 0 0 122 99 249 128 116 52 52 64 255 203 162 174 232 191 238 145 81 220 128 122 122 122 99 99 243 243 243 243 122 122 99 249 249 249 128 128 116 52 255 255 93 162 93 93 75 35 12 70 29 29 162 93 255 255 64 52 226 104 226 139 139 75 75 35 35 75 64 139 197 104 226 64 64 64 64 81 81 81 180 180 180 185 185 249 99 122 243 122 122 122 0 0 122 99 249 116 116 168 81 145 191 232 133 29 162 203 255 64 64 52 226 116 128 99 122 0 0 0 0 0 0 0 0 0 0 0 0 0 0 0 0 0 0 0 0 0 0 0 0 0 0 0 0 0 0 0 0 0
0 0 0 0 0 0 0 0 0 0 0 0 0 0 0 0 0 0 0 0 0 0 0 0 0 0 0 0 0 0 0 0 122 99 249 128 116 226 139 255 17 203 162 133 156 156 238 81 168 116 122 122 99 99 99 243 197 104 243 243 99 249 185 185 185 220 168 116 226 52 64 255 70 29 29 29 162 70 35 12 93 29 29 162 93 93 93 255 64 52 104 226 52 75 35 35 35 75 75 139 226 104 116 52 75 75 255 12 12 255 255 17 203 238 145 180 185 185 249 99 122 122 122 122 122 122 122 122 99 128 116 116 168 145 238 191 41 174 162 203 255 75 75 139 226 116 128 99 122 0 0 0 0 0 0 0 0 0 0 0 0 0 0 0 0 0 0 0 0 0 0 0 0 0 0 0 0 0 0 0 0
0 0 0 0 0 0 0 0 0 0 0 0 0 0 0 0 0 0 0 0 0 0 0 0 0 0 0 0 0 0 0 122 99 249 128 116 226 139 64 255 203 162 133 156 191 238 168 116 128 122 99 99 122 243 243 243 104 243 249 249 249 128 220 180 180 81 81 81 104 52 64 93 93 29 174 133 162 93 35 75 93 162 29 29 29 162 162 93 93 255 52 197 52 75 35 75 12 75 139 139 226 116 52 64 12 46 46 46 46 46 70 70 162 162 203 17 145 180 220 220 128 122 122 122 122 243 122 0 0 122 99 128 220 168 168 81 238 232 174 41 203 203 255 139 139 226 116 128 128 122 0 0 0 0 0 0 0 0 0 0 0 0 0 0 0 0 0 0 0 0 0 0 0 0 0 0 0 0 0 0 0
0 0 0 0 0 0 0 0 0 0 0 0 0 0 0 0 0 0 0 0 0 0 0 0 0 0 0 0 0 0 122 99 249 220 116 226 139 64 17 17 29 87 156 191 145 81 116 243 0 122 122 243 243 243 243 243 243 220 220 220 116 116 81 64 255 255 203 17 64 226 81 203 162 29 174 133 41 93 35 75 93 162 174 6 174 174 29 29 93 255 64 139 226 139 75 75 64 139 197 226 52 52 64 35 46 46 46 46 46 46 70 93 29 133 41 203 17 17 81 168 220 249 99 99 122 122 122 122 122 0 0 122 99 128 116 168 81 238 232 133 133 162 17 64 75 139 226 116 128 99 122 0 0 0 0 0 0 0 0 0 0 0 0 0 0 0 0 0 0 0 0 0 0 0 0 0 0 0 0 0 0
0 0 0 0 0 0 0 0 0 0 0 0 0 0 0 0 0 0 0 0 0 0 0 0 0 0 0 0 0 122 99 249 249 116 139 139 81 145 238 232 87 156 191 17 168 128 243 122 99 122 243 243 243 243 243 128 220 168 81 81 81 226 81 203 70 162 162 203 17 139 81 203 162 29 6 133 41 93 35 75 93 162 174 133 133 174 174 29 29 70 203 64 197 226 64 64 139 226 226 52 64 75 35 46 46 46 70 70 70 12 46 93 29 174 133 29 162 93 255 64 81 116 128 220 249 122 122 243 122 0 122 122 0 122 128 116 116 81 145 203 41 174 41 203 64 139 139 226 116 128 99 122 0 0 0 0 0 0 0 0 0 0 0 0 0 0 0 0 0 0 0 0 0 0 0 0 0 0 0 0 0
0 0 0 0 0 0 0 0 0 0 0 0 0 0 0 0 0 0 0 0 0 0 0 0 0 0 0 0 122 99 249 128 116 139 139 52 145 238 232 87 58 191 145 81 116 122 122 99 243 243 243 243 243 99 249 220 168 64 255 255 255 52 52 255 93 29 29 162 203 52 52 203 162 29 6 133 41 70 12 12 93 29 29 41 29 29 29 174 29 70 93 17 52 197 226 197 104 226 52 75 12 46 46 35 12 70 162 162 162 93 93 70 29 6 174 174 29 29 93 203 64 226 116 168 220 220 249 99 122 0 122 122 122 122 122 99 116 116 168 145 191 41 174 41 17 64 139 139 226 116 128 99 122 0 0 0 0 0 0 0 0 0 0 0 0 0 0 0 0 0 0 0 0 0 0 0 0 0 0 0 0
0 0 0 0 0 0 0 0 0 0 0 0 0 0 0 0 0 0 0 0 0 0 0 0 0 0 0 122 99 249 220 116 139 139 64 145 238 41 87 214 151 145 116 128 243 99 99 243 243 243 243 243 128 128 220 168 64 255 12 46 70 75 75 93 93 174 174 29 162 17 64 255 162 29 6 133 41 70 70 46 70 29 29 162 70 70 70 70 29 70 162 203 81 226 197 104 116 52 64 12 46 70 12 12 70 29 29 29 29 29 29 29 6 133 133 29 29 29 93 203 139 226 168 81 145 180 185 185 249 99 122 122 243 122 0 99 128 128 116 81 145 203 162 29 232 203 64 139 139 226 116 128 99 0 0 0 0 0 0 0 0 0 0 0 0 0 0 0 0 0 0 0 0 0 0 0 0 0 0 0 0
0 0 0 0 0 0 0 0 0 0 0 0 0 0 0 0 0 0 0 0 0 0 0 0 0 0 122 99 99 249 116 226 139 52 145 238 41 87 58 156 145 81 128 122 99 243 243 104 243 122 128 128 128 116 168 64 12 70 12 46 70 12 35 12 93 41 6 174 29 203 203 93 29 174 6 133 133 29 70 46 70 29 70 46 46 46 70 70 29 162 162 203 17 52 104 116 52 64 12 12 70 70 162 70 29 29 174 6 6 174 174 6 174 133 29 70 46 70 255 255 197 168 81 255 203 17 145 180 185 185 99 122 122 122 122 0 122 99 128 116 168 145 203 41 133 232 203 64 139 226 226 116 128 99 0 0 0 0 0 0 0 0 0 0 0 0 0 0 0 0 0 0 0 0 0 0 0 0 0 0 0
0 0 0 0 0 0 0 0 0 0 0 0 0 0 0 0 0 0 0 0 0 0 0 0 0 122 99 99 128 116 226 139 52 145 238 232 87 58 191 17 168 116 243 99 99 243 243 243 99 249 128 116 116 168 52 75 12 70 162 70 12 12 75 75 255 93 29 174 174 29 29 29 174 6 174 174 29 29 70 46 46 46 46 12 12 93 162 70 174 41 162 93 17 52 116 168 64 255 70 70 70 29 29 29 29 174 174 6 6 6 6 6 133 41 70 70 93 70 255 64 197 81 64 70 70 70 203 17 145 180 220 249 122 0 0 122 122 122 128 128 116 168 145 191 232 6 232 203 64 139 226 226 116 249 122 0 0 0 0 0 0 0 0 0 0 0 0 0 0 0 0 0 0 0 0 0 0 0 0 0 0
0 0 0 0 0 0 0 0 0 0 0 0 0 0 0 0 0 0 0 0 0 0 0 0 122 99 99 128 104 226 226 52 81 238 232 87 214 156 238 168 116 122 99 243 197 104 243 99 128 116 116 226 168 52 64 70 12 162 29 162 70 93 255 64 203 93 162 41 133 174 174 174 6 174 174 29 29 29 70 46 46 70 93 93 93 162 29 174 29 41 70 93 17 52 116 81 255 12 70 29 29 29 174 174 6 6 6 6 6 6 6 6 174 174 162 162 162 162 203 17 197 52 255 70 46 46 70 93 93 17 180 220 128 122 0 122 122 122 122 128 116 116 168 145 17 232 133 232 203 64 139 226 116 128 99 122 0 0 0 0 0 0 0 0 0 0 0 0 0 0 0 0 0 0 0 0 0 0 0 0 0
0 0 0 0 0 0 0 0 0 0 0 0 0 0 0 0 0 0 0 0 0 0 0 0 99 99 128 104 226 226 52 145 203 232 87 214 191 17 81 116 243 122 243 243 104 243 99 128 116 116 52 52 64 64 12 12 93 70 133 41 12 93 17 226 81 255 70 70 162 133 6 6 6 6 133 41 70 46 46 70 93 93 162 162 29 174 174 133 133 29 70 93 17 52 116 81 255 12 162 29 174 6 6 6 6 6 6 6 6 6 6 174 174 6 174 6 133 41 203 203 139 52 64 12 70 70 70 29 70 93 17 81 168 249 122 122 243 243 122 122 249 116 226 116 180 238 41 133 232 17 64 139 226 116 128 99 0 0 0 0 0 0 0 0 0 0 0 0 0 0 0 0 0 0 0 0 0 0 0 0 0
0 0 0 0 0 0 0 0 0 0 0 0 0 0 0 0 0 0 0 0 0 0 0 122 99 128 128 116 168 52 64 17 232 6 156 156 238 81 116 243 122 122 243 243 243 99 128 220 168 52 64 64 75 12 70 93 29 174 41 162 12 203 255 226 52 64 46 12 93 29 174 174 6 6 174 29 162 93 93 93 162 29 29 174 6 174 133 41 162 70 70 93 17 226 116 168 255 93 162 29 174 6 6 6 6 6 6 6 6 6 133 133 133 133 133 41 41 41 162 93 64 52 75 46 46 46 70 70 70 70 93 17 81 168 249 122 122 122 122 122 122 128 104 226 168 145 232 133 41 203 17 64 52 226 116 99 122 0 0 0 0 0 0 0 0 0 0 0 0 0 0 0 0 0 0 0 0 0 0 0 0
0 0 0 0 0 0 0 0 0 0 0 0 0 0 0 0 0 0 0 0 0 0 122 99 128 128 116 116 52 64 203 203 87 87 58 238 81 116 243 122 99 243 243 243 99 249 220 168 64 255 12 12 12 70 162 70 174 133 41 70 12 255 75 52 52 75 12 12 93 162 174 6 6 6 6 174 133 29 29 174 6 6 6 6 6 133 41 29 46 70 70 93 255 52 168 52 255 93 162 29 174 6 6 6 6 6 6 6 6 174 133 41 162 162 162 162 162 93 12 35 255 255 12 46 35 46 70 70 29 174 29 93 17 145 168 249 122 122 243 122 0 99 128 104 116 81 238 232 6 232 203 64 52 52 116 128 99 122 0 0 0 0 0 0 0 0 0 0 0 0 0 0 0 0 0 0 0 0 0 0 0
0 0 0 0 0 0 0 0 0 0 0 0 0 0 0 0 0 0 0 0 0 122 99 99 128 116 168 52 64 17 232 41 87 58 151 145 116 128 122 122 243 243 243 122 249 220 168 64 12 12 70 93 93 162 29 29 174 41 162 12 93 75 139 64 12 70 70 93 70 29 174 6 6 6 6 174 133 133 133 133 133 133 174 174 174 133 162 70 46 46 93 255 139 52 64 255 75 93 162 29 174 6 6 174 133 174 174 6 174 133 29 70 70 70 70 70 12 35 75 75 12 12 70 70 46 46 46 12 70 70 174 70 93 17 81 220 128 122 122 243 122 0 99 128 104 116 81 238 232 133 232 203 64 52 52 116 128 99 0 0 0 0 0 0 0 0 0 0 0 0 0 0 0 0 0 0 0 0 0 0 0
0 0 0 0 0 0 0 0 0 0 0 0 0 0 0 0 0 0 0 0 122 99 99 128 104 116 168 64 255 203 41 87 156 156 238 168 104 243 122 122 243 243 122 249 185 168 64 12 46 70 70 162 162 29 174 6 133 41 162 93 203 75 52 255 93 70 29 162 29 174 6 6 6 174 133 41 41 41 162 162 162 29 29 174 6 133 29 70 12 46 12 75 139 64 255 93 93 70 29 174 6 133 133 41 41 29 174 174 174 41 162 70 46 46 46 46 12 75 75 75 12 70 162 162 70 46 46 35 12 70 29 29 162 93 17 81 220 128 0 122 243 122 0 99 128 104 168 145 238 133 133 232 203 64 52 226 116 128 122 0 0 0 0 0 0 0 0 0 0 0 0 0 0 0 0 0 0 0 0 0 0
0 0 0 0 0 0 0 0 0 0 0 0 0 0 0 0 0 0 0 0 99 99 128 128 116 168 81 17 203 41 87 214 156 238 81 128 243 122 99 243 243 243 99 185 180 81 12 46 70 70 29 174 174 6 6 6 133 41 162 93 255 139 226 255 12 93 162 133 6 6 6 6 6 133 41 232 203 203 93 70 46 70 29 29 174 6 133 29 70 70 12 12 75 75 70 70 29 29 174 6 174 133 41 41 162 29 29 133 6 133 29 162 93 70 70 70 70 35 35 35 12 93 29 29 162 70 46 35 35 12 162 29 29 162 255 17 180 220 99 122 243 122 122 0 99 128 116 180 145 232 133 41 203 255 64 52 168 128 99 0 0 0 0 0 0 0 0 0 0 0 0 0 0 0 0 0 0 0 0 0 0
0 0 0 0 0 0 0 0 0 0 0 0 0 0 0 0 0 0 0 122 99 128 128 104 168 81 17 203 232 133 156 156 238 81 116 243 122 99 243 243 243 122 249 220 168 64 12 46 70 70 29 174 6 6 174 6 174 41 162 12 12 64 139 75 12 70 162 133 133 6 6 6 174 41 232 93 17 255 12 12 12 70 70 29 174 6 174 29 41 70 70 46 35 12 70 70 29 174 6 174 133 29 162 70 46 70 162 29 174 6 174 29 162 162 162 29 70 46 35 46 70 93 29 133 41 70 46 46 35 12 93 29 29 162 70 93 17 180 220 122 122 122 122 122 0 99 128 116 81 238 232 133 232 203 64 64 52 116 128 122 0 0 0 0 0 0 0 0 0 0 0 0 0 0 0 0 0 0 0 0 0
0 0 0 0 0 0 0 0 0 0 0 0 0 0 0 0 0 0 0 122 99 128 104 116 168 145 203 232 87 87 156 191 145 116 128 243 99 122 243 104 122 249 249 116 52 64 12 46 46 70 162 29 174 174 6 6 174 133 29 93 93 93 12 35 46 46 70 162 29 174 174 6 133 41 232 17 139 52 64 255 93 70 29 174 174 6 6 133 41 70 12 12 35 75 12 12 162 29 174 133 41 162 93 12 12 70 162 29 174 6 6 174 174 29 29 29 162 70 35 46 70 93 29 133 41 93 12 12 35 12 93 29 133 162 70 46 93 145 168 249 122 122 122 243 122 122 128 128 116 180 238 41 41 232 255 75 64 168 220 128 122 0 0 0 0 0 0 0 0 0 0 0 0 0 0 0 0 0 0 0 0
0 0 0 0 0 0 0 0 0 0 0 0 0 0 0 0 0 0 122 99 249 128 116 168 81 17 191 232 87 214 151 145 168 116 122 99 99 243 104 243 99 220 220 168 52 75 35 46 46 46 70 162 29 174 6 6 6 174 133 162 162 93 12 46 46 46 46 70 162 29 174 6 133 41 203 255 226 168 255 12 70 29 174 6 6 6 174 133 41 70 93 35 75 75 12 70 70 29 174 41 162 12 12 75 12 70 162 29 174 6 6 6 6 174 174 41 162 70 46 35 93 162 29 133 41 162 12 35 35 12 93 29 174 41 162 46 70 255 81 168 249 122 122 243 243 122 99 128 116 180 145 191 133 41 203 255 75 64 168 128 99 122 0 0 0 0 0 0 0 0 0 0 0 0 0 0 0 0 0 0 0
0 0 0 0 0 0 0 0 0 0 0 0 0 0 0 0 0 0 122 99 128 104 226 168 17 17 191 87 156 58 238 81 116 243 122 99 243 243 243 99 185 180 81 64 75 35 46 46 12 35 12 70 162 29 6 6 6 6 174 133 29 162 70 46 46 46 46 46 70 162 29 6 41 162 93 255 139 52 12 93 162 29 174 6 6 6 174 41 162 70 70 35 75 12 93 162 29 6 133 41 93 255 75 139 255 93 162 29 174 6 6 6 6 6 174 41 162 70 46 35 93 162 174 133 232 93 35 75 75 255 93 29 174 29 29 46 46 12 255 81 168 220 122 122 243 122 0 99 128 220 180 238 232 6 232 203 255 64 52 116 128 99 0 0 0 0 0 0 0 0 0 0 0 0 0 0 0 0 0 0 0
0 0 0 0 0 0 0 0 0 0 0 0 0 0 0 0 0 0 99 249 128 116 52 81 17 238 232 87 58 151 145 168 128 122 99 243 243 243 122 249 185 81 12 46 46 46 46 35 35 75 12 70 162 29 174 6 6 6 6 6 174 133 29 70 46 46 46 35 12 93 29 6 41 162 12 12 75 75 12 93 29 29 133 133 174 174 133 41 162 46 70 35 75 12 70 29 133 133 174 41 162 93 75 139 255 93 93 162 133 6 6 6 6 6 174 41 162 70 46 12 93 162 6 41 162 93 75 75 255 93 70 174 29 29 70 46 46 46 12 255 81 168 128 0 243 243 122 0 99 128 116 180 238 232 87 232 255 255 64 52 220 249 0 0 0 0 0 0 0 0 0 0 0 0 0 0 0 0 0 0 0
0 0 0 0 0 0 0 0 0 0 0 0 0 0 0 0 0 122 99 128 116 226 52 81 238 191 87 214 58 238 168 116 122 122 122 243 243 122 249 185 168 64 46 46 46 46 12 12 35 75 12 70 93 162 133 6 6 6 6 6 174 133 29 29 70 46 35 12 255 162 29 6 133 41 70 12 35 75 12 70 162 29 41 41 41 133 174 41 162 46 70 35 75 70 70 162 41 41 29 29 162 93 255 139 139 255 93 93 29 6 6 6 6 6 174 41 162 46 46 12 93 162 6 41 162 12 12 35 12 70 29 29 29 70 46 46 46 46 70 93 64 81 220 99 122 243 122 122 122 128 128 168 180 191 133 41 203 255 75 64 168 220 99 0 122 0 0 0 0 0 0 0 0 0 0 0 0 0 0 0 0
0 0 0 0 0 0 0 0 0 0 0 0 0 0 0 0 0 99 249 128 116 52 81 145 238 156 209 214 151 145 116 104 0 122 243 243 122 249 185 168 64 12 46 70 46 46 70 12 75 75 12 70 70 162 174 6 6 6 6 6 133 133 29 70 70 46 35 12 93 29 174 174 133 41 70 12 35 75 12 46 70 70 162 162 162 162 29 29 162 70 70 35 75 46 46 70 70 93 162 162 70 93 255 139 52 255 12 93 29 174 6 6 6 6 174 41 162 46 46 12 93 29 174 41 162 46 46 46 46 70 29 29 70 70 70 70 12 46 46 12 255 64 168 128 122 122 243 243 122 99 249 116 168 238 232 6 232 203 75 75 81 168 249 122 0 0 0 0 0 0 0 0 0 0 0 0 0 0 0 0 0
0 0 0 0 0 0 0 0 0 0 0 0 0 0 0 0 122 99 249 116 226 52 145 238 191 87 214 58 151 180 128 122 122 122 122 122 249 185 168 64 35 46 70 70 70 70 70 12 75 75 12 70 93 162 174 6 6 6 6 174 133 29 70 46 46 12 12 12 162 29 6 174 29 41 70 12 12 75 75 70 46 46 70 93 93 93 162 29 70 70 70 35 75 46 46 46 70 93 93 93 46 93 255 139 52 255 12 93 162 174 6 6 6 6 174 41 162 46 46 12 162 29 174 41 162 46 46 46 46 70 70 70 70 35 35 35 35 35 35 35 12 64 81 116 99 122 243 243 128 122 249 116 116 180 238 41 133 232 255 75 64 168 220 99 122 0 0 0 0 0 0 0 0 0 0 0 0 0 0 0 0
0 0 0 0 0 0 0 0 0 0 0 0 0 0 0 0 122 249 220 116 52 81 238 191 87 87 214 151 145 168 128 122 122 122 122 249 185 168 64 12 46 12 70 29 29 70 46 12 35 35 35 12 93 162 174 6 174 6 174 133 29 29 70 46 70 93 93 93 29 174 6 174 133 41 12 12 12 75 75 12 12 12 12 255 255 255 203 162 70 12 12 35 75 46 46 46 12 12 75 12 35 12 255 139 52 255 12 93 162 174 6 6 6 6 133 41 162 46 46 12 162 29 6 41 162 70 46 46 70 70 46 46 46 35 35 75 75 35 35 35 12 255 81 168 128 243 122 243 243 99 122 128 116 168 145 191 6 232 203 255 75 64 168 128 122 0 0 0 0 0 0 0 0 0 0 0 0 0 0 0 0
0 0 0 0 0 0 0 0 0 0 0 0 0 0 0 0 99 249 220 52 52 81 238 191 87 214 58 238 81 116 243 122 243 122 249 185 180 64 12 46 70 70 70 174 29 70 70 70 12 35 35 12 93 162 133 6 6 6 174 133 29 70 70 93 93 93 162 29 174 6 6 6 133 41 70 12 93 75 64 255 255 12 12 75 52 64 255 93 12 255 255 75 75 46 46 70 12 75 139 75 35 46 255 139 139 75 12 12 162 29 174 6 6 6 6 133 162 70 70 70 29 174 6 133 41 162 12 12 12 35 35 46 46 46 12 12 35 46 46 46 46 93 255 81 220 128 122 128 197 243 122 99 116 116 81 238 232 133 232 255 75 64 81 220 99 122 0 0 0 0 0 0 0 0 0 0 0 0 0 0 0
0 0 0 0 0 0 0 0 0 0 0 0 0 0 0 122 99 249 116 52 64 17 238 156 209 214 151 145 168 243 243 243 243 99 185 220 81 12 46 12 70 70 29 29 29 70 70 70 70 12 12 12 12 162 29 6 6 6 174 133 29 70 70 162 29 29 174 174 6 6 6 174 133 41 70 12 203 64 139 52 75 75 75 139 139 226 52 139 75 139 197 52 255 46 46 46 12 75 75 75 46 46 12 93 139 75 255 93 70 162 133 6 6 6 6 133 29 162 162 162 174 6 6 133 41 162 93 12 75 75 35 46 46 46 12 46 46 46 46 46 46 46 255 17 168 220 122 122 243 243 243 122 249 226 116 180 191 133 232 203 255 75 64 168 249 122 0 0 0 0 0 0 0 0 0 0 0 0 0 0 0
0 0 0 0 0 0 0 0 0 0 0 0 0 0 0 99 249 220 226 52 81 238 191 87 214 58 238 81 116 122 243 104 243 249 185 81 12 46 70 70 162 29 29 29 29 29 29 29 70 70 93 93 70 29 174 6 6 6 6 174 174 29 29 29 174 174 6 6 6 6 6 133 133 29 70 93 203 64 197 226 139 75 75 139 197 226 52 75 75 64 52 52 255 70 46 70 70 12 12 35 46 46 46 12 255 139 139 255 93 70 162 133 174 6 6 6 174 29 29 174 6 6 6 6 133 41 93 12 75 75 12 70 93 93 70 70 46 46 35 46 46 46 12 255 81 168 249 0 99 243 243 243 122 104 104 180 238 232 87 232 255 75 64 52 220 249 122 0 0 0 0 0 0 0 0 0 0 0 0 0 0
0 0 0 0 0 0 0 0 0 0 0 0 0 0 122 99 220 220 139 52 145 238 232 87 58 151 145 52 243 122 243 104 99 185 180 255 46 46 93 29 29 174 174 174 174 174 174 29 29 162 162 162 29 174 6 6 6 6 6 6 174 174 174 6 6 6 6 6 6 6 174 133 162 162 203 93 255 139 104 226 197 139 139 197 226 52 64 12 12 255 75 75 12 70 70 70 70 70 12 12 70 70 46 12 93 64 197 64 255 12 93 162 133 174 6 6 174 6 6 6 6 6 6 6 174 133 162 93 255 93 93 162 162 162 162 162 70 46 46 46 46 46 46 12 17 81 220 99 122 128 243 104 243 128 104 168 180 191 87 232 203 75 75 64 168 220 99 122 0 0 0 0 0 0 0 0 0 0 0 0 0
0 0 0 0 0 0 0 0 0 0 0 0 0 0 99 249 220 168 139 64 145 191 87 214 58 238 168 104 243 122 243 243 249 180 81 12 46 12 70 29 174 6 6 6 174 174 174 174 174 174 29 174 174 6 6 6 6 6 6 6 174 174 174 6 6 6 6 6 6 174 133 41 162 93 255 75 139 226 226 52 139 139 139 226 168 64 12 46 46 70 35 35 35 12 70 29 162 70 70 70 162 162 70 70 12 255 139 139 75 12 70 93 162 133 6 6 174 6 6 6 6 6 174 6 6 174 29 162 162 162 162 29 133 133 174 29 70 70 70 12 70 46 12 12 93 64 168 220 122 99 128 197 243 243 116 116 168 238 232 133 232 255 139 75 64 168 128 99 0 0 0 0 0 0 0 0 0 0 0 0 0
0 0 0 0 0 0 0 0 0 0 0 0 0 122 99 249 220 52 75 64 238 156 87 58 151 145 116 243 122 243 243 99 185 180 64 12 46 70 29 29 41 133 133 174 6 6 174 174 174 174 6 6 6 6 6 6 6 6 6 6 6 174 174 6 6 6 6 6 6 133 41 162 93 255 139 139 52 52 52 75 75 139 197 168 81 255 46 46 46 46 46 35 35 12 93 162 29 29 162 162 29 29 162 70 46 12 255 64 75 35 35 12 93 29 174 6 6 6 6 6 6 6 6 6 6 6 174 133 174 174 174 6 6 6 174 174 29 162 162 93 93 93 93 70 70 255 145 180 128 122 128 197 104 243 128 116 226 81 238 133 232 203 75 75 64 52 220 249 122 0 0 0 0 0 0 0 0 0 0 0 0
0 0 0 0 0 0 0 0 0 0 0 0 0 99 249 220 226 139 64 145 238 87 214 58 238 81 116 243 122 243 243 249 185 180 255 46 46 70 70 162 162 162 41 41 133 174 6 6 6 6 6 6 6 6 6 6 6 6 174 6 6 6 6 6 174 6 6 6 174 133 162 70 12 75 64 52 64 75 75 12 255 139 226 168 64 12 70 46 46 46 35 35 35 12 93 162 174 133 29 29 174 133 41 162 46 12 12 12 12 75 35 46 12 162 29 174 6 6 6 6 6 6 6 6 6 6 6 6 6 6 6 6 6 6 6 174 174 29 29 29 29 29 29 29 70 70 203 145 168 122 128 104 197 116 122 220 226 116 180 232 133 203 255 75 75 52 168 220 99 0 0 0 0 0 0 0 0 0 0 0 0
0 0 0 0 0 0 0 0 0 0 0 0 122 249 220 116 52 64 64 17 191 87 214 151 81 226 104 122 243 243 99 220 220 81 255 46 46 46 46 46 70 70 70 162 29 41 133 174 6 6 6 6 6 6 6 6 6 6 174 6 6 6 6 6 6 6 6 6 6 133 41 70 12 12 75 75 12 46 35 12 75 52 52 64 12 70 70 70 12 46 12 12 46 46 70 162 133 174 6 174 6 174 133 29 70 12 46 46 70 12 35 46 46 70 162 41 174 6 6 6 6 6 6 6 6 6 6 6 6 6 6 6 6 6 6 6 6 6 6 174 174 174 29 29 46 46 93 17 81 128 122 128 104 104 122 249 226 226 81 238 133 41 203 255 139 139 81 168 128 122 0 0 0 0 0 0 0 0 0 0 0
0 0 0 0 0 0 0 0 0 0 0 122 99 249 220 52 52 64 17 191 133 87 58 238 52 116 243 122 243 243 249 168 81 64 35 46 46 35 35 46 46 46 46 70 162 162 41 133 133 174 6 6 6 6 6 6 6 6 6 6 6 6 6 6 6 6 6 6 6 133 41 70 70 46 46 46 46 46 35 12 75 52 64 12 70 70 70 29 93 93 255 255 12 46 46 70 162 133 174 6 6 6 174 29 70 162 70 12 46 70 46 35 46 35 93 162 174 6 6 174 6 6 6 6 6 6 6 6 6 6 6 6 6 6 174 6 174 174 133 41 41 29 162 70 46 46 12 17 81 220 99 122 128 104 243 249 168 139 139 145 191 133 232 17 139 75 64 168 220 99 0 0 122 0 0 0 0 0 0 0 0
0 0 0 0 0 0 0 0 0 0 0 99 249 128 116 52 64 17 238 232 87 58 151 81 226 116 243 243 243 243 185 180 255 46 46 46 12 12 46 46 35 35 35 46 70 93 162 41 41 133 133 6 6 6 6 6 6 6 6 6 6 6 6 6 6 6 6 6 6 133 29 29 29 70 46 46 46 35 35 35 75 12 12 12 93 29 29 29 93 203 139 52 64 93 70 70 70 162 29 174 6 6 174 133 29 29 29 162 70 70 70 70 46 46 70 162 29 174 6 6 6 6 6 6 6 6 6 6 6 6 6 6 6 6 174 174 174 133 29 162 70 70 70 46 46 46 46 255 64 81 220 122 243 243 243 243 220 52 75 168 238 133 41 203 255 139 139 81 220 99 0 122 0 0 0 0 0 0 0 0 0
0 0 0 0 0 0 0 0 0 0 122 99 249 128 226 52 64 17 191 87 214 58 238 52 226 116 243 122 243 128 220 81 12 46 46 46 70 70 12 12 35 35 35 35 35 35 46 70 162 162 41 133 174 6 6 6 6 6 6 6 6 6 6 6 6 6 6 6 6 174 133 29 29 70 46 46 46 35 35 75 12 12 12 93 29 133 41 70 93 203 64 226 52 255 93 12 12 93 162 29 174 6 6 174 174 174 29 29 29 70 70 70 93 93 70 162 29 6 6 6 6 6 6 6 6 6 6 6 6 6 6 6 174 174 174 174 29 29 29 70 46 46 46 35 46 46 46 35 255 64 168 220 122 122 243 99 185 168 75 226 145 232 133 232 203 75 75 64 168 220 99 0 0 0 0 0 0 0 0 0 0
0 0 0 0 0 0 0 0 0 0 122 249 249 116 52 81 145 238 232 87 214 151 81 226 226 104 122 243 243 249 180 64 12 46 46 70 70 29 162 93 93 12 35 35 35 35 35 46 70 70 162 29 133 6 6 6 6 6 6 6 6 6 6 6 6 6 6 6 6 174 133 29 70 70 46 46 46 35 12 12 12 93 162 29 133 133 29 46 12 17 81 197 226 52 75 75 12 12 93 162 29 174 6 6 6 6 174 174 29 29 162 162 162 162 162 29 174 6 6 6 6 6 6 6 6 6 6 6 6 6 6 174 174 174 174 29 29 70 46 46 46 46 35 35 46 46 46 46 12 255 145 180 249 122 122 122 249 168 139 139 81 238 87 156 203 255 75 139 64 168 249 122 0 0 0 0 0 0 0 0 0
0 0 0 0 0 0 0 0 0 0 99 249 220 116 52 81 238 191 87 214 58 191 139 64 168 243 243 243 243 249 168 81 93 46 46 46 70 29 29 29 162 93 12 46 46 46 46 46 46 46 70 162 29 174 6 6 6 6 6 6 6 6 6 6 6 6 6 6 6 174 133 29 70 70 46 46 35 35 12 93 93 29 174 133 41 162 70 46 70 203 64 197 104 226 139 75 75 75 255 93 29 174 6 6 6 6 6 6 174 174 174 29 133 133 174 174 6 6 6 6 6 6 6 6 6 6 6 6 6 6 6 174 174 174 29 29 70 70 46 46 46 46 46 46 35 46 46 46 46 70 255 145 220 249 0 122 249 185 81 75 52 238 156 87 232 203 64 139 64 168 128 99 0 0 0 0 0 0 0 0 0
0 0 0 0 0 0 0 0 0 122 99 249 116 52 64 17 238 156 87 214 58 17 139 64 168 243 122 243 128 249 116 52 255 12 46 46 70 162 29 174 29 29 162 70 12 46 46 46 46 46 12 93 29 174 6 6 6 6 6 6 6 6 6 6 6 6 6 6 6 6 174 29 70 70 70 12 12 12 93 162 29 174 41 41 70 70 46 70 93 203 64 197 226 226 139 75 75 75 255 93 162 174 6 6 6 6 6 6 6 6 6 6 6 6 6 6 6 6 6 6 6 6 6 6 6 6 6 6 6 174 174 174 174 29 29 70 46 46 46 46 46 46 46 46 12 70 70 46 46 46 93 17 180 220 122 122 99 185 180 35 75 145 191 87 87 191 17 64 64 226 116 128 122 0 0 0 0 0 0 0 0
0 0 0 0 0 0 0 0 0 122 249 220 116 52 64 17 238 156 209 58 191 64 226 81 116 122 122 99 249 220 52 139 75 35 12 12 46 70 162 162 133 6 29 162 93 93 12 12 46 12 12 93 29 174 6 6 6 6 6 6 6 6 6 6 6 6 6 6 6 6 174 174 29 162 93 93 93 93 162 174 133 41 162 93 12 35 35 12 255 64 139 104 226 139 139 75 75 75 75 93 162 29 174 6 6 6 6 6 6 6 6 6 6 6 6 6 6 6 6 6 6 6 6 6 6 6 6 6 174 174 174 29 29 29 70 70 46 46 46 46 46 46 12 12 70 70 162 93 46 46 46 203 145 220 99 122 122 185 180 75 75 139 238 156 87 156 191 17 52 226 104 128 99 122 0 0 0 0 0 0 0
0 0 0 0 0 0 0 0 0 99 249 220 226 52 64 238 191 87 214 58 17 139 64 81 128 122 249 220 220 81 255 75 75 35 35 35 12 12 93 93 162 29 174 174 29 162 162 93 93 93 93 70 29 6 6 6 6 6 6 6 6 6 6 6 174 6 6 6 6 6 6 174 174 29 162 162 162 29 174 133 41 162 12 35 35 35 35 12 255 64 197 116 52 75 75 75 75 75 75 12 93 29 174 6 6 6 6 6 6 6 6 6 6 6 6 6 6 6 6 6 6 6 6 6 6 6 6 174 174 29 29 29 70 70 46 46 35 46 46 46 46 12 93 162 29 29 29 29 162 70 46 93 17 81 220 99 122 249 220 81 75 75 81 238 87 87 191 238 64 226 197 116 128 122 0 0 0 0 0 0 0
0 0 0 0 0 0 0 0 0 99 249 116 52 52 17 238 232 87 214 151 139 139 81 168 122 99 249 220 81 12 70 12 46 35 35 35 35 12 93 12 12 162 41 174 6 174 29 162 162 162 162 29 6 6 6 6 6 6 6 6 6 6 6 6 6 6 6 6 6 6 6 6 6 174 174 174 174 174 174 133 162 70 46 35 75 35 35 46 255 64 197 116 64 35 35 35 35 35 35 12 93 162 174 6 6 6 6 6 6 6 6 6 6 6 6 6 6 6 6 6 6 6 6 6 6 6 6 174 133 29 29 70 46 46 46 46 35 35 46 12 93 93 29 29 174 174 174 133 29 70 46 12 17 145 168 99 0 99 220 180 75 12 139 145 156 87 156 191 145 52 197 226 116 99 122 0 0 0 0 0 0
0 0 0 0 0 0 0 0 122 99 220 220 52 64 17 191 87 87 58 238 139 75 145 220 122 249 220 180 255 46 46 46 46 46 46 35 75 75 75 75 12 93 93 162 133 174 6 174 174 174 174 6 6 6 6 6 6 6 6 6 6 6 6 6 6 6 6 6 6 6 6 6 6 6 6 6 6 6 174 41 162 70 12 12 12 46 46 46 255 17 197 168 64 35 35 46 35 35 35 75 93 162 174 6 6 6 6 6 6 6 6 6 6 6 6 6 6 6 6 6 6 6 6 6 6 6 6 133 41 162 46 46 46 46 46 46 12 12 93 93 162 29 174 174 133 133 29 29 29 70 46 12 203 145 168 128 122 122 185 180 64 12 75 81 238 87 87 191 238 81 104 197 226 128 99 0 0 0 0 0 0
0 0 0 0 0 0 0 0 99 249 220 168 52 255 17 232 87 87 156 17 139 64 81 128 99 249 220 81 255 46 46 70 70 46 46 46 12 75 75 75 35 35 12 93 162 133 174 6 6 6 6 6 6 6 6 6 6 6 6 6 6 6 6 6 6 6 6 6 6 6 6 6 6 6 6 6 6 6 174 133 29 93 93 70 46 46 46 46 203 17 197 168 255 46 46 46 35 35 35 75 255 162 174 6 6 6 6 6 6 6 6 6 6 6 6 6 6 6 6 6 6 6 6 6 6 6 174 133 41 70 46 46 46 46 46 12 93 93 162 29 174 6 174 133 41 29 162 162 70 46 46 46 203 145 168 128 122 122 249 185 81 35 75 64 238 156 87 156 191 145 226 197 197 116 128 122 0 0 0 0 0
0 0 0 0 0 0 0 0 99 249 220 52 64 255 17 232 87 156 191 75 139 145 180 99 99 220 220 81 12 46 12 70 162 70 70 46 46 12 75 75 75 35 35 12 93 162 29 6 6 6 6 6 6 6 6 6 6 6 6 6 6 6 6 6 6 6 6 6 6 6 6 6 6 6 6 6 6 6 6 174 29 162 162 70 70 70 46 70 203 17 197 168 255 46 46 46 46 12 12 12 93 162 174 6 6 6 6 6 6 6 6 6 6 6 6 6 6 6 6 6 6 6 6 6 6 6 174 133 162 70 46 46 46 12 93 93 162 29 174 6 174 133 41 41 162 70 70 70 46 46 46 46 93 145 168 128 122 0 99 185 180 75 75 139 145 191 87 87 156 238 168 197 197 116 128 99 0 0 0 0 0
0 0 0 0 0 0 0 122 99 249 116 52 64 255 17 232 87 156 203 75 75 145 180 122 249 220 168 64 12 12 93 162 29 162 162 70 46 46 46 12 35 35 35 35 12 93 162 133 6 6 6 6 6 6 6 6 6 6 6 6 6 6 6 6 6 6 6 6 6 6 6 6 6 6 6 6 6 6 6 6 174 174 29 29 70 70 70 93 255 64 226 168 255 46 46 46 70 12 12 12 93 29 174 6 6 6 6 6 6 6 6 6 6 6 6 6 6 6 6 6 6 6 6 6 6 6 6 174 29 162 93 93 93 93 162 29 29 174 174 133 133 41 162 70 70 70 46 35 46 46 46 46 12 64 168 220 99 122 99 185 180 255 35 75 81 238 87 87 156 191 81 104 197 226 116 99 122 0 0 0 0
0 0 0 0 0 0 0 99 249 220 116 52 64 17 203 41 87 156 255 75 255 145 168 122 249 220 52 75 46 12 93 29 174 174 29 162 70 46 46 46 46 46 35 35 35 12 93 162 174 6 6 6 6 6 6 6 6 6 6 6 6 6 6 6 6 6 6 6 6 6 6 6 6 6 6 6 6 6 6 6 6 133 41 162 70 70 12 255 64 139 116 81 255 46 46 12 93 93 93 93 70 174 6 6 6 6 6 6 6 6 6 6 6 6 6 6 6 6 6 6 6 6 6 6 6 6 6 6 174 29 162 162 162 29 174 6 6 174 133 41 41 162 70 46 46 46 35 35 35 35 46 46 12 255 81 180 249 122 122 249 180 64 35 75 64 17 232 6 87 191 145 52 197 226 116 128 122 0 0 0 0
0 0 0 0 0 0 0 99 249 116 116 52 64 17 232 6 87 191 255 75 17 145 128 249 185 168 75 35 46 12 162 174 6 6 174 29 162 70 70 46 46 46 35 35 35 12 93 162 133 6 6 6 6 6 6 6 6 6 6 6 6 6 6 6 6 6 6 6 6 6 6 6 6 6 6 6 6 6 6 6 6 133 41 162 46 12 255 64 226 197 116 81 255 46 12 162 29 29 29 29 174 174 6 6 6 6 6 6 6 6 6 6 6 6 6 6 6 6 6 6 6 6 6 6 6 6 6 6 6 174 174 174 174 6 6 174 133 133 41 162 70 46 46 35 46 35 35 35 35 35 46 46 46 12 17 145 220 99 0 249 185 81 12 35 75 17 232 133 87 191 238 52 226 197 116 128 122 0 0 0 0
0 0 0 0 0 0 0 99 249 116 116 81 17 17 232 6 87 232 255 75 17 180 122 249 180 81 12 46 70 93 162 174 174 174 6 174 29 162 162 162 70 12 12 12 12 12 93 93 133 6 6 6 6 6 6 6 6 6 6 6 6 6 6 6 6 6 6 6 6 6 6 6 6 6 6 6 6 6 6 6 6 133 41 70 35 12 255 64 226 197 116 180 255 46 12 162 133 174 174 6 6 6 6 6 6 6 6 6 6 6 6 6 6 6 6 6 6 6 6 6 6 6 6 6 6 6 6 6 6 6 6 6 6 6 174 133 41 29 70 70 46 46 46 35 35 35 35 35 12 12 70 46 46 46 93 238 180 99 0 99 185 180 75 35 75 17 232 133 87 191 238 52 226 197 104 116 99 0 0 0 0
0 0 0 0 0 0 122 99 249 116 116 81 17 203 41 133 232 232 12 75 17 180 122 185 180 64 70 46 12 70 29 41 133 174 174 174 174 174 174 29 162 162 93 93 93 93 93 70 174 6 6 6 6 6 6 6 6 6 6 6 6 6 6 6 6 6 6 6 6 6 6 6 6 6 6 6 6 6 6 6 6 133 41 93 46 46 12 64 52 226 116 168 255 46 46 93 41 174 6 6 6 6 6 6 6 6 6 6 6 6 6 6 6 6 6 6 6 6 6 6 6 6 6 6 6 6 6 6 6 6 6 6 6 174 133 41 162 70 46 46 46 35 35 35 35 35 12 12 12 93 162 70 70 35 93 238 168 249 122 99 185 180 64 35 75 255 232 133 87 191 17 52 226 197 226 116 99 0 0 0 0
0 0 0 0 0 0 122 99 128 116 168 81 17 203 174 133 232 93 35 255 145 180 122 185 180 255 12 12 70 70 29 162 162 29 133 6 6 6 6 174 133 133 41 162 162 162 162 29 6 6 6 6 6 6 6 6 6 6 6 6 6 6 6 6 6 6 6 6 6 6 6 6 6 6 6 6 6 6 174 174 174 174 41 162 70 35 35 93 17 52 104 81 255 46 46 12 162 133 133 174 6 6 6 6 6 6 6 6 6 6 6 6 6 6 6 6 6 6 6 6 6 6 6 6 6 6 6 6 6 6 6 6 6 133 41 162 46 46 46 46 46 46 46 35 46 12 93 93 93 162 29 41 70 70 93 17 168 116 128 0 249 180 64 35 75 255 232 133 87 232 17 64 197 197 226 116 99 0 0 0 0
0 0 0 0 0 0 99 249 128 116 168 81 17 162 174 133 232 93 35 255 145 168 122 185 180 255 46 46 46 70 70 70 46 70 29 133 174 6 6 6 6 6 174 133 29 174 174 6 6 6 6 6 6 6 6 6 6 6 6 6 6 6 6 6 6 6 6 6 6 6 6 6 6 6 6 6 6 174 133 133 133 174 133 29 70 46 46 93 17 52 197 168 64 12 46 46 70 41 41 133 174 6 6 6 6 6 6 6 6 6 6 6 6 6 6 6 6 6 6 6 6 6 6 6 6 6 6 6 6 6 6 6 174 133 162 70 46 46 46 46 12 12 12 12 12 93 162 162 29 174 133 41 70 70 93 17 81 116 128 122 249 185 81 12 75 255 232 41 87 232 238 64 226 197 226 116 99 0 0 0 0
0 0 0 0 0 0 99 249 116 116 168 145 203 41 6 41 232 12 75 255 145 220 122 185 180 255 46 46 46 46 46 46 46 70 70 29 41 133 174 174 174 6 6 6 6 6 6 6 6 6 6 6 6 6 6 6 6 6 6 6 6 6 6 6 6 6 6 6 6 6 6 6 6 6 6 6 6 133 133 29 41 29 174 29 29 70 46 70 203 64 197 168 81 12 46 46 70 162 162 29 29 174 6 6 6 6 6 6 6 6 6 6 6 6 6 6 6 6 6 6 6 6 6 6 6 6 6 6 6 6 6 6 174 133 162 70 12 12 12 93 93 93 93 162 93 162 29 174 6 174 133 29 70 46 12 17 81 168 128 122 99 185 180 75 35 255 203 41 87 232 191 64 226 197 226 116 99 0 0 0 0
0 0 0 0 0 0 99 249 104 116 81 145 203 133 174 41 232 12 75 17 145 220 122 185 180 255 46 46 46 46 46 12 93 93 70 70 162 162 41 133 174 174 174 6 6 6 6 6 6 6 6 6 6 6 6 6 6 6 6 6 6 6 6 6 6 6 6 6 174 6 6 6 6 6 6 6 6 133 41 70 70 162 29 29 29 70 46 12 203 64 197 168 81 12 46 46 46 70 70 70 162 29 174 6 6 6 6 6 6 6 6 6 6 6 6 6 6 6 6 6 6 6 6 6 6 6 6 6 6 6 6 6 6 174 133 162 93 162 162 162 162 29 29 174 174 174 6 6 174 174 29 162 70 46 12 17 81 116 128 122 99 185 180 64 35 75 203 41 133 232 191 145 226 197 226 168 99 0 0 0 0
0 0 0 0 0 122 249 128 104 116 81 17 162 174 133 232 162 35 75 17 180 128 99 185 180 255 46 46 46 70 70 12 255 255 93 70 70 70 162 29 29 29 133 174 6 6 6 6 6 6 6 6 6 6 6 6 6 174 133 133 174 174 6 6 6 6 6 174 133 174 6 6 6 6 6 6 6 133 41 162 46 70 70 70 70 46 46 12 203 64 197 168 81 12 46 35 46 46 35 12 162 29 174 6 6 6 6 6 6 6 174 6 6 6 6 6 6 6 6 6 6 6 6 6 6 6 6 6 6 6 6 6 6 6 6 133 29 29 174 174 6 174 133 133 133 133 133 133 174 133 29 29 46 46 93 17 81 116 128 122 99 185 180 64 46 35 255 203 133 41 191 145 226 197 226 168 99 0 0 0 0
0 0 0 0 0 99 249 128 104 168 81 17 41 6 133 232 93 35 12 17 180 99 99 185 180 255 46 46 46 46 93 255 139 64 64 12 46 46 46 70 70 29 29 29 174 6 6 6 6 6 6 6 6 6 6 174 174 174 174 29 174 174 174 6 6 6 174 133 41 41 133 174 6 6 6 6 6 133 29 162 46 46 46 46 46 46 46 12 17 52 197 168 64 12 46 35 46 46 12 93 162 174 6 6 6 6 6 6 6 174 174 174 6 6 6 6 6 6 6 6 6 6 6 6 6 6 6 6 6 6 6 6 6 6 6 6 6 133 133 133 41 41 41 41 41 41 41 41 41 29 29 70 46 70 203 17 52 116 128 122 122 249 185 81 35 35 255 203 29 41 191 17 226 197 52 168 99 0 0 0 0
0 0 0 0 0 99 249 116 226 168 145 203 29 6 133 232 93 35 12 238 180 99 99 185 180 255 46 46 46 46 93 17 52 226 52 255 12 46 46 46 46 70 70 29 174 6 6 6 6 6 6 6 6 6 6 174 174 174 29 29 29 29 174 6 6 6 133 41 232 203 232 41 174 6 6 6 6 174 174 29 162 70 46 46 46 46 46 93 17 52 197 168 64 12 46 46 70 70 70 162 29 6 6 6 6 6 6 6 174 133 41 29 174 6 6 6 6 6 6 6 6 6 6 6 6 6 6 6 6 6 6 6 6 6 174 133 41 41 41 41 162 162 162 93 93 93 162 162 162 70 70 46 70 93 255 64 226 104 116 122 122 249 185 81 12 35 75 203 41 41 191 17 226 139 52 168 99 0 0 0 0
0 0 0 0 122 99 249 104 226 168 145 203 133 6 41 232 93 35 255 238 180 122 99 185 180 255 46 46 46 46 70 255 52 197 168 64 12 46 46 46 70 70 29 29 174 6 6 6 6 6 6 6 6 6 6 6 174 174 29 29 29 174 6 6 174 174 41 232 203 17 203 203 41 6 6 6 6 6 174 174 29 162 93 12 46 46 46 93 255 139 197 52 64 255 12 70 93 93 162 29 6 6 6 6 6 6 6 174 41 41 41 162 133 174 6 6 6 6 6 6 6 6 6 6 6 6 6 6 6 6 6 6 6 174 133 41 162 162 162 93 93 93 93 93 12 12 12 46 46 46 46 12 93 255 75 226 116 168 220 99 122 249 185 180 12 35 75 203 41 133 232 17 139 139 52 116 99 0 0 0 0
0 0 0 0 122 99 128 104 226 168 145 203 133 6 41 232 12 35 255 238 220 122 99 185 180 255 46 46 46 46 46 93 255 52 52 75 46 46 35 70 70 70 29 174 6 6 6 6 6 6 6 6 6 6 6 6 6 6 174 174 174 6 6 6 6 133 232 191 64 52 81 17 232 133 6 174 174 6 6 6 174 133 29 162 93 12 12 255 64 139 226 52 64 255 93 162 29 29 174 6 6 6 6 6 6 6 174 133 232 93 255 93 162 133 6 6 6 6 6 6 6 6 6 6 6 6 6 6 6 6 6 6 6 133 41 162 70 70 70 12 35 35 35 35 35 35 35 46 46 46 46 93 255 139 226 226 64 81 168 99 0 249 185 180 75 35 75 255 41 133 232 17 139 197 52 116 128 0 0 0 0
0 0 0 0 122 249 128 104 116 168 145 203 133 6 41 232 12 35 255 238 220 122 99 185 180 255 46 46 46 46 46 46 12 64 64 35 46 46 12 70 162 29 174 6 6 6 6 6 6 6 6 6 6 6 6 6 6 6 6 6 6 6 6 6 174 41 232 238 52 197 226 81 17 232 133 6 6 6 6 6 6 174 174 29 162 162 93 203 64 52 226 52 255 93 162 29 174 174 6 6 6 6 6 6 6 6 133 41 232 255 75 255 93 133 6 6 6 6 6 6 6 6 6 6 6 6 6 6 6 6 6 6 6 133 41 162 46 35 35 35 75 75 139 139 75 75 35 35 35 35 46 12 75 64 81 52 75 145 168 128 0 99 185 180 75 35 35 255 162 133 232 17 139 197 52 168 128 0 0 0 0
0 0 0 0 99 249 128 104 116 180 145 162 174 6 41 232 12 35 255 145 220 122 99 185 180 255 46 35 46 46 46 46 46 12 35 46 46 12 93 162 29 174 6 6 6 6 6 6 6 6 6 6 6 6 6 6 6 6 6 6 6 6 6 6 6 41 191 238 52 197 197 116 81 17 41 174 6 6 6 6 6 6 6 174 174 29 29 162 203 145 81 64 93 29 174 6 174 6 6 6 6 6 6 6 6 133 41 232 203 64 64 17 203 29 6 6 6 6 6 6 6 6 6 6 6 6 6 6 6 6 6 6 6 133 29 162 70 46 46 35 12 12 12 12 12 12 12 12 46 46 46 70 255 255 255 12 255 145 180 249 122 99 185 180 255 35 35 255 93 174 232 17 226 197 52 116 128 0 0 0 0
0 0 0 0 99 249 128 197 116 180 17 162 174 6 41 232 12 12 17 145 220 122 99 185 180 255 46 46 46 46 46 35 46 46 46 46 12 93 29 174 174 6 6 6 6 6 6 6 6 6 6 6 6 6 6 6 6 6 6 6 6 6 6 6 6 41 191 238 52 197 197 104 81 145 203 133 6 6 6 6 6 6 6 6 6 174 174 133 162 203 17 93 29 174 6 6 6 6 6 6 6 6 6 6 174 41 232 203 64 226 168 145 203 29 6 6 6 6 6 6 6 6 6 6 6 6 6 6 6 6 6 6 6 174 133 29 70 70 12 12 12 12 12 70 70 93 93 93 93 12 12 12 70 70 70 46 12 17 180 220 122 99 185 180 255 35 35 12 255 174 232 238 226 197 226 116 128 122 0 0 0
0 0 0 0 99 249 128 197 116 180 238 41 174 174 41 162 12 12 17 145 220 0 99 185 180 255 12 46 46 46 46 46 46 46 46 12 93 162 174 6 6 6 6 6 6 6 6 6 6 6 6 6 6 6 6 6 6 6 6 6 6 6 6 6 6 41 191 238 52 197 197 104 168 145 203 41 6 6 6 6 6 6 6 6 6 6 6 174 133 41 162 29 174 6 6 6 6 6 6 6 6 6 6 6 133 41 232 17 139 197 168 145 203 29 6 6 6 6 6 6 6 6 6 6 6 6 6 6 6 6 6 6 6 6 174 29 162 162 93 93 93 93 93 93 93 93 93 162 162 162 162 162 93 70 70 46 46 203 145 180 99 99 185 180 255 35 35 12 255 174 232 238 52 197 226 116 128 122 0 0 0
0 0 0 0 99 249 128 197 116 180 238 29 174 174 41 162 35 12 17 180 128 0 249 220 116 64 75 35 35 35 46 46 46 46 12 12 93 29 6 6 6 6 6 6 6 6 6 6 6 6 6 6 6 6 6 6 6 6 6 6 6 6 6 6 6 133 191 238 52 197 197 197 116 81 17 232 174 6 6 6 6 6 6 174 174 6 6 6 6 174 174 6 6 6 6 6 6 6 6 6 6 6 6 174 41 232 203 64 139 197 168 145 203 29 6 6 6 6 6 6 6 6 6 6 6 6 6 6 6 6 6 6 6 6 6 174 174 133 29 41 162 29 29 29 29 133 174 174 174 174 174 29 29 162 162 70 46 203 238 180 249 99 185 180 255 35 35 12 255 29 232 203 52 197 139 116 128 122 0 0 0
0 0 0 0 99 249 128 197 116 180 238 133 174 174 232 93 35 12 17 180 128 122 249 220 226 52 64 35 35 35 46 35 46 46 70 70 29 174 6 6 6 6 6 6 6 6 6 6 6 6 6 6 6 6 6 6 6 6 6 6 6 6 6 6 6 133 232 238 81 197 197 197 197 168 145 203 41 174 174 6 6 6 6 6 6 6 6 6 6 6 6 6 6 6 6 6 6 6 6 6 6 6 6 133 232 191 17 139 197 197 168 145 203 133 6 6 6 6 6 6 6 6 6 6 6 6 6 6 6 6 6 6 6 6 6 6 6 174 174 174 174 174 6 6 6 6 6 6 6 174 174 174 6 174 133 162 70 203 238 180 249 122 185 180 255 46 35 35 255 29 162 203 64 226 226 116 128 122 0 0 0
0 0 0 0 122 249 128 104 226 180 238 133 6 133 232 93 35 12 17 180 128 99 185 168 52 52 75 46 46 35 46 35 46 70 70 29 174 6 6 6 6 6 6 6 6 6 6 6 6 6 6 6 6 6 6 6 6 6 6 6 6 6 6 6 174 133 232 238 81 104 197 197 197 104 81 17 232 133 6 6 6 6 6 6 6 6 6 6 6 6 6 6 6 6 6 6 6 6 6 6 6 6 174 133 232 191 64 197 197 226 168 145 203 133 6 6 6 6 6 6 6 6 6 6 6 6 6 6 6 6 6 6 6 6 6 6 6 6 6 6 6 6 6 6 6 6 6 6 6 6 6 6 174 174 133 41 12 93 238 180 249 99 185 180 255 46 35 35 255 70 162 203 64 226 226 116 128 122 0 0 0
0 0 0 0 122 99 249 104 226 180 238 133 6 133 41 93 35 12 17 180 99 99 185 180 64 12 46 46 12 70 70 93 93 70 29 174 6 6 6 6 6 6 6 6 6 6 6 6 6 6 6 6 6 6 6 6 6 6 6 6 6 6 6 6 6 174 232 191 81 226 197 197 197 197 116 81 17 41 174 6 6 6 6 6 6 6 174 6 6 6 6 6 6 6 6 6 6 6 6 6 6 6 133 41 232 17 52 197 197 104 168 145 162 29 6 6 6 6 6 6 6 6 6 6 6 6 6 6 6 6 6 6 6 6 6 6 6 6 6 6 6 6 6 6 6 6 6 6 6 6 6 174 174 133 29 29 70 93 238 180 249 99 185 180 255 46 46 75 255 29 41 203 17 52 226 116 128 122 0 0 0
0 0 0 0 122 99 249 104 116 180 238 41 174 133 41 93 35 255 17 180 99 99 185 180 255 46 70 93 93 93 162 93 29 174 174 174 174 133 133 133 133 174 174 6 6 6 6 6 6 6 6 6 6 6 6 6 6 6 6 6 6 6 6 6 6 174 41 191 145 226 197 197 197 197 104 168 145 203 41 174 6 6 6 6 6 174 6 6 6 6 6 6 6 6 6 6 6 6 6 6 6 174 133 232 203 17 226 197 197 116 180 145 41 174 6 6 6 6 6 6 6 6 6 6 6 6 6 6 6 6 6 6 6 6 6 6 6 6 6 6 6 6 6 6 6 6 6 6 6 6 174 174 41 41 162 70 46 93 238 180 249 122 185 180 255 46 46 12 203 29 41 191 17 139 226 116 128 122 0 0 0
0 0 0 0 0 99 249 104 116 180 238 41 174 133 232 12 35 255 17 180 99 249 185 180 255 12 93 162 29 174 174 174 174 133 133 133 41 41 41 41 41 41 133 174 6 6 6 6 6 6 6 6 6 6 6 6 6 6 6 6 6 6 6 6 6 174 133 191 238 52 197 197 197 197 197 226 81 17 232 133 6 6 6 6 6 6 6 6 6 6 6 6 6 6 6 6 6 6 6 6 174 133 41 232 17 64 197 197 197 116 180 17 41 6 6 6 6 6 6 6 6 6 6 6 6 6 6 6 6 6 6 6 6 6 6 6 6 6 6 6 6 6 6 6 6 6 6 174 133 133 133 133 29 70 46 46 46 93 238 180 249 122 185 180 17 35 35 12 203 133 41 191 17 226 226 116 128 122 0 0 0
0 0 0 0 0 99 249 116 116 180 145 232 174 133 232 12 35 255 238 180 122 249 185 180 255 93 162 133 133 133 41 41 41 41 162 162 162 162 162 162 93 70 162 133 6 6 6 6 6 6 6 6 6 6 6 6 6 6 6 6 6 6 6 6 6 174 133 232 238 52 197 197 197 197 197 197 116 81 203 41 174 6 6 6 6 6 6 6 6 6 6 6 6 6 6 6 6 6 6 6 133 41 232 203 64 139 197 197 197 220 180 203 133 6 6 6 6 6 6 6 6 6 6 6 6 6 6 6 6 6 6 6 6 6 6 6 6 6 6 174 133 133 133 133 174 174 133 133 41 41 41 41 70 46 46 46 46 93 238 180 128 0 185 185 64 35 35 12 203 29 41 191 17 226 226 116 128 122 0 0 0
0 0 0 0 0 122 249 128 116 168 145 203 133 133 232 12 35 255 238 180 122 249 185 180 255 12 70 41 41 41 162 93 162 162 70 70 70 12 12 35 35 12 93 29 174 6 6 6 6 6 6 6 6 6 6 6 6 6 6 6 6 6 6 6 6 174 174 232 238 81 104 197 197 197 197 197 104 168 17 203 41 174 6 6 6 6 6 6 6 6 6 6 6 6 6 6 174 6 6 133 41 232 203 255 139 197 197 197 197 180 145 203 174 6 6 6 6 6 6 6 6 6 6 6 6 6 6 6 6 6 6 6 6 6 6 6 6 174 133 133 41 41 41 41 41 41 41 41 162 162 70 70 46 46 46 46 35 93 17 180 128 0 185 185 64 35 35 12 203 133 232 191 17 226 226 168 128 0 0 0 0
0 0 0 0 0 122 99 128 116 168 145 203 29 133 232 12 35 255 238 180 122 249 185 180 255 46 70 162 162 70 93 203 255 93 12 46 46 35 35 35 12 12 162 29 6 6 6 6 6 6 6 6 6 6 6 6 6 6 6 6 6 6 6 6 6 6 174 41 191 145 226 197 197 197 197 197 197 226 81 17 203 41 174 6 6 6 6 6 6 6 6 6 6 6 6 6 6 6 133 41 232 203 64 226 197 197 197 197 226 180 145 41 6 6 6 6 6 6 6 6 6 6 6 6 6 6 6 6 6 6 6 6 6 6 6 6 174 133 41 41 162 162 162 162 162 162 162 70 70 46 46 35 35 46 46 46 35 93 238 180 128 0 185 185 64 35 35 255 17 41 232 191 17 226 226 116 128 0 0 0 0
0 0 0 0 0 0 99 128 116 168 81 17 41 133 232 93 35 255 238 180 122 249 185 180 255 46 46 46 70 93 255 75 139 75 12 35 35 35 35 35 12 12 162 29 6 6 6 6 6 6 6 6 6 6 6 6 6 6 6 6 6 6 6 6 6 6 174 41 191 238 52 197 197 197 197 197 197 104 226 81 17 162 133 174 174 6 6 6 6 6 6 6 6 6 6 6 6 6 133 232 203 17 52 197 197 197 197 197 116 180 238 41 6 6 6 6 6 6 6 6 6 6 6 6 6 6 6 6 6 6 6 6 6 6 6 6 133 41 162 70 70 46 46 46 70 12 12 46 46 46 46 46 35 35 35 46 46 93 238 180 128 122 185 23 17 35 46 255 238 87 156 151 145 226 226 116 99 0 0 0 0
0 0 0 0 0 0 99 249 116 168 81 17 41 133 232 93 35 255 238 180 122 249 220 168 255 12 46 46 70 93 75 226 226 139 75 35 35 35 12 12 12 70 162 174 6 6 6 6 6 6 6 6 6 6 6 6 6 6 6 6 6 6 6 6 6 6 6 133 232 238 52 197 197 197 197 197 197 197 226 168 17 203 41 174 174 6 6 6 6 6 6 6 6 6 6 6 6 174 41 232 203 64 226 197 197 197 197 197 116 180 17 133 6 6 6 6 6 6 6 6 6 6 6 6 6 6 6 6 6 6 6 6 6 6 6 6 133 41 162 46 35 35 46 46 70 93 12 12 46 46 35 35 35 35 35 46 46 203 238 180 128 122 185 23 17 35 46 255 238 87 214 151 64 197 52 168 99 0 0 0 0
0 0 0 0 0 0 99 249 116 168 81 17 41 133 232 12 35 255 238 180 122 249 220 168 64 255 46 46 46 12 64 52 64 75 46 46 46 12 12 93 70 29 29 174 6 6 6 6 6 6 6 6 6 6 6 6 6 6 6 6 6 6 6 6 6 6 174 133 232 238 81 197 197 197 197 197 197 197 197 226 81 17 162 29 6 6 6 6 6 6 6 6 174 6 6 6 174 133 41 203 17 52 197 197 197 197 197 197 168 23 232 174 6 6 6 6 6 6 6 6 6 6 6 6 6 6 6 6 6 6 6 6 6 6 6 174 133 162 70 46 46 46 46 70 12 75 75 75 35 46 35 35 35 35 35 46 46 203 145 180 99 122 185 23 145 46 46 255 238 6 58 238 52 226 226 116 99 0 0 0 0
0 0 0 0 0 0 99 249 220 168 81 17 41 133 232 12 35 255 238 180 122 249 220 168 168 64 35 46 46 12 12 12 12 12 12 12 12 93 93 162 29 29 174 174 6 6 6 6 6 6 6 6 6 6 6 6 6 6 6 6 6 6 6 6 6 6 174 6 41 191 145 226 197 197 197 197 197 197 197 226 81 17 162 29 174 6 6 6 6 6 6 174 174 174 6 6 174 133 41 203 17 52 197 197 197 197 197 197 168 180 232 174 6 6 6 6 6 6 6 6 6 6 6 6 6 6 6 6 6 6 6 6 6 6 6 174 133 29 93 93 70 46 46 46 12 75 75 75 35 35 35 12 12 35 46 46 46 203 238 180 99 122 185 180 145 46 46 17 238 87 58 238 52 226 116 116 99 0 0 0 0
0 0 0 0 0 0 99 249 220 168 145 17 41 133 232 93 35 255 238 180 122 249 220 168 52 75 46 46 12 12 12 70 70 93 93 93 93 162 29 174 174 174 174 6 6 6 6 6 6 6 6 6 6 6 6 6 6 6 6 6 6 6 6 6 6 6 6 6 41 191 238 52 197 197 197 197 197 197 197 226 81 17 162 29 174 6 174 174 174 174 174 174 174 174 6 6 174 29 162 203 64 226 197 197 197 197 197 104 168 180 232 6 6 6 6 6 6 6 6 6 6 6 6 6 6 6 6 6 6 6 6 6 6 6 6 6 174 29 162 162 70 70 46 46 46 75 75 75 35 35 46 46 46 46 46 46 46 203 238 180 99 122 185 180 64 46 46 17 191 87 58 238 52 226 168 116 122 0 0 0 0
0 0 0 0 0 0 99 249 220 168 145 17 41 133 232 12 35 255 238 180 99 249 185 180 64 46 46 46 93 93 93 93 162 162 162 29 29 174 6 6 6 6 6 6 6 6 6 6 6 6 6 6 6 6 6 6 6 6 6 6 6 6 6 6 6 6 6 6 133 191 238 226 197 197 197 197 197 197 197 226 81 17 162 29 174 174 174 174 174 174 6 174 6 174 174 6 174 41 162 203 64 226 197 197 197 197 197 226 180 145 41 6 6 6 6 6 6 6 6 6 6 6 6 6 6 6 6 6 6 6 6 6 6 6 6 6 6 174 174 133 41 162 70 46 46 35 12 12 46 46 46 46 46 46 46 46 46 203 145 180 99 99 185 180 64 46 46 255 238 87 58 238 226 226 168 128 122 0 0 0 0
0 0 0 0 0 0 99 249 220 168 145 17 41 133 232 12 35 12 17 180 99 99 185 180 255 46 46 93 162 29 29 29 29 174 6 6 6 6 174 6 6 6 6 6 6 6 6 6 6 6 6 6 6 6 6 6 6 6 6 6 6 6 6 6 6 6 6 6 133 191 238 116 197 197 197 197 197 197 104 226 81 17 162 29 174 174 174 174 174 6 6 174 174 174 174 6 174 29 162 203 64 226 197 197 197 197 197 226 180 238 41 6 6 6 6 6 6 6 6 6 6 6 6 6 6 6 6 6 6 6 6 6 6 6 6 6 6 6 6 133 41 162 46 46 46 46 46 46 46 46 46 46 46 46 46 46 12 203 145 168 99 99 185 180 64 46 35 255 238 87 58 238 226 226 116 128 122 0 0 0 0
0 0 0 0 0 0 99 249 220 168 145 17 41 87 232 12 35 12 17 180 249 99 185 180 255 46 46 93 29 174 6 174 6 6 6 6 6 6 6 174 174 174 6 6 6 6 6 6 6 6 6 6 6 6 6 6 6 6 6 6 6 6 6 6 6 6 6 6 133 232 238 168 197 197 197 197 197 197 226 168 81 255 162 29 174 174 174 174 6 6 174 174 174 174 6 6 174 29 162 203 64 226 197 197 197 197 197 226 180 238 41 6 6 6 6 6 6 6 6 6 6 6 6 6 6 6 6 6 6 6 6 6 6 6 6 6 174 6 174 133 41 70 46 46 46 46 46 46 46 46 46 46 70 70 46 70 255 17 81 220 99 99 185 180 255 46 35 255 238 87 58 238 52 226 116 128 122 0 0 0 0
0 0 0 0 0 0 99 249 220 168 145 238 41 87 232 12 35 12 17 180 249 99 185 180 17 12 46 46 162 29 133 6 6 6 6 174 6 6 6 6 174 6 6 6 6 6 6 6 6 6 6 6 6 6 6 6 6 6 6 6 6 6 6 6 6 174 6 6 174 232 191 81 197 197 197 197 197 197 226 168 17 93 29 174 6 6 6 6 6 6 6 6 6 174 6 6 174 29 162 203 17 52 197 197 197 197 197 226 180 238 133 6 6 6 6 6 6 6 6 6 6 6 6 6 6 6 6 6 6 6 6 6 6 6 6 6 6 6 174 133 41 70 46 46 46 46 46 46 46 46 46 70 70 35 46 70 255 64 168 220 99 99 185 180 255 46 35 255 203 87 156 238 52 226 116 128 122 0 0 0 0
0 0 0 0 0 0 99 249 220 168 145 238 41 87 232 12 35 12 17 180 249 122 249 168 64 17 70 46 70 93 162 174 6 6 6 6 6 6 6 6 6 6 6 6 6 6 6 6 6 6 6 6 6 6 6 6 6 6 6 6 6 6 6 6 6 174 6 6 174 41 191 145 226 197 197 197 197 197 226 81 17 93 29 174 6 6 6 6 6 6 6 6 6 174 6 6 6 133 41 203 17 52 197 197 197 197 197 168 180 203 133 6 6 6 6 6 6 6 6 6 6 6 6 6 6 6 6 6 6 6 6 6 6 6 6 6 6 6 133 41 162 46 46 46 46 46 46 93 93 12 46 46 35 75 35 46 255 64 168 168 99 99 185 180 255 46 35 255 203 87 156 238 52 226 116 128 0 0 0 0 0
0 0 0 0 0 0 122 249 220 168 145 238 41 87 232 12 35 35 255 145 220 0 249 116 52 52 64 70 12 93 41 174 174 174 174 6 6 6 6 6 6 6 6 6 6 6 6 6 6 6 6 6 6 6 6 6 6 6 6 6 6 6 6 6 6 6 6 6 6 41 191 238 226 197 197 197 197 197 116 81 17 93 29 6 6 6 6 6 6 6 6 6 174 6 6 6 6 174 41 203 17 52 104 197 197 197 197 220 145 203 133 6 6 6 6 6 6 6 6 6 6 6 6 6 6 6 6 6 6 6 6 6 6 6 6 6 6 6 133 41 162 46 46 46 35 46 162 93 255 12 35 35 75 12 12 46 93 17 145 168 99 99 185 180 12 35 35 12 203 6 156 238 226 52 168 99 0 0 0 0 0
0 0 0 0 0 0 122 99 220 168 145 238 232 87 232 12 35 35 255 145 220 0 99 128 104 116 81 255 12 93 29 133 133 133 174 174 6 6 6 6 6 6 6 6 6 6 6 6 6 6 6 6 6 6 6 6 6 6 6 6 6 6 6 6 6 6 6 6 6 133 191 238 168 197 197 197 197 226 168 81 255 162 174 6 6 6 6 6 6 6 6 174 6 6 6 6 6 174 41 232 17 52 226 197 197 197 104 180 145 203 174 6 6 6 6 6 6 6 6 6 6 6 6 6 6 6 6 6 6 6 6 6 6 6 6 6 6 6 133 41 162 46 46 46 46 12 255 139 139 64 12 12 12 93 70 46 93 17 145 220 122 249 185 180 12 35 35 12 203 174 156 238 226 226 168 99 0 0 0 0 0
0 0 0 0 0 0 122 99 220 180 145 238 232 87 191 255 35 35 255 145 180 122 99 249 116 116 81 255 93 70 174 41 162 29 29 133 174 6 6 6 6 6 6 6 6 6 6 6 6 6 6 6 6 6 6 6 6 6 6 6 6 6 6 6 6 6 6 6 6 133 232 238 168 197 197 197 197 226 168 64 93 162 174 6 6 6 6 6 6 6 6 6 6 6 6 6 6 174 41 232 203 64 226 197 197 197 116 180 145 162 174 6 6 6 6 6 6 6 6 6 6 6 6 6 6 6 6 6 6 6 6 6 6 6 6 6 6 6 133 41 162 12 12 35 35 46 255 64 64 64 12 12 93 162 29 70 93 238 145 128 0 249 185 81 12 35 46 255 203 6 156 238 52 52 168 99 122 0 0 0 0
0 0 0 0 0 0 0 99 185 180 145 238 232 87 156 255 35 35 255 145 180 99 99 185 168 52 64 93 162 29 133 162 70 70 70 29 133 174 6 6 6 6 6 6 6 6 6 6 6 6 6 6 6 6 6 6 6 6 6 6 6 6 6 6 6 6 6 6 6 133 232 191 81 104 197 197 104 226 81 17 162 29 174 6 6 6 6 6 6 6 6 6 6 6 6 6 6 6 133 41 203 17 52 197 197 197 116 180 17 41 6 6 6 6 6 6 6 6 6 6 6 6 6 6 6 6 6 6 6 6 6 6 6 6 6 6 174 6 6 133 162 162 93 93 12 12 93 255 255 93 93 93 162 29 41 162 93 238 180 249 122 185 185 81 46 35 46 12 203 133 156 238 52 52 168 99 122 0 0 0 0
0 0 0 0 0 0 0 99 185 180 145 238 232 87 156 12 35 35 255 145 180 99 99 185 180 64 12 93 162 174 41 70 46 46 70 70 29 29 174 6 6 6 6 6 6 6 6 6 6 6 6 6 6 6 6 6 6 6 6 6 6 6 6 6 6 6 6 6 6 174 41 191 145 226 197 197 104 52 81 17 162 29 6 6 6 6 6 6 6 6 6 6 6 6 6 6 6 6 174 41 203 17 64 226 197 197 168 180 203 29 174 6 6 6 6 6 6 6 6 6 6 6 6 6 6 6 6 6 6 6 6 6 6 6 6 6 174 174 174 6 174 29 162 162 93 162 162 93 93 162 29 29 29 133 41 93 203 238 180 99 99 185 180 64 46 35 46 12 203 174 156 238 52 52 116 99 0 0 0 0 0
0 0 0 0 0 0 0 99 249 220 81 145 232 87 232 12 35 35 255 145 180 99 99 185 23 17 70 70 29 41 41 12 12 46 46 70 70 29 174 174 6 6 6 6 6 6 6 6 6 6 6 6 6 6 6 6 6 6 6 6 6 6 6 6 6 6 6 6 6 6 41 191 238 52 197 197 226 52 81 203 29 174 6 6 174 6 6 6 6 6 6 6 6 6 6 6 174 6 174 29 162 203 64 226 197 104 168 145 203 174 174 6 6 6 6 6 6 6 6 6 6 6 6 6 6 6 6 6 6 6 6 6 6 6 6 174 174 133 41 133 133 6 6 133 29 29 29 29 29 174 174 174 6 133 41 162 203 238 180 99 99 185 180 255 46 35 46 12 255 174 191 17 52 226 116 99 0 0 0 0 0
0 0 0 0 0 0 0 99 249 220 81 145 232 87 232 12 35 35 12 145 180 249 99 185 180 17 93 29 133 41 162 12 75 12 46 46 70 162 29 174 6 6 6 6 6 6 6 6 6 6 6 6 6 6 6 6 6 6 6 6 6 6 6 6 6 6 6 6 6 6 133 232 238 52 197 104 226 52 81 203 29 174 6 6 6 6 6 6 6 6 6 6 6 6 6 6 174 174 174 174 41 203 17 52 197 226 180 145 162 174 174 6 6 6 6 6 6 6 6 6 6 6 6 6 6 6 6 6 6 6 6 6 6 6 174 133 29 29 162 162 41 133 133 174 6 6 6 6 6 6 6 6 174 133 29 162 203 238 180 99 99 185 180 255 46 35 46 12 93 133 191 145 226 226 116 99 0 0 0 0 0
0 0 0 0 0 0 0 99 249 220 81 145 232 87 232 12 35 35 12 17 180 249 99 185 180 17 93 29 133 232 203 75 139 255 46 46 70 162 29 174 6 6 6 6 6 6 6 6 6 6 6 6 6 6 6 6 6 6 6 6 6 6 6 6 6 6 6 6 174 174 133 232 238 81 197 197 226 81 64 93 29 174 6 6 6 6 6 6 6 6 6 6 6 6 6 6 6 6 6 174 41 232 17 64 226 226 180 17 41 6 174 6 6 6 6 6 6 6 6 6 6 6 6 6 6 6 6 6 6 6 6 6 6 6 174 133 29 29 70 70 162 162 41 41 133 133 133 133 133 133 174 174 174 29 29 162 203 145 168 99 99 185 180 255 46 35 46 255 70 41 191 145 226 116 128 122 0 0 0 0 0
0 0 0 0 0 0 0 99 249 168 81 145 191 87 156 75 35 35 12 17 145 220 122 185 180 17 93 29 41 232 203 139 52 255 70 46 70 162 174 6 6 6 6 6 6 6 6 6 6 6 6 6 6 6 6 6 6 6 6 6 6 6 6 6 6 6 6 6 174 174 174 41 191 81 226 197 116 81 17 93 29 6 6 6 6 6 6 6 6 6 6 6 6 6 6 6 6 6 6 174 133 232 203 64 226 116 180 203 174 174 174 6 6 6 6 6 6 6 6 6 6 6 6 6 6 6 6 6 6 6 6 6 6 6 6 133 41 162 70 46 12 93 93 162 162 162 41 41 41 41 41 41 41 29 70 162 238 145 116 122 99 185 180 255 46 46 12 93 29 232 191 81 116 116 128 122 0 0 0 0 0
0 0 0 0 0 0 0 99 249 220 81 145 191 87 156 255 35 35 35 17 145 220 0 249 23 145 93 162 162 93 12 139 75 12 70 70 70 29 174 6 6 6 6 6 6 6 6 6 6 6 6 6 6 6 6 6 6 6 6 6 6 6 6 6 6 6 6 6 6 174 174 41 191 145 226 197 168 81 203 162 174 6 6 6 6 6 6 6 6 6 6 6 6 6 6 6 6 6 6 6 174 41 203 17 52 168 145 203 174 174 174 6 6 6 6 6 6 6 6 6 6 6 6 6 6 6 6 6 6 6 6 6 6 6 6 174 41 162 93 12 35 35 12 12 70 93 93 93 203 232 232 232 162 162 162 203 238 180 128 122 249 185 81 255 46 46 12 93 29 232 191 81 116 116 128 122 0 0 0 0 0
0 0 0 0 0 0 0 99 249 220 81 145 191 87 156 255 35 35 35 255 145 220 99 249 185 145 93 93 70 46 12 75 12 12 70 70 29 174 6 6 6 6 174 174 133 133 133 133 174 6 6 6 6 6 6 6 6 6 6 6 6 6 6 6 6 6 6 6 6 6 174 41 191 238 226 226 168 145 203 29 174 6 6 6 6 6 6 6 6 6 6 6 6 6 6 6 6 6 6 6 174 41 162 255 64 52 17 162 174 174 174 6 6 6 6 6 6 6 6 6 6 6 6 6 6 6 6 6 6 6 6 6 6 6 6 6 133 29 162 93 12 75 35 35 35 35 12 12 12 12 12 12 255 203 203 203 145 168 99 122 249 185 81 12 35 46 12 203 174 232 191 81 52 168 99 0 0 0 0 0 0
0 0 0 0 0 0 0 99 249 220 81 145 203 87 232 93 35 35 35 255 145 180 99 99 185 81 17 255 12 46 46 12 12 70 162 29 174 6 6 6 174 133 133 41 41 41 41 41 41 133 174 6 6 6 6 6 6 6 6 6 6 6 6 6 6 6 6 6 6 6 6 133 232 238 226 226 81 17 162 174 6 6 6 6 6 6 6 6 6 6 6 6 6 6 6 6 6 6 6 6 6 133 41 93 255 64 93 29 6 174 174 6 6 6 6 6 6 6 6 6 6 6 6 6 6 6 6 6 6 6 6 6 6 6 6 6 174 174 29 162 93 93 12 12 46 35 35 75 75 75 75 35 75 255 17 64 64 116 122 122 249 185 64 35 35 46 12 203 174 156 191 52 52 168 99 0 0 0 0 0 0
0 0 0 0 0 0 0 99 249 220 81 145 203 133 232 93 35 35 35 255 145 180 99 122 249 116 52 52 75 12 46 12 93 162 29 174 6 174 174 133 133 41 41 41 162 162 70 93 162 41 133 174 6 6 6 6 6 6 6 6 6 6 6 6 6 6 6 6 6 6 6 133 232 203 52 52 81 255 162 174 6 6 6 6 6 6 6 6 6 6 174 174 174 174 6 6 6 6 6 6 6 174 29 162 93 93 162 6 6 6 6 6 6 6 6 6 6 6 6 6 6 6 6 6 6 6 174 174 174 174 6 6 6 6 6 6 6 174 133 29 162 162 93 93 12 12 12 255 255 75 12 12 64 64 226 226 226 128 122 99 185 180 255 46 35 46 12 203 133 156 238 52 52 116 99 0 0 0 0 0 0
0 0 0 0 0 0 0 99 249 220 168 145 17 174 232 12 35 35 35 255 238 180 99 122 99 220 168 81 75 46 12 93 162 29 6 174 133 133 41 41 41 162 203 203 93 12 46 46 70 70 162 29 174 6 6 6 6 6 6 6 6 6 6 6 6 6 6 6 6 6 6 174 41 232 64 64 255 93 29 174 6 6 6 6 6 6 6 174 174 174 174 174 174 174 174 174 6 6 6 6 6 6 174 29 162 29 174 6 6 6 6 6 6 6 6 6 6 6 6 6 6 6 6 6 6 133 133 41 41 133 133 174 6 6 174 174 174 6 6 6 174 133 29 162 162 93 93 93 93 12 46 12 255 64 226 104 116 128 0 99 185 180 255 46 35 46 12 93 174 232 17 81 168 128 122 0 0 0 0 0 0
0 0 0 0 0 0 0 99 249 220 168 145 203 174 232 12 35 35 35 93 238 180 99 0 99 185 180 81 12 70 93 162 174 174 133 41 41 41 162 162 93 203 255 255 75 75 12 46 46 46 70 162 29 174 6 6 6 6 6 6 6 6 6 6 6 6 6 6 6 6 6 6 133 41 93 255 93 29 29 6 6 6 6 6 6 174 174 29 41 41 29 29 29 41 29 174 174 174 6 6 6 6 6 174 174 174 6 6 6 6 6 6 6 6 6 6 6 6 6 6 6 6 6 174 133 133 29 162 162 162 41 133 133 133 133 133 133 133 133 133 174 6 174 133 29 29 162 162 162 70 70 46 93 255 52 116 116 128 0 99 185 180 255 46 35 46 12 93 174 232 17 81 168 128 122 0 0 0 0 0 0
0 0 0 0 0 0 0 99 249 220 168 145 203 174 232 12 35 35 35 93 145 180 99 0 99 185 180 64 70 70 93 174 133 133 41 41 162 93 93 203 203 255 75 139 139 75 35 35 46 46 46 70 29 133 174 6 6 6 6 6 6 6 6 6 6 6 6 6 6 6 6 174 174 133 162 93 29 174 174 6 6 6 6 6 174 174 29 29 162 162 162 162 162 162 162 29 174 174 174 6 6 6 6 6 6 174 6 6 174 6 6 6 6 6 6 6 6 6 6 6 6 6 174 174 133 29 70 70 12 70 162 29 41 41 41 41 41 41 41 29 29 133 133 6 6 174 174 29 29 29 29 70 70 255 145 81 116 99 0 99 185 180 255 46 35 46 93 255 133 232 17 81 168 99 122 0 0 0 0 0 0
0 0 0 0 0 0 122 99 249 116 168 81 203 174 41 93 35 35 35 255 145 180 99 0 249 185 180 255 70 70 29 133 41 29 162 93 93 203 255 255 75 139 226 226 64 75 35 46 46 46 46 46 70 162 133 6 6 6 6 6 6 6 6 6 6 6 6 6 6 6 6 6 6 174 29 29 174 174 174 6 6 6 174 133 133 29 29 162 93 203 255 93 70 46 70 70 29 29 174 6 6 6 6 6 6 6 6 6 6 6 6 6 6 6 6 6 6 6 6 6 6 6 174 174 29 162 70 46 46 46 46 70 162 162 70 70 70 70 70 162 162 41 41 41 133 174 174 6 174 133 29 29 70 93 17 81 220 99 0 249 185 81 75 35 46 35 17 232 87 191 238 81 168 128 122 0 0 0 0 0 0
0 0 0 0 0 0 122 99 249 116 168 81 17 29 29 93 35 35 35 12 17 180 249 0 99 185 180 255 70 70 29 41 70 70 70 93 255 64 139 139 226 52 52 64 75 35 46 46 46 46 46 46 70 162 29 174 174 6 6 6 6 6 6 6 6 6 6 6 6 6 6 6 6 6 174 174 174 174 6 6 6 174 174 133 29 162 70 93 93 255 64 12 46 46 46 70 70 29 133 174 6 6 6 6 6 6 6 6 6 6 6 6 6 6 6 6 6 6 6 6 6 6 6 174 29 162 70 46 35 35 46 70 46 35 46 46 46 46 70 70 93 162 162 162 41 41 133 133 133 174 29 29 70 93 17 145 220 99 122 249 185 81 12 35 46 12 17 232 87 191 17 145 168 128 0 0 0 0 0 0 0
0 0 0 0 0 0 0 99 128 128 168 81 17 162 174 41 12 35 35 12 17 180 249 0 99 185 180 255 46 46 70 29 46 12 93 255 139 197 226 226 52 64 75 12 35 46 46 46 46 46 46 46 46 70 162 29 133 174 6 174 6 6 6 6 6 6 6 6 6 6 6 6 6 6 6 174 6 6 6 6 6 174 133 29 70 70 46 93 255 139 139 64 12 46 46 46 70 162 29 174 6 6 6 6 6 6 6 6 6 6 6 6 6 6 6 6 6 6 6 6 6 174 174 6 133 41 70 46 46 35 35 12 12 12 46 46 46 35 12 12 93 93 93 93 93 93 162 41 133 174 174 41 162 93 17 145 220 99 122 185 185 64 46 46 46 12 17 41 87 191 17 145 168 99 0 0 0 0 0 0 0
0 0 0 0 0 0 0 99 99 128 168 81 17 93 174 41 93 35 35 35 17 145 220 0 249 185 180 255 46 46 46 70 70 93 255 75 139 226 139 64 75 35 46 46 46 35 35 46 46 46 46 46 46 46 70 162 29 133 6 6 174 6 6 6 6 6 6 6 6 6 6 6 6 6 6 6 6 6 6 6 6 133 41 162 46 35 35 12 64 139 226 81 255 46 46 46 12 93 162 174 6 6 6 6 6 6 6 6 6 6 6 6 6 6 6 6 6 6 6 6 174 174 174 174 174 29 162 70 46 46 35 12 255 203 93 12 12 35 35 35 255 255 255 255 255 255 203 93 162 29 174 133 162 93 17 145 168 99 99 185 180 64 46 35 46 255 238 41 156 191 17 145 168 99 0 0 0 0 0 0 0
0 0 0 0 0 0 0 99 99 128 220 81 17 93 174 41 93 35 35 35 255 145 220 122 249 185 168 255 12 46 46 93 93 255 75 139 139 139 75 12 35 46 46 46 35 35 46 46 46 46 46 46 46 46 46 70 162 29 133 6 6 6 6 6 6 6 6 6 6 6 6 6 6 6 6 6 6 6 6 6 6 133 41 70 46 35 35 12 255 139 226 81 255 46 46 46 12 93 162 174 6 6 6 6 6 6 6 6 6 6 6 6 6 6 6 6 6 6 6 174 174 174 174 174 174 174 29 162 12 46 93 255 139 139 64 255 75 35 35 75 75 139 139 139 64 17 17 255 93 162 29 174 162 93 17 145 168 99 99 185 180 255 46 35 35 255 203 133 156 191 17 145 220 99 0 0 0 0 0 0 0
0 0 0 0 0 0 0 99 99 128 116 180 145 203 174 41 162 12 35 35 255 145 180 122 249 220 168 64 255 12 93 255 255 64 139 139 139 139 75 75 12 93 255 12 12 35 46 46 46 46 46 70 70 70 46 46 70 162 29 174 6 6 6 6 6 6 6 6 6 6 6 6 6 6 6 6 6 6 6 6 174 133 41 70 35 46 46 12 255 139 226 64 12 46 46 46 35 93 162 174 6 6 174 6 6 6 6 6 6 6 6 6 6 6 6 6 6 6 6 174 174 174 174 29 174 6 174 41 93 70 93 12 64 52 139 139 139 75 35 35 75 52 52 139 139 139 52 64 255 93 162 29 70 93 17 145 168 128 122 185 180 255 46 35 46 255 203 133 156 203 17 145 220 122 0 0 0 0 0 0 0
0 0 0 0 0 0 0 122 99 128 116 168 145 203 174 41 232 12 35 35 255 238 180 122 249 128 104 226 52 75 255 75 139 139 226 226 226 139 139 64 255 255 64 255 75 75 35 35 46 46 46 12 12 35 35 46 46 70 162 133 6 6 6 6 6 6 6 6 6 6 6 6 6 6 6 6 6 6 6 6 174 133 41 70 46 46 46 46 93 75 139 64 12 46 46 46 46 93 162 174 6 6 174 6 6 6 6 6 6 6 6 6 6 6 6 6 6 6 6 174 174 174 174 174 174 174 6 174 133 162 93 255 255 255 64 139 139 75 75 35 12 255 64 64 52 226 197 226 64 255 93 162 70 93 17 81 116 128 122 185 180 255 46 35 46 93 203 133 156 203 17 145 220 122 0 0 0 0 0 0 0
0 0 0 0 0 0 0 122 99 128 116 168 145 191 133 133 41 93 35 35 255 145 180 122 249 128 197 104 116 139 75 139 197 197 197 197 197 226 226 139 139 139 139 139 139 75 75 35 46 46 46 35 35 35 35 35 46 12 162 29 6 6 6 6 6 6 6 6 6 6 6 6 6 6 6 6 6 6 6 6 174 133 162 70 46 46 46 35 93 75 139 64 12 46 46 46 12 93 162 174 6 174 6 6 6 6 6 6 6 6 6 6 6 6 6 6 6 6 6 174 174 174 174 174 174 174 6 174 174 29 162 162 93 93 12 12 139 75 75 75 35 46 12 12 255 64 168 104 226 64 255 93 93 93 17 81 116 243 99 185 180 255 46 35 46 93 162 133 232 17 17 145 249 0 0 0 0 0 0 0 0
0 0 0 0 0 0 0 0 99 249 116 116 180 238 41 174 41 162 35 35 255 145 180 122 249 116 104 116 52 75 64 52 226 226 104 197 197 197 197 104 226 116 116 52 52 139 75 35 35 35 35 35 35 35 35 35 46 12 162 133 6 6 174 6 6 6 6 6 6 6 6 6 6 6 6 6 6 6 6 6 6 133 41 70 46 46 46 12 93 75 139 64 255 46 70 12 12 162 174 6 6 6 6 6 6 6 6 6 6 6 6 6 6 6 6 6 6 174 174 174 174 174 174 174 174 174 6 6 174 174 29 29 162 70 70 12 12 75 35 35 46 46 46 46 12 255 64 81 52 197 139 255 203 17 64 168 128 122 99 185 180 255 35 35 46 255 162 133 232 17 145 180 249 0 0 0 0 0 0 0 0
0 0 0 0 0 0 0 0 122 249 116 116 180 238 41 6 41 162 12 35 12 17 180 99 249 116 226 52 75 12 255 255 64 81 168 168 168 168 168 168 81 81 64 64 64 75 35 35 46 46 35 35 35 35 35 46 12 93 162 174 6 6 6 6 6 6 6 6 6 6 6 6 6 6 6 6 6 6 6 6 6 133 133 162 70 70 70 12 255 139 226 64 12 70 70 70 70 29 174 6 6 6 6 6 6 6 6 6 6 6 6 6 6 6 6 6 6 174 133 41 29 29 29 133 133 133 133 133 174 6 6 174 29 162 70 93 12 12 35 35 46 12 12 70 12 12 255 255 64 139 139 139 52 52 226 116 128 0 249 185 81 12 35 35 12 17 162 41 191 17 145 180 249 0 0 0 0 0 0 0 0
0 0 0 0 0 0 0 0 122 249 128 116 168 145 232 174 41 162 12 35 35 17 145 128 99 220 168 64 12 46 46 93 255 255 64 81 81 81 81 64 255 255 255 93 12 12 46 46 46 46 35 35 35 35 46 46 12 162 29 6 6 6 6 6 6 6 6 6 6 6 6 6 6 6 6 6 6 6 6 6 6 6 174 29 29 162 70 93 255 139 226 64 12 12 70 29 29 174 6 6 6 6 6 6 6 6 6 6 6 6 6 6 6 6 6 6 174 133 29 162 162 162 162 162 41 41 41 41 41 133 133 174 6 174 29 162 70 93 12 12 93 93 93 93 70 70 70 70 70 255 64 226 197 197 104 116 128 0 249 185 81 12 35 35 12 17 41 87 191 17 145 180 99 0 0 0 0 0 0 0 0
0 0 0 0 0 0 0 0 122 99 128 116 168 145 203 133 133 162 12 35 35 255 145 220 122 220 168 81 12 12 12 70 93 93 255 255 255 255 255 255 93 93 93 93 93 70 70 70 12 35 35 35 35 35 35 12 93 162 174 6 6 6 6 6 6 6 6 6 6 6 6 6 6 6 6 6 6 6 6 6 6 6 6 174 29 162 70 93 255 139 52 64 46 12 93 29 174 174 6 6 6 6 6 6 6 6 6 6 6 6 6 6 6 6 6 174 133 41 162 46 46 46 70 70 93 162 162 162 162 162 41 41 133 174 174 174 162 162 93 93 162 162 162 29 29 29 70 46 46 12 255 81 226 197 197 116 128 122 185 180 64 35 46 46 12 17 41 87 191 17 145 168 99 0 0 0 0 0 0 0 0
0 0 0 0 0 0 0 0 0 99 249 116 116 81 17 29 29 162 12 35 35 255 145 220 122 249 220 81 255 12 12 29 162 93 93 93 93 93 93 93 162 162 162 162 162 162 70 70 93 12 12 12 12 12 12 12 93 29 6 6 6 6 6 6 6 6 6 6 6 6 6 6 6 6 6 6 6 6 6 6 6 6 6 174 133 41 93 255 255 139 52 255 46 35 93 162 29 174 6 6 6 6 6 6 6 6 6 6 6 6 6 6 6 6 6 6 133 41 162 35 46 46 46 46 46 46 46 70 70 70 70 162 232 41 41 174 174 29 162 29 29 174 174 174 174 29 162 70 46 46 93 17 52 104 104 116 243 122 185 180 255 35 46 46 12 17 174 156 203 64 81 168 99 0 0 0 0 0 0 0 0
0 0 0 0 0 0 0 0 0 122 249 128 116 168 17 93 70 162 12 35 35 255 145 220 0 249 220 81 255 12 93 162 29 29 29 162 162 29 29 29 174 174 174 174 174 174 29 29 29 70 70 93 93 93 93 93 29 174 6 6 6 6 6 6 6 6 6 6 6 6 6 6 6 6 6 6 6 6 6 6 6 6 6 174 133 41 93 255 255 139 52 64 46 35 12 162 29 174 6 6 6 6 6 6 6 6 6 6 6 6 6 6 6 6 6 6 174 133 162 12 46 46 46 35 35 35 46 46 46 46 46 93 93 93 162 162 133 174 6 6 6 6 174 6 6 174 133 162 70 70 70 203 81 116 226 116 122 99 185 180 255 35 35 46 255 203 174 232 203 64 81 168 99 0 0 0 0 0 0 0 0
0 0 0 0 0 0 0 0 0 122 99 128 116 168 81 17 70 29 93 12 35 255 145 180 122 99 220 168 64 12 12 162 29 174 174 174 174 6 133 133 133 41 41 41 41 41 29 29 29 29 29 29 29 162 162 29 174 6 6 6 6 6 6 6 6 6 6 6 6 6 6 6 6 6 6 6 6 6 6 6 6 6 174 174 41 162 93 255 64 197 226 64 12 35 12 93 162 174 6 6 174 174 6 6 6 6 6 6 6 6 6 6 6 6 6 6 6 174 29 162 70 70 12 12 12 35 35 46 46 46 46 12 75 255 12 93 162 41 133 133 133 133 133 133 133 174 6 133 162 70 46 93 17 168 226 128 122 249 185 180 12 35 35 46 255 162 133 191 17 64 81 220 99 0 0 0 0 0 0 0 0
0 0 0 0 0 0 0 0 0 0 99 249 116 168 81 17 162 133 162 12 35 12 17 180 99 99 249 168 64 255 12 93 162 29 6 6 174 133 41 41 41 162 162 93 93 162 162 70 162 162 29 29 29 174 174 174 6 6 6 6 6 6 6 6 6 6 6 6 6 6 6 6 6 6 6 6 6 6 6 6 6 174 133 133 133 162 93 12 64 226 197 52 255 35 12 93 162 174 6 174 174 174 174 174 6 6 6 6 6 6 6 6 6 6 6 174 6 6 174 41 93 93 93 93 93 12 70 46 46 46 46 12 75 75 75 12 93 162 41 41 41 41 232 232 41 29 174 133 41 70 70 203 17 116 104 128 122 249 185 81 35 46 35 12 203 29 87 191 17 81 81 220 122 0 0 0 0 0 0 0 0
0 0 0 0 0 0 0 0 0 0 99 249 104 116 180 17 41 133 232 93 35 12 17 180 128 122 128 116 81 64 12 93 93 133 6 133 133 41 93 93 93 93 93 93 93 12 12 46 46 70 70 70 162 133 6 6 6 6 6 6 6 6 6 6 6 6 6 6 6 6 6 6 6 6 6 6 6 6 6 6 133 133 41 162 29 70 46 12 255 64 197 168 64 12 12 93 29 174 133 133 29 29 29 133 6 6 6 6 6 6 174 6 6 6 6 6 6 6 6 174 133 133 41 162 162 70 70 70 46 46 46 93 255 139 139 255 12 70 162 162 162 203 203 203 203 162 41 133 29 70 93 203 52 226 104 104 243 249 180 64 46 35 35 93 203 6 156 203 255 64 168 249 0 0 0 0 0 0 0 0 0
0 0 0 0 0 0 0 0 0 0 122 249 116 116 180 17 162 6 41 93 35 12 17 180 220 122 99 220 168 64 12 12 162 174 174 29 162 162 93 203 203 203 17 255 75 35 35 35 46 46 46 12 93 29 6 6 6 6 6 6 6 6 6 6 6 6 6 6 6 6 6 6 6 6 6 6 6 6 6 133 133 41 162 70 70 70 46 46 203 17 197 116 64 12 12 93 29 174 174 29 162 70 162 29 133 6 6 6 6 6 6 6 6 6 6 6 6 6 6 6 6 6 6 174 174 174 29 29 70 46 46 70 255 75 139 64 255 12 70 93 93 255 255 64 17 93 162 162 70 70 93 17 52 226 104 104 243 185 180 255 46 35 35 255 203 133 156 17 64 81 168 128 0 0 0 0 0 0 0 0 0
0 0 0 0 0 0 0 0 0 0 122 99 128 116 168 145 203 29 41 162 12 35 255 145 220 122 99 249 220 81 255 12 70 29 174 41 93 93 255 64 52 139 139 226 139 75 35 35 46 46 12 12 162 174 6 6 6 6 6 6 6 6 6 6 6 6 6 6 6 6 6 6 6 6 6 6 6 6 174 133 41 70 12 46 46 12 46 70 203 17 197 116 64 12 12 93 29 29 29 29 70 70 70 162 29 174 6 6 6 6 6 6 6 6 6 6 6 6 6 6 6 133 133 133 41 29 162 162 162 93 93 70 93 64 139 226 75 12 12 12 12 75 139 139 52 64 93 93 70 93 203 64 226 104 104 128 128 185 180 255 35 46 12 17 162 87 156 255 64 81 220 99 0 0 0 0 0 0 0 0 0
0 0 0 0 0 0 0 0 0 0 0 99 249 116 116 81 17 162 133 232 12 35 255 145 220 99 0 99 220 180 64 12 12 70 29 29 93 255 255 139 226 226 226 52 75 12 46 46 46 46 70 70 29 174 6 6 6 6 6 6 6 6 6 6 6 6 6 6 6 6 6 6 6 6 6 6 6 6 174 41 162 93 35 35 12 12 255 203 93 64 197 168 64 12 12 70 29 29 29 70 46 46 70 93 162 174 6 6 6 6 6 6 6 6 6 6 6 6 6 174 133 133 41 162 162 70 93 203 203 255 255 255 35 75 52 226 139 75 35 35 75 139 52 52 226 139 75 255 255 203 17 52 104 128 243 243 249 185 81 12 35 46 255 238 133 156 191 255 64 81 220 122 0 0 0 0 0 0 0 0 0
0 0 0 0 0 0 0 0 0 0 0 122 99 128 116 168 145 203 174 41 93 35 255 17 168 128 122 122 249 220 81 255 12 12 70 29 70 12 255 52 52 52 139 75 35 46 46 46 46 46 70 29 41 133 174 6 6 6 6 6 6 6 6 6 6 6 6 6 6 6 6 6 6 6 6 6 6 6 174 133 41 93 35 35 12 75 75 255 64 139 226 168 255 46 46 46 70 70 70 46 35 35 12 93 162 174 6 6 6 6 6 6 6 6 6 6 6 6 174 174 133 29 162 93 93 93 12 255 64 139 139 139 75 139 64 64 64 75 75 75 75 255 255 17 64 75 75 75 64 17 52 116 128 243 122 122 185 180 64 46 35 12 17 232 87 156 203 139 17 81 128 122 0 0 0 0 0 0 0 0 0
0 0 0 0 0 0 0 0 0 0 0 0 99 249 116 168 81 17 41 41 93 12 12 17 81 220 99 122 99 220 168 64 93 46 70 46 46 46 12 255 75 75 35 35 12 12 35 35 70 70 70 70 162 162 29 174 6 6 6 6 6 6 6 6 6 6 6 6 6 6 6 6 6 6 6 6 6 6 6 133 41 93 12 35 75 75 139 139 226 197 116 81 255 46 46 46 46 46 46 46 35 35 12 12 162 133 6 6 6 6 6 6 6 6 6 6 6 6 174 133 29 162 93 93 255 12 75 139 226 226 226 52 64 64 255 93 93 93 93 93 93 93 93 93 93 12 255 64 226 52 116 128 243 122 0 99 185 180 255 35 35 255 17 41 87 156 255 64 145 168 99 0 0 0 0 0 0 0 0 0 0
0 0 0 0 0 0 0 0 0 0 0 0 122 249 116 116 81 145 41 133 232 12 12 255 145 168 128 122 122 249 220 180 17 12 46 46 46 46 46 46 46 12 12 12 12 12 46 46 12 35 46 46 46 93 162 133 6 6 6 6 6 6 6 6 6 6 6 6 6 6 6 6 6 6 6 6 6 6 6 174 133 162 70 12 12 75 75 139 226 104 116 81 12 46 46 46 46 12 12 12 35 35 12 93 162 133 6 6 6 6 6 6 6 6 6 6 6 6 133 41 162 93 12 75 75 75 139 64 81 81 64 64 255 93 93 162 93 162 162 93 93 162 162 70 70 70 255 81 168 116 128 99 0 122 122 249 185 180 12 35 12 203 203 6 156 232 255 17 81 220 122 0 0 0 0 0 0 0 0 0 0
0 0 0 0 0 0 0 0 0 0 0 0 122 99 128 116 168 145 232 6 41 93 12 255 145 180 128 122 0 99 249 220 81 255 70 46 46 46 35 46 12 12 75 139 139 75 35 35 35 35 35 46 46 12 93 29 6 6 6 6 6 6 6 6 6 6 6 6 6 6 6 6 6 6 6 6 6 6 174 174 174 29 162 70 46 70 12 64 52 226 226 64 12 46 46 12 12 255 255 75 75 75 12 93 162 174 6 6 6 6 6 6 6 6 6 6 6 6 133 41 93 12 255 139 139 139 75 12 12 12 255 93 93 162 162 29 29 6 6 174 174 174 29 41 70 70 93 17 81 116 243 122 0 122 99 249 185 81 70 35 12 203 41 87 156 203 64 17 168 128 122 0 0 0 0 0 0 0 0 0 0
0 0 0 0 0 0 0 0 0 0 0 0 0 99 249 116 168 81 17 41 133 232 93 255 17 180 249 122 0 122 99 220 168 81 255 70 46 46 46 12 93 75 139 64 75 12 12 46 75 12 12 12 12 93 162 174 6 6 6 6 174 174 174 6 6 6 6 6 6 6 6 6 6 6 174 6 174 133 133 41 133 174 174 29 70 46 46 12 255 64 226 64 12 35 70 255 255 75 139 139 75 12 12 93 29 174 6 6 6 6 6 6 6 6 6 6 6 174 133 41 93 93 12 64 139 139 75 46 46 46 70 70 29 29 174 174 133 41 41 29 133 133 41 29 70 70 93 17 81 128 122 122 0 99 249 220 168 64 35 35 93 17 133 214 191 75 64 81 220 128 0 0 0 0 0 0 0 0 0 0 0
0 0 0 0 0 0 0 0 0 0 0 0 0 122 249 128 168 81 17 232 174 41 93 12 203 145 220 99 0 122 122 128 116 168 64 255 93 203 203 255 75 139 64 75 12 12 12 93 255 93 93 93 162 162 29 6 6 6 6 174 133 133 133 133 174 6 6 6 6 6 6 6 6 6 6 6 133 133 162 162 162 29 29 29 29 70 46 46 255 64 197 64 12 35 93 255 139 226 52 64 75 12 93 93 133 6 6 6 6 6 6 6 6 6 6 6 6 6 174 133 162 93 12 255 75 75 75 46 46 70 70 29 174 174 133 41 41 162 162 162 41 41 162 70 70 93 203 17 168 128 122 122 122 99 249 220 168 75 46 12 203 162 87 156 203 75 64 81 128 122 0 0 0 0 0 0 0 0 0 0 0
0 0 0 0 0 0 0 0 0 0 0 0 0 0 99 249 116 168 64 17 41 133 232 12 93 17 180 249 122 99 99 122 243 116 168 64 17 17 17 75 52 64 12 46 70 70 162 93 162 162 29 29 29 174 6 6 6 6 174 133 41 162 162 29 174 174 6 6 6 174 6 6 6 6 6 133 41 29 70 70 70 70 29 29 29 162 70 46 93 255 139 139 255 35 255 64 226 52 52 75 46 46 70 162 174 6 6 6 6 6 6 6 6 6 6 6 6 6 6 174 41 162 70 46 12 35 35 35 12 70 70 162 133 133 41 162 70 93 93 93 93 162 70 12 93 93 17 52 104 243 122 122 122 249 220 220 52 12 46 255 203 6 156 191 64 64 81 168 99 0 0 0 0 0 0 0 0 0 0 0 0
0 0 0 0 0 0 0 0 0 0 0 0 0 0 122 249 220 116 52 17 203 133 41 93 12 255 145 220 99 99 243 243 243 243 104 226 52 52 226 168 52 75 46 70 70 29 29 29 174 174 174 174 6 6 6 6 6 6 133 41 29 70 70 70 29 29 174 6 6 6 6 6 6 6 174 133 41 162 46 35 46 46 70 29 29 29 70 46 12 255 139 139 64 35 12 64 64 64 75 46 46 70 93 162 174 6 6 6 6 6 6 6 6 6 6 174 6 6 6 6 133 29 70 70 46 35 35 35 12 46 70 162 29 133 41 93 12 35 35 75 255 203 203 203 255 255 64 226 243 243 243 243 122 249 185 168 75 35 93 17 162 87 156 203 75 64 81 128 122 0 0 0 0 0 0 0 0 0 0 0 0
0 0 0 0 0 0 0 0 0 0 0 0 0 0 0 99 249 116 52 81 17 162 29 162 75 12 17 168 128 243 104 197 104 197 243 104 197 197 116 168 255 46 46 70 70 29 174 6 6 6 6 174 6 6 6 6 6 174 133 41 70 46 46 12 162 162 133 6 6 6 6 6 6 6 174 133 162 70 46 46 46 46 46 70 70 29 70 70 46 93 64 139 52 255 35 75 12 46 46 46 46 12 162 29 6 6 6 6 6 6 174 174 6 6 6 6 6 6 6 6 174 41 162 70 46 46 35 35 35 46 70 93 162 6 41 162 12 12 75 75 75 64 17 17 64 64 226 243 243 243 243 243 122 185 180 64 35 12 17 203 133 156 191 255 64 81 168 99 0 0 0 0 0 0 0 0 0 0 0 0 0
0 0 0 0 0 0 0 0 0 0 0 0 0 0 0 122 99 128 116 52 64 203 29 29 12 12 255 81 220 243 243 104 197 197 197 104 197 104 168 81 12 46 70 70 70 174 174 174 174 6 174 174 174 6 6 6 174 133 41 162 70 46 46 46 93 162 133 6 6 6 6 6 6 6 133 41 162 46 46 46 46 46 46 46 46 70 46 70 46 93 17 197 168 255 46 46 46 46 46 46 12 93 162 174 6 6 6 6 6 174 174 133 133 133 133 174 6 6 6 6 174 133 41 70 35 46 35 35 35 35 46 70 162 133 6 29 162 70 12 255 64 52 226 226 52 226 197 243 243 104 104 243 249 185 168 75 12 255 191 41 214 156 203 64 64 168 128 122 0 0 0 0 0 0 0 0 0 0 0 0 0
0 0 0 0 0 0 0 0 0 0 0 0 0 0 0 0 99 249 116 52 52 17 203 174 162 93 255 17 180 128 122 128 104 197 243 243 197 116 168 64 46 46 70 70 174 174 174 174 174 174 174 174 6 6 6 6 174 133 41 70 46 46 12 35 12 93 29 174 6 6 6 6 6 174 133 41 162 46 35 46 46 46 46 46 46 46 46 46 46 93 17 197 52 255 35 46 46 46 46 46 12 70 29 174 6 6 6 6 174 174 174 29 162 162 29 29 174 6 6 6 133 41 162 70 12 12 35 75 35 35 46 46 70 162 29 174 29 70 46 12 255 81 226 104 104 243 243 104 197 104 243 243 220 180 64 35 255 238 232 87 214 191 255 64 81 116 122 122 0 0 0 0 0 0 0 0 0 0 0 0 0
0 0 0 0 0 0 0 0 0 0 0 0 0 0 0 0 122 99 128 116 52 64 17 232 133 162 93 203 145 220 122 128 104 197 197 243 197 116 168 255 46 46 70 29 174 174 174 6 174 174 6 6 6 6 6 6 174 133 162 70 12 12 12 75 12 70 29 29 174 6 6 6 6 6 133 41 162 12 35 12 12 12 46 46 46 46 46 46 46 255 17 197 52 255 12 46 46 46 46 70 70 29 29 174 6 6 6 6 6 133 41 29 70 70 162 162 29 174 6 6 133 41 70 70 46 35 75 75 35 35 46 70 93 93 162 41 174 70 46 70 203 17 52 226 104 243 128 197 104 104 243 249 185 81 35 12 17 191 133 214 156 203 139 64 81 128 0 0 0 0 0 0 0 0 0 0 0 0 0 0 0
0 0 0 0 0 0 0 0 0 0 0 0 0 0 0 0 0 99 249 116 226 52 145 238 41 41 203 255 17 81 220 122 128 104 197 104 104 220 180 255 12 46 70 29 174 174 174 6 174 174 174 6 6 6 6 6 133 41 162 70 12 12 75 75 12 12 70 162 29 174 6 6 6 6 133 41 93 12 12 75 64 255 12 46 46 46 46 46 46 93 17 226 197 52 64 12 46 46 12 70 162 29 174 6 6 6 6 174 6 133 41 70 46 46 46 12 162 29 174 6 133 41 162 70 12 12 12 12 35 35 35 12 93 93 93 93 70 29 70 12 203 17 226 104 243 128 104 197 226 243 128 185 168 75 12 17 238 87 87 58 191 255 64 81 168 99 0 0 0 0 0 0 0 0 0 0 0 0 0 0 0
0 0 0 0 0 0 0 0 0 0 0 0 0 0 0 0 0 122 99 128 116 226 64 145 232 133 232 203 255 145 168 99 243 104 197 104 243 128 180 17 12 46 70 29 174 174 174 6 174 174 6 6 6 6 6 6 133 41 162 70 12 75 75 139 75 12 46 70 162 29 174 6 6 6 133 41 162 12 255 255 139 64 255 12 46 46 46 46 46 93 255 139 226 226 64 12 46 35 12 93 162 174 6 6 6 6 6 6 6 174 133 162 70 46 46 12 93 162 133 174 6 174 29 162 93 93 12 12 46 46 12 12 75 75 255 93 93 162 93 93 17 52 104 104 243 128 197 226 104 243 220 220 64 75 255 238 232 209 214 156 255 64 52 168 128 0 0 0 0 0 0 0 0 0 0 0 0 0 0 0 0
0 0 0 0 0 0 0 0 0 0 0 0 0 0 0 0 0 0 122 249 220 226 52 81 238 232 87 232 203 17 81 220 122 243 104 197 104 128 220 145 93 46 70 70 29 174 29 174 174 6 6 6 6 6 6 174 133 41 162 46 46 12 75 75 35 35 46 46 70 162 133 6 6 6 174 41 162 93 255 255 226 139 139 75 46 46 46 46 70 93 75 139 52 52 139 35 46 46 12 93 162 174 6 6 6 6 6 6 6 6 133 41 70 70 12 12 12 93 41 133 6 6 174 29 162 162 162 93 12 46 46 12 75 139 75 75 255 203 203 17 64 226 104 243 243 243 197 104 243 249 220 52 75 255 17 203 87 214 156 203 139 52 168 128 122 0 122 0 0 0 0 0 0 0 0 0 0 0 0 0 0
0 0 0 0 0 0 0 0 0 0 0 0 0 0 0 0 0 0 0 99 249 116 226 52 145 191 87 87 191 17 145 168 128 243 243 197 104 243 220 180 255 46 46 70 29 29 29 29 174 6 6 6 6 6 6 174 133 41 70 46 46 12 12 12 35 46 46 46 70 162 41 6 6 174 6 133 29 162 12 255 64 64 75 35 35 35 12 12 93 255 139 52 75 255 35 46 46 46 12 93 29 174 6 6 6 6 6 6 6 174 133 41 70 70 12 35 75 255 162 133 6 6 6 174 174 133 29 41 162 93 12 12 12 255 75 139 139 64 64 52 226 104 243 243 243 197 104 104 128 220 168 75 75 255 203 133 87 156 203 139 139 52 116 128 0 0 0 0 0 0 0 0 0 0 0 0 0 0 0 0 0
0 0 0 0 0 0 0 0 0 0 0 0 0 0 0 0 0 0 0 122 99 128 116 226 52 238 191 87 87 191 17 81 220 243 122 243 104 243 249 180 17 12 70 70 29 29 174 174 6 6 6 6 6 6 6 133 133 29 70 46 12 70 70 70 46 46 46 46 12 93 162 174 6 174 6 133 29 29 162 12 70 12 12 35 35 35 35 75 255 52 104 81 255 46 46 46 46 46 70 162 29 6 6 6 6 6 174 6 133 133 41 29 46 46 12 75 75 255 162 29 174 6 6 6 6 6 6 6 133 162 93 93 70 12 12 255 81 226 226 226 104 243 243 128 197 104 104 243 220 168 64 35 12 17 232 87 156 191 64 139 52 116 128 122 0 0 0 0 0 0 0 0 0 0 0 0 0 0 0 0 0
0 0 0 0 0 0 0 0 0 0 0 0 0 0 0 0 0 0 0 0 122 249 116 116 139 52 238 156 87 156 238 17 81 116 122 243 197 243 99 185 145 255 70 70 29 29 174 6 6 6 6 6 6 6 174 133 29 70 70 93 93 162 70 70 70 46 46 46 46 93 162 174 6 174 6 6 174 29 162 70 70 46 46 46 46 35 35 35 255 52 116 168 255 46 46 46 46 70 70 29 174 6 6 6 6 6 6 174 133 41 162 70 46 46 35 75 75 255 162 29 174 6 6 6 174 133 133 133 133 174 174 29 162 70 46 93 17 116 243 226 104 122 128 104 104 104 243 249 220 52 75 35 255 203 41 156 156 255 139 64 168 128 122 0 0 0 0 0 0 0 0 0 0 0 0 0 0 0 0 0 0
0 0 0 0 0 0 0 0 0 0 0 0 0 0 0 0 0 0 0 0 0 99 249 220 52 139 81 238 232 87 191 17 81 168 122 122 243 243 122 249 180 17 12 70 70 29 29 174 174 174 6 6 6 6 174 174 29 70 162 162 29 29 29 29 70 70 70 46 46 93 162 133 6 6 6 6 174 174 133 29 70 12 46 46 46 46 46 46 12 255 64 139 75 46 46 46 70 70 29 174 174 6 6 6 6 6 6 133 41 162 70 35 35 46 12 12 12 93 29 174 6 6 174 133 133 41 41 29 29 29 133 133 29 70 46 93 203 168 104 226 243 128 243 197 116 243 249 220 168 75 12 255 17 29 232 191 255 139 226 52 116 99 0 0 0 0 0 0 0 0 0 0 0 0 0 0 0 0 0 0 0
0 0 0 0 0 0 0 0 0 0 0 0 0 0 0 0 0 0 0 0 0 0 99 220 116 139 139 81 191 133 232 191 145 168 128 122 243 243 122 99 220 81 255 12 70 162 29 29 133 133 133 174 174 174 174 6 29 29 29 174 174 174 41 29 70 12 93 12 12 12 162 29 6 6 6 6 6 6 174 29 29 70 70 46 46 35 46 46 46 70 12 35 75 12 46 46 70 70 29 41 133 6 6 6 6 6 174 41 41 93 35 35 35 46 46 93 93 29 174 174 133 133 133 41 41 162 162 70 29 70 70 162 70 70 70 93 17 81 116 243 122 128 197 104 104 243 249 168 64 255 255 203 232 156 191 17 139 139 52 116 128 122 0 0 0 0 0 0 0 0 0 0 0 0 0 0 0 0 0 0 0
0 0 0 0 0 0 0 0 0 0 0 0 0 0 0 0 0 0 0 0 0 0 122 99 220 116 139 139 145 232 87 191 17 81 220 122 122 243 243 0 249 220 145 93 70 46 70 162 29 29 29 41 133 133 133 174 174 6 174 174 174 133 41 162 12 93 75 139 12 12 93 41 174 6 6 6 6 6 6 174 174 29 70 70 12 12 46 46 46 70 12 75 255 255 12 46 35 70 162 162 41 133 6 6 6 6 133 41 162 12 35 75 12 12 12 162 29 174 174 133 41 41 41 162 70 70 46 46 46 46 70 70 46 46 93 203 64 52 104 243 128 243 197 104 243 128 220 168 64 17 203 232 87 156 191 64 139 52 116 116 122 0 0 0 0 0 0 0 0 0 0 0 0 0 0 0 0 0 0 0 0
0 0 0 0 0 0 0 0 0 0 0 0 0 0 0 0 0 0 0 0 0 0 0 122 128 220 226 139 52 17 41 41 17 145 168 128 122 243 243 243 122 249 168 145 255 12 70 70 70 70 70 162 162 162 162 162 29 174 174 6 133 41 162 70 46 93 75 139 255 46 12 162 133 174 6 6 6 6 6 6 174 174 29 162 162 70 70 46 35 12 255 64 52 64 255 12 12 12 12 12 93 162 133 6 6 6 133 41 162 12 35 75 12 12 93 29 174 174 133 133 162 162 70 70 46 46 46 46 46 46 70 46 46 70 203 17 168 104 243 128 104 197 104 104 243 185 180 64 255 17 232 87 156 156 255 139 52 52 116 243 0 0 0 0 0 0 0 0 0 0 0 0 0 0 0 0 0 0 0 0 0
0 0 0 0 0 0 0 0 0 0 0 0 0 0 0 0 0 0 0 0 0 0 0 0 99 249 116 139 139 81 17 133 232 17 145 220 99 122 243 243 122 122 128 168 81 255 203 93 70 70 70 70 70 70 70 70 162 29 133 6 133 41 162 46 46 12 75 139 35 70 46 70 29 29 174 6 6 6 6 6 174 174 29 29 29 29 29 70 46 70 203 64 226 226 64 255 255 255 12 12 12 93 162 133 6 6 133 41 162 12 35 75 12 93 162 29 6 133 41 29 70 12 12 46 46 46 46 46 46 46 46 35 46 93 17 64 116 243 122 128 197 104 104 243 249 185 81 17 238 191 87 214 58 17 139 139 52 116 128 0 0 0 0 0 0 0 0 0 0 0 0 0 0 0 0 0 0 0 0 0 0
0 0 0 0 0 0 0 0 0 0 0 0 0 0 0 0 0 0 0 0 0 0 0 0 122 99 220 226 139 168 145 232 41 191 238 180 128 122 243 243 243 122 122 128 168 81 17 255 255 93 70 46 46 46 46 46 12 162 29 174 174 41 162 46 70 46 75 35 12 93 12 70 70 162 133 6 6 6 6 6 6 6 174 6 174 133 29 70 46 70 203 64 226 197 226 52 64 64 255 12 12 93 162 29 6 6 174 41 162 12 75 35 75 12 93 162 174 133 162 70 12 12 35 12 46 46 46 46 46 46 46 46 93 203 64 226 104 243 243 243 197 104 243 99 220 168 81 145 238 87 214 58 191 64 226 52 168 128 122 0 0 0 0 0 0 0 0 0 0 0 0 0 0 0 0 0 0 0 0 0 0
0 0 0 0 0 0 0 0 0 0 0 0 0 0 0 0 0 0 0 0 0 0 0 0 0 122 249 220 52 52 145 191 133 232 191 145 220 128 243 243 243 243 122 122 128 116 52 52 64 255 255 12 46 46 46 46 12 93 29 174 6 133 29 70 70 46 35 12 12 75 75 12 12 162 133 6 6 6 6 6 6 6 6 174 133 133 29 70 35 12 255 64 226 197 197 226 139 139 139 139 64 255 162 174 6 6 174 133 162 93 12 35 75 75 93 162 174 41 162 93 12 75 75 12 46 46 46 46 46 46 46 70 203 17 52 104 243 243 128 197 104 104 243 249 220 180 145 238 156 209 214 151 255 139 52 52 116 122 0 0 0 0 0 0 0 0 0 0 0 0 0 0 0 0 0 0 0 0 0 0 0
0 0 0 0 0 0 0 0 0 0 0 0 0 0 0 0 0 0 0 0 0 0 0 0 0 0 99 249 168 52 81 238 156 87 156 151 180 220 122 122 243 243 243 122 122 128 116 226 226 52 64 12 12 46 46 46 12 162 29 174 174 133 29 29 70 46 12 93 75 139 64 12 12 162 29 6 6 6 6 6 6 6 174 133 41 29 70 46 70 93 255 64 226 197 104 104 226 52 52 64 255 93 29 174 6 6 6 133 41 162 12 12 35 75 12 93 29 133 162 93 255 75 139 255 46 46 46 46 46 46 12 203 17 52 104 243 99 128 197 226 116 243 122 249 180 180 238 156 209 214 58 17 139 139 52 116 99 0 0 0 0 0 0 0 0 0 0 0 0 0 0 0 0 0 0 0 0 0 0 0 0
0 0 0 0 0 0 0 0 0 0 0 0 0 0 0 0 0 0 0 0 0 0 0 0 0 0 0 99 220 226 52 145 151 87 209 58 110 180 128 122 243 243 243 243 243 122 128 104 104 226 52 64 12 46 46 46 70 162 174 174 133 133 29 70 46 46 93 255 139 52 75 46 12 162 29 174 6 6 6 6 6 174 133 29 29 70 46 46 70 255 64 139 197 104 168 168 52 64 255 12 93 162 29 174 6 6 6 133 41 162 70 12 35 35 12 93 29 133 162 93 255 75 139 255 46 46 46 46 46 70 203 17 81 104 243 243 128 104 197 226 104 122 249 185 23 238 191 87 214 58 238 139 226 52 116 243 122 0 0 0 0 0 0 0 0 0 0 0 0 0 0 0 0 0 0 0 0 0 0 0 0
0 0 0 0 0 0 0 0 0 0 0 0 0 0 0 0 0 0 0 0 0 0 0 0 0 0 0 99 249 116 52 81 238 58 209 214 151 145 220 128 122 122 243 243 243 122 122 128 116 226 52 64 75 46 46 12 70 29 174 133 41 29 70 70 46 70 12 75 52 64 12 70 12 70 29 6 6 6 6 6 6 174 133 29 70 46 46 12 93 255 139 197 104 116 52 64 75 46 70 12 12 162 174 6 6 6 174 133 133 29 70 12 35 35 12 93 162 174 162 93 93 75 139 75 12 46 46 46 46 93 203 81 116 243 243 99 104 197 104 104 243 249 220 23 110 191 87 214 214 151 81 226 226 168 128 0 0 122 0 0 0 0 0 0 0 0 0 0 0 0 0 0 0 0 0 0 0 0 0 0 0
0 0 0 0 0 0 0 0 0 0 0 0 0 0 0 0 0 0 0 0 0 0 0 0 0 0 0 122 99 249 116 52 180 151 58 209 58 151 180 220 99 243 122 243 197 243 122 99 128 104 226 52 255 70 46 46 70 29 41 41 162 70 46 12 70 12 75 139 75 12 12 70 162 29 174 6 6 6 6 6 6 174 133 162 70 46 12 255 255 139 226 197 116 81 255 46 46 46 12 70 29 174 6 6 6 133 133 41 162 46 46 12 12 75 12 93 93 133 41 12 70 255 139 139 255 70 46 12 93 17 64 168 243 122 128 104 197 104 104 243 99 185 180 23 151 87 214 214 156 17 139 226 168 128 122 0 0 0 0 0 0 0 0 0 0 0 0 0 0 0 0 0 0 0 0 0 0 0 0 0 0
0 0 0 0 0 0 0 0 0 0 0 0 0 0 0 0 0 0 0 0 0 0 0 0 0 0 0 0 99 249 116 226 52 238 151 214 209 58 238 180 220 128 122 243 243 243 128 243 243 104 116 52 64 255 12 70 46 70 70 70 70 12 12 46 35 75 75 255 255 12 70 29 29 174 6 6 6 174 174 174 174 6 133 41 70 70 12 255 64 226 104 104 168 64 12 46 46 70 70 29 174 6 6 6 133 133 41 162 70 70 46 12 255 64 64 93 70 162 29 46 12 255 64 226 64 255 93 255 17 64 52 104 243 243 128 243 197 104 104 243 249 185 23 238 156 209 214 151 17 139 226 52 116 128 0 0 0 0 0 0 0 0 0 0 0 0 0 0 0 0 0 0 0 0 0 0 0 0 0 0 0
0 0 0 0 0 0 0 0 0 0 0 0 0 0 0 0 0 0 0 0 0 0 0 0 0 0 0 0 122 99 128 116 52 81 238 58 209 214 151 238 180 220 99 122 243 243 104 243 243 243 104 116 168 64 17 93 93 93 93 93 12 35 35 35 35 12 12 12 70 70 29 174 174 174 6 6 133 133 133 133 174 6 174 133 29 70 12 12 64 64 52 226 168 64 12 46 12 162 29 174 6 6 6 174 133 41 162 93 255 12 46 12 203 139 52 255 12 70 70 46 12 203 17 197 226 64 64 64 64 226 104 243 243 243 243 197 104 104 243 249 185 23 238 191 209 214 58 238 139 226 226 116 128 122 0 0 0 0 0 0 0 0 0 0 0 0 0 0 0 0 0 0 0 0 0 0 0 0 0 0 0
0 0 0 0 0 0 0 0 0 0 0 0 0 0 0 0 0 0 0 0 0 0 0 0 0 0 0 0 0 122 99 128 116 226 81 238 58 209 214 151 238 180 220 243 99 128 197 243 243 104 243 243 116 168 81 17 17 17 17 255 12 35 35 75 35 46 70 70 70 29 174 174 6 174 174 133 133 41 41 41 29 133 6 174 29 29 70 70 70 255 64 139 52 64 12 46 12 162 29 174 6 6 6 174 41 162 93 12 75 255 12 12 203 139 226 64 255 93 93 93 93 203 64 197 104 52 52 52 226 104 243 243 243 243 243 104 104 243 249 185 23 110 156 209 214 58 191 139 139 52 168 128 122 0 0 0 0 0 0 0 0 0 0 0 0 0 0 0 0 0 0 0 0 0 0 0 0 0 0 0 0
0 0 0 0 0 0 0 0 0 0 0 0 0 0 0 0 0 0 0 0 0 0 0 0 0 0 0 0 0 0 122 249 220 226 139 180 151 58 209 214 151 238 180 220 122 128 104 104 197 197 104 243 243 104 116 52 52 52 52 64 75 75 75 35 46 46 46 70 29 29 174 6 174 174 133 133 41 162 93 162 162 29 174 6 174 133 29 162 70 12 255 139 52 64 46 46 12 162 29 174 174 174 6 133 41 162 93 255 139 139 64 255 255 52 197 226 64 17 17 17 17 64 139 197 197 104 104 226 104 104 243 104 197 197 104 104 243 249 185 23 238 191 87 214 58 191 64 139 52 52 128 122 0 0 0 0 0 0 0 0 0 0 0 0 0 0 0 0 0 0 0 0 0 0 0 0 0 0 0 0 0
0 0 0 0 0 0 0 0 0 0 0 0 0 0 0 0 0 0 0 0 0 0 0 0 0 0 0 0 0 0 0 99 249 116 226 52 145 151 214 209 156 151 238 180 249 122 128 104 197 197 104 243 243 243 128 104 104 197 197 226 52 64 12 93 93 70 46 70 29 29 133 133 133 133 29 29 162 93 12 12 93 162 29 174 6 133 41 162 46 70 203 75 139 64 46 46 12 70 29 29 174 174 6 133 41 93 93 255 139 197 139 139 75 139 197 197 226 52 52 52 52 226 104 104 104 104 128 116 243 243 99 243 104 104 243 243 249 185 23 238 191 87 214 214 191 255 139 52 52 116 122 0 0 0 0 0 0 0 0 0 0 0 0 0 0 0 0 0 0 0 0 0 0 0 0 0 0 0 0 0 0
0 0 0 0 0 0 0 0 0 0 0 0 0 0 0 0 0 0 0 0 0 0 0 0 0 0 0 0 0 0 0 122 99 249 116 226 52 145 151 214 209 214 151 238 180 220 122 128 104 197 197 104 104 104 243 128 104 197 197 197 226 52 64 17 17 255 93 70 70 162 29 29 41 162 162 162 93 75 75 255 93 162 29 174 6 133 29 29 46 93 203 139 52 64 46 46 46 70 70 29 29 174 174 133 41 93 12 255 139 197 139 139 139 139 197 197 197 226 104 226 104 197 104 104 104 104 128 243 243 99 128 243 104 243 243 249 185 23 238 191 87 214 58 156 17 139 226 52 116 122 122 0 0 0 0 0 0 0 0 0 0 0 0 0 0 0 0 0 0 0 0 0 0 0 0 0 0 0 0 0 0
0 0 0 0 0 0 0 0 0 0 0 0 0 0 0 0 0 0 0 0 0 0 0 0 0 0 0 0 0 0 0 0 122 99 128 226 226 52 238 151 214 209 214 151 238 180 249 243 104 197 197 104 104 128 128 122 243 104 104 197 197 226 52 52 52 64 17 203 93 70 70 162 162 70 70 70 12 35 75 75 93 93 29 174 174 133 29 70 46 93 17 139 168 64 70 46 46 46 70 29 29 174 174 133 41 70 12 255 64 139 197 197 197 197 197 197 197 197 197 197 104 226 104 243 243 243 122 99 99 128 197 104 243 243 249 185 23 238 191 87 209 214 58 17 139 226 226 116 128 122 0 0 0 0 0 0 0 0 0 0 0 0 0 0 0 0 0 0 0 0 0 0 0 0 0 0 0 0 0 0 0
0 0 0 0 0 0 0 0 0 0 0 0 0 0 0 0 0 0 0 0 0 0 0 0 0 0 0 0 0 0 0 0 0 99 249 116 226 226 52 145 151 214 209 214 151 110 180 128 243 104 226 197 52 168 220 104 122 243 104 226 226 104 226 226 226 226 52 64 255 203 203 203 93 93 12 12 75 139 139 75 12 93 29 174 174 133 162 70 46 93 17 197 168 64 46 46 46 70 70 70 29 174 174 133 29 70 12 255 255 52 197 197 197 197 197 197 197 197 197 104 104 104 243 243 122 99 249 249 104 197 104 104 243 249 185 23 238 156 209 214 214 156 191 64 226 226 116 128 122 0 0 0 0 0 0 0 0 0 0 0 0 0 0 0 0 0 0 0 0 0 0 0 0 0 0 0 0 0 0 0 0
0 0 0 0 0 0 0 0 0 0 0 0 0 0 0 0 0 0 0 0 0 0 0 0 0 0 0 0 0 0 0 0 0 0 99 128 116 226 139 52 238 151 214 209 214 151 110 180 128 243 104 52 52 81 81 116 128 243 243 104 104 104 104 197 197 197 226 52 81 17 17 17 255 255 35 35 75 75 75 12 12 70 29 174 174 29 29 70 12 203 17 197 168 64 12 46 12 70 70 29 29 41 41 29 70 46 12 255 64 139 197 197 197 197 197 197 197 197 104 104 243 243 243 122 99 249 128 197 197 104 104 243 249 185 23 238 191 87 214 58 156 191 64 226 226 116 128 243 122 0 0 0 0 0 0 0 0 0 0 0 0 0 0 0 0 0 0 0 0 0 0 0 0 0 0 0 0 0 0 0 0
0 0 0 0 0 0 0 0 0 0 0 0 0 0 0 0 0 0 0 0 0 0 0 0 0 0 0 0 0 0 0 0 0 0 0 99 249 116 226 226 52 238 151 58 209 214 151 238 180 116 243 168 81 12 203 81 116 104 243 243 243 243 243 104 197 197 197 197 226 226 52 52 139 139 64 75 35 35 35 70 70 162 174 133 133 29 70 46 93 203 64 197 168 64 12 46 46 70 29 29 162 162 162 70 46 70 93 255 64 226 197 197 197 197 197 197 197 104 104 243 243 243 122 99 128 104 197 197 104 104 243 249 23 23 110 156 87 209 214 151 17 139 139 226 226 116 99 122 0 0 0 0 0 0 0 0 0 0 0 0 0 0 0 0 0 0 0 0 0 0 0 0 0 0 0 0 0 0 0 0 0
0 0 0 0 0 0 0 0 0 0 0 0 0 0 0 0 0 0 0 0 0 0 0 0 0 0 0 0 0 0 0 0 0 0 0 122 99 128 116 226 139 64 145 151 58 209 214 58 238 180 220 128 168 17 93 64 226 104 104 243 243 243 243 104 197 197 197 197 197 197 197 197 226 52 64 12 46 46 46 70 70 29 41 41 41 162 70 12 93 17 52 197 116 81 255 46 46 70 70 70 70 12 12 93 93 93 203 255 139 197 197 197 197 197 197 104 104 104 243 243 243 128 249 128 104 197 226 104 104 243 249 23 23 151 156 209 209 214 58 238 139 226 226 226 116 128 122 0 0 0 0 0 0 0 0 0 0 0 0 0 0 0 0 0 0 0 0 0 0 0 0 0 0 0 0 0 0 0 0 0 0
0 0 0 0 0 0 0 0 0 0 0 0 0 0 0 0 0 0 0 0 0 0 0 0 0 0 0 0 0 0 0 0 0 0 0 0 122 99 128 116 226 226 52 145 151 214 209 214 151 110 23 168 243 81 17 139 197 197 104 104 104 243 243 104 197 197 197 197 197 197 197 104 116 52 255 46 46 46 46 46 29 70 70 70 70 12 93 93 255 64 226 197 116 81 255 46 46 46 46 70 12 93 203 203 203 17 64 139 197 197 197 197 197 197 104 104 104 243 243 99 99 128 104 197 197 104 104 104 243 220 23 110 151 156 209 209 214 58 191 64 226 226 226 116 128 122 0 0 0 0 0 0 0 0 0 0 0 0 0 0 0 0 0 0 0 0 0 0 0 0 0 0 0 0 0 0 0 0 0 0 0
0 0 0 0 0 0 0 0 0 0 0 0 0 0 0 0 0 0 0 0 0 0 0 0 0 0 0 0 0 0 0 0 0 0 0 0 0 122 99 128 116 226 139 64 238 151 58 209 209 58 151 110 220 243 104 116 139 139 197 197 104 104 243 243 104 104 104 104 104 197 197 197 226 52 255 12 46 46 46 46 70 93 93 93 93 203 17 17 64 226 197 104 226 52 64 70 46 46 70 93 203 17 17 64 64 52 226 197 197 197 197 104 104 104 104 243 243 243 128 249 220 104 197 197 104 104 243 128 185 23 110 151 156 209 214 214 58 191 64 139 226 226 116 128 122 0 0 0 0 0 0 0 0 0 0 0 0 0 0 0 0 0 0 0 0 0 0 0 0 0 0 0 0 0 0 0 0 0 0 0 0
0 0 0 0 0 0 0 0 0 0 0 0 0 0 0 0 0 0 0 0 0 0 0 0 0 0 0 0 0 0 0 0 0 0 0 0 0 0 122 99 116 116 226 139 52 145 151 58 209 209 214 151 110 180 116 243 226 226 226 197 197 197 104 104 104 243 243 243 104 104 104 104 104 52 64 64 255 12 12 12 93 203 17 17 17 17 64 52 226 197 104 197 197 226 64 255 93 93 203 255 64 52 226 226 226 197 197 197 197 197 104 104 243 243 243 122 99 128 220 116 139 226 104 104 104 243 249 185 23 110 151 87 209 214 214 156 238 64 226 226 226 116 128 122 0 0 0 0 0 0 0 0 0 0 0 0 0 0 0 0 0 0 0 0 0 0 0 0 0 0 0 0 0 0 0 0 0 0 0 0 0
0 0 0 0 0 0 0 0 0 0 0 0 0 0 0 0 0 0 0 0 0 0 0 0 0 0 0 0 0 0 0 0 0 0 0 0 0 0 0 122 99 128 116 139 139 52 145 151 58 214 209 214 151 110 23 220 243 243 104 104 226 197 197 197 104 128 128 122 243 243 104 104 104 116 168 81 17 17 203 17 203 17 64 52 226 226 197 197 197 197 104 197 197 197 226 64 17 17 17 64 226 104 104 104 104 104 197 197 104 104 104 243 243 243 128 249 249 128 226 139 52 52 104 104 243 249 185 23 110 151 87 209 214 214 156 191 64 226 104 226 116 128 122 0 0 0 0 0 0 0 0 0 0 0 0 0 0 0 0 0 0 0 0 0 0 0 0 0 0 0 0 0 0 0 0 0 0 0 0 0 0
0 0 0 0 0 0 0 0 0 0 0 0 0 0 0 0 0 0 0 0 0 0 0 0 0 0 0 0 0 0 0 0 0 0 0 0 0 0 0 0 0 99 249 116 52 139 52 81 238 151 214 209 209 58 151 110 180 128 243 104 104 104 197 197 197 104 116 128 128 243 243 243 243 243 104 116 168 81 81 81 81 52 226 197 197 197 197 197 197 104 104 197 197 197 197 226 52 52 52 226 104 104 104 116 104 104 243 243 243 243 243 243 128 104 116 220 116 197 139 139 64 116 243 249 185 23 23 238 156 209 209 214 58 156 191 64 226 226 226 116 128 122 0 0 0 0 0 0 0 0 0 0 0 0 0 0 0 0 0 0 0 0 0 0 0 0 0 0 0 0 0 0 0 0 0 0 0 0 0 0 0
0 0 0 0 0 0 0 0 0 0 0 0 0 0 0 0 0 0 0 0 0 0 0 0 0 0 0 0 0 0 0 0 0 0 0 0 0 0 0 0 0 122 99 128 116 226 139 139 81 238 151 58 209 209 58 151 110 23 185 249 243 243 104 104 197 197 197 197 104 104 243 243 243 243 243 243 243 104 116 116 116 116 104 104 226 197 197 197 197 104 226 226 226 104 197 197 104 226 116 116 104 104 104 243 243 243 243 243 243 243 128 249 249 128 226 139 139 64 64 52 226 104 185 23 23 110 238 156 209 214 214 58 156 238 64 226 226 226 116 128 122 0 0 0 0 0 0 0 0 0 0 0 0 0 0 0 0 0 0 0 0 0 0 0 0 0 0 0 0 0 0 0 0 0 0 0 0 0 0 0 0
0 0 0 0 0 0 0 0 0 0 0 0 0 0 0 0 0 0 0 0 0 0 0 0 0 0 0 0 0 0 0 0 0 0 0 0 0 0 0 0 0 0 122 99 128 116 226 226 226 81 145 191 156 214 209 214 58 151 110 23 185 128 243 243 104 226 226 197 197 104 104 104 104 104 243 243 243 243 243 243 243 243 128 104 116 116 104 104 116 226 52 52 52 226 226 104 104 116 128 128 243 243 122 99 99 243 243 104 104 128 116 116 226 197 226 52 52 226 104 243 220 23 23 110 110 151 87 87 214 214 58 191 17 64 226 104 104 116 128 122 0 0 0 0 0 0 0 0 0 0 0 0 0 0 0 0 0 0 0 0 0 0 0 0 0 0 0 0 0 0 0 0 0 0 0 0 0 0 0 0 0
0 0 0 0 0 0 0 0 0 0 0 0 0 0 0 0 0 0 0 0 0 0 0 0 0 0 0 0 0 0 0 0 0 0 0 0 0 0 0 0 0 0 0 0 99 128 116 116 139 226 52 145 238 156 214 209 209 214 151 110 110 23 185 220 128 243 104 104 104 197 197 197 197 197 197 104 104 104 104 243 243 243 122 243 243 243 243 128 116 52 64 75 75 64 81 116 104 243 122 122 99 128 249 249 128 104 104 197 197 197 197 197 139 226 116 116 104 243 220 185 23 110 110 151 87 209 209 214 58 156 238 64 139 226 226 226 128 128 122 0 0 0 0 0 0 0 0 0 0 0 0 0 0 0 0 0 0 0 0 0 0 0 0 0 0 0 0 0 0 0 0 0 0 0 0 0 0 0 0 0 0
0 0 0 0 0 0 0 0 0 0 0 0 0 0 0 0 0 0 0 0 0 0 0 0 0 0 0 0 0 0 0 0 0 0 0 0 0 0 0 0 0 0 0 0 0 99 128 128 116 226 226 139 81 238 151 58 214 209 209 58 151 110 110 23 23 220 128 243 104 104 226 226 197 197 197 197 197 197 197 104 104 128 128 128 128 99 122 243 116 168 64 255 93 17 81 116 122 122 99 99 128 104 104 104 104 104 197 197 197 226 52 52 52 104 243 243 220 23 23 110 110 151 156 209 209 214 214 58 191 17 64 139 226 226 104 104 243 122 0 0 0 0 0 0 0 0 0 0 0 0 0 0 0 0 0 0 0 0 0 0 0 0 0 0 0 0 0 0 0 0 0 0 0 0 0 0 0 0 0 0 0
0 0 0 0 0 0 0 0 0 0 0 0 0 0 0 0 0 0 0 0 0 0 0 0 0 0 0 0 0 0 0 0 0 0 0 0 0 0 0 0 0 0 0 0 0 0 122 99 128 116 226 139 226 81 238 151 58 58 214 209 209 214 58 151 110 110 23 185 249 243 243 243 104 104 104 104 197 197 197 197 197 197 104 104 104 104 128 243 243 116 52 81 17 64 116 243 99 128 128 104 197 197 197 197 197 197 226 226 226 116 116 104 197 128 185 23 23 110 110 151 156 209 209 214 214 58 151 191 17 139 226 226 226 104 128 243 122 0 0 0 0 0 0 0 0 0 0 0 0 0 0 0 0 0 0 0 0 0 0 0 0 0 0 0 0 0 0 0 0 0 0 0 0 0 0 0 0 0 0 0 0
0 0 0 0 0 0 0 0 0 0 0 0 0 0 0 0 0 0 0 0 0 0 0 0 0 0 0 0 0 0 0 0 0 0 0 0 0 0 0 0 0 0 0 0 0 0 0 122 99 128 116 226 226 226 52 145 238 151 58 58 214 209 209 209 156 151 110 110 23 23 185 128 243 243 243 104 104 104 104 104 197 197 197 197 197 197 104 104 243 243 104 116 226 104 243 243 243 243 197 197 104 104 104 116 52 226 226 104 243 243 128 220 185 23 23 110 110 151 156 209 209 214 214 58 156 191 17 64 139 226 226 116 116 128 243 122 0 0 0 0 0 0 0 0 0 0 0 0 0 0 0 0 0 0 0 0 0 0 0 0 0 0 0 0 0 0 0 0 0 0 0 0 0 0 0 0 0 0 0 0 0
0 0 0 0 0 0 0 0 0 0 0 0 0 0 0 0 0 0 0 0 0 0 0 0 0 0 0 0 0 0 0 0 0 0 0 0 0 0 0 0 0 0 0 0 0 0 0 0 122 99 128 116 116 226 226 52 81 238 238 151 151 58 214 214 87 87 156 151 110 110 110 23 23 185 220 128 243 243 243 104 104 104 104 104 104 104 104 104 197 197 104 104 104 243 243 243 243 104 104 104 104 104 104 104 104 243 243 249 185 185 23 23 110 110 110 151 156 209 209 214 214 58 151 191 17 255 64 226 226 226 116 128 128 122 122 0 0 0 0 0 0 0 0 0 0 0 0 0 0 0 0 0 0 0 0 0 0 0 0 0 0 0 0 0 0 0 0 0 0 0 0 0 0 0 0 0 0 0 0 0 0
0 0 0 0 0 0 0 0 0 0 0 0 0 0 0 0 0 0 0 0 0 0 0 0 0 0 0 0 0 0 0 0 0 0 0 0 0 0 0 0 0 0 0 0 0 0 0 0 0 0 122 99 128 116 226 226 226 52 81 145 238 238 151 156 191 156 87 209 214 58 151 110 110 110 23 23 23 185 185 220 128 243 243 243 243 104 104 104 104 104 104 104 104 104 243 243 104 104 243 243 243 243 99 249 220 185 23 23 110 110 110 110 151 151 209 209 209 214 214 58 151 191 17 52 52 52 226 226 116 116 128 122 122 122 0 0 0 0 0 0 0 0 0 0 0 0 0 0 0 0 0 0 0 0 0 0 0 0 0 0 0 0 0 0 0 0 0 0 0 0 0 0 0 0 0 0 0 0 0 0 0
0 0 0 0 0 0 0 0 0 0 0 0 0 0 0 0 0 0 0 0 0 0 0 0 0 0 0 0 0 0 0 0 0 0 0 0 0 0 0 0 0 0 0 0 0 0 0 0 0 0 0 122 99 128 116 104 226 226 226 226 52 81 145 17 203 191 156 214 214 209 209 214 151 151 151 110 110 110 110 23 23 185 185 220 220 128 99 99 122 243 243 243 243 243 122 243 122 128 128 249 185 185 23 23 23 110 110 110 110 151 151 156 209 209 214 214 58 58 58 191 17 64 139 226 226 226 226 116 128 128 122 122 0 0 0 0 0 0 0 0 0 0 0 0 0 0 0 0 0 0 0 0 0 0 0 0 0 0 0 0 0 0 0 0 0 0 0 0 0 0 0 0 0 0 0 0 0 0 0 0 0
0 0 0 0 0 0 0 0 0 0 0 0 0 0 0 0 0 0 0 0 0 0 0 0 0 0 0 0 0 0 0 0 0 0 0 0 0 0 0 0 0 0 0 0 0 0 0 0 0 0 0 0 122 122 128 128 116 104 104 197 197 226 226 52 64 17 191 151 58 58 214 214 209 209 209 214 58 151 151 110 110 110 110 23 23 23 23 23 185 185 249 249 220 185 185 185 185 23 23 23 23 110 110 110 110 151 151 156 87 209 209 214 214 214 58 58 151 238 17 64 139 139 226 226 226 116 116 128 122 122 0 0 0 0 0 0 0 0 0 0 0 0 0 0 0 0 0 0 0 0 0 0 0 0 0 0 0 0 0 0 0 0 0 0 0 0 0 0 0 0 0 0 0 0 0 0 0 0 0 0 0
0 0 0 0 0 0 0 0 0 0 0 0 0 0 0 0 0 0 0 0 0 0 0 0 0 0 0 0 0 0 0 0 0 0 0 0 0 0 0 0 0 0 0 0 0 0 0 0 0 0 0 0 0 0 122 99 128 128 116 226 226 226 226 226 64 64 17 238 238 191 151 151 58 214 214 214 209 209 209 209 58 151 151 151 110 110 110 110 110 23 23 23 23 23 23 23 110 110 110 110 151 151 151 58 209 209 209 209 214 214 214 58 58 151 191 17 64 64 139 139 226 226 226 116 116 128 128 122 122 0 0 0 0 0 0 0 0 0 0 0 0 0 0 0 0 0 0 0 0 0 0 0 0 0 0 0 0 0 0 0 0 0 0 0 0 0 0 0 0 0 0 0 0 0 0 0 0 0 0 0 0
0 0 0 0 0 0 0 0 0 0 0 0 0 0 0 0 0 0 0 0 0 0 0 0 0 0 0 0 0 0 0 0 0 0 0 0 0 0 0 0 0 0 0 0 0 0 0 0 0 0 0 0 0 0 0 0 122 99 128 220 116 116 226 226 226 226 52 52 64 145 238 238 191 151 151 58 58 214 214 214 209 209 209 209 209 214 156 151 191 191 238 145 238 238 238 238 151 151 156 87 87 209 209 209 214 214 214 58 58 58 151 151 238 17 64 139 139 139 139 52 226 116 116 128 128 122 0 0 0 0 0 0 0 0 0 0 0 0 0 0 0 0 0 0 0 0 0 0 0 0 0 0 0 0 0 0 0 0 0 0 0 0 0 0 0 0 0 0 0 0 0 0 0 0 0 0 0 0 0 0 0
0 0 0 0 0 0 0 0 0 0 0 0 0 0 0 0 0 0 0 0 0 0 0 0 0 0 0 0 0 0 0 0 0 0 0 0 0 0 0 0 0 0 0 0 0 0 0 0 0 0 0 0 0 0 0 0 0 122 122 99 99 128 128 116 116 104 226 226 226 52 52 81 17 238 238 238 191 151 151 151 58 58 214 214 214 214 209 209 87 87 29 29 174 174 41 232 87 209 214 214 214 58 58 58 58 58 151 151 238 238 17 64 52 139 139 226 226 226 116 116 116 128 128 122 122 0 0 0 0 0 0 0 0 0 0 0 0 0 0 0 0 0 0 0 0 0 0 0 0 0 0 0 0 0 0 0 0 0 0 0 0 0 0 0 0 0 0 0 0 0 0 0 0 0 0 0 0 0 0 0 0
0 0 0 0 0 0 0 0 0 0 0 0 0 0 0 0 0 0 0 0 0 0 0 0 0 0 0 0 0 0 0 0 0 0 0 0 0 0 0 0 0 0 0 0 0 0 0 0 0 0 0 0 0 0 0 0 0 0 0 0 0 122 99 128 116 116 116 226 226 226 226 226 226 52 52 64 17 238 238 238 238 151 151 151 151 151 58 58 156 232 232 203 232 232 232 191 156 58 58 156 191 191 151 151 238 238 17 64 52 139 139 226 226 226 226 226 226 116 116 128 99 122 122 0 0 0 0 0 0 0 0 0 0 0 0 0 0 0 0 0 0 0 0 0 0 0 0 0 0 0 0 0 0 0 0 0 0 0 0 0 0 0 0 0 0 0 0 0 0 0 0 0 0 0 0 0 0 0 0 0 0
0 0 0 0 0 0 0 0 0 0 0 0 0 0 0 0 0 0 0 0 0 0 0 0 0 0 0 0 0 0 0 0 0 0 0 0 0 0 0 0 0 0 0 0 0 0 0 0 0 0 0 0 0 0 0 0 0 0 0 0 0 0 0 122 99 249 128 116 116 116 226 226 226 226 226 226 52 226 52 52 81 145 145 238 238 238 238 238 238 203 255 255 17 17 17 17 238 238 238 17 17 17 17 81 52 226 52 139 226 226 52 226 226 226 116 116 116 128 99 122 122 0 0 0 0 0 0 0 0 0 0 0 0 0 0 0 0 0 0 0 0 0 0 0 0 0 0 0 0 0 0 0 0 0 0 0 0 0 0 0 0 0 0 0 0 0 0 0 0 0 0 0 0 0 0 0 0 0 0 0 0
0 0 0 0 0 0 0 0 0 0 0 0 0 0 0 0 0 0 0 0 0 0 0 0 0 0 0 0 0 0 0 0 0 0 0 0 0 0 0 0 0 0 0 0 0 0 0 0 0 0 0 0 0 0 0 0 0 0 0 0 0 0 0 0 0 122 99 99 128 128 116 116 116 116 226 226 226 226 226 226 226 226 226 52 226 139 52 52 139 139 139 139 64 139 52 52 64 52 52 52 64 139 139 226 226 226 226 226 226 168 116 116 116 116 128 128 99 122 122 0 0 0 0 0 0 0 0 0 0 0 0 0 0 0 0 0 0 0 0 0 0 0 0 0 0 0 0 0 0 0 0 0 0 0 0 0 0 0 0 0 0 0 0 0 0 0 0 0 0 0 0 0 0 0 0 0 0 0 0 0 0
0 0 0 0 0 0 0 0 0 0 0 0 0 0 0 0 0 0 0 0 0 0 0 0 0 0 0 0 0 0 0 0 0 0 0 0 0 0 0 0 0 0 0 0 0 0 0 0 0 0 0 0 0 0 0 0 0 0 0 0 0 0 0 0 0 0 0 0 122 99 99 128 128 128 128 116 116 116 116 116 226 226 226 226 226 139 139 139 139 139 139 139 139 139 226 226 226 226 226 226 52 52 226 226 226 226 116 116 116 116 128 128 128 99 122 122 0 0 0 0 0 0 0 0 0 0 0 0 0 0 0 0 0 0 0 0 0 0 0 0 0 0 0 0 0 0 0 0 0 0 0 0 0 0 0 0 0 0 0 0 0 0 0 0 0 0 0 0 0 0 0 0 0 0 0 0 0 0 0 0 0
0 0 0 0 0 0 0 0 0 0 0 0 0 0 0 0 0 0 0 0 0 0 0 0 0 0 0 0 0 0 0 0 0 0 0 0 0 0 0 0 0 0 0 0 0 0 0 0 0 0 0 0 0 0 0 0 0 0 0 0 0 0 0 0 0 0 0 0 0 0 0 122 122 99 99 128 128 128 128 128 116 116 116 116 116 226 52 52 52 52 52 52 226 226 226 226 226 226 116 116 116 116 116 116 116 116 128 128 128 99 122 122 122 0 0 0 0 0 0 0 0 0 0 0 0 0 0 0 0 0 0 0 0 0 0 0 0 0 0 0 0 0 0 0 0 0 0 0 0 0 0 0 0 0 0 0 0 0 0 0 0 0 0 0 0 0 0 0 0 0 0 0 0 0 0 0 0 0 0 0 0
0 0 0 0 0 0 0 0 0 0 0 0 0 0 0 0 0 0 0 0 0 0 0 0 0 0 0 0 0 0 0 0 0 0 0 0 0 0 0 0 0 0 0 0 0 0 0 0 0 0 0 0 0 0 0 0 0 0 0 0 0 0 0 0 0 0 0 0 0 0 0 0 0 0 122 122 122 99 99 99 128 128 128 128 128 116 116 116 116 116 116 116 116 116 116 116 116 116 116 128 128 128 128 128 128 99 99 122 122 0 0 0 0 0 0 0 0 0 0 0 0 0 0 0 0 0 0 0 0 0 0 0 0 0 0 0 0 0 0 0 0 0 0 0 0 0 0 0 0 0 0 0 0 0 0 0 0 0 0 0 0 0 0 0 0 0 0 0 0 0 0 0 0 0 0 0 0 0 0 0 0
0 0 0 0 0 0 0 0 0 0 0 0 0 0 0 0 0 0 0 0 0 0 0 0 0 0 0 0 0 0 0 0 0 0 0 0 0 0 0 0 0 0 0 0 0 0 0 0 0 0 0 0 0 0 0 0 0 0 0 0 0 0 0 0 0 0 0 0 0 0 0 0 0 0 0 0 0 0 0 122 122 122 122 99 99 99 99 128 99 128 128 128 128 128 128 128 128 128 99 99 99 122 122 122 122 0 0 0 0 0 0 0 0 0 0 0 0 0 0 0 0 0 0 0 0 0 0 0 0 0 0 0 0 0 0 0 0 0 0 0 0 0 0 0 0 0 0 0 0 0 0 0 0 0 0 0 0 0 0 0 0 0 0 0 0 0 0 0 0 0 0 0 0 0 0 0 0 0 0 0 0
0 0 0 0 0 0 0 0 0 0 0 0 0 0 0 0 0 0 0 0 0 0 0 0 0 0 0 0 0 0 0 0 0 0 0 0 0 0 0 0 0 0 0 0 0 0 0 0 0 0 0 0 0 0 0 0 0 0 0 0 0 0 0 0 0 0 0 0 0 0 0 0 0 0 0 0 0 0 0 0 0 0 0 0 0 122 122 122 122 122 122 122 122 122 122 122 122 0 0 0 0 0 0 0 0 0 0 0 0 0 0 0 0 0 0 0 0 0 0 0 0 0 0 0 0 0 0 0 0 0 0 0 0 0 0 0 0 0 0 0 0 0 0 0 0 0 0 0 0 0 0 0 0 0 0 0 0 0 0 0 0 0 0 0 0 0 0 0 0 0 0 0 0 0 0 0 0 0 0 0 0
0 0 0 0 0 0 0 0 0 0 0 0 0 0 0 0 0 0 0 0 0 0 0 0 0 0 0 0 0 0 0 0 0 0 0 0 0 0 0 0 0 0 0 0 0 0 0 0 0 0 0 0 0 0 0 0 0 0 0 0 0 0 0 0 0 0 0 0 0 0 0 0 0 0 0 0 0 0 0 0 0 0 0 0 0 0 0 0 0 0 0 0 0 0 0 0 0 0 0 0 0 0 0 0 0 0 0 0 0 0 0 0 0 0 0 0 0 0 0 0 0 0 0 0 0 0 0 0 0 0 0 0 0 0 0 0 0 0 0 0 0 0 0 0 0 0 0 0 0 0 0 0 0 0 0 0 0 0 0 0 0 0 0 0 0 0 0 0 0 0 0 0 0 0 0 0 0 0 0 0 0
0 0 0 0 0 0 0 0 0 0 0 0 0 0 0 0 0 0 0 0 0 0 0 0 0 0 0 0 0 0 0 0 0 0 0 0 0 0 0 0 0 0 0 0 0 0 0 0 0 0 0 0 0 0 0 0 0 0 0 0 0 0 0 0 0 0 0 0 0 0 0 0 0 0 0 0 0 0 0 0 0 0 0 0 0 0 0 0 0 0 0 0 0 0 0 0 0 0 0 0 0 0 0 0 0 0 0 0 0 0 0 0 0 0 0 0 0 0 0 0 0 0 0 0 0 0 0 0 0 0 0 0 0 0 0 0 0 0 0 0 0 0 0 0 0 0 0 0 0 0 0 0 0 0 0 0 0 0 0 0 0 0 0 0 0 0 0 0 0 0 0 0 0 0 0 0 0 0 0 0 0
0 0 0 0 0 0 0 0 0 0 0 0 0 0 0 0 0 0 0 0 0 0 0 0 0 0 0 0 0 0 0 0 0 0 0 0 0 0 0 0 0 0 0 0 0 0 0 0 0 0 0 0 0 0 0 0 0 0 0 0 0 0 0 0 0 0 0 0 0 0 0 0 0 0 0 0 0 0 0 0 0 0 0 0 0 0 0 0 0 0 0 0 0 0 0 0 0 0 0 0 0 0 0 0 0 0 0 0 0 0 0 0 0 0 0 0 0 0 0 0 0 0 0 0 0 0 0 0 0 0 0 0 0 0 0 0 0 0 0 0 0 0 0 0 0 0 0 0 0 0 0 0 0 0 0 0 0 0 0 0 0 0 0 0 0 0 0 0 0 0 0 0 0 0 0 0 0 0 0 0 0
