P2
181 217
255
0 0 0 0 0 0 0 0 0 0 0 0 0 0 0 0 0 0 0 0 0 0 0 0 0 0 0 0 0 0 0 0 0 0 0 0 0 0 0 0 0 0 0 0 0 0 0 0 0 0 0 0 0 0 0 0 0 0 0 0 0 0 0 0 0 0 0 0 0 0 0 0 0 0 0 0 0 0 0 0 0 0 0 0 0 0 0 0 0 0 0 0 0 0 0 0 0 0 0 0 0 0 0 0 0 0 0 0 0 0 0 0 0 0 0 0 0 0 0 0 0 0 0 0 0 0 0 0 0 0 0 0 0 0 0 0 0 0 0 0 0 0 0 0 0 0 0 0 0 0 0 0 0 0 0 0 0 0 0 0 0 0 0 0 0 0 0 0 0 0 0 0 0 0 0 0 0 0 0 0 0
0 0 0 0 0 0 0 0 0 0 0 0 0 0 0 0 0 0 0 0 0 0 0 0 0 0 0 0 0 0 0 0 0 0 0 0 0 0 0 0 0 0 0 0 0 0 0 0 0 0 0 0 0 0 0 0 0 0 0 0 0 0 0 0 0 0 0 0 0 0 0 0 0 0 0 0 0 0 0 0 0 0 0 0 0 0 0 0 0 0 0 0 0 0 0 0 0 0 0 0 0 0 0 0 0 0 0 0 0 0 0 0 0 0 0 0 0 0 0 0 0 0 0 0 0 0 0 0 0 0 0 0 0 0 0 0 0 0 0 0 0 0 0 0 0 0 0 0 0 0 0 0 0 0 0 0 0 0 0 0 0 0 0 0 0 0 0 0 0 0 0 0 0 0 0 0 0 0 0 0 0
0 0 0 0 0 0 0 0 0 0 0 0 0 0 0 0 0 0 0 0 0 0 0 0 0 0 0 0 0 0 0 0 0 0 0 0 0 0 0 0 0 0 0 0 0 0 0 0 0 0 0 0 0 0 0 0 0 0 0 0 0 0 0 0 0 0 0 0 0 0 0 0 0 0 0 0 0 0 0 0 0 0 0 0 0 0 0 0 0 0 0 0 0 0 0 0 0 0 0 0 0 0 0 0 0 0 0 0 0 0 0 0 0 0 0 0 0 0 0 0 0 0 0 0 0 0 0 0 0 0 0 0 0 0 0 0 0 0 0 0 0 0 0 0 0 0 0 0 0 0 0 0 0 0 0 0 0 0 0 0 0 0 0 0 0 0 0 0 0 0 0 0 0 0 0 0 0 0 0 0 0
0 0 0 0 0 0 0 0 0 0 0 0 0 0 0 0 0 0 0 0 0 0 0 0 0 0 0 0 0 0 0 0 0 0 0 0 0 0 0 0 0 0 0 0 0 0 0 0 0 0 0 0 0 0 0 0 0 0 0 0 0 0 0 0 0 0 0 0 0 0 0 0 0 0 0 0 0 0 0 0 0 0 0 0 0 0 0 0 0 0 0 0 0 0 0 0 0 0 0 0 0 0 0 0 0 0 0 0 0 0 0 0 0 0 0 0 0 0 0 0 0 0 0 0 0 0 0 0 0 0 0 0 0 0 0 0 0 0 0 0 0 0 0 0 0 0 0 0 0 0 0 0 0 0 0 0 0 0 0 0 0 0 0 0 0 0 0 0 0 0 0 0 0 0 0 0 0 0 0 0 0
0 0 0 0 0 0 0 0 0 0 0 0 0 0 0 0 0 0 0 0 0 0 0 0 0 0 0 0 0 0 0 0 0 0 0 0 0 0 0 0 0 0 0 0 0 0 0 0 0 0 0 0 0 0 0 0 0 0 0 0 0 0 0 0 0 0 0 0 0 0 0 0 0 0 0 0 0 0 0 0 0 0 0 0 0 0 0 0 0 0 0 0 0 0 0 0 0 0 0 0 0 0 0 0 0 0 0 0 0 0 0 0 0 0 0 0 0 0 0 0 0 0 0 0 0 0 0 0 0 0 0 0 0 0 0 0 0 0 0 0 0 0 0 0 0 0 0 0 0 0 0 0 0 0 0 0 0 0 0 0 0 0 0 0 0 0 0 0 0 0 0 0 0 0 0 0 0 0 0 0 0
0 0 0 0 0 0 0 0 0 0 0 0 0 0 0 0 0 0 0 0 0 0 0 0 0 0 0 0 0 0 0 0 0 0 0 0 0 0 0 0 0 0 0 0 0 0 0 0 0 0 0 0 0 0 0 0 0 0 0 0 0 0 0 0 0 0 0 0 0 0 0 0 0 0 0 0 0 0 0 0 0 0 0 0 0 0 0 0 0 0 0 0 0 0 0 0 0 0 0 0 0 0 0 0 0 0 0 0 0 0 0 0 0 0 0 0 0 0 0 0 0 0 0 0 0 0 0 0 0 0 0 0 0 0 0 0 0 0 0 0 0 0 0 0 0 0 0 0 0 0 0 0 0 0 0 0 0 0 0 0 0 0 0 0 0 0 0 0 0 0 0 0 0 0 0 0 0 0 0 0 0
0 0 0 0 0 0 0 0 0 0 0 0 0 0 0 0 0 0 0 0 0 0 0 0 0 0 0 0 0 0 0 0 0 0 0 0 0 0 0 0 0 0 0 0 0 0 0 0 0 0 0 0 0 0 0 0 0 0 0 0 0 0 0 0 0 0 0 0 0 0 0 0 0 0 0 0 0 0 0 0 0 0 0 0 0 0 0 0 0 0 0 0 0 0 0 0 0 0 0 0 0 0 0 0 0 0 0 0 0 0 0 0 0 0 0 0 0 0 0 0 0 0 0 0 0 0 0 0 0 0 0 0 0 0 0 0 0 0 0 0 0 0 0 0 0 0 0 0 0 0 0 0 0 0 0 0 0 0 0 0 0 0 0 0 0 0 0 0 0 0 0 0 0 0 0 0 0 0 0 0 0
0 0 0 0 0 0 0 0 0 0 0 0 0 0 0 0 0 0 0 0 0 0 0 0 0 0 0 0 0 0 0 0 0 0 0 0 0 0 0 0 0 0 0 0 0 0 0 0 0 0 0 0 0 0 0 0 0 0 0 0 0 0 0 0 0 0 0 0 0 0 0 0 0 0 0 0 0 0 0 0 0 0 0 0 0 0 0 0 0 0 0 0 0 0 0 0 0 0 0 0 0 0 0 0 0 0 0 0 0 0 0 0 0 0 0 0 0 0 0 0 0 0 0 0 0 0 0 0 0 0 0 0 0 0 0 0 0 0 0 0 0 0 0 0 0 0 0 0 0 0 0 0 0 0 0 0 0 0 0 0 0 0 0 0 0 0 0 0 0 0 0 0 0 0 0 0 0 0 0 0 0
0 0 0 0 0 0 0 0 0 0 0 0 0 0 0 0 0 0 0 0 0 0 0 0 0 0 0 0 0 0 0 0 0 0 0 0 0 0 0 0 0 0 0 0 0 0 0 0 0 0 0 0 0 0 0 0 0 0 0 0 0 0 0 0 0 0 0 0 0 0 0 0 0 0 0 0 0 0 0 0 0 0 0 0 0 0 0 0 0 0 0 0 0 0 0 0 0 0 0 0 0 0 0 0 0 0 0 0 0 0 0 0 0 0 0 0 0 0 0 0 0 0 0 0 0 0 0 0 0 0 0 0 0 0 0 0 0 0 0 0 0 0 0 0 0 0 0 0 0 0 0 0 0 0 0 0 0 0 0 0 0 0 0 0 0 0 0 0 0 0 0 0 0 0 0 0 0 0 0 0 0
0 0 0 0 0 0 0 0 0 0 0 0 0 0 0 0 0 0 0 0 0 0 0 0 0 0 0 0 0 0 0 0 0 0 0 0 0 0 0 0 0 0 0 0 0 0 0 0 0 0 0 0 0 0 0 0 0 0 0 0 0 0 0 0 0 0 0 0 0 0 0 0 0 0 0 0 0 0 0 0 0 0 0 0 0 0 0 0 0 0 0 0 0 0 0 0 0 0 0 0 0 0 0 0 0 0 0 0 0 0 0 0 0 0 0 0 0 0 0 0 0 0 0 0 0 0 0 0 0 0 0 0 0 0 0 0 0 0 0 0 0 0 0 0 0 0 0 0 0 0 0 0 0 0 0 0 0 0 0 0 0 0 0 0 0 0 0 0 0 0 0 0 0 0 0 0 0 0 0 0 0
0 0 0 0 0 0 0 0 0 0 0 0 0 0 0 0 0 0 0 0 0 0 0 0 0 0 0 0 0 0 0 0 0 0 0 0 0 0 0 0 0 0 0 0 0 0 0 0 0 0 0 0 0 0 0 0 0 0 0 0 0 0 0 0 0 0 0 0 0 0 0 0 0 0 0 0 0 0 0 0 0 0 0 0 0 0 0 0 0 0 0 0 0 0 0 0 0 0 0 0 0 0 0 0 0 0 0 0 0 0 0 0 0 0 0 0 0 0 0 0 0 0 0 0 0 0 0 0 0 0 0 0 0 0 0 0 0 0 0 0 0 0 0 0 0 0 0 0 0 0 0 0 0 0 0 0 0 0 0 0 0 0 0 0 0 0 0 0 0 0 0 0 0 0 0 0 0 0 0 0 0
0 0 0 0 0 0 0 0 0 0 0 0 0 0 0 0 0 0 0 0 0 0 0 0 0 0 0 0 0 0 0 0 0 0 0 0 0 0 0 0 0 0 0 0 0 0 0 0 0 0 0 0 0 0 0 0 0 0 0 0 0 0 0 0 0 0 0 0 0 0 0 0 0 0 0 0 0 0 0 0 0 0 128 128 128 128 128 128 128 128 128 128 128 128 128 128 128 0 0 0 0 0 0 0 0 0 0 0 0 0 0 0 0 0 0 0 0 0 0 0 0 0 0 0 0 0 0 0 0 0 0 0 0 0 0 0 0 0 0 0 0 0 0 0 0 0 0 0 0 0 0 0 0 0 0 0 0 0 0 0 0 0 0 0 0 0 0 0 0 0 0 0 0 0 0 0 0 0 0 0 0
0 0 0 0 0 0 0 0 0 0 0 0 0 0 0 0 0 0 0 0 0 0 0 0 0 0 0 0 0 0 0 0 0 0 0 0 0 0 0 0 0 0 0 0 0 0 0 0 0 0 0 0 0 0 0 0 0 0 0 0 0 0 0 0 0 0 0 0 0 128 128 128 128 128 128 128 128 128 128 128 128 128 128 128 128 128 128 128 128 128 128 128 128 128 128 128 128 128 128 128 128 128 128 128 128 128 128 128 0 0 0 0 0 0 0 0 0 0 0 0 0 0 0 0 0 0 0 0 0 0 0 0 0 0 0 0 0 0 0 0 0 0 0 0 0 0 0 0 0 0 0 0 0 0 0 0 0 0 0 0 0 0 0 0 0 0 0 0 0 0 0 0 0 0 0 0 0 0 0 0 0
0 0 0 0 0 0 0 0 0 0 0 0 0 0 0 0 0 0 0 0 0 0 0 0 0 0 0 0 0 0 0 0 0 0 0 0 0 0 0 0 0 0 0 0 0 0 0 0 0 0 0 0 0 0 0 0 0 0 0 0 0 0 0 0 0 0 128 128 128 128 128 128 128 128 128 128 128 128 128 128 128 128 128 128 96 96 96 96 96 96 96 96 96 96 96 96 96 128 128 128 128 128 128 128 128 128 128 128 128 128 128 128 128 128 0 0 0 0 0 0 0 0 0 0 0 0 0 0 0 0 0 0 0 0 0 0 0 0 0 0 0 0 0 0 0 0 0 0 0 0 0 0 0 0 0 0 0 0 0 0 0 0 0 0 0 0 0 0 0 0 0 0 0 0 0 0 0 0 0 0 0
0 0 0 0 0 0 0 0 0 0 0 0 0 0 0 0 0 0 0 0 0 0 0 0 0 0 0 0 0 0 0 0 0 0 0 0 0 0 0 0 0 0 0 0 0 0 0 0 0 0 0 0 0 0 0 0 0 0 0 0 0 0 0 128 128 128 128 128 128 96 96 96 96 96 96 96 96 96 96 96 96 96 96 96 96 96 96 96 96 96 96 96 96 96 96 96 96 96 96 96 96 96 96 96 96 96 96 128 128 128 128 128 128 128 128 128 128 0 0 0 0 0 0 0 0 0 0 0 0 0 0 0 0 0 0 0 0 0 0 0 0 0 0 0 0 0 0 0 0 0 0 0 0 0 0 0 0 0 0 0 0 0 0 0 0 0 0 0 0 0 0 0 0 0 0 0 0 0 0 0 0
0 0 0 0 0 0 0 0 0 0 0 0 0 0 0 0 0 0 0 0 0 0 0 0 0 0 0 0 0 0 0 0 0 0 0 0 0 0 0 0 0 0 0 0 0 0 0 0 0 0 0 0 0 0 0 0 0 0 0 0 128 128 128 128 128 128 128 96 96 96 96 96 96 96 96 96 96 96 96 96 96 96 96 64 64 64 96 96 96 96 96 96 96 96 96 96 96 96 96 96 96 96 96 96 96 96 96 96 96 96 96 96 96 96 128 128 128 128 128 128 0 0 0 0 0 0 0 0 0 0 0 0 0 0 0 0 0 0 0 0 0 0 0 0 0 0 0 0 0 0 0 0 0 0 0 0 0 0 0 0 0 0 0 0 0 0 0 0 0 0 0 0 0 0 0 0 0 0 0 0 0
0 0 0 0 0 0 0 0 0 0 0 0 0 0 0 0 0 0 0 0 0 0 0 0 0 0 0 0 0 0 0 0 0 0 0 0 0 0 0 0 0 0 0 0 0 0 0 0 0 0 0 0 0 0 0 0 128 128 128 128 128 128 128 96 96 96 96 96 96 96 96 64 64 64 64 64 64 64 64 64 64 64 64 64 64 64 64 64 64 64 64 64 64 64 64 64 64 64 64 64 64 64 64 96 96 96 96 96 96 96 96 96 96 96 96 96 96 96 128 128 128 128 128 0 0 0 0 0 0 0 0 0 0 0 0 0 0 0 0 0 0 0 0 0 0 0 0 0 0 0 0 0 0 0 0 0 0 0 0 0 0 0 0 0 0 0 0 0 0 0 0 0 0 0 0 0 0 0 0 0 0
0 0 0 0 0 0 0 0 0 0 0 0 0 0 0 0 0 0 0 0 0 0 0 0 0 0 0 0 0 0 0 0 0 0 0 0 0 0 0 0 0 0 0 0 0 0 0 0 0 0 0 0 0 128 128 128 128 128 128 128 96 96 96 96 96 96 96 96 64 64 64 64 255 255 255 255 255 255 255 255 191 191 191 191 191 191 191 191 191 191 191 191 191 191 191 255 255 255 255 255 255 255 64 64 64 64 64 64 64 64 96 96 96 96 96 96 96 96 96 96 128 128 128 128 128 128 0 0 0 0 0 0 0 0 0 0 0 0 0 0 0 0 0 0 0 0 0 0 0 0 0 0 0 0 0 0 0 0 0 0 0 0 0 0 0 0 0 0 0 0 0 0 0 0 0 0 0 0 0 0 0
0 0 0 0 0 0 0 0 0 0 0 0 0 0 0 0 0 0 0 0 0 0 0 0 0 0 0 0 0 0 0 0 0 0 0 0 0 0 0 0 0 0 0 0 0 0 0 0 0 0 0 128 128 128 128 128 128 96 96 96 96 96 96 64 64 64 64 64 64 255 191 191 191 191 191 191 191 191 191 255 255 255 255 255 255 255 255 255 255 255 255 255 255 255 191 159 159 159 191 191 191 191 191 191 191 191 191 255 255 64 64 64 64 96 96 96 96 96 96 96 96 96 96 96 128 128 128 128 0 0 0 0 0 0 0 0 0 0 0 0 0 0 0 0 0 0 0 0 0 0 0 0 0 0 0 0 0 0 0 0 0 0 0 0 0 0 0 0 0 0 0 0 0 0 0 0 0 0 0 0 0
0 0 0 0 0 0 0 0 0 0 0 0 0 0 0 0 0 0 0 0 0 0 0 0 0 0 0 0 0 0 0 0 0 0 0 0 0 0 0 0 0 0 0 0 0 0 0 0 0 128 128 128 128 128 96 96 96 96 96 96 64 64 64 64 64 255 191 191 191 159 159 255 255 255 255 255 255 255 255 255 255 64 64 64 64 64 64 64 64 64 64 64 64 64 255 255 255 255 255 255 255 255 255 255 255 255 159 191 191 191 255 255 255 64 64 64 64 64 96 96 96 96 96 96 96 96 128 128 128 128 0 0 0 0 0 0 0 0 0 0 0 0 0 0 0 0 0 0 0 0 0 0 0 0 0 0 0 0 0 0 0 0 0 0 0 0 0 0 0 0 0 0 0 0 0 0 0 0 0 0 0
0 0 0 0 0 0 0 0 0 0 0 0 0 0 0 0 0 0 0 0 0 0 0 0 0 0 0 0 0 0 0 0 0 0 0 0 0 0 0 0 0 0 0 0 0 0 0 0 128 128 128 96 96 96 96 96 96 64 64 64 64 64 255 255 191 159 159 255 255 255 255 255 64 64 64 64 64 64 64 64 64 64 64 96 96 96 96 96 96 96 96 96 96 64 64 64 64 64 64 64 64 64 64 255 255 255 255 255 255 255 159 159 191 191 191 255 255 255 64 64 64 96 96 96 96 96 96 96 128 128 128 128 0 0 0 0 0 0 0 0 0 0 0 0 0 0 0 0 0 0 0 0 0 0 0 0 0 0 0 0 0 0 0 0 0 0 0 0 0 0 0 0 0 0 0 0 0 0 0 0 0
0 0 0 0 0 0 0 0 0 0 0 0 0 0 0 0 0 0 0 0 0 0 0 0 0 0 0 0 0 0 0 0 0 0 0 0 0 0 0 0 0 0 0 0 0 0 128 128 128 128 96 96 96 96 64 64 64 64 255 255 191 159 32 159 159 255 255 64 64 64 64 64 64 128 128 128 128 128 128 128 128 128 128 128 128 128 128 128 128 128 96 96 96 96 96 96 96 96 96 96 64 64 64 64 96 64 64 64 64 64 255 255 255 255 255 191 191 191 191 255 255 64 64 64 96 96 96 96 96 96 128 128 128 128 0 0 0 0 0 0 0 0 0 0 0 0 0 0 0 0 0 0 0 0 0 0 0 0 0 0 0 0 0 0 0 0 0 0 0 0 0 0 0 0 0 0 0 0 0 0 0
0 0 0 0 0 0 0 0 0 0 0 0 0 0 0 0 0 0 0 0 0 0 0 0 0 0 0 0 0 0 0 0 0 0 0 0 0 0 0 0 0 0 0 0 128 128 128 128 96 96 96 96 64 64 64 64 255 191 32 159 159 159 255 255 255 255 64 64 96 128 128 128 128 128 128 128 0 0 0 0 0 0 0 0 0 0 0 0 0 0 128 128 128 128 128 128 128 128 128 128 128 128 96 96 96 96 96 96 96 96 96 96 96 64 64 255 255 255 255 159 191 191 255 255 64 64 64 96 96 96 96 96 128 128 128 128 0 0 0 0 0 0 0 0 0 0 0 0 0 0 0 0 0 0 0 0 0 0 0 0 0 0 0 0 0 0 0 0 0 0 0 0 0 0 0 0 0 0 0 0 0
0 0 0 0 0 0 0 0 0 0 0 0 0 0 0 0 0 0 0 0 0 0 0 0 0 0 0 0 0 0 0 0 0 0 0 0 0 0 0 0 0 0 0 128 128 128 96 96 96 64 64 64 64 255 255 255 191 159 159 255 255 255 255 64 64 96 128 128 128 0 0 0 0 0 0 0 0 0 0 128 128 128 128 128 128 128 128 128 128 128 128 0 0 0 0 0 0 0 0 128 0 128 128 128 128 96 96 96 96 96 96 96 96 96 96 96 96 64 255 255 255 191 191 191 255 255 64 64 64 64 96 96 96 96 128 128 128 128 0 0 0 0 0 0 0 0 0 0 0 0 0 0 0 0 0 0 0 0 0 0 0 0 0 0 0 0 0 0 0 0 0 0 0 0 0 0 0 0 0 0 0
0 0 0 0 0 0 0 0 0 0 0 0 0 0 0 0 0 0 0 0 0 0 0 0 0 0 0 0 0 0 0 0 0 0 0 0 0 0 0 0 0 0 128 128 128 96 96 96 64 64 255 255 255 159 32 159 159 255 255 255 64 64 64 96 96 128 128 0 0 0 0 0 0 0 0 0 0 0 128 96 96 96 96 128 128 128 128 128 128 128 128 128 128 128 128 0 0 0 0 0 0 0 0 0 128 128 128 128 128 128 96 96 96 96 96 96 96 96 96 64 64 255 255 159 159 32 159 255 255 255 64 64 96 96 96 96 96 128 128 128 0 0 0 0 0 0 0 0 0 0 0 0 0 0 0 0 0 0 0 0 0 0 0 0 0 0 0 0 0 0 0 0 0 0 0 0 0 0 0 0 0
0 0 0 0 0 0 0 0 0 0 0 0 0 0 0 0 0 0 0 0 0 0 0 0 0 0 0 0 0 0 0 0 0 0 0 0 0 0 0 0 128 128 128 128 96 64 64 64 64 255 159 159 32 159 159 255 255 255 64 64 96 96 128 96 128 0 0 0 0 0 0 0 0 0 0 0 0 0 0 128 128 96 96 96 96 96 96 96 96 96 96 96 96 96 96 0 0 0 128 0 0 0 0 0 0 0 0 0 0 0 128 128 128 128 96 96 96 96 96 96 96 96 64 255 255 159 159 159 159 159 255 64 64 96 96 96 96 96 128 128 128 0 0 0 0 0 0 0 0 0 0 0 0 0 0 0 0 0 0 0 0 0 0 0 0 0 0 0 0 0 0 0 0 0 0 0 0 0 0 0 0
0 0 0 0 0 0 0 0 0 0 0 0 0 0 0 0 0 0 0 0 0 0 0 0 0 0 0 0 0 0 0 0 0 0 0 0 0 0 0 128 128 128 96 96 64 64 64 255 255 159 159 159 223 223 255 255 64 64 96 96 128 128 128 0 0 0 128 128 0 0 0 128 0 128 128 128 128 128 128 128 128 128 128 128 128 128 0 128 96 96 96 96 96 96 128 0 0 0 128 128 0 0 0 0 0 0 0 0 0 0 0 0 0 128 128 128 128 128 96 96 96 96 96 64 64 255 255 255 159 32 159 255 255 64 64 96 96 96 96 96 128 128 0 0 0 0 0 0 0 0 0 0 0 0 0 0 0 0 0 0 0 0 0 0 0 0 0 0 0 0 0 0 0 0 0 0 0 0 0 0 0
0 0 0 0 0 0 0 0 0 0 0 0 0 0 0 0 0 0 0 0 0 0 0 0 0 0 0 0 0 0 0 0 0 0 0 0 0 0 128 128 128 96 64 64 64 255 255 159 32 159 159 255 255 255 64 64 128 128 128 128 128 0 0 0 0 0 0 0 0 0 128 128 128 128 128 128 128 128 128 64 64 64 64 64 128 128 128 128 0 0 128 128 128 128 128 128 128 128 128 128 128 128 128 128 128 128 128 128 128 128 0 0 0 0 0 0 0 128 128 128 96 96 96 96 96 64 64 64 255 255 159 32 159 255 255 64 255 96 96 96 96 128 128 128 0 0 0 0 0 0 0 0 0 0 0 0 0 0 0 0 0 0 0 0 0 0 0 0 0 0 0 0 0 0 0 0 0 0 0 0 0
0 0 0 0 0 0 0 0 0 0 0 0 0 0 0 0 0 0 0 0 0 0 0 0 0 0 0 0 0 0 0 0 0 0 0 0 0 128 128 128 96 64 64 255 255 159 32 159 159 223 255 255 64 64 128 128 128 0 0 0 0 0 0 0 0 0 128 128 0 128 128 128 64 64 64 64 64 64 64 255 255 255 255 255 64 64 96 96 96 128 128 128 128 128 64 64 64 64 64 64 96 128 128 128 128 128 128 128 128 128 128 128 128 128 0 0 0 0 0 0 128 128 128 96 96 96 96 64 64 64 255 159 159 32 159 255 255 255 96 96 96 96 128 128 128 0 0 0 0 0 0 0 0 0 0 0 0 0 0 0 0 0 0 0 0 0 0 0 0 0 0 0 0 0 0 0 0 0 0 0 0
0 0 0 0 0 0 0 0 0 0 0 0 0 0 0 0 0 0 0 0 0 0 0 0 0 0 0 0 0 0 0 0 0 0 0 128 128 128 128 96 64 255 255 255 159 32 159 223 255 255 64 64 128 128 0 0 0 0 0 0 0 0 0 0 0 0 0 128 128 128 64 64 64 255 255 255 255 64 255 191 191 159 159 255 255 64 64 64 96 96 96 96 96 64 64 64 64 64 64 96 96 96 96 96 64 64 64 64 64 64 128 128 128 128 128 0 0 0 0 0 0 0 0 128 128 128 128 96 96 64 64 255 255 159 32 159 255 255 255 64 96 96 96 128 128 128 0 0 0 0 0 0 0 0 0 0 0 0 0 0 0 0 0 0 0 0 0 0 0 0 0 0 0 0 0 0 0 0 0 0 0
0 0 0 0 0 0 0 0 0 0 0 0 0 0 0 0 0 0 0 0 0 0 0 0 0 0 0 0 0 0 0 0 0 0 128 128 128 96 96 64 64 255 255 159 32 159 223 255 64 64 128 128 0 0 0 128 128 0 128 0 0 0 0 128 128 128 128 128 128 96 64 255 255 191 159 159 191 191 191 191 191 159 159 159 191 255 255 64 64 96 96 96 96 96 191 191 191 191 191 255 96 96 96 96 64 64 64 64 64 64 64 64 64 64 64 128 128 128 0 0 0 0 0 0 0 0 128 128 96 96 64 64 255 255 159 159 159 159 255 255 255 64 64 96 96 128 128 0 0 0 0 0 0 0 0 0 0 0 0 0 0 0 0 0 0 0 0 0 0 0 0 0 0 0 0 0 0 0 0 0 0
0 0 0 0 0 0 0 0 0 0 0 0 0 0 0 0 0 0 0 0 0 0 0 0 0 0 0 0 0 0 0 0 0 128 128 128 96 96 64 255 255 255 159 159 223 223 255 64 64 96 0 0 0 128 128 0 96 96 96 128 128 128 128 128 128 64 64 96 96 64 255 255 191 159 159 159 159 191 191 191 191 159 159 159 191 191 255 255 255 64 96 96 64 191 191 191 191 191 191 64 96 96 96 64 255 255 255 191 191 255 255 255 255 255 64 64 64 128 128 128 0 0 0 0 0 0 0 0 128 128 128 96 64 64 255 255 159 32 159 255 255 255 255 96 96 96 128 128 0 0 0 0 0 0 0 0 0 0 0 0 0 0 0 0 0 0 0 0 0 0 0 0 0 0 0 0 0 0 0 0 0
0 0 0 0 0 0 0 0 0 0 0 0 0 0 0 0 0 0 0 0 0 0 0 0 0 0 0 0 0 0 0 0 128 128 128 96 96 96 255 255 255 159 159 223 223 255 64 96 128 0 0 128 128 0 96 128 96 128 128 128 128 128 64 64 64 64 64 64 96 64 255 255 159 159 32 159 159 191 191 191 191 159 32 159 159 159 159 191 191 255 64 96 96 191 191 191 191 191 96 96 96 96 64 64 191 191 191 191 191 191 191 159 159 159 255 255 64 64 64 128 128 0 0 0 0 0 0 0 0 0 128 128 128 64 64 64 255 159 32 159 159 255 255 96 96 96 96 128 128 0 0 0 0 0 0 0 0 0 0 0 0 0 0 0 0 0 0 0 0 0 0 0 0 0 0 0 0 0 0 0 0
0 0 0 0 0 0 0 0 0 0 0 0 0 0 0 0 0 0 0 0 0 0 0 0 0 0 0 0 0 0 0 128 128 128 96 96 96 255 255 255 159 159 223 255 255 64 96 128 0 0 128 128 0 128 128 0 128 128 128 64 96 96 64 255 255 255 255 255 64 96 64 255 159 159 32 159 159 191 191 191 255 159 32 32 32 32 159 159 191 255 255 96 96 64 191 255 255 96 96 96 64 64 255 191 191 191 191 191 191 191 191 159 159 159 159 159 255 255 64 64 128 128 128 128 0 0 0 0 0 0 0 0 128 128 96 64 64 255 159 32 159 159 255 64 191 96 96 96 128 128 0 0 0 0 0 0 0 0 0 0 0 0 0 0 0 0 0 0 0 0 0 0 0 0 0 0 0 0 0 0 0
0 0 0 0 0 0 0 0 0 0 0 0 0 0 0 0 0 0 0 0 0 0 0 0 0 0 0 0 0 0 128 128 128 96 96 96 64 255 255 159 159 223 223 255 64 128 128 0 0 0 0 96 128 0 0 128 128 64 64 64 64 96 64 255 159 159 159 159 255 96 64 255 159 159 32 159 159 191 191 191 255 159 32 32 159 32 32 159 159 191 255 255 96 96 255 64 96 96 96 64 255 191 191 191 191 191 191 191 191 191 191 191 159 32 32 159 159 191 255 255 64 96 128 128 128 0 0 0 0 0 0 0 0 0 128 96 96 64 255 255 159 32 159 255 255 255 96 96 96 128 128 0 0 0 0 0 0 0 0 0 0 0 0 0 0 0 0 0 0 0 0 0 0 0 0 0 0 0 0 0 0
0 0 0 0 0 0 0 0 0 0 0 0 0 0 0 0 0 0 0 0 0 0 0 0 0 0 0 0 0 128 128 128 96 96 96 64 64 255 159 223 223 255 64 64 96 0 0 128 128 0 0 0 0 128 128 128 64 64 255 255 255 64 64 255 191 159 159 159 255 64 64 255 159 159 32 159 159 191 191 191 191 159 159 159 159 159 159 32 159 191 159 255 64 96 96 96 96 96 64 255 191 191 191 191 191 191 159 159 159 159 191 191 159 32 32 32 159 159 159 255 255 96 96 64 64 128 128 0 0 0 0 0 0 0 0 128 96 96 64 255 255 159 32 159 255 255 96 96 96 96 128 128 0 0 0 0 0 0 0 0 0 0 0 0 0 0 0 0 0 0 0 0 0 0 0 0 0 0 0 0 0
0 0 0 0 0 0 0 0 0 0 0 0 0 0 0 0 0 0 0 0 0 0 0 0 0 0 0 0 0 128 128 96 96 96 64 64 255 159 223 223 223 255 96 128 0 128 128 0 96 0 0 128 128 128 128 64 64 191 191 191 191 191 191 191 159 32 32 159 159 255 64 255 159 159 32 32 159 159 191 191 191 159 159 159 191 191 191 159 159 191 159 255 64 96 96 96 96 64 255 191 191 191 191 191 191 159 159 159 159 159 159 159 32 32 159 159 159 159 159 255 96 96 64 64 64 64 64 128 128 0 0 0 0 0 0 0 128 128 96 64 255 255 159 159 159 255 255 96 96 96 96 128 128 0 0 0 0 0 0 0 0 0 0 0 0 0 0 0 0 0 0 0 0 0 0 0 0 0 0 0 0
0 0 0 0 0 0 0 0 0 0 0 0 0 0 0 0 0 0 0 0 0 0 0 0 0 0 0 128 128 128 96 96 96 64 64 255 159 223 223 223 255 64 128 0 0 128 0 96 0 0 128 128 128 96 64 64 191 191 191 191 191 191 191 191 255 159 32 32 159 159 255 191 159 32 32 32 159 159 191 191 159 159 159 191 191 191 191 191 32 159 159 255 255 96 96 96 64 64 191 191 191 191 159 159 159 159 32 32 32 32 32 32 32 159 159 191 191 191 255 255 96 64 64 255 255 255 64 64 64 128 128 0 0 0 0 0 0 128 128 96 64 64 255 159 32 159 255 255 96 96 96 96 128 0 0 0 0 0 0 0 0 0 0 0 0 0 0 0 0 0 0 0 0 0 0 0 0 0 0 0 0
0 0 0 0 0 0 0 0 0 0 0 0 0 0 0 0 0 0 0 0 0 0 0 0 0 0 128 128 128 96 96 96 64 64 255 159 32 223 223 255 64 96 0 128 128 128 96 0 128 128 128 96 96 96 64 191 191 191 159 191 191 191 191 255 255 159 159 32 32 159 159 159 32 32 32 32 159 159 191 191 191 191 191 191 191 191 159 159 32 159 159 255 255 64 96 64 64 191 191 191 159 159 159 159 159 32 32 32 32 32 32 32 32 159 159 191 191 191 255 255 96 64 255 191 191 159 255 255 64 64 128 128 0 0 0 0 0 0 128 128 96 64 255 255 159 32 159 255 255 64 96 96 128 128 0 0 0 0 0 0 0 0 0 0 0 0 0 0 0 0 0 0 0 0 0 0 0 0 0 0 0
0 0 0 0 0 0 0 0 0 0 0 0 0 0 0 0 0 0 0 0 0 0 0 0 0 0 128 128 96 96 96 64 64 255 159 32 223 223 255 64 96 0 128 128 96 96 0 128 128 128 96 96 64 64 255 191 191 159 159 159 191 191 255 64 255 255 159 159 32 32 32 32 32 32 32 159 159 159 191 191 191 191 191 191 159 159 159 32 159 159 159 255 255 96 128 64 255 191 159 159 159 159 32 32 32 32 32 32 32 32 32 32 32 32 159 159 159 159 255 255 96 64 255 191 191 191 191 191 255 255 64 128 128 0 0 0 0 0 0 128 96 96 64 64 255 159 159 159 255 255 96 96 96 128 128 0 0 0 0 0 0 0 0 0 0 0 0 0 0 0 0 0 0 0 0 0 0 0 0 0 0
0 0 0 0 0 0 0 0 0 0 0 0 0 0 0 0 0 0 0 0 0 0 0 0 0 128 128 96 96 96 64 64 255 159 32 223 223 255 64 96 0 0 128 96 96 0 128 128 128 96 64 64 64 255 191 191 191 159 159 159 191 255 255 96 64 255 159 159 159 159 32 32 32 32 32 159 159 191 191 191 191 191 159 159 159 32 32 159 159 159 191 255 255 96 96 64 255 191 159 159 32 32 32 32 32 32 32 32 32 32 32 32 32 32 32 32 32 159 159 255 96 96 255 191 191 191 191 32 191 255 255 64 64 128 0 0 0 0 0 0 128 96 96 96 64 255 159 32 159 255 255 64 96 96 128 0 0 0 0 0 0 0 0 0 0 0 0 0 0 0 0 0 0 0 0 0 0 0 0 0 0
0 0 0 0 0 0 0 0 0 0 0 0 0 0 0 0 0 0 0 0 0 0 0 0 128 128 128 96 96 64 255 255 159 32 223 223 255 64 96 128 0 128 0 128 0 128 128 128 64 64 64 255 191 191 191 191 159 32 159 159 191 255 255 96 64 255 191 191 191 159 32 32 32 32 32 159 159 159 191 191 159 159 159 32 32 32 159 159 159 159 191 255 255 96 96 64 255 191 159 159 32 32 32 32 32 32 32 32 32 32 32 159 159 159 159 159 159 159 159 191 64 64 191 191 191 191 191 191 159 159 255 255 64 64 128 0 0 0 0 0 0 128 96 96 64 255 159 32 159 255 255 64 96 96 128 128 0 0 0 0 0 0 0 0 0 0 0 0 0 0 0 0 0 0 0 0 0 0 0 0 0
0 0 0 0 0 0 0 0 0 0 0 0 0 0 0 0 0 0 0 0 0 0 0 128 128 128 96 96 64 255 255 255 32 223 223 255 64 96 128 0 128 0 96 128 128 128 128 64 255 255 191 191 191 191 159 159 32 159 159 191 191 255 191 64 64 191 191 191 191 159 32 32 32 32 32 32 32 159 159 32 32 32 32 32 32 32 159 159 191 191 191 255 255 96 64 64 255 255 159 159 32 32 32 32 32 32 32 32 32 32 159 159 159 159 159 159 159 159 191 191 255 255 191 191 191 191 191 191 159 32 159 191 255 64 64 128 0 0 0 0 0 0 128 96 96 64 255 159 32 159 255 255 64 96 96 128 128 0 0 0 0 0 0 0 0 0 0 0 0 0 0 0 0 0 0 0 0 0 0 0 0
0 0 0 0 0 0 0 0 0 0 0 0 0 0 0 0 0 0 0 0 0 0 0 128 128 128 64 64 255 255 159 159 32 223 223 64 96 128 0 0 0 128 128 0 128 128 64 64 191 191 191 191 191 159 159 159 32 159 159 191 191 191 96 64 191 191 191 191 191 159 32 32 32 32 32 32 32 32 159 159 159 32 32 32 32 159 159 191 191 191 191 191 191 64 64 255 191 191 159 159 32 32 32 32 32 32 32 32 32 159 159 159 191 191 191 191 191 191 191 255 191 191 191 191 191 191 191 191 191 159 32 159 159 255 64 128 128 0 0 0 0 0 128 128 96 96 64 255 159 32 159 255 255 64 96 96 128 0 0 0 0 0 0 0 0 0 0 0 0 0 0 0 0 0 0 0 0 0 0 0 0
0 0 0 0 0 0 0 0 0 0 0 0 0 0 0 0 0 0 0 0 0 0 128 128 96 96 64 255 255 255 159 32 223 223 255 64 128 0 0 0 128 128 0 128 128 64 255 191 191 191 191 159 159 159 32 32 32 159 159 191 255 191 64 255 191 159 159 159 159 32 32 32 32 32 32 159 159 159 159 159 159 159 159 32 32 32 159 159 191 191 191 191 96 64 191 191 191 191 159 32 32 32 32 159 159 159 32 32 32 159 159 191 191 191 191 191 191 191 191 191 191 191 159 159 191 191 191 191 191 191 159 159 159 255 255 64 128 128 0 0 0 0 0 128 128 96 64 64 255 159 32 159 255 255 64 96 128 128 0 0 0 0 0 0 0 0 0 0 0 0 0 0 0 0 0 0 0 0 0 0 0
0 0 0 0 0 0 0 0 0 0 0 0 0 0 0 0 0 0 0 0 0 128 128 128 96 64 64 255 255 159 32 223 223 255 64 128 128 0 0 0 128 0 128 128 64 64 191 191 191 191 159 32 32 32 32 32 32 159 159 191 255 96 96 255 191 159 159 32 32 32 32 32 32 32 159 159 159 255 191 191 191 191 159 159 32 32 32 159 191 191 191 191 191 191 191 159 159 159 32 32 32 159 159 159 159 159 159 32 32 32 159 159 191 191 191 191 191 191 191 191 191 191 159 159 159 191 191 191 191 191 159 159 159 159 255 255 64 128 0 0 0 0 0 0 128 128 128 64 255 159 32 159 255 255 64 64 64 128 128 0 0 0 0 0 0 0 0 0 0 0 0 0 0 0 0 0 0 0 0 0 0
0 0 0 0 0 0 0 0 0 0 0 0 0 0 0 0 0 0 0 0 128 128 128 96 64 64 255 255 159 32 223 223 255 64 128 128 0 128 128 128 0 0 128 128 64 255 191 191 191 159 159 32 32 32 32 32 32 159 159 191 191 255 64 191 191 191 159 159 32 32 32 32 32 159 159 255 255 255 191 191 191 191 159 159 32 32 32 159 159 159 191 191 191 191 191 159 159 32 32 32 159 159 159 191 191 191 159 159 32 32 32 159 159 159 159 159 159 191 191 191 191 159 159 32 159 191 191 191 191 191 159 32 159 159 191 191 255 64 128 0 0 0 0 0 0 128 128 96 64 255 159 32 159 255 255 64 64 96 128 0 0 0 0 0 0 0 0 0 0 0 0 0 0 0 0 0 0 0 0 0 0
0 0 0 0 0 0 0 0 0 0 0 0 0 0 0 0 0 0 0 0 128 128 96 96 64 64 255 159 32 223 223 255 64 96 128 0 128 128 96 96 0 128 128 128 64 64 191 191 191 191 159 159 32 32 32 32 32 32 159 191 191 191 191 191 191 191 191 159 159 32 32 32 32 159 159 255 96 64 64 255 191 159 159 32 32 32 32 159 159 159 191 191 191 191 191 191 159 159 32 159 159 159 191 191 191 191 159 159 32 32 32 32 32 159 159 159 159 191 191 191 191 191 159 32 159 159 191 191 191 191 255 159 32 159 191 191 255 64 64 128 0 0 0 0 0 0 128 128 96 64 255 159 159 159 255 255 255 64 128 128 0 0 0 0 0 0 0 0 0 0 0 0 0 0 0 0 0 0 0 0 0
0 0 0 0 0 0 0 0 0 0 0 0 0 0 0 0 0 0 0 128 128 128 96 64 64 255 255 159 32 223 223 255 64 128 0 0 128 96 96 0 128 128 64 64 64 191 191 191 191 191 191 159 159 32 32 32 32 32 159 159 159 191 191 191 191 191 191 191 159 159 32 32 159 159 255 255 96 64 255 191 159 159 32 32 32 32 32 159 159 191 191 191 191 191 191 191 159 159 32 159 159 191 191 191 191 191 159 159 32 32 32 32 32 32 32 159 159 191 191 191 191 159 159 32 159 159 191 191 191 191 191 159 32 159 159 191 191 255 64 64 128 0 0 0 128 0 0 128 96 64 64 159 32 159 255 255 255 64 64 128 128 0 0 0 0 0 0 0 0 0 0 0 0 0 0 0 0 0 0 0 0
0 0 0 0 0 0 0 0 0 0 0 0 0 0 0 0 0 0 0 128 128 96 96 64 255 255 255 32 223 223 255 64 128 128 0 128 0 96 128 128 128 64 64 255 191 191 191 191 191 191 191 191 159 159 32 32 32 32 32 32 159 159 191 191 191 191 191 191 191 159 159 32 159 159 191 191 64 64 191 191 159 159 32 32 32 32 32 159 159 191 191 191 191 191 191 159 32 32 32 159 159 255 191 96 255 191 159 159 32 32 32 32 32 32 32 159 159 191 191 191 191 159 32 159 159 255 191 191 191 191 191 159 32 159 159 191 191 191 255 64 64 128 0 0 0 0 0 0 128 128 64 255 159 32 159 255 255 255 64 96 128 128 0 0 0 0 0 0 0 0 0 0 0 0 0 0 0 0 0 0 0
0 0 0 0 0 0 0 0 0 0 0 0 0 0 0 0 0 0 128 128 128 96 96 64 255 255 159 32 223 223 64 96 128 0 0 0 128 128 0 128 128 64 191 191 191 191 191 191 191 191 191 191 159 159 32 32 32 32 32 32 32 159 159 159 191 191 191 191 191 159 159 32 159 159 191 191 191 191 191 191 159 159 32 32 32 32 32 159 159 191 191 191 191 191 159 159 32 32 32 159 159 255 255 96 255 191 159 159 32 32 32 32 32 32 32 159 159 191 191 191 191 159 32 159 159 191 191 191 191 191 159 32 159 159 191 191 191 191 191 255 64 64 128 0 0 128 0 0 128 128 96 64 255 159 32 159 255 255 255 64 128 128 0 0 0 0 0 0 0 0 0 0 0 0 0 0 0 0 0 0 0
0 0 0 0 0 0 0 0 0 0 0 0 0 0 0 0 0 0 128 128 96 96 64 64 255 255 32 223 223 255 64 96 0 0 0 128 128 0 128 128 64 255 191 191 191 191 191 191 191 191 191 191 191 159 32 32 32 32 32 32 32 32 159 159 191 191 191 191 255 159 159 32 159 159 191 191 191 191 191 191 159 159 159 159 159 159 32 159 159 191 191 191 191 191 191 159 159 159 159 159 159 159 255 96 64 255 191 159 159 32 32 32 32 32 32 159 159 191 191 191 191 159 32 159 159 191 191 191 191 159 32 159 159 191 191 191 191 191 191 255 255 64 128 128 0 0 0 0 0 128 128 64 64 255 32 159 255 255 255 64 64 128 0 0 0 0 0 0 0 0 0 0 0 0 0 0 0 0 0 0 0
0 0 0 0 0 0 0 0 0 0 0 0 0 0 0 0 0 0 128 128 96 96 64 255 255 223 223 223 223 64 96 128 0 0 0 0 0 128 128 64 255 191 191 191 191 191 191 191 191 191 191 191 191 159 32 32 32 32 32 32 32 159 159 159 191 191 191 191 255 159 32 32 159 159 191 191 191 191 191 191 191 191 159 159 159 159 159 159 159 191 191 191 191 191 191 191 159 159 159 159 159 191 255 96 96 255 191 191 159 32 32 32 32 32 32 159 159 191 191 191 159 159 32 159 159 191 191 191 191 191 159 159 159 191 191 191 191 191 191 191 255 64 64 128 0 0 0 128 0 0 128 96 64 255 159 32 159 255 255 255 64 64 128 0 0 0 0 0 0 0 0 0 0 0 0 0 0 0 0 0 0
0 0 0 0 0 0 0 0 0 0 0 0 0 0 0 0 0 128 128 96 96 64 64 255 255 32 223 223 255 64 128 0 0 0 0 0 128 128 64 255 191 191 191 191 191 191 191 191 191 191 191 191 191 159 32 32 32 32 32 32 159 159 159 191 191 191 191 191 159 159 32 32 159 159 191 191 191 191 191 191 191 191 191 191 255 159 159 159 159 191 191 191 191 191 191 191 191 191 191 191 191 191 255 96 64 255 191 191 159 32 32 32 32 32 32 159 159 191 191 191 159 159 32 159 159 191 191 191 191 191 191 191 191 191 191 191 191 191 191 191 191 255 64 128 128 0 0 128 128 0 128 96 96 64 255 159 32 159 255 191 255 64 128 128 0 0 0 0 0 0 0 0 0 0 0 0 0 0 0 0 0
0 0 0 0 0 0 0 0 0 0 0 0 0 0 0 0 0 128 128 96 96 64 255 255 159 223 223 223 64 64 128 0 0 0 0 128 128 64 255 191 191 191 191 159 159 159 191 191 191 191 191 191 191 159 32 32 32 32 32 32 159 159 191 191 191 191 191 191 159 32 32 32 159 159 191 191 191 191 255 191 191 191 191 255 255 255 255 159 191 191 191 191 191 191 191 191 191 191 191 191 191 191 255 96 64 255 191 191 159 32 32 32 32 32 32 159 159 191 191 191 159 159 32 159 159 191 191 191 191 191 191 191 191 191 191 191 191 191 191 191 191 255 64 64 128 0 0 128 128 128 0 128 96 64 64 255 32 159 255 255 191 64 64 128 0 0 0 0 0 0 0 0 0 0 0 0 0 0 0 0 0
0 0 0 0 0 0 0 0 0 0 0 0 0 0 0 0 0 128 128 96 64 64 255 223 32 223 223 255 64 96 128 0 0 0 128 128 64 64 191 191 191 191 191 32 159 191 191 191 191 191 191 191 191 159 159 32 32 32 32 159 159 191 191 191 191 159 159 159 32 32 32 32 159 159 191 191 255 191 64 255 191 191 191 191 64 64 255 191 191 255 255 255 255 191 191 191 191 191 191 191 191 191 255 96 96 191 191 191 159 159 32 32 32 32 32 159 159 191 191 191 159 32 32 32 159 159 191 191 191 191 191 191 191 191 191 191 191 191 191 191 191 191 255 64 128 128 0 128 96 128 0 128 128 96 64 255 159 32 159 255 255 255 64 128 128 0 0 0 0 0 0 0 0 0 0 0 0 0 0 0 0
0 0 0 0 0 0 0 0 0 0 0 0 0 0 0 0 128 128 96 96 64 255 255 223 223 223 223 64 64 0 128 0 128 128 128 64 64 191 191 191 191 191 159 32 159 159 191 191 191 191 191 191 191 159 159 32 32 32 32 32 159 159 159 159 159 159 32 32 32 32 32 32 32 159 191 191 255 255 96 64 255 191 191 255 96 96 96 96 191 96 96 64 255 191 191 191 191 191 191 191 191 191 191 191 96 255 255 191 191 159 159 32 32 32 32 32 159 159 159 159 32 32 32 32 159 159 191 191 191 191 191 191 191 191 191 191 191 191 191 191 191 191 255 255 64 128 0 0 128 96 128 0 128 96 96 64 255 32 159 255 255 191 64 64 128 0 0 0 0 0 0 0 0 0 0 0 0 0 0 0 0
0 0 0 0 0 0 0 0 0 0 0 0 0 0 0 0 128 128 96 96 64 255 255 32 223 223 255 64 96 0 0 128 0 128 128 64 191 191 191 191 159 159 159 159 159 159 159 159 159 191 191 191 191 159 32 32 32 32 32 32 32 159 159 159 32 32 32 32 32 32 32 32 159 159 191 159 255 64 96 96 96 191 191 96 96 96 64 191 191 255 96 64 255 191 191 191 191 191 191 191 191 191 191 191 255 96 96 255 191 191 159 159 32 32 32 32 32 159 159 32 32 32 32 32 32 159 159 191 255 191 191 191 191 191 191 191 191 191 191 191 191 191 191 255 64 64 128 0 128 128 128 128 128 96 96 64 64 159 159 159 255 191 255 64 128 128 0 0 0 0 0 0 0 0 0 0 0 0 0 0 0
0 0 0 0 0 0 0 0 0 0 0 0 0 0 0 128 128 96 96 64 64 255 159 32 223 223 64 64 128 0 128 96 128 128 64 255 191 191 191 159 159 32 32 32 32 32 32 159 159 159 159 159 159 32 32 32 32 32 32 32 32 32 32 32 32 32 32 32 32 32 32 159 159 159 159 255 255 96 96 96 96 96 96 96 96 64 255 191 191 255 255 191 191 191 191 159 191 191 191 191 191 191 191 191 255 64 96 64 255 191 159 159 159 32 32 32 32 32 32 32 32 32 32 32 32 159 159 159 255 191 191 159 159 159 159 159 191 191 191 191 191 191 191 191 255 64 128 128 0 128 96 96 0 128 96 64 64 255 32 159 255 255 191 64 64 128 128 0 0 0 0 0 0 0 0 0 0 0 0 0 0
0 0 0 0 0 0 0 0 0 0 0 0 0 0 0 128 128 64 96 64 255 255 32 223 223 255 64 96 0 0 128 128 128 64 64 191 191 191 159 159 32 32 32 32 32 32 32 32 32 32 159 32 32 32 32 32 32 32 32 32 32 32 32 32 32 32 32 32 32 32 159 159 159 191 255 255 191 96 96 96 96 96 96 96 64 64 191 191 191 191 191 191 191 191 191 159 159 159 191 191 159 159 159 191 191 191 64 96 255 191 191 191 159 159 32 32 32 32 32 32 32 32 32 32 32 32 159 159 159 159 159 159 32 32 32 159 159 191 191 191 191 191 191 191 191 255 64 128 0 128 128 96 128 0 128 96 64 255 159 32 159 255 191 191 64 64 128 0 0 0 0 0 0 0 0 0 0 0 0 0 0
0 0 0 0 0 0 0 0 0 0 0 0 0 0 128 128 128 96 191 255 255 223 32 223 223 64 96 128 0 0 0 128 128 64 255 191 191 191 159 159 159 159 32 32 32 32 32 32 32 32 32 32 32 32 32 32 32 32 32 32 32 32 32 32 32 32 32 32 32 159 159 159 191 255 96 96 96 64 64 191 255 64 96 96 64 191 191 191 191 191 191 191 191 191 191 159 159 159 159 159 159 159 159 191 191 191 255 255 191 191 191 191 159 159 32 32 32 32 32 32 32 32 32 32 32 32 32 32 32 32 32 32 32 32 32 32 159 159 159 191 191 191 191 191 191 255 255 64 128 0 128 96 96 128 128 96 96 64 255 159 159 255 191 191 255 64 128 128 0 0 0 0 0 0 0 0 0 0 0 0 0
0 0 0 0 0 0 0 0 0 0 0 0 0 128 128 128 96 96 255 255 255 159 223 223 255 64 96 0 0 0 0 128 128 64 255 191 191 191 191 159 159 159 159 159 32 32 32 32 32 32 32 32 32 32 32 32 32 32 32 32 32 32 32 32 32 32 32 32 32 159 159 191 191 191 64 64 255 255 191 191 255 96 96 64 255 191 191 191 191 191 191 191 191 191 191 159 32 32 159 159 32 32 159 159 191 191 191 191 191 191 191 191 191 159 159 32 32 32 32 32 32 32 32 32 32 32 32 32 32 32 32 32 32 32 32 32 32 159 159 159 159 159 159 159 191 191 255 64 64 0 128 96 96 96 0 128 96 96 64 159 32 255 255 191 191 64 64 128 128 0 0 0 0 0 0 0 0 0 0 0 0
0 0 0 0 0 0 0 0 0 0 0 0 0 128 128 96 96 255 255 255 159 32 223 223 64 96 96 0 0 0 128 128 128 64 255 191 191 191 191 191 191 191 159 159 159 159 32 32 32 32 32 32 32 32 32 32 32 32 32 32 32 32 32 32 32 32 32 32 32 159 159 191 191 191 191 191 191 191 191 191 255 96 64 64 191 191 191 159 191 191 191 191 191 191 191 159 159 32 32 32 32 32 159 159 191 191 191 191 191 191 191 191 191 191 159 159 32 32 32 32 32 32 32 32 32 32 32 32 32 32 32 32 32 32 32 32 32 32 32 32 32 32 159 159 191 191 191 255 64 128 0 128 96 96 0 128 96 96 64 255 159 159 255 255 96 191 64 64 128 0 0 0 0 0 0 0 0 0 0 0 0
0 0 0 0 0 0 0 0 0 0 0 0 128 128 128 96 64 255 255 255 159 223 223 255 64 96 96 0 0 0 128 64 64 64 191 191 191 191 191 191 191 191 191 191 159 159 159 159 32 32 32 32 32 32 32 32 32 32 32 32 32 32 32 32 32 32 32 32 32 32 159 191 191 191 191 191 191 191 191 191 191 64 64 191 191 191 191 159 191 191 255 255 191 191 191 191 159 159 32 32 32 32 32 159 159 159 191 191 191 191 191 191 191 191 191 159 32 32 32 32 32 32 32 32 32 32 32 32 32 32 32 32 32 32 32 32 32 32 159 159 159 159 159 159 191 191 191 255 64 128 128 0 128 96 0 128 64 96 96 64 159 32 159 255 96 191 64 64 128 128 0 0 0 0 0 0 0 0 0 0 0
0 0 0 0 0 0 0 0 0 0 0 0 128 128 96 64 64 255 255 159 32 223 223 64 96 96 128 0 96 128 128 64 255 191 191 191 191 191 191 191 191 191 191 191 191 191 159 159 159 159 32 32 32 32 32 32 32 32 32 32 32 32 32 32 32 32 32 32 32 32 159 159 159 191 191 191 191 191 191 191 191 191 191 191 191 159 159 159 191 255 255 64 255 191 191 191 191 159 159 32 32 32 32 32 159 159 159 159 191 191 191 191 191 191 191 159 159 32 32 32 32 32 32 32 32 32 32 32 32 32 32 32 32 32 32 32 32 159 159 159 159 191 191 191 191 191 191 191 255 64 128 0 128 128 96 128 128 96 191 64 255 32 159 255 255 96 96 64 64 128 0 0 0 0 0 0 0 0 0 0 0
0 0 0 0 0 0 0 0 0 0 0 128 128 128 96 64 255 255 255 32 223 223 255 96 96 96 0 0 128 128 64 64 191 191 191 191 191 191 191 191 191 191 191 191 191 191 191 191 159 159 159 32 32 32 32 32 32 32 32 32 32 32 32 32 32 32 32 32 32 32 159 159 159 191 191 191 191 191 191 191 191 191 191 191 159 159 159 191 191 255 64 96 64 255 191 191 191 191 159 159 32 32 32 32 32 32 159 159 159 159 191 191 191 191 191 159 159 32 32 32 32 32 32 32 32 32 32 32 32 32 32 32 32 32 32 32 159 159 159 191 191 191 191 191 191 191 191 191 255 64 64 128 0 0 128 128 128 64 191 96 64 159 32 159 255 191 191 255 64 128 0 0 0 0 0 0 0 0 0 0 0
0 0 0 0 0 0 0 0 0 0 0 128 128 96 96 64 255 255 159 32 223 223 64 96 96 96 0 0 128 128 64 255 191 191 191 191 159 159 159 191 191 191 191 191 191 191 191 191 191 191 159 159 32 32 32 32 32 32 32 32 32 32 32 32 32 32 32 32 32 32 159 159 159 191 191 191 191 191 191 191 191 191 159 159 159 159 159 191 191 255 64 96 96 64 191 191 191 191 191 159 159 32 32 32 32 32 32 32 159 159 159 159 159 159 159 159 32 32 32 32 32 32 32 32 32 32 32 32 32 32 32 32 32 32 32 159 159 159 191 191 191 191 191 191 191 191 191 191 191 255 64 64 128 0 0 0 128 64 255 96 64 255 32 223 255 255 191 96 64 64 128 0 0 0 0 0 0 0 0 0 0
0 0 0 0 0 0 0 0 0 0 128 128 128 96 64 64 255 223 32 223 223 255 96 64 64 128 0 0 128 128 64 64 191 191 191 191 159 159 159 159 159 191 191 191 191 191 191 191 191 191 191 159 159 32 32 32 32 32 32 32 32 32 32 32 32 32 32 32 32 32 32 159 159 191 191 191 191 191 191 191 191 159 32 159 159 159 191 191 191 255 64 96 96 96 96 191 191 191 255 159 159 32 32 32 32 32 32 32 32 32 32 159 159 32 32 32 32 32 32 32 32 32 32 32 32 32 32 32 32 32 32 32 32 32 159 159 159 191 191 191 191 191 191 191 191 191 191 191 191 191 255 64 64 128 0 0 128 128 64 191 64 255 223 32 159 255 64 96 64 64 128 128 0 0 0 0 0 0 0 0 0
0 0 0 0 0 0 0 0 0 0 128 128 96 96 64 255 255 223 32 223 223 255 96 255 64 128 0 0 128 128 96 64 255 191 191 191 191 159 159 32 159 159 159 191 191 191 191 191 191 191 191 159 159 32 32 32 32 32 32 32 32 32 32 32 32 32 32 32 32 32 32 159 159 191 191 191 191 191 191 159 159 32 159 159 159 191 191 191 191 255 64 96 96 96 96 191 191 191 255 255 159 32 32 32 32 32 32 32 32 32 32 32 32 32 32 32 32 32 32 32 32 32 32 32 32 32 32 32 32 32 32 32 32 159 159 159 191 191 191 191 191 191 191 191 191 191 191 191 191 191 191 255 64 128 0 0 0 128 64 191 191 64 223 32 159 223 255 255 64 96 96 128 0 0 0 0 0 0 0 0 0
0 0 0 0 0 0 0 0 0 0 128 128 96 96 64 255 255 223 223 223 255 64 96 64 128 0 0 128 128 64 64 96 191 191 191 191 191 191 159 159 32 32 159 159 159 191 191 191 191 191 191 191 159 32 32 32 32 32 32 32 32 32 32 32 32 32 32 32 32 32 32 32 159 159 191 191 191 191 159 32 159 159 159 191 191 191 191 191 255 255 96 96 96 96 96 191 191 191 191 191 159 159 32 32 32 32 32 32 32 32 32 32 32 32 32 32 32 32 32 32 32 32 32 32 32 32 32 32 32 32 32 159 159 159 191 191 191 191 191 191 191 191 191 191 191 159 159 191 191 191 191 255 64 64 128 0 0 128 64 191 191 96 255 223 32 223 255 255 64 96 96 128 128 0 0 0 0 0 0 0 0
0 0 0 0 0 0 0 0 0 0 128 128 96 64 255 255 223 32 223 223 255 96 64 64 128 0 128 128 64 64 255 255 191 191 191 191 191 191 191 191 159 159 32 32 159 159 159 159 191 191 191 159 159 32 32 32 32 32 32 32 32 32 32 32 32 32 32 32 32 32 32 32 32 159 159 159 159 159 32 32 159 159 191 191 191 191 191 191 255 64 96 96 64 255 191 191 191 191 191 191 159 159 32 32 32 32 32 32 32 32 32 32 32 32 32 32 32 32 32 32 32 32 32 32 32 32 32 32 32 159 159 159 159 191 191 191 191 191 191 191 191 191 191 159 159 159 159 159 159 191 191 191 255 64 128 128 0 128 64 64 191 191 64 255 159 159 223 255 64 96 96 96 128 0 0 0 0 0 0 0 0
0 0 0 0 0 0 0 0 0 128 128 96 96 64 255 255 159 32 223 223 64 96 64 64 0 128 128 64 64 191 191 191 191 191 191 191 191 191 191 191 191 159 159 32 32 32 159 159 159 159 159 32 32 32 32 32 32 32 32 32 32 32 32 32 32 32 32 32 32 32 32 32 32 32 32 32 32 32 32 159 159 191 191 191 191 191 191 191 255 255 96 96 64 191 191 191 191 191 191 191 255 159 32 32 32 32 32 32 32 32 32 32 32 32 32 32 32 32 32 32 32 32 32 32 32 32 32 32 159 159 159 191 191 191 191 191 191 191 191 191 191 191 159 32 32 32 32 32 159 191 191 191 255 64 64 128 0 128 128 64 191 191 96 255 223 32 223 255 255 96 96 96 128 128 0 0 0 0 0 0 0
0 0 0 0 0 0 0 0 0 128 128 96 64 255 255 255 32 223 223 255 96 255 64 128 0 128 128 64 255 191 191 191 191 191 191 191 191 191 191 191 191 191 159 159 159 32 32 32 32 32 32 32 32 32 32 32 32 32 32 32 32 32 32 32 32 32 32 32 32 32 32 32 32 32 32 32 32 32 32 159 159 191 191 191 191 191 191 191 255 255 96 64 255 191 191 191 191 191 191 191 255 159 32 32 32 32 32 32 32 32 32 32 32 32 32 32 32 32 32 32 32 32 32 32 32 32 32 32 159 159 191 191 191 191 191 191 191 191 191 191 159 159 32 32 32 32 159 159 159 191 191 191 255 64 64 128 0 0 128 64 255 191 191 64 255 159 223 223 255 64 96 96 96 128 128 0 0 0 0 0 0
0 0 0 0 0 0 0 0 0 128 128 64 64 255 255 159 32 223 223 255 96 64 64 128 0 128 128 64 255 191 191 191 191 191 191 191 191 191 191 191 191 191 191 191 159 159 32 32 32 32 32 32 32 32 32 32 32 32 32 32 32 32 32 32 32 32 32 32 32 32 32 32 32 32 32 32 32 32 32 32 159 159 191 191 191 191 191 191 255 255 96 64 255 191 191 191 191 191 191 191 255 159 32 32 32 32 32 32 32 32 32 32 32 32 32 32 32 32 32 32 32 32 32 32 32 32 32 159 159 159 191 191 191 191 191 191 191 159 159 159 32 32 32 159 159 159 159 159 191 191 191 191 255 255 64 128 0 0 128 64 64 191 191 64 255 223 32 223 223 255 96 96 96 96 128 0 0 0 0 0 0
0 0 0 0 0 0 0 0 128 128 128 64 64 255 255 159 32 223 159 255 96 64 64 128 128 128 64 64 191 191 191 159 159 191 191 191 191 191 191 191 191 191 191 191 191 159 159 32 32 32 32 32 32 32 32 32 32 32 32 32 32 32 32 32 32 32 32 32 32 32 32 32 32 32 32 32 32 32 32 32 159 159 159 159 191 191 191 191 255 255 96 64 255 191 191 191 191 191 191 191 255 159 32 32 32 32 32 32 32 32 32 32 32 32 32 32 32 32 32 32 32 32 32 32 32 32 32 159 159 191 191 191 191 191 191 191 159 159 32 32 32 32 159 159 159 159 191 191 191 191 191 191 255 255 64 128 0 0 128 128 64 191 191 96 255 223 32 223 223 255 64 96 96 96 128 0 0 0 0 0 0
0 0 0 0 0 0 0 0 128 128 96 64 255 255 255 159 32 223 255 191 191 255 64 0 128 128 64 64 191 191 191 159 159 159 159 191 191 191 191 191 191 191 191 191 191 191 159 32 32 32 32 32 32 32 32 32 32 32 32 32 32 32 32 32 32 32 32 32 32 32 32 32 32 32 32 32 32 32 32 32 32 32 159 159 159 191 191 255 255 255 96 64 255 191 191 191 191 191 191 191 191 159 32 32 32 32 32 32 32 32 32 32 32 32 32 32 32 32 32 32 32 32 32 32 32 32 32 32 159 159 191 191 191 191 159 159 159 32 32 32 159 159 159 159 191 191 191 191 191 191 191 191 191 255 64 128 128 0 0 128 64 255 191 191 64 255 159 32 223 255 64 96 96 96 128 128 0 0 0 0 0
0 0 0 0 0 0 0 0 128 128 96 64 255 255 255 159 159 223 255 191 255 255 64 0 128 64 64 255 191 191 191 159 32 32 159 159 191 191 191 191 191 191 191 191 191 191 159 159 32 32 32 32 32 32 32 32 32 32 32 32 32 32 32 32 32 32 32 32 32 32 32 32 32 32 32 32 32 32 32 32 32 32 159 159 191 191 191 255 64 96 96 64 255 191 191 191 191 159 159 191 159 32 32 32 32 32 32 32 32 32 32 32 32 32 32 32 32 32 32 32 32 32 32 32 32 32 32 32 32 159 159 159 159 159 32 32 32 32 159 159 159 159 191 191 191 191 191 191 191 191 191 191 191 255 64 64 128 0 0 128 64 255 191 191 255 255 159 32 159 255 255 96 96 96 96 128 0 0 0 0 0
0 0 0 0 0 0 0 0 128 128 96 64 255 255 159 32 159 159 255 191 255 64 128 128 128 64 255 191 191 191 159 32 32 32 32 159 159 191 191 191 191 191 191 191 191 191 191 159 32 32 32 32 32 32 32 32 32 32 32 32 32 32 32 32 32 32 32 32 32 32 32 32 32 32 32 32 32 32 32 32 32 32 159 159 191 191 255 255 96 96 96 64 255 191 191 159 159 159 159 159 32 32 32 32 32 32 32 32 32 32 32 32 32 32 32 32 32 32 32 32 32 32 32 32 32 32 32 32 32 32 32 32 32 32 32 32 32 159 159 159 159 191 191 191 191 191 191 191 191 191 191 191 191 191 255 64 128 128 0 128 128 64 191 191 191 255 159 32 159 223 255 64 96 96 96 128 0 0 0 0 0
0 0 0 0 0 0 0 128 128 96 96 64 255 255 159 32 159 159 255 191 255 64 0 128 64 64 191 191 191 191 159 32 32 32 32 32 159 159 159 159 191 191 191 191 191 191 191 159 32 32 32 32 32 32 32 32 32 32 32 32 32 32 32 32 32 32 32 32 32 32 32 32 32 32 32 32 32 32 32 32 32 159 159 191 191 191 255 255 96 96 96 64 255 191 191 159 159 32 32 32 32 32 32 32 32 32 32 32 32 32 32 32 32 32 32 32 32 32 32 32 32 32 32 32 32 32 32 32 32 32 32 32 32 32 32 159 159 159 159 191 191 191 191 191 191 191 191 191 191 191 191 191 191 191 255 255 64 128 0 128 128 64 255 191 191 255 159 159 159 223 255 64 96 96 96 128 0 0 0 0 0
0 0 0 0 0 0 0 128 128 96 96 64 255 255 159 32 159 159 191 191 255 64 0 128 64 255 191 191 191 191 159 159 159 32 32 32 32 32 32 159 159 159 191 191 191 191 191 159 32 32 32 32 32 32 32 32 32 32 32 32 32 32 32 32 32 32 32 32 32 32 32 32 32 32 32 32 32 32 32 32 32 32 159 191 191 191 191 255 64 96 96 64 255 191 191 159 159 32 32 32 32 32 32 32 32 32 32 32 32 32 32 32 32 32 32 32 32 32 32 32 32 32 32 32 32 32 32 32 32 32 32 32 32 32 159 159 159 191 191 191 191 191 191 191 191 191 191 191 191 191 159 159 191 191 255 255 64 128 0 0 128 64 255 191 191 255 159 32 159 223 255 64 96 96 96 96 128 0 0 0 0
0 0 0 0 0 0 0 128 128 128 96 64 255 159 32 32 159 255 191 191 255 64 0 128 64 255 191 191 191 191 159 159 159 159 32 32 32 32 32 32 32 159 159 159 159 159 159 32 32 32 32 32 32 32 32 32 32 32 32 32 32 32 32 32 32 32 32 32 32 32 32 32 32 32 32 32 32 32 32 32 32 32 159 159 191 191 191 191 255 96 96 64 255 191 191 191 159 159 32 32 32 32 32 32 32 32 32 32 32 32 32 32 32 32 32 32 32 32 32 32 32 32 32 32 32 32 32 32 32 32 32 32 32 32 159 159 191 191 191 191 191 191 191 191 191 191 191 255 191 159 159 159 191 191 255 255 64 96 128 0 128 64 255 191 191 255 159 32 159 159 255 64 96 96 96 96 128 0 0 0 0
0 0 0 0 0 0 0 128 128 96 64 64 255 159 32 159 159 191 191 255 255 64 0 128 64 255 191 191 191 191 191 191 191 159 159 159 32 32 32 32 32 32 32 159 159 32 32 32 32 32 32 32 32 32 32 32 32 32 32 32 32 32 32 32 32 32 32 32 32 32 32 32 32 32 32 32 32 32 32 159 159 32 32 159 191 191 191 191 255 64 96 64 255 191 191 191 159 159 159 159 32 32 32 32 32 32 32 32 32 32 32 32 32 32 32 32 32 32 32 32 32 32 32 32 32 32 32 32 32 32 32 32 32 159 159 191 191 191 191 191 191 191 191 191 191 191 159 159 159 32 159 159 191 191 191 255 64 96 128 0 128 128 64 191 191 255 159 159 32 159 255 64 96 96 96 96 128 0 0 0 0
0 0 0 0 0 0 128 128 96 96 64 64 255 159 32 159 159 191 191 255 64 128 0 128 64 255 191 191 191 191 191 191 191 191 159 159 159 159 32 32 32 32 32 32 32 32 32 32 32 32 32 32 32 32 32 32 32 32 32 32 32 32 32 32 32 32 32 32 32 32 32 32 32 32 32 32 32 32 159 159 159 159 32 159 159 191 191 191 255 64 96 64 64 191 191 191 191 159 159 159 159 32 32 32 32 32 32 32 32 32 32 32 32 32 32 32 32 32 32 32 32 32 32 32 32 32 32 32 32 32 32 32 32 159 159 191 191 191 191 191 191 191 159 159 159 159 159 32 32 32 159 159 191 191 191 255 64 96 128 0 128 128 64 255 191 255 255 159 32 159 255 255 96 96 96 96 128 0 0 0 0
0 0 0 0 0 0 128 128 96 96 64 255 255 32 32 159 159 191 191 255 64 128 0 128 64 255 191 191 191 191 191 191 191 191 191 159 159 159 159 159 32 32 32 32 32 32 32 32 32 32 32 32 32 32 32 32 32 32 32 32 32 32 32 32 32 32 32 32 32 32 32 32 32 32 32 32 32 32 159 159 159 159 159 159 159 191 191 191 255 64 96 64 64 191 191 191 191 191 191 191 159 159 32 32 32 32 32 32 32 32 32 32 32 32 32 32 32 32 32 32 32 32 32 32 32 32 32 32 32 32 32 32 32 32 159 159 159 159 159 159 159 159 159 32 32 32 32 32 32 32 159 159 191 191 191 255 64 96 128 0 128 128 64 255 191 191 255 159 32 159 255 255 96 96 96 96 128 0 0 0 0
0 0 0 0 0 0 128 128 96 96 64 255 159 32 32 159 159 191 191 255 64 128 0 128 64 255 191 191 191 191 191 191 255 255 191 191 191 191 159 159 159 159 32 32 32 32 32 32 32 32 32 32 32 32 32 32 32 32 32 32 32 32 32 32 32 32 32 32 32 32 32 32 32 32 32 32 32 32 159 159 191 191 191 159 191 191 191 191 255 64 96 64 64 191 191 191 191 191 191 191 159 159 32 32 32 32 32 32 32 32 32 32 32 32 32 32 32 32 32 32 32 32 32 32 32 32 32 32 32 32 32 32 32 32 32 32 159 159 32 32 32 32 32 159 32 32 32 32 32 32 159 159 191 191 191 255 64 96 128 0 0 128 64 255 191 191 255 159 32 159 255 255 96 96 96 64 128 0 0 0 0
0 0 0 0 0 0 128 128 96 64 64 255 159 32 159 159 159 191 191 255 64 128 128 128 64 255 191 191 191 191 191 255 64 64 255 191 191 191 191 191 159 159 159 159 32 32 32 32 32 32 32 32 32 32 32 32 32 32 32 159 32 32 32 32 32 32 32 32 159 159 159 32 32 32 32 32 32 32 159 159 191 191 191 191 191 191 191 191 255 64 96 64 255 191 191 191 191 191 191 191 159 32 32 32 32 32 32 32 32 32 32 32 32 32 32 32 32 32 32 32 32 32 32 32 32 32 32 32 32 32 32 32 32 32 32 32 32 32 32 159 159 159 159 159 159 159 159 159 159 159 159 191 191 191 255 255 64 96 128 0 0 128 64 64 191 191 255 255 159 159 223 255 96 96 96 64 128 0 0 0 0
0 0 0 0 0 128 128 96 96 64 64 255 159 32 159 159 255 191 191 255 64 128 128 128 64 255 191 191 191 191 191 255 96 96 64 255 191 191 191 191 191 191 159 159 32 32 32 32 32 32 32 32 32 32 32 32 32 32 32 32 159 159 32 32 32 32 159 159 159 159 159 159 32 32 32 32 32 32 32 159 159 191 191 191 191 191 191 191 255 64 96 64 255 191 191 191 191 191 191 159 159 32 32 32 32 32 32 32 32 159 159 159 32 32 32 32 32 32 32 32 32 32 32 32 32 32 32 32 32 32 32 32 32 32 32 32 159 159 159 159 159 159 159 159 191 159 159 159 159 159 191 191 191 255 255 64 96 96 128 0 0 128 128 64 191 191 255 255 159 159 223 255 96 96 64 64 128 0 0 0 0
0 0 0 0 0 128 128 96 96 64 64 255 159 32 159 159 191 191 191 255 64 0 128 128 64 255 191 191 191 191 191 255 64 96 96 64 191 191 191 191 191 191 159 159 32 32 32 32 32 32 32 32 32 32 32 32 32 32 159 159 159 32 32 32 32 32 159 159 255 255 255 159 159 32 32 32 32 32 32 32 159 159 191 191 191 191 191 191 255 96 96 96 255 191 191 191 191 191 159 159 32 32 32 32 32 32 32 32 159 159 159 159 159 32 32 32 32 32 32 32 32 32 32 32 32 32 32 32 32 32 32 32 32 32 32 159 159 159 159 159 191 191 191 191 191 191 191 191 191 191 191 191 191 255 191 96 96 96 96 128 0 128 128 64 191 191 191 255 159 159 159 255 96 96 64 96 128 0 0 0 0
0 0 0 0 0 128 128 96 96 64 64 255 159 32 159 159 191 191 255 255 64 0 128 128 64 255 191 191 191 191 191 191 255 64 96 255 191 191 191 191 191 159 159 32 32 32 32 32 32 32 32 32 32 32 32 32 32 32 32 32 32 32 32 32 32 32 159 255 255 64 64 255 159 159 32 32 32 32 32 32 32 159 159 159 191 191 191 255 255 96 96 64 64 255 191 159 159 159 32 32 32 32 32 32 32 32 32 159 159 159 191 191 159 32 32 32 32 32 32 32 32 32 32 32 32 32 32 32 32 32 32 32 32 32 159 159 191 191 191 191 191 191 191 191 191 191 191 191 191 191 191 191 255 96 96 96 255 64 64 128 0 128 128 64 191 191 191 255 159 32 159 255 96 96 96 96 128 0 0 0 0
0 0 0 0 0 128 128 96 96 64 255 255 159 32 159 159 191 191 255 255 64 0 128 128 64 255 191 191 191 191 191 191 191 255 255 191 191 191 191 191 159 159 32 32 32 32 32 32 32 32 32 32 32 32 32 32 32 32 32 32 32 32 32 32 32 159 159 255 64 96 96 64 255 159 159 32 32 32 32 32 32 32 32 159 159 159 159 255 255 64 96 64 255 255 159 159 32 32 32 32 32 32 32 32 32 32 32 159 159 255 191 255 159 159 32 32 32 32 32 32 32 32 32 32 32 32 32 32 32 32 32 32 32 32 159 159 191 191 191 191 191 191 96 96 191 191 191 191 191 191 191 191 255 64 64 64 255 64 64 128 0 128 128 64 255 191 191 255 159 32 159 255 96 96 96 64 128 0 0 0 0
0 0 0 0 0 128 128 96 96 64 255 159 32 32 159 159 191 191 255 255 128 0 128 128 64 255 191 191 191 191 191 191 191 191 191 191 191 191 191 159 159 32 32 32 32 32 32 32 32 32 32 32 32 32 32 32 32 32 32 32 32 32 32 32 32 159 159 255 64 96 96 96 64 255 159 32 32 32 32 32 32 32 32 32 32 159 159 159 255 255 64 255 255 159 32 32 32 32 32 32 32 32 32 32 32 32 159 159 255 255 64 255 255 159 32 32 32 32 32 32 32 32 32 32 32 32 32 32 32 32 32 32 32 32 159 159 191 191 191 191 191 191 191 191 191 191 191 191 191 191 191 191 191 255 255 191 255 255 64 128 0 128 128 64 255 191 191 191 255 32 159 255 96 96 96 96 128 0 0 0 0
0 0 0 0 0 128 128 96 96 64 255 159 32 32 159 159 191 191 255 64 128 0 128 128 64 255 191 191 191 191 191 191 191 191 191 191 191 191 159 32 32 32 32 32 32 32 32 32 32 32 32 32 32 32 32 32 32 32 32 32 32 32 32 32 32 159 159 255 96 96 96 96 64 255 159 159 32 32 32 32 32 32 32 32 32 32 32 159 159 255 255 255 159 32 32 32 32 32 32 32 32 32 32 32 32 159 159 255 255 96 64 255 255 159 32 32 32 32 32 32 32 32 32 32 32 32 32 32 32 32 32 32 32 32 159 159 191 191 191 191 191 191 191 191 191 191 191 191 191 191 191 191 191 191 191 191 191 255 64 128 0 128 128 64 255 191 191 191 255 32 159 255 96 96 96 96 128 0 0 0 0
0 0 0 0 0 128 128 96 96 64 255 159 32 32 159 159 191 191 255 64 128 0 128 128 64 255 191 191 191 191 191 191 191 191 191 191 191 159 32 32 32 32 32 32 32 32 32 32 32 32 32 32 32 32 32 32 32 32 32 32 32 32 32 32 32 159 159 255 96 96 96 96 64 64 255 159 32 32 32 32 32 32 32 32 32 32 32 32 32 159 159 159 32 32 32 32 32 32 32 32 32 32 32 32 32 159 255 255 64 96 64 64 255 159 32 32 32 32 32 32 32 32 32 32 32 32 32 32 32 32 32 32 32 32 32 159 159 159 159 191 255 191 191 191 191 159 159 159 159 159 159 159 159 191 191 191 191 255 64 64 128 0 128 64 255 191 191 191 255 32 159 255 96 96 96 96 128 0 0 0 0
0 0 0 0 0 128 128 96 96 64 255 159 32 32 159 159 191 191 255 64 128 0 128 128 96 64 255 191 191 191 191 191 191 191 191 191 191 159 32 32 32 32 32 32 32 32 32 32 32 32 32 32 32 32 32 32 32 32 32 32 32 32 32 32 32 159 159 255 64 96 96 96 96 64 255 159 32 32 32 32 32 32 32 32 32 32 32 32 32 32 32 32 32 32 32 32 32 32 32 32 32 32 32 32 159 159 255 255 96 96 64 64 255 159 32 32 32 32 32 32 32 32 32 32 32 32 32 32 32 32 32 32 32 32 32 32 32 32 159 159 159 159 159 159 159 159 32 32 32 32 32 159 159 159 159 191 191 255 255 64 128 0 128 64 255 191 191 191 255 159 159 255 64 96 96 96 128 0 0 0 0
0 0 0 0 0 128 128 96 96 64 255 159 32 32 159 159 191 191 255 64 128 0 128 128 96 64 64 191 191 191 191 191 191 191 191 191 159 32 32 32 32 32 32 32 32 32 32 32 32 32 32 32 32 32 32 32 32 32 32 32 32 32 32 32 32 32 159 255 64 96 96 96 96 64 64 255 159 32 32 32 32 32 32 32 32 32 32 32 32 32 32 32 32 32 32 32 32 32 32 32 32 32 32 32 159 255 255 96 96 96 64 64 255 32 32 32 32 32 32 32 32 32 32 32 32 32 32 32 32 32 32 32 32 32 32 32 32 32 32 32 32 32 32 32 32 32 32 32 32 32 32 32 32 32 159 159 191 255 255 64 128 0 128 64 255 191 191 191 191 159 159 255 64 96 96 96 128 0 0 0 0
0 0 0 0 0 128 128 96 96 64 255 159 32 32 159 159 191 191 255 64 128 0 128 64 64 64 191 191 191 191 191 191 191 191 191 159 32 32 32 32 32 32 32 32 32 32 32 32 32 32 32 32 32 32 32 32 32 32 32 32 32 32 32 32 32 32 159 255 64 96 96 96 96 96 64 255 159 159 32 32 32 32 32 32 32 32 32 32 32 32 32 32 32 32 32 32 32 32 32 32 32 32 32 159 159 255 64 96 96 96 64 64 159 32 32 32 32 32 32 32 32 32 32 32 32 32 32 32 32 32 32 32 32 32 32 32 32 32 32 32 32 32 32 32 32 32 32 32 32 32 32 32 32 32 159 159 191 255 255 64 128 0 128 64 255 191 191 191 255 191 159 255 255 96 96 96 128 0 0 0 0
0 0 0 0 0 128 128 96 96 64 255 159 32 32 159 191 191 191 255 64 128 128 128 64 255 191 191 191 191 191 191 191 191 191 159 32 32 32 32 32 32 32 32 32 32 32 32 32 32 32 32 32 32 32 32 32 32 32 32 32 32 32 32 32 32 32 159 255 64 96 96 96 96 96 96 64 255 159 32 32 32 32 32 32 32 32 32 32 32 32 32 32 32 32 32 32 32 32 32 32 32 32 32 159 159 255 96 96 96 96 64 64 159 32 32 32 32 32 32 32 32 32 32 32 32 32 32 32 32 32 32 32 32 32 32 32 32 32 32 32 32 32 32 32 32 32 32 32 32 32 32 32 32 32 159 159 191 255 255 64 128 0 128 64 255 191 191 191 255 159 159 255 255 96 96 96 128 0 0 0 0
0 0 0 0 0 128 128 96 96 64 255 159 32 159 159 191 191 191 255 64 128 128 128 64 255 191 191 191 255 159 159 191 159 32 32 32 32 32 32 32 32 32 32 32 32 32 32 32 32 32 32 32 32 32 32 32 32 32 32 32 32 32 32 32 32 32 159 255 255 96 96 96 96 96 96 64 255 255 159 32 32 32 32 32 32 32 32 32 32 32 32 32 32 32 32 32 32 32 32 32 32 32 159 159 255 255 96 96 96 96 64 255 159 32 32 32 32 32 32 32 32 32 32 32 32 32 32 32 32 32 32 32 32 32 32 32 32 32 32 32 32 32 32 32 32 32 32 32 32 32 32 32 159 159 159 191 191 255 255 64 128 0 128 64 255 191 191 191 255 159 159 255 255 96 96 96 128 0 0 0 0
0 0 0 0 0 128 128 96 96 64 255 159 32 159 159 191 191 191 255 64 128 128 128 64 255 191 191 159 159 32 32 32 32 32 159 159 159 159 159 159 159 159 159 32 32 32 32 32 32 32 32 32 32 32 32 32 32 32 32 32 32 32 32 32 32 32 159 159 255 64 96 96 96 96 96 96 64 255 159 159 32 32 32 32 32 32 32 32 32 32 32 32 32 32 32 32 32 32 32 32 32 32 159 159 255 64 96 96 96 96 64 255 159 32 32 32 32 32 32 32 32 32 32 32 32 32 32 32 32 32 32 32 32 32 32 32 32 32 32 32 32 32 32 32 32 32 32 32 32 32 159 159 159 159 191 191 191 191 255 64 128 0 128 64 255 191 191 191 255 159 159 255 255 96 96 96 128 0 0 0 0
0 0 0 0 0 0 128 128 96 64 255 159 32 159 159 191 191 255 255 64 0 128 128 64 255 191 159 32 32 159 159 159 159 159 159 159 159 159 159 159 159 159 159 159 32 32 32 32 32 32 32 32 32 32 32 32 32 32 32 32 32 32 32 32 32 32 32 159 255 64 96 96 96 96 96 96 96 64 255 159 32 32 32 32 32 32 32 32 32 32 32 32 32 32 32 32 32 32 32 32 32 159 159 255 255 96 96 96 96 128 64 255 32 32 32 32 32 32 32 32 32 32 32 32 32 32 32 32 32 32 32 32 32 32 32 32 32 32 32 32 32 32 32 32 32 32 32 159 159 159 159 159 191 191 191 191 191 191 255 64 128 0 128 64 255 191 191 191 255 159 159 255 255 96 96 96 128 0 0 0 0
0 0 0 0 0 0 128 128 96 64 255 159 32 159 159 191 191 255 255 64 0 128 128 64 255 191 159 159 159 159 159 159 159 159 191 191 191 191 191 191 191 191 159 159 32 32 32 32 32 32 32 32 32 32 32 32 32 32 32 32 32 32 32 32 32 32 32 159 255 64 96 96 96 96 96 96 96 64 255 255 159 32 32 32 32 32 32 32 32 32 32 32 32 32 32 32 32 32 32 32 159 159 255 255 96 96 96 96 96 64 64 159 32 32 32 32 32 32 32 32 32 32 32 32 32 32 32 32 32 32 32 32 32 32 32 32 32 32 32 159 159 159 159 159 159 159 159 159 159 159 191 191 191 191 191 191 191 191 255 64 128 0 128 64 255 191 191 191 255 159 159 255 255 96 96 96 128 0 0 0 0
0 0 0 0 0 0 128 128 96 64 64 255 159 159 159 191 191 255 255 64 0 128 128 64 255 191 191 159 159 159 191 255 255 191 191 191 191 191 191 191 191 191 159 159 32 32 32 32 32 32 32 32 32 32 32 32 32 32 32 32 32 32 32 32 32 32 32 159 255 64 96 96 96 96 96 96 96 96 64 255 159 159 32 32 32 32 32 32 32 32 32 32 32 32 32 32 32 32 32 159 159 255 255 96 96 96 96 96 96 64 64 159 32 32 32 32 32 32 32 32 32 32 32 32 32 32 32 32 32 32 32 32 32 32 32 32 32 32 159 159 159 159 159 159 159 159 159 159 191 191 191 191 191 191 191 191 191 255 255 64 128 0 128 64 255 191 191 255 255 159 159 255 255 96 96 96 128 0 0 0 0
0 0 0 0 0 0 128 128 96 64 64 255 159 159 159 191 191 255 255 64 0 128 128 64 255 191 191 191 191 159 255 255 96 255 191 191 191 191 191 191 191 191 159 159 32 32 32 32 32 32 32 32 32 32 32 32 32 32 32 32 32 32 32 32 32 32 32 159 159 255 64 96 96 96 96 96 96 96 96 64 255 159 159 32 32 32 32 32 32 32 32 32 32 32 32 32 32 32 159 159 255 255 64 96 96 96 96 96 96 64 255 159 32 32 32 32 32 32 32 32 32 32 32 32 32 32 32 32 32 32 32 32 32 32 32 32 32 159 159 191 191 191 191 191 191 191 191 191 191 191 191 191 191 191 191 191 191 255 255 64 128 0 128 64 255 191 191 255 255 32 223 223 64 96 96 96 128 0 0 0 0
0 0 0 0 0 0 128 128 96 64 64 255 159 159 159 191 191 255 255 64 0 128 128 64 255 191 191 191 191 255 255 96 96 96 191 191 191 191 191 191 191 191 159 32 32 32 32 32 32 32 32 32 32 32 32 32 32 32 32 32 32 32 32 32 32 32 32 32 159 255 64 96 96 96 96 96 96 96 96 64 255 255 159 32 32 32 32 32 32 32 32 32 32 32 32 32 32 32 159 159 255 255 96 96 96 96 96 96 96 64 255 32 32 32 32 32 32 32 32 32 32 32 32 32 32 32 32 32 32 32 32 32 32 32 32 32 159 159 159 191 191 191 191 191 191 191 191 191 191 191 191 191 191 191 191 191 191 255 255 64 128 0 128 64 255 191 191 255 255 32 223 223 64 96 96 64 128 0 0 0 0
0 0 0 0 0 0 128 128 96 64 64 255 159 159 159 191 191 255 255 64 0 128 128 64 64 255 191 191 191 191 255 64 255 191 191 191 191 191 191 191 159 159 159 32 32 32 32 32 32 32 32 32 32 32 32 32 32 32 32 32 32 32 32 32 32 32 32 32 159 255 64 96 96 96 96 96 96 96 96 96 64 255 159 159 32 32 32 32 32 32 32 32 32 32 32 32 32 32 159 255 255 64 96 96 96 96 96 96 64 64 159 32 32 32 32 32 32 32 32 32 32 32 32 32 32 32 32 32 32 32 32 32 32 32 32 32 159 159 191 191 191 191 191 191 191 191 191 191 191 191 191 191 191 191 191 191 191 255 255 64 128 0 128 64 255 191 191 255 255 32 223 255 64 96 96 96 128 0 0 0 0
0 0 0 0 0 0 128 128 128 64 64 255 159 32 159 191 191 255 255 64 0 128 128 96 64 255 191 191 191 191 191 191 191 191 191 191 191 191 191 159 159 159 32 32 32 32 32 32 32 32 32 32 32 32 32 32 32 32 32 32 32 32 32 32 32 32 32 32 159 255 64 96 96 96 96 96 96 96 96 96 64 255 159 159 32 32 32 32 32 32 32 32 32 32 32 32 32 159 159 255 255 96 96 96 96 96 96 96 64 64 159 32 32 32 32 32 32 32 32 32 32 32 32 32 32 32 32 32 32 32 32 32 32 32 32 32 159 159 191 191 191 191 191 191 191 191 191 191 191 191 191 191 191 191 191 191 191 255 255 64 128 0 128 64 255 191 191 255 255 32 223 255 64 96 96 128 0 0 0 0 0
0 0 0 0 0 0 0 128 128 64 64 255 159 32 159 191 191 255 255 64 0 128 128 64 64 191 191 191 191 191 191 191 191 191 191 159 159 159 159 32 32 32 32 32 32 32 32 32 32 32 32 32 32 32 32 32 32 32 32 32 32 32 32 32 32 32 32 32 159 159 255 96 96 96 96 96 96 96 96 96 64 255 159 159 32 32 32 32 32 32 32 32 32 32 32 32 32 159 159 255 255 96 96 96 96 96 96 96 64 64 159 32 32 32 32 32 32 32 32 32 32 32 32 32 32 32 32 32 32 32 32 32 32 32 32 32 32 159 159 159 159 191 191 191 191 191 191 191 191 191 191 191 191 191 191 191 191 255 255 64 128 0 128 64 255 191 191 255 255 32 223 255 96 96 96 128 0 0 0 0 0
0 0 0 0 0 0 0 128 128 64 64 255 159 159 159 191 191 191 255 64 0 128 128 64 255 191 191 191 191 191 191 191 159 159 159 159 159 32 32 32 32 32 32 32 32 32 32 32 32 32 32 32 32 32 32 32 32 32 32 32 32 32 32 32 32 32 32 32 159 223 255 96 96 96 96 96 96 96 96 96 64 255 159 159 32 32 32 32 32 32 32 32 32 32 32 32 32 159 159 255 255 96 96 96 96 96 96 96 64 64 159 32 32 32 32 32 32 32 32 32 32 32 32 32 32 32 32 32 32 32 32 32 32 32 32 32 32 32 32 32 159 159 191 191 191 191 191 191 191 191 191 191 191 191 191 191 191 255 255 64 128 0 128 64 255 191 191 255 255 32 223 255 96 96 96 128 0 0 0 0 0
0 0 0 0 0 0 0 128 128 64 64 255 159 159 159 191 191 191 255 64 128 128 128 64 255 191 191 191 159 159 159 159 159 32 32 32 32 32 32 32 32 32 32 32 32 32 32 32 32 32 32 32 32 32 32 32 32 32 32 32 32 32 32 32 32 32 32 32 159 223 255 96 96 96 96 96 96 96 96 96 64 255 159 159 32 32 32 32 32 32 32 32 32 32 32 32 32 159 159 255 255 96 96 96 96 96 96 96 64 255 159 32 32 32 32 32 32 32 32 32 32 32 32 32 32 32 32 32 32 32 32 32 32 32 32 32 32 32 32 159 159 159 191 191 191 191 191 191 191 191 191 191 191 191 191 191 191 255 255 64 128 0 128 64 255 191 191 255 255 32 223 255 96 96 96 128 0 0 0 0 0
0 0 0 0 0 0 0 128 128 64 64 255 159 159 159 191 191 191 255 64 128 128 128 64 255 191 191 191 159 32 32 32 32 32 32 32 32 32 32 32 32 32 32 32 32 32 32 32 32 32 32 32 32 32 32 32 32 32 32 32 32 32 32 32 32 32 32 32 159 159 255 96 96 96 96 96 96 96 96 64 64 255 159 32 32 32 32 32 32 32 32 32 32 32 32 32 32 159 159 255 255 96 96 96 96 96 96 96 64 255 159 32 32 32 32 32 32 32 32 32 32 32 32 32 32 32 32 32 32 32 32 32 32 32 32 32 32 32 32 159 159 191 191 191 191 191 191 191 191 191 191 191 191 191 191 191 255 255 64 128 0 128 128 64 255 191 191 255 255 32 223 255 96 96 96 128 0 0 0 0 0
0 0 0 0 0 0 0 128 128 64 64 255 159 159 159 191 191 191 255 64 128 0 128 64 255 191 191 191 159 159 159 32 32 32 32 32 32 32 32 32 32 32 32 32 32 32 32 32 32 32 32 32 32 32 32 32 32 32 32 32 32 32 32 32 32 32 32 32 32 159 255 64 96 96 96 96 96 96 96 64 255 159 159 32 32 32 32 32 32 32 32 32 32 32 32 32 32 159 159 255 255 96 96 96 96 96 96 96 64 255 159 32 32 32 32 32 32 32 32 32 32 32 32 32 32 32 32 32 32 32 32 32 32 32 32 32 32 32 32 159 159 191 191 191 191 191 191 191 191 191 191 191 191 191 191 191 255 64 64 128 128 128 128 64 255 191 191 255 255 32 223 255 64 96 96 128 0 0 0 0 0
0 0 0 0 0 0 0 128 128 64 64 255 159 32 159 191 191 191 255 64 128 0 128 64 64 255 191 191 191 159 159 32 32 32 32 32 32 32 32 32 32 32 32 32 32 32 32 32 32 32 32 32 32 32 32 32 32 32 32 32 32 32 32 32 32 32 32 32 32 159 255 64 96 96 96 96 96 96 96 64 255 159 159 32 32 32 32 32 32 32 32 32 32 32 32 32 32 32 159 255 255 64 96 96 96 96 96 64 64 255 159 32 32 32 32 32 32 32 32 32 32 32 32 32 32 32 32 32 32 32 32 32 32 32 32 32 32 32 32 159 159 191 191 191 191 191 191 191 191 191 191 191 191 191 191 191 255 64 64 64 128 128 128 64 255 191 191 255 255 32 223 255 96 96 96 128 0 0 0 0 0
0 0 0 0 0 0 0 128 128 64 64 255 159 159 159 191 191 191 255 64 128 0 128 128 96 64 255 191 191 255 159 32 32 32 32 32 32 32 32 32 32 32 32 32 32 32 32 32 32 32 32 32 32 32 32 32 32 32 32 32 32 32 32 32 32 32 32 32 32 159 255 255 96 96 96 96 96 96 96 64 255 159 159 32 32 32 32 32 32 32 32 32 32 32 32 32 32 32 159 255 255 64 96 96 96 96 96 64 64 255 159 32 32 32 32 32 32 32 32 32 32 32 32 32 32 32 32 32 32 32 32 32 32 32 32 32 32 32 159 159 159 191 191 191 191 191 159 255 255 191 191 191 191 191 191 191 191 255 64 64 0 128 128 64 191 191 191 191 255 32 223 255 96 96 64 128 0 0 0 0 0
0 0 0 0 0 0 0 128 128 64 64 255 159 159 159 191 191 191 255 64 128 0 128 128 96 96 64 255 191 191 159 159 159 159 32 32 32 32 32 32 32 32 32 32 32 32 32 32 32 32 32 32 32 32 32 32 32 32 32 32 32 32 32 32 32 32 32 32 32 159 159 255 96 96 96 96 96 96 64 64 255 159 32 32 32 32 32 32 32 32 32 32 32 32 32 32 32 32 159 159 255 64 96 96 96 96 96 64 64 159 32 32 32 32 32 32 32 32 32 32 32 32 32 32 32 32 32 32 32 32 32 32 32 32 32 32 32 32 159 159 159 191 191 191 191 191 255 96 96 255 191 191 191 191 191 191 191 255 64 128 0 128 128 64 191 191 191 191 255 32 223 255 96 96 96 128 0 0 0 0 0
0 0 0 0 0 0 0 128 128 64 64 255 159 223 223 255 191 191 255 255 64 0 128 128 96 96 64 255 191 191 32 159 159 159 159 159 32 32 32 32 32 32 32 32 32 32 32 32 32 32 32 32 32 32 32 32 32 32 32 32 32 32 32 32 32 32 32 32 32 32 159 255 64 96 96 96 96 96 64 64 255 159 32 32 32 32 32 32 32 32 32 32 32 32 32 32 32 32 159 159 255 64 96 96 96 96 96 64 255 159 32 32 32 32 32 32 32 32 32 32 32 32 32 32 32 32 32 32 32 32 32 32 32 32 32 32 32 32 32 159 159 191 191 191 191 191 191 64 64 255 191 191 191 159 159 191 159 255 64 128 0 128 128 64 191 191 191 191 255 32 223 255 96 96 96 128 0 0 0 0 0
0 0 0 0 0 0 0 128 128 64 64 255 159 223 223 255 191 191 255 255 64 128 128 128 64 64 255 255 159 32 159 159 191 191 159 159 159 32 32 32 32 32 32 32 32 32 32 32 32 32 32 32 32 32 32 32 32 32 32 32 32 32 32 32 32 32 32 32 32 32 159 255 64 96 96 96 96 96 64 255 159 159 32 32 32 32 32 32 32 32 32 32 32 32 32 32 32 32 32 159 255 255 64 96 96 96 96 64 255 159 32 32 32 32 32 32 32 32 32 32 32 32 32 32 32 32 32 32 32 32 32 32 32 32 32 32 32 32 32 32 159 159 191 191 191 191 191 255 255 255 191 159 159 159 159 159 255 255 64 128 0 128 64 64 191 191 191 191 255 32 223 255 64 96 96 128 0 0 0 0 0
0 0 0 0 0 0 0 128 128 64 64 255 159 223 223 191 191 191 255 255 64 128 0 128 64 255 191 191 159 32 159 191 191 191 191 159 159 159 32 32 32 32 32 32 32 32 32 32 32 32 32 32 32 32 32 32 32 32 32 32 32 32 32 32 32 32 32 32 32 32 159 255 64 96 96 96 96 96 64 255 159 32 32 32 32 32 32 32 32 32 32 32 32 32 32 32 32 32 32 159 159 255 64 96 96 96 64 64 255 159 32 32 32 32 32 32 32 32 32 32 32 32 32 32 32 32 32 32 32 32 32 32 32 32 32 32 32 32 32 32 32 159 159 159 159 159 159 159 159 159 159 159 159 32 159 159 255 255 64 128 0 128 64 255 191 191 191 191 255 32 223 255 64 96 96 128 0 0 0 0 0
0 0 0 0 0 0 0 128 128 64 64 255 159 32 159 191 191 191 255 255 64 128 0 128 64 255 191 159 32 159 159 191 191 191 191 191 159 159 32 32 32 32 32 32 32 32 32 32 32 32 32 32 32 32 32 32 32 32 32 32 32 32 32 32 32 32 32 32 32 32 159 159 255 64 96 96 96 64 64 255 159 32 32 32 32 32 32 32 32 32 32 32 32 32 32 32 32 32 32 159 159 255 255 96 96 96 64 64 255 32 32 32 32 32 32 32 32 32 32 32 32 32 32 32 32 32 32 32 32 32 32 32 32 32 32 32 32 159 159 159 32 32 32 32 159 159 159 159 159 32 32 32 32 32 159 159 255 255 64 128 0 128 64 255 191 191 191 191 255 32 223 255 96 96 96 128 0 0 0 0 0
0 0 0 0 0 0 0 128 128 64 64 255 159 32 159 191 191 191 191 255 64 128 0 128 64 255 159 159 32 159 159 191 191 191 191 191 191 159 159 32 32 32 32 32 32 32 32 32 32 32 32 32 32 32 32 32 32 32 32 32 32 32 32 32 32 32 32 32 32 32 159 159 255 64 96 96 96 64 64 255 159 32 32 32 32 32 32 32 32 32 32 32 32 32 32 32 32 32 32 32 159 255 255 96 96 96 64 255 159 32 32 32 32 32 32 32 32 32 32 32 32 32 32 32 32 32 32 32 32 32 32 32 32 32 32 32 159 159 159 159 159 159 32 32 32 32 32 32 32 32 32 32 32 32 159 159 255 255 64 128 128 128 64 255 191 191 191 191 191 159 223 255 96 96 96 128 0 0 0 0 0
0 0 0 0 0 0 0 128 128 64 64 255 255 32 159 191 191 191 191 255 64 128 0 128 64 255 255 159 32 159 255 191 64 255 191 191 191 159 159 32 32 32 32 32 32 32 32 32 32 32 32 32 32 32 32 32 32 32 32 32 32 32 32 32 32 32 32 32 32 32 32 159 255 64 96 96 96 64 255 159 159 32 32 32 32 32 32 32 32 32 32 32 32 32 32 32 32 32 32 32 159 159 255 64 96 96 64 255 159 32 32 32 32 32 32 32 32 32 32 32 32 32 32 32 32 32 32 32 32 32 32 32 32 32 32 32 159 159 191 191 159 159 159 159 159 159 159 159 159 32 32 32 32 159 159 159 255 255 64 0 128 128 64 255 191 191 191 191 191 159 255 64 96 96 128 0 0 0 0 0 0
0 0 0 0 0 0 0 128 128 64 64 64 255 32 223 255 191 191 191 255 64 128 0 128 64 255 255 159 159 159 255 96 64 255 191 191 191 159 32 32 32 32 32 32 32 32 32 32 32 32 32 32 32 32 32 32 32 32 32 32 32 32 32 32 32 32 32 32 32 32 32 159 255 64 96 96 96 64 255 255 159 32 32 32 32 32 32 32 32 32 32 32 32 32 32 32 32 32 32 32 159 159 255 255 96 96 64 255 32 32 32 32 32 32 32 32 32 32 32 32 32 32 32 32 32 32 32 32 32 32 32 32 32 32 32 32 159 159 191 191 191 191 159 159 159 159 159 159 159 159 159 159 159 159 159 159 255 64 128 0 128 128 64 255 191 191 191 255 159 159 223 64 96 96 128 0 0 0 0 0 0
0 0 0 0 0 0 0 128 128 64 64 64 255 32 223 255 191 191 191 255 64 128 0 128 64 255 191 159 159 191 191 64 255 191 191 191 159 159 32 32 32 32 32 32 32 32 32 32 32 32 32 32 32 32 32 32 32 32 32 32 32 32 32 32 32 32 32 32 32 32 32 159 255 255 96 96 64 64 255 159 32 32 32 32 32 32 32 32 32 32 32 32 32 32 32 32 32 32 32 32 32 159 255 255 96 64 64 159 32 32 32 32 32 32 32 32 32 32 32 32 32 32 32 32 32 32 32 32 32 32 32 32 32 32 32 32 159 159 191 191 191 191 191 191 191 191 159 159 159 159 159 159 159 159 159 255 255 64 128 0 128 128 64 191 191 191 191 255 159 159 255 64 96 96 128 0 0 0 0 0 0
0 0 0 0 0 0 0 128 128 64 64 255 255 32 223 255 191 191 191 255 64 64 0 128 128 64 255 159 191 191 191 255 191 191 191 159 159 32 32 32 32 32 32 32 32 32 32 32 32 32 32 32 32 32 32 32 32 32 32 32 32 32 32 32 32 32 32 32 32 32 32 159 223 255 96 96 64 64 255 159 32 32 32 32 32 32 32 32 32 32 32 32 32 32 32 32 32 32 32 32 32 159 159 255 64 64 255 159 32 32 32 32 32 32 32 32 32 32 32 32 32 32 32 32 32 32 32 32 32 32 32 32 32 32 32 32 32 159 159 191 191 191 191 191 191 191 191 191 191 191 191 191 255 255 255 255 255 64 128 0 128 128 64 191 191 191 191 255 32 159 255 64 96 64 128 0 0 0 0 0 0
0 0 0 0 0 0 0 128 128 64 64 255 255 32 159 191 191 191 191 255 255 64 128 128 128 64 255 255 191 191 191 191 191 191 159 159 32 32 32 32 32 32 159 159 159 159 159 159 159 159 32 32 32 32 32 32 32 32 32 32 32 32 32 32 32 32 32 32 32 32 32 159 159 255 96 96 64 255 159 32 32 32 32 32 32 32 32 32 32 32 32 32 32 32 32 32 32 32 32 32 32 32 159 159 255 255 255 159 32 32 32 32 32 32 32 32 32 32 32 32 32 32 32 32 32 32 32 32 32 32 32 32 32 32 32 32 32 32 159 159 255 255 191 191 191 191 191 191 191 191 191 191 191 255 255 255 64 96 0 0 128 64 255 191 191 191 191 255 32 223 255 64 64 64 128 0 0 0 0 0 0
0 0 0 0 0 0 0 0 128 128 64 64 255 32 159 191 191 191 191 255 255 64 128 0 128 96 64 64 255 191 191 191 191 159 159 32 32 32 32 32 159 159 159 159 159 159 191 191 159 159 159 32 32 32 32 32 32 32 32 32 32 32 32 32 32 32 32 32 32 32 32 32 159 255 64 96 64 255 159 32 32 32 32 32 32 32 32 32 32 32 32 32 32 32 32 32 32 32 32 32 32 32 159 159 255 191 159 32 32 32 32 32 32 32 32 32 32 32 32 32 32 32 32 32 32 32 32 32 32 32 32 32 32 32 32 32 32 32 159 159 159 159 159 191 191 191 191 255 255 191 191 191 255 64 96 96 96 128 0 128 128 64 255 191 191 191 191 255 32 223 255 64 64 96 0 0 0 0 0 0 0
0 0 0 0 0 0 0 0 128 128 64 64 255 32 159 191 191 191 191 255 255 64 128 0 128 128 64 64 255 191 191 191 159 159 32 32 32 159 159 159 159 159 159 255 191 191 191 191 191 191 159 159 32 32 32 32 32 32 32 32 32 32 32 32 32 32 32 32 32 32 32 32 159 159 255 64 255 191 159 32 32 32 32 32 32 32 32 32 32 32 32 32 32 32 32 32 32 32 32 32 32 32 32 159 159 159 32 32 32 32 32 32 32 32 32 32 32 32 32 32 32 32 32 32 32 32 159 159 159 159 32 32 32 32 32 32 32 32 32 32 32 159 159 159 159 159 191 191 191 191 191 191 255 64 96 96 96 128 0 128 128 64 255 191 191 191 191 255 32 159 255 64 64 128 0 0 0 0 0 0 0
0 0 0 0 0 0 0 0 128 128 64 64 255 32 159 191 191 191 191 255 255 64 128 0 128 128 64 64 191 191 191 159 32 32 159 159 159 159 159 159 159 255 255 255 191 191 191 191 191 191 191 159 159 32 32 32 32 32 32 32 32 32 32 32 32 32 32 32 32 32 32 32 32 159 255 255 191 159 32 32 32 32 32 32 32 32 32 159 159 159 159 159 159 159 159 32 32 32 32 32 32 32 32 32 32 32 32 32 32 32 32 32 32 32 32 32 32 32 32 32 32 32 32 32 32 159 159 159 159 159 159 159 32 32 159 159 159 159 32 32 32 32 32 159 159 159 159 159 159 159 191 191 191 255 64 96 96 128 0 128 128 64 255 191 191 191 191 255 32 159 255 64 64 128 0 0 0 0 0 0 0
0 0 0 0 0 0 0 0 128 128 64 64 255 32 159 191 191 191 191 191 255 64 128 0 128 128 64 255 191 191 191 32 32 159 159 159 159 159 255 255 255 255 255 96 96 191 191 191 191 191 191 191 159 159 32 32 32 32 32 32 32 32 32 32 32 32 32 32 32 32 32 32 32 32 159 191 159 32 32 32 32 32 32 32 32 32 159 159 159 159 159 159 159 159 159 159 32 32 32 32 32 32 32 32 32 32 32 32 32 32 32 32 32 32 32 32 32 32 32 32 32 32 32 32 159 159 159 191 191 191 159 159 159 159 159 159 159 159 159 159 159 32 32 32 32 32 32 159 159 159 159 191 191 255 255 64 96 128 0 128 128 64 255 191 191 191 255 255 32 159 255 64 64 128 0 0 0 0 0 0 0
0 0 0 0 0 0 0 128 128 128 64 64 255 32 159 191 191 191 191 191 255 64 128 0 128 128 64 255 191 191 159 159 159 159 159 191 255 255 255 255 255 96 96 96 64 191 191 191 191 191 191 191 191 159 32 32 32 32 32 32 32 32 32 32 32 32 32 32 32 32 32 32 32 32 159 159 32 32 32 32 32 32 32 32 159 159 159 159 159 255 255 191 191 191 191 191 159 159 32 32 32 32 32 32 32 32 32 32 32 32 32 32 32 32 32 32 32 32 32 32 32 32 32 32 159 159 191 191 191 191 191 191 159 159 159 191 191 191 159 159 159 159 159 159 32 32 32 32 32 32 159 159 191 159 255 64 128 128 0 128 128 64 191 191 191 191 255 159 32 223 255 64 64 128 0 0 0 0 0 0 0
0 0 0 0 0 0 0 128 128 128 64 64 255 159 159 159 191 191 191 191 255 64 128 0 128 128 64 255 191 191 159 159 159 191 191 191 255 255 96 96 96 96 64 64 191 191 191 191 191 191 191 191 191 159 159 32 32 32 32 32 32 32 32 32 32 32 32 32 32 32 32 32 32 32 32 32 32 32 32 32 32 32 32 159 159 159 159 159 191 255 255 191 191 191 191 191 159 159 159 32 32 32 32 32 32 32 32 32 32 32 32 32 32 32 32 32 32 32 32 32 32 32 32 32 159 159 191 191 191 191 191 191 191 191 191 191 191 191 191 191 159 159 159 159 159 159 159 32 32 32 159 159 191 159 255 64 128 128 0 128 128 64 191 191 191 191 255 159 223 223 255 64 64 128 0 0 0 0 0 0 0
0 0 0 0 0 0 0 0 128 128 64 64 255 159 32 159 191 191 191 191 255 64 128 0 128 128 64 255 191 191 191 159 191 191 191 255 96 96 96 96 64 64 255 191 191 191 191 191 191 191 191 191 191 191 159 159 32 32 32 32 32 32 32 32 32 32 32 32 32 32 32 32 32 32 32 32 32 32 32 32 32 32 159 159 159 191 191 191 255 96 96 255 191 191 191 191 191 159 159 32 32 32 32 32 32 32 32 32 32 32 32 32 32 32 32 32 32 32 32 32 32 32 32 32 32 159 191 191 191 191 191 191 191 191 191 191 191 191 191 191 255 255 191 191 159 159 159 159 159 32 32 159 159 159 255 64 64 128 0 128 64 255 191 191 191 191 255 159 223 223 255 64 64 128 0 0 0 0 0 0 0
0 0 0 0 0 0 0 0 128 128 64 64 255 159 32 159 191 191 191 191 255 64 128 0 128 128 64 255 191 191 191 191 191 191 255 191 96 96 96 64 191 191 191 191 191 191 191 191 191 191 191 191 191 191 191 159 159 32 32 32 32 32 32 32 32 32 32 32 32 32 32 32 32 32 32 32 32 32 32 32 32 32 159 159 191 191 191 191 255 96 96 64 191 191 191 191 191 191 159 32 32 32 32 32 32 32 32 32 32 32 32 32 32 32 32 32 32 32 32 32 32 32 32 32 32 159 159 191 191 191 191 191 255 255 255 191 191 191 191 191 255 255 255 255 255 255 255 159 159 159 32 159 159 159 255 64 64 128 0 128 64 255 191 191 191 191 255 159 223 255 255 64 64 128 0 0 0 0 0 0 0
0 0 0 0 0 0 0 0 128 128 128 64 255 159 32 159 159 191 191 191 255 64 64 0 128 128 64 255 191 191 191 191 255 255 191 96 96 96 191 191 191 191 191 191 191 191 191 191 191 191 191 191 191 191 191 191 159 159 159 32 32 32 32 32 32 32 32 32 32 32 32 32 32 32 32 32 32 32 32 32 32 159 159 159 191 191 191 191 255 96 96 64 191 191 191 191 191 191 159 32 32 32 32 32 32 32 32 32 32 32 32 32 32 32 32 32 32 32 32 32 32 32 32 32 32 32 159 159 191 191 191 255 255 96 255 255 191 191 191 191 191 96 96 64 255 255 255 255 255 159 159 32 159 159 255 64 64 128 0 128 64 255 191 191 191 255 255 32 223 255 255 64 64 0 0 0 0 0 0 0 0
0 0 0 0 0 0 0 0 128 128 96 64 255 159 32 159 159 191 191 191 255 255 64 0 128 128 96 64 255 191 191 255 255 255 96 96 96 96 191 191 191 191 191 191 191 191 191 191 191 191 191 191 191 191 191 191 191 159 159 32 32 32 32 32 32 32 32 32 32 32 32 32 32 32 32 32 32 32 32 32 32 159 159 191 191 191 191 191 255 96 96 64 191 191 191 191 191 191 159 32 32 32 32 32 32 32 32 32 32 32 32 32 32 32 32 32 32 32 32 32 32 32 32 159 32 32 32 159 159 191 191 191 64 96 96 96 96 191 191 191 255 64 96 96 96 96 64 64 255 191 159 159 159 159 255 64 64 128 0 128 64 255 191 191 191 255 255 32 223 255 255 64 128 0 0 0 0 0 0 0 0
0 0 0 0 0 0 0 0 128 128 96 64 64 255 32 159 159 191 191 191 191 255 64 0 128 128 96 96 64 191 255 255 96 96 96 96 96 96 64 64 255 255 255 255 255 191 191 191 191 191 191 191 191 191 191 191 191 191 159 159 32 32 32 32 32 32 32 32 32 32 32 32 32 32 32 32 32 32 32 32 32 159 159 191 191 191 191 191 255 255 96 255 191 191 191 191 191 191 159 32 32 32 32 32 32 32 32 32 32 32 32 32 32 32 32 32 32 32 32 32 32 32 32 32 32 32 32 32 159 159 191 255 255 255 64 96 96 191 191 191 191 255 255 255 64 96 96 96 64 255 191 159 191 191 255 64 96 128 0 128 64 255 191 191 191 255 255 32 223 255 255 64 128 0 0 0 0 0 0 0 0
0 0 0 0 0 0 0 0 128 128 96 64 64 255 32 32 159 191 191 191 255 255 64 0 128 128 96 96 96 96 191 96 96 96 96 96 96 96 96 96 96 96 96 96 96 255 191 191 191 191 191 191 191 191 191 191 191 191 159 159 32 32 32 32 32 32 32 32 32 32 32 32 32 32 32 32 32 32 32 32 32 159 159 191 191 191 191 191 255 255 96 255 191 191 191 191 191 191 159 32 32 32 32 32 32 32 32 32 32 32 32 32 32 32 32 32 32 32 32 32 32 32 32 32 32 32 32 32 32 159 159 159 191 191 191 191 255 191 191 191 191 191 191 191 255 64 64 96 96 64 255 191 191 255 255 64 96 128 128 128 64 255 191 191 191 191 159 32 159 255 255 64 128 0 0 0 0 0 0 0 0
0 0 0 0 0 0 0 0 0 128 96 96 64 255 159 32 159 159 191 191 255 255 64 0 128 96 96 96 64 255 64 64 96 96 96 96 96 96 96 96 96 96 96 96 96 96 191 191 191 191 191 191 191 191 191 191 191 191 159 32 32 32 32 32 32 32 32 32 32 32 32 32 32 32 32 32 32 32 32 32 32 32 159 191 191 191 191 191 255 255 96 64 191 191 191 191 191 159 32 32 32 32 32 32 32 32 32 32 32 32 32 32 32 32 32 32 32 32 32 32 32 32 32 32 32 32 32 32 32 32 159 159 159 159 191 191 191 191 191 191 191 191 191 191 191 255 255 64 96 96 96 255 255 255 64 64 128 0 128 128 64 191 191 191 191 255 159 159 159 255 255 64 128 0 0 0 0 0 0 0 0
0 0 0 0 0 0 0 0 0 128 128 96 64 255 159 32 159 159 191 191 191 255 64 128 128 96 96 64 255 191 255 255 64 64 64 96 96 64 64 64 64 64 64 255 255 191 191 191 191 191 191 191 191 191 191 191 191 191 159 32 32 32 32 32 32 32 32 32 32 32 32 32 32 32 32 32 32 32 32 32 32 32 159 159 191 191 191 191 255 96 96 64 191 191 191 159 191 159 32 32 32 32 32 32 32 32 32 32 32 32 32 32 32 32 32 32 32 32 159 159 159 159 159 32 32 32 32 32 32 32 32 32 159 159 159 191 191 191 191 191 191 191 191 191 191 191 191 255 255 64 96 96 64 96 96 96 128 0 128 128 64 191 191 191 191 255 159 159 159 255 255 64 128 0 0 0 0 0 0 0 0
0 0 0 0 0 0 0 0 0 128 128 96 64 64 159 32 159 159 191 191 191 255 64 128 128 128 64 64 191 191 191 191 255 255 64 64 64 64 64 64 255 255 255 191 191 191 191 191 191 191 191 191 191 191 191 191 191 159 159 32 32 32 32 32 32 32 32 32 32 32 32 32 32 32 32 32 32 32 32 32 32 32 32 159 159 159 191 191 255 96 96 64 191 191 191 159 159 32 32 32 32 32 32 32 32 32 32 32 32 32 32 32 32 32 32 32 32 159 159 159 159 159 159 159 159 159 159 159 159 159 32 32 32 32 159 159 191 191 191 191 191 191 191 191 191 191 191 191 191 255 64 96 96 96 96 96 128 0 128 128 64 191 191 191 191 255 159 223 223 255 64 64 128 0 0 0 0 0 0 0 0
0 0 0 0 0 0 0 0 0 128 128 96 64 64 255 159 159 159 191 191 191 255 64 128 0 128 64 64 191 191 191 191 191 191 255 255 255 255 255 255 191 191 191 191 191 191 191 191 191 191 191 191 191 191 191 191 191 159 32 32 32 32 32 32 32 32 32 32 32 32 32 32 32 32 32 32 32 32 32 32 32 32 32 32 159 159 159 191 255 96 64 255 191 191 191 159 32 32 32 32 32 32 32 32 32 32 32 32 32 32 32 32 32 32 32 32 32 159 159 191 191 191 191 191 159 159 159 159 159 159 159 159 159 32 32 32 159 159 191 191 159 159 159 159 159 159 159 191 191 191 255 64 96 96 96 96 128 0 128 64 255 191 191 191 191 255 159 223 255 255 64 64 128 0 0 0 0 0 0 0 0
0 0 0 0 0 0 0 0 0 0 128 96 96 64 255 159 159 159 191 191 191 255 255 64 0 128 64 64 191 191 191 159 159 159 159 191 191 159 159 159 159 159 159 159 159 159 159 191 191 191 191 191 191 191 191 191 159 159 32 32 32 32 32 32 32 32 32 32 32 32 32 32 32 32 32 32 32 32 32 32 32 32 32 32 159 159 159 191 255 96 64 255 191 191 191 159 159 32 32 32 32 32 32 32 32 32 32 32 32 32 32 32 32 32 32 32 32 159 159 191 191 191 191 191 191 191 191 191 191 191 159 159 159 159 159 32 32 159 159 159 159 32 32 32 32 159 159 191 191 191 191 255 64 96 96 96 128 0 128 64 255 191 191 191 191 255 32 223 255 255 64 64 128 0 0 0 0 0 0 0 0
0 0 0 0 0 0 0 0 0 0 128 128 96 64 255 159 191 159 191 191 191 255 255 64 0 128 128 64 255 191 191 159 159 159 159 159 159 159 159 32 32 32 32 32 32 32 32 32 159 159 159 191 191 191 191 191 159 32 32 32 32 32 32 32 32 32 32 32 32 32 32 32 32 32 32 32 32 32 32 32 32 32 32 32 159 159 191 255 255 96 64 255 191 191 191 159 159 32 32 32 32 32 32 32 32 32 32 32 32 32 32 32 32 32 32 32 32 159 159 191 191 191 191 191 191 191 191 191 191 191 191 191 255 255 159 159 159 32 32 32 32 32 32 32 32 32 159 159 191 191 191 255 64 96 96 128 128 128 128 64 255 191 191 191 191 255 32 159 255 255 64 64 128 0 0 0 0 0 0 0 0
0 0 0 0 0 0 0 0 0 0 128 128 96 64 64 255 159 159 159 191 191 191 255 64 0 128 128 64 255 191 191 159 159 32 32 32 32 32 32 159 159 159 159 159 159 159 159 159 159 32 32 159 159 159 159 159 32 32 32 32 32 32 32 32 32 32 32 32 32 32 32 32 32 32 32 32 32 32 32 32 32 32 32 32 159 159 191 255 255 96 96 64 191 191 191 159 159 32 32 32 32 32 32 32 32 32 32 32 32 32 32 32 32 32 32 32 32 32 159 159 191 191 191 191 191 191 191 191 191 191 191 191 191 255 191 191 159 159 32 32 32 159 159 159 32 32 32 159 159 191 191 255 255 64 96 128 0 128 128 64 191 191 191 191 255 159 159 159 255 64 64 64 0 0 0 0 0 0 0 0 0
0 0 0 0 0 0 0 0 0 0 128 128 96 96 64 255 159 159 159 191 191 191 255 64 128 128 128 64 64 255 191 191 159 159 32 32 32 159 159 159 159 159 159 159 159 159 159 159 159 159 159 159 159 32 32 32 32 32 32 32 32 32 32 32 32 32 32 32 32 32 32 32 32 32 32 32 32 32 32 32 32 32 159 159 159 159 191 191 255 96 96 64 255 191 191 191 159 32 32 32 32 32 32 32 32 32 32 32 32 32 32 32 32 32 32 32 32 32 32 159 159 159 191 191 191 191 191 191 191 191 191 191 191 191 191 191 191 159 159 159 159 159 159 159 159 159 32 32 159 159 191 255 255 96 96 128 0 128 128 64 191 191 191 191 255 159 159 159 255 64 64 128 0 0 0 0 0 0 0 0 0
0 0 0 0 0 0 0 0 0 0 0 128 96 96 64 255 159 32 159 191 191 191 255 64 128 0 128 96 64 255 191 191 159 32 32 159 159 159 159 159 255 255 255 255 191 191 191 191 191 191 191 191 159 159 32 32 32 32 32 32 32 32 32 32 32 32 32 32 32 32 32 32 32 32 32 32 32 32 32 32 32 159 159 159 159 159 191 191 255 255 96 64 255 191 191 191 159 32 32 159 159 159 159 32 32 32 32 32 32 32 32 32 32 32 32 32 32 32 32 32 32 159 159 159 159 159 191 191 191 191 191 191 255 96 96 255 191 191 159 159 159 159 255 255 159 159 159 159 159 159 159 255 64 96 96 96 128 128 64 255 191 191 191 191 255 32 223 255 255 255 64 128 0 0 0 0 0 0 0 0 0
0 0 0 0 0 0 0 0 0 0 0 128 128 96 64 255 159 32 159 255 191 191 255 64 128 0 128 128 64 64 191 191 159 32 32 159 159 159 191 255 255 255 255 255 191 191 191 191 191 191 191 191 159 159 32 32 32 32 32 32 32 32 32 32 32 32 32 32 32 32 32 32 32 32 32 32 32 32 32 32 159 159 159 191 191 191 191 191 255 255 96 96 64 191 191 191 159 32 159 159 159 159 159 159 32 32 32 32 32 32 32 32 32 32 32 32 32 32 32 32 32 32 32 32 32 32 159 159 191 191 191 191 255 255 96 64 255 191 191 191 191 255 255 64 255 255 159 159 159 191 255 255 64 96 96 96 0 128 64 255 191 191 191 255 255 32 223 255 255 64 64 128 0 0 0 0 0 0 0 0 0
0 0 0 0 0 0 0 0 0 0 0 128 128 96 64 64 255 159 159 159 191 191 255 64 128 0 0 128 64 64 255 191 191 159 32 159 159 191 255 255 64 96 96 96 64 191 191 191 191 191 191 191 159 32 32 32 32 32 32 32 32 32 32 32 32 32 32 32 32 32 32 32 32 32 32 32 32 32 32 159 159 159 191 191 191 191 191 191 255 255 96 96 64 191 191 191 159 159 159 159 191 191 191 159 159 32 32 32 32 32 32 32 32 32 32 32 32 32 32 32 32 32 159 159 159 159 159 159 159 191 191 191 255 255 96 96 191 191 191 191 191 191 96 96 64 255 191 191 191 191 255 255 96 96 128 128 128 128 64 191 191 191 191 255 159 159 223 255 255 64 64 128 0 0 0 0 0 0 0 0 0
0 0 0 0 0 0 0 0 0 0 0 0 128 128 96 64 255 159 32 159 191 191 255 255 64 128 0 128 128 64 255 191 191 191 159 159 191 255 255 96 96 96 96 96 255 191 191 191 191 191 191 159 159 32 32 32 32 32 32 32 32 32 32 32 32 32 32 32 32 32 32 32 32 32 32 32 32 32 32 159 159 191 191 191 191 191 255 255 255 255 96 64 255 191 191 191 159 159 159 191 191 191 191 191 159 32 32 32 32 32 32 32 32 32 32 32 32 32 32 32 32 159 159 159 159 191 191 255 255 255 255 255 191 191 96 96 96 191 191 191 191 64 64 64 96 96 191 255 255 255 255 64 96 128 128 128 128 128 64 191 191 191 255 255 32 223 223 255 255 64 128 0 0 0 0 0 0 0 0 0 0
0 0 0 0 0 0 0 0 0 0 0 0 128 128 96 64 64 255 32 159 255 191 191 255 64 128 0 0 128 64 64 255 191 191 159 159 191 191 255 64 64 64 64 191 191 191 191 191 191 191 191 159 159 159 32 32 32 32 32 32 32 32 32 32 32 32 32 32 32 32 32 32 32 32 32 32 32 32 32 159 159 191 191 191 191 191 255 255 255 96 96 64 255 191 191 191 191 191 191 191 191 191 191 191 159 32 32 32 32 32 32 32 32 32 32 32 32 32 32 32 159 159 159 191 191 191 191 255 64 96 96 96 191 64 64 255 255 255 191 191 255 255 255 255 64 191 191 255 255 255 64 96 128 128 0 0 128 64 64 191 191 191 255 159 32 223 255 64 255 64 128 0 0 0 0 0 0 0 0 0 0
0 0 0 0 0 0 0 0 0 0 0 0 128 128 96 64 64 255 159 159 159 191 191 255 64 128 128 0 128 128 64 255 191 191 191 191 191 191 191 255 255 191 191 191 191 191 191 191 191 191 191 191 159 159 159 32 32 32 32 32 32 32 32 32 32 32 32 32 32 32 32 32 32 32 32 32 32 32 32 32 159 159 191 191 191 191 96 96 96 96 96 64 255 191 191 191 191 191 191 191 191 191 191 191 159 32 32 32 32 32 32 32 32 32 32 32 32 32 32 159 159 159 191 255 255 191 191 96 96 96 96 96 64 255 255 191 191 255 255 255 255 191 191 159 191 191 255 64 96 64 96 128 128 0 0 128 128 64 255 191 191 255 255 159 223 223 255 255 64 64 128 0 0 0 0 0 0 0 0 0 0
0 0 0 0 0 0 0 0 0 0 0 0 0 128 128 96 64 255 159 32 159 191 191 255 64 64 128 0 0 128 128 64 255 191 191 191 191 191 191 191 191 191 191 191 191 191 191 191 191 191 191 191 191 191 159 159 32 32 32 32 32 32 32 32 32 32 32 32 32 32 32 32 32 32 32 32 32 32 32 32 159 159 191 191 191 191 255 64 96 96 96 64 191 191 191 191 191 191 191 191 191 191 191 191 159 32 32 32 32 32 32 32 32 32 32 32 32 32 32 159 159 191 191 255 255 191 96 64 64 64 64 255 255 255 191 159 159 159 159 159 159 159 159 191 191 191 255 64 64 96 128 128 0 0 0 128 128 64 191 191 191 255 255 32 223 159 255 255 64 128 0 0 0 0 0 0 0 0 0 0 0
0 0 0 0 0 0 0 0 0 0 0 0 0 128 128 96 64 255 159 32 159 255 191 255 255 64 128 0 0 128 128 64 64 255 191 191 191 191 191 191 191 191 191 96 96 191 191 191 191 191 191 191 191 191 159 159 32 32 32 32 32 32 32 32 32 32 32 32 32 32 32 32 32 32 32 32 32 32 32 32 32 159 159 191 191 191 191 255 64 96 96 64 191 191 191 191 191 255 255 191 191 191 191 191 159 32 32 32 32 32 32 32 32 32 32 32 32 32 159 159 191 191 255 96 96 64 255 191 191 191 191 191 159 159 159 159 32 32 32 32 32 32 159 159 191 191 255 255 64 128 128 0 0 0 128 128 128 64 191 191 191 255 159 159 223 255 255 255 64 128 0 0 0 0 0 0 0 0 0 0 0
0 0 0 0 0 0 0 0 0 0 0 0 0 128 128 96 64 64 255 159 32 159 191 191 255 64 128 0 0 0 128 128 64 64 255 191 191 191 191 191 191 191 96 64 255 191 191 191 191 191 191 191 191 191 159 32 32 32 32 32 32 32 32 32 32 32 32 32 32 32 32 32 32 32 32 32 32 32 159 159 159 32 32 159 191 191 191 191 255 255 96 64 191 191 191 255 255 255 96 64 191 191 191 191 159 32 32 32 32 32 32 32 32 32 32 32 32 32 32 159 191 191 191 255 96 96 191 191 191 191 191 159 159 159 32 32 159 159 159 159 159 159 159 159 191 191 255 255 64 128 0 0 0 0 128 128 64 255 191 191 191 255 32 223 255 255 255 64 128 128 0 0 0 0 0 0 0 0 0 0 0
0 0 0 0 0 0 0 0 0 0 0 0 0 0 128 128 96 64 255 159 32 159 159 191 255 64 128 128 0 0 0 128 96 64 255 255 255 255 255 255 191 255 255 191 191 191 191 191 255 191 191 159 159 159 32 32 32 32 32 32 32 159 159 32 32 32 32 32 32 32 32 32 32 32 32 32 32 159 159 159 159 159 32 32 159 191 191 191 255 255 96 64 191 191 255 255 96 96 96 255 191 191 191 159 32 32 32 32 32 32 32 32 32 32 32 32 32 32 32 159 159 191 191 255 255 191 191 191 191 191 191 159 32 32 32 159 159 159 159 159 159 159 159 191 191 191 255 255 64 128 0 0 0 128 128 128 64 191 191 191 255 159 159 223 255 255 255 64 128 0 0 0 0 0 0 0 0 0 0 0 0
0 0 0 0 0 0 0 0 0 0 0 0 0 0 128 128 96 64 64 255 159 32 159 191 191 255 64 128 0 0 128 0 128 128 64 64 255 255 255 191 96 64 191 191 191 159 159 159 159 159 159 159 159 32 32 32 32 32 32 32 159 159 159 159 32 32 32 32 32 32 32 32 32 32 32 32 159 159 191 191 191 191 159 32 32 159 191 191 191 255 96 96 255 191 255 255 96 64 64 191 191 191 191 159 32 32 32 32 32 32 32 32 32 32 32 32 32 32 32 32 159 159 191 191 191 191 191 191 191 191 191 159 32 32 159 159 191 191 255 255 159 159 191 191 191 255 255 64 96 128 0 0 0 128 128 64 64 191 191 255 255 32 223 223 255 255 64 64 128 0 0 0 0 0 0 0 0 0 0 0 0
0 0 0 0 0 0 0 0 0 0 0 0 0 0 0 128 128 96 64 255 255 32 159 191 191 255 64 128 0 128 128 128 128 128 96 96 96 96 96 64 64 191 191 191 191 159 159 159 32 32 32 32 32 32 32 32 32 32 32 159 159 191 191 159 159 159 32 32 32 32 32 32 32 32 32 159 159 159 191 191 191 191 191 159 159 159 191 191 191 255 64 96 64 191 191 255 64 255 191 191 191 191 191 159 32 32 32 32 32 32 32 32 32 32 32 32 32 32 32 32 32 159 191 191 191 191 191 191 191 191 191 159 159 32 159 191 191 191 191 191 255 255 255 255 255 255 64 96 128 128 128 128 0 128 128 64 191 191 191 255 159 32 223 255 255 255 64 128 0 0 0 0 0 0 0 0 0 0 0 0 0
0 0 0 0 0 0 0 0 0 0 0 0 0 0 0 128 128 96 64 64 255 159 159 159 191 191 255 64 128 128 96 96 96 96 96 96 96 96 96 64 255 191 191 191 191 159 32 32 32 32 32 32 32 32 32 32 32 32 159 159 191 191 191 191 159 159 32 32 32 32 32 32 32 32 32 159 159 191 191 191 191 191 191 191 159 159 191 191 191 255 255 96 64 191 191 191 191 191 191 191 191 191 159 159 32 32 32 32 32 32 32 32 32 32 32 32 32 32 32 32 32 159 159 191 191 191 191 191 191 191 191 191 159 32 159 159 191 191 191 191 191 255 255 255 255 64 96 96 128 96 128 128 0 128 64 64 191 191 255 255 32 223 223 255 64 64 64 128 0 0 0 0 0 0 0 0 0 0 0 0 0
0 0 0 0 0 0 0 0 0 0 0 0 0 0 0 0 128 128 96 64 255 255 159 159 191 191 255 64 128 0 128 96 96 96 96 96 96 96 64 64 191 191 191 191 159 32 32 32 32 32 32 32 32 32 32 32 32 32 159 159 191 191 191 191 191 159 159 32 32 32 32 32 32 32 32 159 159 191 191 191 191 191 191 191 191 191 191 191 191 255 255 96 64 255 191 191 191 191 191 191 191 191 159 32 32 32 32 32 32 32 32 159 159 159 32 32 32 32 32 32 32 159 159 191 191 191 191 191 191 191 191 191 159 159 32 159 159 191 191 255 255 96 96 96 96 96 96 128 96 96 96 0 128 128 64 191 191 255 255 159 223 223 255 255 64 64 128 0 0 0 0 0 0 0 0 0 0 0 0 0 0
0 0 0 0 0 0 0 0 0 0 0 0 0 0 0 0 0 128 128 96 64 255 255 32 159 191 191 255 64 128 0 128 96 96 96 96 96 96 64 255 191 191 191 159 32 32 32 32 32 32 32 32 32 32 32 32 32 159 159 159 191 191 191 191 191 159 159 32 32 32 32 32 32 32 32 159 159 191 191 191 191 191 191 191 191 191 191 191 191 255 255 96 64 255 191 191 191 191 191 191 191 191 159 32 32 32 32 32 32 32 32 159 159 159 159 159 32 32 32 32 32 159 159 191 191 191 191 191 191 191 191 191 159 159 159 32 159 159 191 191 255 64 96 96 96 96 128 96 96 96 128 128 128 64 64 191 255 255 159 32 223 223 255 255 64 96 128 0 0 0 0 0 0 0 0 0 0 0 0 0 0
0 0 0 0 0 0 0 0 0 0 0 0 0 0 0 0 0 128 128 96 96 64 255 159 159 159 255 255 64 64 0 128 96 96 96 96 96 96 64 255 191 191 191 159 32 32 32 32 32 32 32 32 32 32 32 32 32 159 159 191 191 191 191 191 191 191 159 159 32 32 32 32 32 32 32 159 159 191 191 191 191 191 191 191 191 191 191 191 191 255 255 96 96 255 191 191 191 191 191 191 191 159 32 32 32 32 32 32 32 159 159 159 191 191 159 159 159 32 32 32 32 159 191 191 191 191 191 191 191 191 191 191 191 191 159 159 32 159 191 191 255 255 64 96 96 128 128 96 96 96 0 128 128 64 191 191 255 255 32 223 223 255 96 64 64 128 0 0 0 0 0 0 0 0 0 0 0 0 0 0 0
0 0 0 0 0 0 0 0 0 0 0 0 0 0 0 0 0 128 128 96 96 64 64 255 159 159 159 255 255 64 128 0 128 96 96 96 96 128 64 255 191 191 191 159 32 32 32 32 32 32 32 32 32 32 32 32 32 159 159 191 191 191 191 191 191 191 191 159 159 32 32 32 32 32 32 159 159 191 191 191 255 255 191 191 191 191 191 191 191 255 255 96 96 64 255 191 191 191 191 191 159 159 32 32 32 32 32 32 32 32 159 159 191 191 191 191 159 159 32 32 32 159 159 191 191 191 191 191 191 191 191 191 191 255 191 191 191 159 191 191 255 255 96 96 0 128 96 96 96 96 128 128 64 191 191 255 255 32 223 223 255 255 64 64 64 128 0 0 0 0 0 0 0 0 0 0 0 0 0 0 0
0 0 0 0 0 0 0 0 0 0 0 0 0 0 0 0 0 0 128 128 96 96 64 255 159 32 159 255 255 255 64 128 128 96 96 96 96 128 64 255 191 191 191 159 32 32 32 32 32 32 32 32 32 32 32 32 32 159 159 191 191 191 191 96 191 191 191 191 159 159 32 32 32 32 32 159 159 191 255 255 96 64 255 191 191 191 191 191 191 255 255 96 96 96 64 191 191 191 191 191 159 32 32 32 32 32 32 32 32 32 159 159 191 191 191 191 191 159 159 32 32 32 159 159 191 191 191 191 191 191 191 191 191 191 255 255 191 159 191 255 255 64 96 96 128 128 96 96 96 128 128 128 64 191 255 255 159 223 223 223 255 64 64 64 128 0 0 0 0 0 0 0 0 0 0 0 0 0 0 0 0
0 0 0 0 0 0 0 0 0 0 0 0 0 0 0 0 0 0 0 128 128 96 96 64 255 159 32 159 255 255 64 128 0 128 96 96 96 128 64 64 191 191 191 159 32 32 32 32 32 32 32 32 32 32 32 32 32 159 159 191 191 191 255 191 191 191 191 191 159 159 32 32 32 32 32 159 159 191 255 255 96 96 64 191 191 191 191 191 191 255 191 96 64 64 64 191 191 191 191 191 159 32 32 32 32 32 32 32 32 32 32 159 191 191 191 191 191 159 159 32 32 32 32 159 159 159 159 159 191 191 191 191 191 191 191 255 255 255 255 255 255 96 96 96 128 96 96 96 0 128 128 64 191 255 255 255 32 223 223 255 96 64 64 128 0 0 0 0 0 0 0 0 0 0 0 0 0 0 0 0 0
0 0 0 0 0 0 0 0 0 0 0 0 0 0 0 0 0 0 0 0 128 96 96 64 64 255 32 32 159 255 255 64 128 0 128 96 96 0 128 64 255 191 191 191 159 32 159 32 32 32 32 32 32 32 32 32 159 159 191 191 191 191 191 191 191 191 191 191 191 159 159 32 32 32 32 159 159 159 191 255 64 64 191 191 191 191 191 191 255 255 96 64 255 255 191 191 191 191 191 159 159 32 32 32 32 32 32 32 32 32 159 159 191 191 191 191 191 255 159 159 32 32 32 32 32 159 159 159 159 191 191 191 191 191 255 96 96 255 255 64 96 96 96 128 128 96 96 96 128 128 64 191 191 255 255 32 223 223 255 96 96 64 96 128 0 0 0 0 0 0 0 0 0 0 0 0 0 0 0 0 0
0 0 0 0 0 0 0 0 0 0 0 0 0 0 0 0 0 0 0 0 128 128 96 96 64 255 223 32 223 255 255 64 64 128 128 96 96 128 128 64 255 191 191 191 159 32 32 32 32 32 32 32 32 32 32 32 159 159 191 191 191 191 191 191 191 191 191 191 191 191 159 32 32 32 32 32 159 159 159 191 191 191 191 191 191 191 191 191 255 64 96 64 255 191 191 191 191 191 191 159 159 32 32 32 32 32 32 32 32 159 159 159 191 191 191 191 255 255 159 159 32 32 32 32 32 32 32 32 32 159 159 191 191 191 191 255 64 96 96 96 96 128 128 128 96 96 96 128 128 64 255 191 191 255 159 32 223 223 255 96 64 96 128 0 0 0 0 0 0 0 0 0 0 0 0 0 0 0 0 0 0
0 0 0 0 0 0 0 0 0 0 0 0 0 0 0 0 0 0 0 0 0 128 128 96 96 64 255 223 32 223 255 255 64 128 0 128 96 128 128 128 64 255 191 191 159 159 32 32 32 32 32 32 32 32 32 159 159 191 191 191 191 159 159 191 191 191 191 191 191 191 159 32 32 32 32 32 32 159 159 191 191 191 191 191 191 191 191 191 255 64 96 64 255 191 191 191 191 191 191 159 32 32 32 32 32 32 32 32 159 159 159 191 191 191 191 191 191 255 159 159 32 32 32 32 32 32 32 32 32 32 32 159 159 191 191 255 255 96 96 96 96 0 128 96 96 96 0 128 128 64 191 191 255 255 159 223 223 255 96 64 64 128 0 0 0 0 0 0 0 0 0 0 0 0 0 0 0 0 0 0 0
0 0 0 0 0 0 0 0 0 0 0 0 0 0 0 0 0 0 0 0 0 0 128 128 96 96 64 255 159 32 159 255 64 64 128 0 128 128 0 128 64 255 191 191 159 159 159 32 32 32 32 32 32 32 32 32 159 159 159 159 159 159 159 159 159 191 191 191 191 191 159 32 32 32 32 32 32 32 159 159 191 191 191 191 191 191 191 191 191 255 64 96 191 191 191 191 191 191 159 32 32 32 32 32 32 32 32 32 159 159 191 191 191 191 191 191 191 191 159 32 32 32 32 32 159 159 159 159 159 159 159 32 159 191 191 191 255 64 96 96 96 128 128 96 96 128 128 128 64 255 191 255 255 159 159 159 255 96 96 64 96 128 0 0 0 0 0 0 0 0 0 0 0 0 0 0 0 0 0 0 0
0 0 0 0 0 0 0 0 0 0 0 0 0 0 0 0 0 0 0 0 0 0 128 128 96 96 96 64 255 32 159 255 64 64 128 0 0 0 0 128 128 64 255 191 191 159 159 159 159 159 32 32 32 32 32 32 159 159 159 32 32 32 159 159 191 191 191 191 191 191 159 159 32 32 32 32 32 32 32 159 159 159 191 191 191 191 191 191 191 191 191 191 191 191 191 191 191 159 159 159 32 32 32 32 32 32 32 159 159 191 191 191 191 191 191 191 191 159 32 32 32 159 159 159 159 159 159 191 159 159 159 159 159 191 191 255 255 64 96 128 0 128 96 96 96 0 128 64 64 255 255 255 159 223 223 255 96 96 64 96 128 0 0 0 0 0 0 0 0 0 0 0 0 0 0 0 0 0 0 0 0
0 0 0 0 0 0 0 0 0 0 0 0 0 0 0 0 0 0 0 0 0 0 0 128 128 96 96 96 64 159 32 255 255 64 128 0 0 0 0 0 128 64 64 255 159 191 191 159 159 159 159 159 159 159 159 32 32 32 32 32 32 159 159 159 191 191 191 96 191 191 191 159 32 32 32 32 32 32 32 32 32 159 159 191 191 191 191 191 191 191 191 191 255 255 191 191 191 191 159 159 159 32 32 32 32 32 32 159 159 191 191 191 191 191 191 159 159 32 32 32 159 159 159 159 159 191 191 191 191 191 191 191 191 191 191 255 255 64 96 128 128 128 96 96 96 128 128 64 255 255 255 159 32 223 255 64 96 64 96 128 0 0 0 0 0 0 0 0 0 0 0 0 0 0 0 0 0 0 0 0 0
0 0 0 0 0 0 0 0 0 0 0 0 0 0 0 0 0 0 0 0 0 0 0 0 128 128 96 96 64 255 159 159 255 64 64 128 0 0 0 0 0 128 64 64 255 191 191 159 191 159 159 159 159 159 159 159 159 32 32 32 32 159 159 191 191 191 191 96 191 191 191 159 159 32 32 32 32 32 32 32 32 32 159 159 159 191 191 191 191 191 255 255 64 255 255 191 191 191 191 191 191 159 159 32 32 32 32 159 159 191 191 191 191 191 191 159 32 32 32 159 159 159 191 191 191 191 191 191 191 191 191 191 191 191 255 255 64 96 0 128 96 96 96 96 128 128 64 255 255 255 159 32 223 223 255 96 64 64 128 128 0 0 0 0 0 0 0 0 0 0 0 0 0 0 0 0 0 0 0 0 0
0 0 0 0 0 0 0 0 0 0 0 0 0 0 0 0 0 0 0 0 0 0 0 0 0 128 96 96 96 64 255 32 159 255 64 128 128 0 0 0 0 0 128 64 64 255 255 191 191 191 191 191 191 191 191 191 159 159 32 32 32 159 159 191 191 191 191 96 191 191 191 191 159 159 32 32 32 32 32 32 32 32 159 159 159 159 159 191 191 191 255 64 96 96 64 255 255 255 191 191 191 191 159 32 32 32 32 159 159 191 191 191 191 191 159 159 32 32 159 159 191 191 191 191 191 191 191 191 191 191 191 191 191 255 255 64 96 128 0 128 96 96 96 128 128 128 64 255 255 255 32 223 223 255 96 96 64 96 128 0 0 0 0 0 0 0 0 0 0 0 0 0 0 0 0 0 0 0 0 0 0
0 0 0 0 0 0 0 0 0 0 0 0 0 0 0 0 0 0 0 0 0 0 0 0 0 128 128 96 96 64 255 159 159 255 255 64 128 0 0 0 0 0 0 128 64 64 255 255 255 191 191 191 191 191 191 191 191 159 159 32 32 159 159 191 191 191 191 191 191 191 191 191 191 159 32 32 32 32 32 32 32 32 32 32 32 159 159 159 191 191 255 64 96 96 96 64 255 255 255 191 191 255 159 159 32 32 32 159 159 191 191 191 191 191 159 159 32 159 159 191 191 191 191 191 191 191 191 191 191 191 191 191 191 255 255 96 96 128 128 128 96 96 128 128 128 64 64 255 255 223 223 223 223 64 96 64 64 128 0 0 0 0 0 0 0 0 0 0 0 0 0 0 0 0 0 0 0 0 0 0 0
0 0 0 0 0 0 0 0 0 0 0 0 0 0 0 0 0 0 0 0 0 0 0 0 0 0 128 128 96 64 64 255 32 223 255 64 128 128 0 0 0 0 0 0 128 96 64 64 255 255 191 191 191 191 191 191 191 159 159 32 32 32 159 191 191 191 191 191 191 191 255 191 191 159 159 32 32 32 32 32 32 32 32 32 32 159 159 191 191 191 255 255 96 96 96 96 96 96 96 64 255 255 159 32 32 32 32 159 159 191 191 191 191 191 191 159 32 159 159 191 191 191 191 191 191 191 191 191 191 191 191 191 255 255 64 96 0 128 128 96 96 96 0 128 128 64 255 255 223 223 223 223 255 96 96 64 128 0 0 0 0 0 0 0 0 0 0 0 0 0 0 0 0 0 0 0 0 0 0 0 0
0 0 0 0 0 0 0 0 0 0 0 0 0 0 0 0 0 0 0 0 0 0 0 0 0 0 0 128 64 64 64 255 223 223 223 255 64 128 0 0 0 0 128 0 0 128 96 96 96 64 255 191 191 191 191 191 191 159 159 32 32 32 159 159 191 191 191 255 191 96 64 191 191 159 159 32 32 32 32 32 32 32 32 32 159 159 191 191 191 191 255 64 96 96 96 96 96 64 64 255 255 191 159 32 32 32 32 32 159 159 191 191 191 191 191 159 159 159 159 191 191 191 255 255 191 191 191 191 191 191 191 255 255 64 96 0 128 128 96 96 96 128 128 128 64 64 255 223 223 223 223 255 96 96 64 96 128 0 0 0 0 0 0 0 0 0 0 0 0 0 0 0 0 0 0 0 0 0 0 0 0
0 0 0 0 0 0 0 0 0 0 0 0 0 0 0 0 0 0 0 0 0 0 0 0 0 0 0 128 128 96 64 64 223 223 223 223 255 64 128 0 0 128 0 128 128 0 128 96 96 96 64 255 191 191 191 191 191 159 32 32 32 159 159 159 191 191 191 255 96 64 255 191 191 159 159 32 32 32 32 32 32 32 32 159 159 191 191 191 191 255 255 96 96 96 64 64 64 64 255 191 191 159 159 32 32 32 32 32 159 159 191 191 191 191 191 191 159 32 159 191 255 191 96 255 191 191 191 191 191 191 255 255 64 96 0 128 128 96 96 96 96 0 128 128 64 255 223 32 223 223 255 96 96 96 96 128 0 0 0 0 0 0 0 0 0 0 0 0 0 0 0 0 0 0 0 0 0 0 0 0 0
0 0 0 0 0 0 0 0 0 0 0 0 0 0 0 0 0 0 0 0 0 0 0 0 0 0 0 0 128 96 96 64 255 223 223 223 223 64 64 128 0 0 128 96 128 0 0 128 96 96 64 64 191 191 191 191 191 159 32 159 159 159 159 191 191 191 191 191 96 64 191 191 191 159 159 32 32 32 32 32 32 32 159 159 191 191 191 191 255 255 64 96 96 96 64 255 191 191 191 191 191 159 32 32 32 32 32 159 159 159 191 191 191 191 191 191 159 32 159 191 191 255 96 255 191 191 191 191 191 159 255 64 96 0 128 128 96 96 96 96 0 128 128 64 64 223 32 223 223 223 64 96 96 64 128 0 0 0 0 0 0 0 0 0 0 0 0 0 0 0 0 0 0 0 0 0 0 0 0 0 0
0 0 0 0 0 0 0 0 0 0 0 0 0 0 0 0 0 0 0 0 0 0 0 0 0 0 0 0 128 128 96 64 64 223 223 223 223 223 64 128 128 0 0 128 96 128 0 128 128 96 96 64 255 191 191 191 191 159 159 159 159 191 191 191 191 191 191 255 255 191 191 191 159 159 32 32 32 32 32 32 32 32 159 159 191 191 191 255 255 64 96 96 96 64 255 191 191 191 191 191 159 32 32 32 32 32 159 159 159 191 191 191 191 191 191 191 191 159 159 191 191 255 96 96 255 191 191 191 191 255 64 64 128 0 128 96 96 96 96 128 128 128 64 64 255 223 223 223 223 255 96 96 64 128 0 0 0 0 0 0 0 0 0 0 0 0 0 0 0 0 0 0 0 0 0 0 0 0 0 0 0
0 0 0 0 0 0 0 0 0 0 0 0 0 0 0 0 0 0 0 0 0 0 0 0 0 0 0 0 0 128 96 96 64 64 223 223 223 223 255 64 128 128 0 128 96 128 128 0 128 96 96 64 255 255 191 191 191 191 159 191 191 191 191 191 191 191 255 255 191 191 159 159 32 32 32 32 32 32 32 32 32 32 32 159 159 191 191 255 64 96 96 96 64 64 191 191 191 191 191 159 32 32 32 32 32 159 159 159 191 191 191 191 255 255 255 191 191 159 159 191 191 255 255 96 64 255 255 255 255 255 96 96 0 0 128 96 96 96 96 0 128 64 64 255 223 223 223 223 255 96 96 64 96 128 0 0 0 0 0 0 0 0 0 0 0 0 0 0 0 0 0 0 0 0 0 0 0 0 0 0 0
0 0 0 0 0 0 0 0 0 0 0 0 0 0 0 0 0 0 0 0 0 0 0 0 0 0 0 0 0 128 128 96 96 64 255 223 223 223 223 255 64 128 128 0 128 96 96 128 128 96 96 96 64 64 255 255 159 159 159 191 191 191 191 191 191 191 191 191 191 159 159 32 32 32 32 32 32 159 159 32 32 32 32 159 159 191 191 191 255 64 96 96 64 255 191 191 191 159 159 32 32 32 32 32 159 159 159 191 191 191 191 191 255 96 64 255 191 191 191 191 191 255 255 96 96 64 255 255 64 96 96 0 128 128 128 96 96 96 0 128 128 64 255 223 32 223 223 255 96 96 96 96 128 0 0 0 0 0 0 0 0 0 0 0 0 0 0 0 0 0 0 0 0 0 0 0 0 0 0 0 0
0 0 0 0 0 0 0 0 0 0 0 0 0 0 0 0 0 0 0 0 0 0 0 0 0 0 0 0 0 0 128 128 96 96 64 255 223 223 223 223 255 64 128 128 128 128 96 96 128 96 128 128 128 64 64 255 255 255 255 255 191 191 191 191 191 191 191 191 159 159 32 32 32 32 32 32 159 159 159 159 159 32 32 32 159 159 159 191 191 255 255 96 96 255 191 191 191 159 159 32 32 32 32 32 159 159 191 191 255 255 191 191 255 96 96 64 255 255 159 159 255 255 255 96 96 96 64 96 96 96 96 128 128 128 96 96 96 0 128 128 64 64 223 32 223 223 255 64 96 64 64 128 0 0 0 0 0 0 0 0 0 0 0 0 0 0 0 0 0 0 0 0 0 0 0 0 0 0 0 0 0
0 0 0 0 0 0 0 0 0 0 0 0 0 0 0 0 0 0 0 0 0 0 0 0 0 0 0 0 0 0 0 128 128 96 96 64 255 223 223 223 223 255 64 128 0 128 96 96 96 96 96 128 128 128 96 64 64 64 64 64 255 191 191 191 191 191 191 191 159 159 32 32 32 32 32 159 159 159 159 159 159 159 32 32 32 159 159 159 191 191 255 96 96 255 191 191 191 159 159 32 32 32 32 32 159 159 255 255 96 96 255 255 255 96 96 96 64 255 255 255 255 255 96 96 96 96 96 96 96 96 128 96 96 96 96 96 0 128 128 64 64 223 32 223 223 223 255 96 96 64 128 0 0 0 0 0 0 0 0 0 0 0 0 0 0 0 0 0 0 0 0 0 0 0 0 0 0 0 0 0 0
0 0 0 0 0 0 0 0 0 0 0 0 0 0 0 0 0 0 0 0 0 0 0 0 0 0 0 0 0 0 0 128 128 96 96 64 64 223 223 32 223 223 255 64 128 0 128 96 96 96 96 128 128 128 128 96 96 96 96 96 96 255 191 191 191 191 191 191 159 159 159 159 32 159 159 159 159 191 191 191 191 159 159 32 32 32 159 159 191 191 255 191 96 255 191 191 191 191 159 32 32 32 32 32 159 159 191 255 96 96 96 64 191 96 96 96 96 64 64 64 64 96 96 96 96 96 128 96 96 0 128 128 96 96 128 0 128 128 64 64 223 32 223 223 223 255 96 96 64 128 128 0 0 0 0 0 0 0 0 0 0 0 0 0 0 0 0 0 0 0 0 0 0 0 0 0 0 0 0 0 0
0 0 0 0 0 0 0 0 0 0 0 0 0 0 0 0 0 0 0 0 0 0 0 0 0 0 0 0 0 0 0 0 128 128 96 96 64 255 223 223 32 223 223 255 64 128 0 128 96 96 96 96 96 96 128 128 96 96 96 96 96 64 255 255 255 255 191 191 159 159 159 159 159 159 159 159 191 191 191 255 191 159 159 32 32 32 159 159 191 191 255 191 64 255 191 191 191 191 159 159 32 32 32 32 159 191 191 255 64 96 96 96 96 96 96 96 96 96 96 96 96 96 96 96 96 128 128 128 128 128 128 128 96 128 128 128 128 64 255 223 32 223 223 223 255 96 96 64 96 128 0 0 0 0 0 0 0 0 0 0 0 0 0 0 0 0 0 0 0 0 0 0 0 0 0 0 0 0 0 0 0
0 0 0 0 0 0 0 0 0 0 0 0 0 0 0 0 0 0 0 0 0 0 0 0 0 0 0 0 0 0 0 0 0 128 128 96 96 64 255 223 223 32 223 223 255 64 128 128 96 96 96 96 96 128 128 0 128 96 96 96 96 96 96 64 64 64 255 255 191 191 191 159 159 191 191 191 191 191 191 255 191 159 159 32 32 159 159 159 191 255 255 96 64 255 191 191 191 191 191 159 159 32 32 32 159 191 191 255 255 96 96 96 96 96 96 96 96 96 96 96 96 96 96 128 128 128 0 128 128 128 96 96 128 0 128 128 64 255 223 32 223 223 223 255 64 96 96 96 128 0 0 0 0 0 0 0 0 0 0 0 0 0 0 0 0 0 0 0 0 0 0 0 0 0 0 0 0 0 0 0 0
0 0 0 0 0 0 0 0 0 0 0 0 0 0 0 0 0 0 0 0 0 0 0 0 0 0 0 0 0 0 0 0 0 0 128 96 96 96 64 64 223 223 223 223 223 255 64 128 128 96 96 96 96 64 128 128 0 128 96 96 96 96 96 96 96 96 64 64 255 255 255 255 159 191 191 191 191 96 96 191 191 191 159 32 32 159 159 191 191 255 255 96 64 255 191 191 191 191 191 159 32 32 32 159 159 191 191 255 255 96 96 96 96 96 96 96 96 96 96 96 96 96 128 0 0 128 128 128 96 96 96 96 0 128 128 64 64 223 32 223 223 223 255 255 96 96 96 128 0 0 0 0 0 0 0 0 0 0 0 0 0 0 0 0 0 0 0 0 0 0 0 0 0 0 0 0 0 0 0 0 0
0 0 0 0 0 0 0 0 0 0 0 0 0 0 0 0 0 0 0 0 0 0 0 0 0 0 0 0 0 0 0 0 0 0 0 128 128 96 96 64 255 223 223 32 223 223 255 64 128 96 96 96 64 64 64 96 128 128 96 96 96 96 96 96 96 96 96 64 64 255 255 255 255 255 191 191 191 191 191 191 191 191 159 32 32 159 159 191 191 255 255 96 64 255 191 191 191 191 159 32 159 159 159 159 191 191 191 255 255 96 96 96 96 96 96 96 96 96 96 96 0 128 128 0 128 128 128 96 96 96 96 0 128 128 64 64 223 32 223 223 223 255 255 96 96 96 128 128 0 0 0 0 0 0 0 0 0 0 0 0 0 0 0 0 0 0 0 0 0 0 0 0 0 0 0 0 0 0 0 0 0
0 0 0 0 0 0 0 0 0 0 0 0 0 0 0 0 0 0 0 0 0 0 0 0 0 0 0 0 0 0 0 0 0 0 0 128 128 96 96 96 64 255 223 223 223 223 223 255 64 96 96 64 64 191 255 64 96 96 128 96 0 128 128 96 96 96 96 96 96 96 64 64 64 96 255 191 191 191 191 191 191 159 32 32 159 159 159 191 191 255 255 96 64 64 191 191 191 191 159 159 159 159 159 159 191 191 191 255 64 96 96 96 96 96 96 96 96 96 96 96 0 0 0 128 128 96 96 96 96 96 0 128 64 64 255 223 32 223 223 223 255 64 96 96 96 96 128 0 0 0 0 0 0 0 0 0 0 0 0 0 0 0 0 0 0 0 0 0 0 0 0 0 0 0 0 0 0 0 0 0 0
0 0 0 0 0 0 0 0 0 0 0 0 0 0 0 0 0 0 0 0 0 0 0 0 0 0 0 0 0 0 0 0 0 0 0 0 128 128 96 96 96 64 255 223 223 223 223 223 255 64 128 128 64 255 159 255 96 96 96 128 128 0 128 96 96 96 96 96 96 96 96 96 96 64 255 191 191 191 191 191 191 159 159 159 159 159 191 191 255 255 64 96 96 64 255 191 191 191 159 191 191 191 191 191 159 255 255 255 96 96 96 96 96 96 96 96 96 96 128 0 128 128 128 128 96 96 96 96 96 0 128 64 64 255 223 32 223 223 223 255 96 96 96 96 96 128 0 0 0 0 0 0 0 0 0 0 0 0 0 0 0 0 0 0 0 0 0 0 0 0 0 0 0 0 0 0 0 0 0 0 0
0 0 0 0 0 0 0 0 0 0 0 0 0 0 0 0 0 0 0 0 0 0 0 0 0 0 0 0 0 0 0 0 0 0 0 0 0 128 128 96 96 96 64 255 223 223 223 223 223 255 64 64 96 64 255 96 96 96 96 96 96 128 96 96 96 96 96 96 96 96 96 96 96 64 255 191 191 191 191 191 159 159 191 191 191 191 191 255 255 255 96 96 96 64 255 191 191 191 191 191 191 255 255 255 255 255 255 96 96 96 96 96 96 96 96 96 128 128 0 128 128 128 96 96 96 96 96 96 96 128 64 64 255 223 32 223 223 223 255 255 96 96 96 96 128 0 0 0 0 0 0 0 0 0 0 0 0 0 0 0 0 0 0 0 0 0 0 0 0 0 0 0 0 0 0 0 0 0 0 0 0
0 0 0 0 0 0 0 0 0 0 0 0 0 0 0 0 0 0 0 0 0 0 0 0 0 0 0 0 0 0 0 0 0 0 0 0 0 0 128 128 96 96 96 64 255 223 223 223 223 223 223 64 64 128 96 96 96 96 96 96 96 96 128 0 96 96 96 96 96 96 96 96 96 64 255 191 191 191 191 191 191 191 159 255 255 255 255 255 64 96 96 96 96 64 255 191 191 191 191 255 255 255 255 255 64 96 96 96 96 96 96 96 96 96 96 128 0 0 128 128 128 96 96 96 96 96 128 128 128 64 64 223 223 223 223 223 223 223 255 96 96 96 96 128 0 0 0 0 0 0 0 0 0 0 0 0 0 0 0 0 0 0 0 0 0 0 0 0 0 0 0 0 0 0 0 0 0 0 0 0 0
0 0 0 0 0 0 0 0 0 0 0 0 0 0 0 0 0 0 0 0 0 0 0 0 0 0 0 0 0 0 0 0 0 0 0 0 0 0 0 128 128 96 96 96 96 64 223 223 223 223 223 223 64 64 96 96 96 96 96 96 96 96 96 96 96 128 128 128 128 96 96 96 96 96 64 255 255 191 191 191 191 255 255 255 255 255 64 96 96 96 96 96 96 96 64 255 191 255 255 255 255 64 96 96 96 96 96 96 96 96 96 96 0 0 128 0 128 128 128 96 96 96 96 96 96 0 128 128 64 64 223 223 223 223 223 223 255 255 96 96 96 96 128 0 0 0 0 0 0 0 0 0 0 0 0 0 0 0 0 0 0 0 0 0 0 0 0 0 0 0 0 0 0 0 0 0 0 0 0 0 0
0 0 0 0 0 0 0 0 0 0 0 0 0 0 0 0 0 0 0 0 0 0 0 0 0 0 0 0 0 0 0 0 0 0 0 0 0 0 0 0 128 128 96 96 96 96 255 223 223 223 223 223 223 255 64 128 128 96 96 96 96 96 96 96 96 128 128 0 0 128 96 96 96 96 64 64 255 255 255 255 255 255 64 64 96 96 96 96 96 96 96 96 96 96 96 64 255 255 255 64 96 96 96 96 96 96 96 96 96 96 96 128 0 128 128 128 128 128 96 96 64 64 96 96 128 128 128 64 64 223 223 223 223 223 223 255 255 96 96 96 96 128 0 0 0 0 0 0 0 0 0 0 0 0 0 0 0 0 0 0 0 0 0 0 0 0 0 0 0 0 0 0 0 0 0 0 0 0 0 0 0
0 0 0 0 0 0 0 0 0 0 0 0 0 0 0 0 0 0 0 0 0 0 0 0 0 0 0 0 0 0 0 0 0 0 0 0 0 0 0 0 0 128 128 96 96 96 64 64 255 223 223 223 223 223 223 64 64 128 0 96 96 96 96 96 96 96 96 128 128 0 0 0 128 96 96 96 64 64 64 64 64 96 96 96 96 96 96 96 96 96 96 96 96 96 96 96 64 64 96 96 96 96 96 96 96 96 96 96 96 128 0 0 128 96 96 128 96 96 96 64 255 96 0 128 128 64 64 255 223 223 223 223 223 223 255 255 96 96 96 96 128 0 0 0 0 0 0 0 0 0 0 0 0 0 0 0 0 0 0 0 0 0 0 0 0 0 0 0 0 0 0 0 0 0 0 0 0 0 0 0 0
0 0 0 0 0 0 0 0 0 0 0 0 0 0 0 0 0 0 0 0 0 0 0 0 0 0 0 0 0 0 0 0 0 0 0 0 0 0 0 0 0 0 128 128 96 96 96 96 64 255 223 223 223 32 223 223 64 64 128 128 128 96 96 96 96 96 96 96 96 96 128 128 128 128 0 128 128 96 96 96 96 96 96 96 96 96 96 96 96 96 96 96 96 96 96 96 96 96 96 96 96 96 128 128 0 128 128 128 128 128 128 128 128 128 96 96 96 64 64 64 96 128 128 64 64 64 255 223 32 223 223 223 223 255 255 96 96 96 96 128 0 0 0 0 0 0 0 0 0 0 0 0 0 0 0 0 0 0 0 0 0 0 0 0 0 0 0 0 0 0 0 0 0 0 0 0 0 0 0 0 0
0 0 0 0 0 0 0 0 0 0 0 0 0 0 0 0 0 0 0 0 0 0 0 0 0 0 0 0 0 0 0 0 0 0 0 0 0 0 0 0 0 0 0 128 128 128 96 96 96 64 255 255 223 223 223 223 223 223 64 64 128 128 96 96 96 96 96 96 96 96 96 96 96 96 128 128 128 0 0 0 128 128 128 96 96 96 96 96 96 96 96 64 64 96 96 96 96 96 128 128 128 0 0 128 128 128 96 96 96 128 128 128 96 96 96 64 64 96 96 96 128 64 64 64 223 223 223 32 223 223 223 223 255 64 96 96 96 96 128 0 0 0 0 0 0 0 0 0 0 0 0 0 0 0 0 0 0 0 0 0 0 0 0 0 0 0 0 0 0 0 0 0 0 0 0 0 0 0 0 0 0
0 0 0 0 0 0 0 0 0 0 0 0 0 0 0 0 0 0 0 0 0 0 0 0 0 0 0 0 0 0 0 0 0 0 0 0 0 0 0 0 0 0 0 0 0 128 128 96 96 96 96 64 255 223 223 223 223 223 223 223 64 64 64 128 128 96 96 96 96 96 96 96 96 96 96 96 96 96 128 96 128 128 0 0 0 128 128 128 96 64 255 191 191 255 64 96 96 128 0 0 128 128 128 128 128 96 96 96 96 96 96 96 96 96 96 96 96 128 128 64 64 64 64 223 223 223 223 223 223 223 255 255 64 96 96 96 128 128 0 0 0 0 0 0 0 0 0 0 0 0 0 0 0 0 0 0 0 0 0 0 0 0 0 0 0 0 0 0 0 0 0 0 0 0 0 0 0 0 0 0 0
0 0 0 0 0 0 0 0 0 0 0 0 0 0 0 0 0 0 0 0 0 0 0 0 0 0 0 0 0 0 0 0 0 0 0 0 0 0 0 0 0 0 0 0 0 0 128 128 96 96 96 96 64 255 223 223 223 223 223 223 223 223 64 64 64 128 128 0 96 96 96 96 96 96 96 96 96 96 96 96 96 128 128 128 128 128 0 128 128 64 255 255 191 255 64 96 0 0 128 128 128 128 96 96 96 96 96 96 96 96 96 64 96 96 96 128 128 64 64 64 64 223 223 32 223 223 223 223 223 255 64 96 96 96 96 96 128 0 0 0 0 0 0 0 0 0 0 0 0 0 0 0 0 0 0 0 0 0 0 0 0 0 0 0 0 0 0 0 0 0 0 0 0 0 0 0 0 0 0 0 0
0 0 0 0 0 0 0 0 0 0 0 0 0 0 0 0 0 0 0 0 0 0 0 0 0 0 0 0 0 0 0 0 0 0 0 0 0 0 0 0 0 0 0 0 0 0 0 128 128 128 96 96 96 64 255 223 223 223 223 223 223 223 223 223 255 64 64 128 128 128 0 128 96 96 96 96 96 96 96 96 96 96 96 96 96 128 128 128 128 96 64 64 255 64 96 0 128 128 128 128 96 96 96 96 96 96 96 96 96 96 96 96 96 128 128 64 64 64 64 223 223 32 223 223 223 223 223 255 255 64 96 96 96 96 128 128 0 0 0 0 0 0 0 0 0 0 0 0 0 0 0 0 0 0 0 0 0 0 0 0 0 0 0 0 0 0 0 0 0 0 0 0 0 0 0 0 0 0 0 0 0
0 0 0 0 0 0 0 0 0 0 0 0 0 0 0 0 0 0 0 0 0 0 0 0 0 0 0 0 0 0 0 0 0 0 0 0 0 0 0 0 0 0 0 0 0 0 0 0 128 128 96 96 96 96 64 64 255 223 223 223 223 223 32 223 223 223 255 64 64 64 128 128 128 96 96 96 96 96 96 96 96 96 96 96 96 96 96 96 128 0 96 96 96 96 0 128 128 96 96 96 96 96 96 96 96 96 96 96 96 0 128 128 128 64 64 64 255 223 223 32 223 223 223 223 223 255 255 255 96 96 96 96 96 128 128 0 0 0 0 0 0 0 0 0 0 0 0 0 0 0 0 0 0 0 0 0 0 0 0 0 0 0 0 0 0 0 0 0 0 0 0 0 0 0 0 0 0 0 0 0 0
0 0 0 0 0 0 0 0 0 0 0 0 0 0 0 0 0 0 0 0 0 0 0 0 0 0 0 0 0 0 0 0 0 0 0 0 0 0 0 0 0 0 0 0 0 0 0 0 0 128 128 128 96 96 96 96 64 255 255 223 223 223 223 223 32 32 223 223 223 64 64 64 64 128 128 128 128 0 96 96 96 96 96 96 96 96 96 96 96 96 96 96 96 128 0 96 96 96 96 96 96 96 96 96 96 96 128 128 128 128 64 64 64 64 223 223 223 32 223 223 223 223 223 255 255 255 64 96 96 96 96 128 128 0 0 0 0 0 0 0 0 0 0 0 0 0 0 0 0 0 0 0 0 0 0 0 0 0 0 0 0 0 0 0 0 0 0 0 0 0 0 0 0 0 0 0 0 0 0 0 0
0 0 0 0 0 0 0 0 0 0 0 0 0 0 0 0 0 0 0 0 0 0 0 0 0 0 0 0 0 0 0 0 0 0 0 0 0 0 0 0 0 0 0 0 0 0 0 0 0 0 0 128 128 96 96 96 96 64 64 255 255 255 223 223 223 223 223 32 223 223 223 223 64 64 64 64 64 128 128 128 128 0 0 0 0 128 96 96 128 96 96 96 96 96 128 128 96 96 128 128 0 0 128 128 128 128 64 64 64 64 64 255 223 223 223 32 223 223 223 223 223 255 255 64 64 64 96 96 96 96 128 128 0 0 0 0 0 0 0 0 0 0 0 0 0 0 0 0 0 0 0 0 0 0 0 0 0 0 0 0 0 0 0 0 0 0 0 0 0 0 0 0 0 0 0 0 0 0 0 0 0
0 0 0 0 0 0 0 0 0 0 0 0 0 0 0 0 0 0 0 0 0 0 0 0 0 0 0 0 0 0 0 0 0 0 0 0 0 0 0 0 0 0 0 0 0 0 0 0 0 0 0 0 128 128 128 96 96 96 96 96 64 64 255 255 255 223 223 223 223 223 32 223 223 223 223 223 64 64 64 64 64 64 128 128 128 128 128 128 0 0 0 0 128 0 0 0 0 128 128 128 128 128 64 64 64 64 64 64 223 223 223 223 223 223 223 223 223 223 223 223 255 255 96 96 96 96 96 96 128 128 128 0 0 0 0 0 0 0 0 0 0 0 0 0 0 0 0 0 0 0 0 0 0 0 0 0 0 0 0 0 0 0 0 0 0 0 0 0 0 0 0 0 0 0 0 0 0 0 0 0 0
0 0 0 0 0 0 0 0 0 0 0 0 0 0 0 0 0 0 0 0 0 0 0 0 0 0 0 0 0 0 0 0 0 0 0 0 0 0 0 0 0 0 0 0 0 0 0 0 0 0 0 0 0 0 128 128 96 96 96 96 96 96 96 64 64 255 255 223 223 223 223 223 223 32 223 223 223 223 223 223 64 64 64 64 64 64 64 64 128 128 128 128 128 128 128 128 128 64 64 64 64 64 64 64 223 223 223 223 223 223 223 223 223 223 223 223 223 255 255 64 96 96 96 96 96 96 96 128 128 0 0 0 0 0 0 0 0 0 0 0 0 0 0 0 0 0 0 0 0 0 0 0 0 0 0 0 0 0 0 0 0 0 0 0 0 0 0 0 0 0 0 0 0 0 0 0 0 0 0 0 0
0 0 0 0 0 0 0 0 0 0 0 0 0 0 0 0 0 0 0 0 0 0 0 0 0 0 0 0 0 0 0 0 0 0 0 0 0 0 0 0 0 0 0 0 0 0 0 0 0 0 0 0 0 0 0 128 128 128 96 96 96 96 96 96 64 64 255 255 255 223 223 223 223 223 223 223 223 32 223 223 223 223 223 223 223 64 64 64 64 64 64 64 64 64 64 64 64 64 64 64 255 223 223 223 223 32 223 223 223 223 223 223 223 223 223 255 255 64 96 96 96 96 96 96 96 128 128 0 0 0 0 0 0 0 0 0 0 0 0 0 0 0 0 0 0 0 0 0 0 0 0 0 0 0 0 0 0 0 0 0 0 0 0 0 0 0 0 0 0 0 0 0 0 0 0 0 0 0 0 0 0
0 0 0 0 0 0 0 0 0 0 0 0 0 0 0 0 0 0 0 0 0 0 0 0 0 0 0 0 0 0 0 0 0 0 0 0 0 0 0 0 0 0 0 0 0 0 0 0 0 0 0 0 0 0 0 0 0 128 128 128 96 96 96 96 96 96 96 64 64 255 255 255 223 223 223 223 223 223 223 223 223 223 32 223 223 223 223 223 223 255 255 255 255 255 255 255 223 223 223 223 32 223 223 223 223 223 223 223 223 223 223 223 255 255 255 96 96 96 96 96 96 96 96 128 128 0 0 0 0 0 0 0 0 0 0 0 0 0 0 0 0 0 0 0 0 0 0 0 0 0 0 0 0 0 0 0 0 0 0 0 0 0 0 0 0 0 0 0 0 0 0 0 0 0 0 0 0 0 0 0 0
0 0 0 0 0 0 0 0 0 0 0 0 0 0 0 0 0 0 0 0 0 0 0 0 0 0 0 0 0 0 0 0 0 0 0 0 0 0 0 0 0 0 0 0 0 0 0 0 0 0 0 0 0 0 0 0 0 0 0 128 128 128 128 96 96 96 96 96 96 96 64 64 255 255 255 255 255 223 223 223 223 223 223 223 223 223 223 223 223 159 159 159 32 32 159 159 223 223 223 223 223 223 223 223 223 223 223 223 255 255 255 255 64 96 96 96 96 96 96 96 128 128 128 128 0 0 0 0 0 0 0 0 0 0 0 0 0 0 0 0 0 0 0 0 0 0 0 0 0 0 0 0 0 0 0 0 0 0 0 0 0 0 0 0 0 0 0 0 0 0 0 0 0 0 0 0 0 0 0 0 0
0 0 0 0 0 0 0 0 0 0 0 0 0 0 0 0 0 0 0 0 0 0 0 0 0 0 0 0 0 0 0 0 0 0 0 0 0 0 0 0 0 0 0 0 0 0 0 0 0 0 0 0 0 0 0 0 0 0 0 0 0 0 128 128 128 96 96 96 96 96 96 96 96 64 64 255 255 255 255 255 255 223 223 223 223 223 223 223 223 159 159 159 159 159 159 223 223 223 223 223 223 223 223 223 255 255 255 255 64 96 96 96 96 96 96 96 96 96 96 128 128 128 0 0 0 0 0 0 0 0 0 0 0 0 0 0 0 0 0 0 0 0 0 0 0 0 0 0 0 0 0 0 0 0 0 0 0 0 0 0 0 0 0 0 0 0 0 0 0 0 0 0 0 0 0 0 0 0 0 0 0
0 0 0 0 0 0 0 0 0 0 0 0 0 0 0 0 0 0 0 0 0 0 0 0 0 0 0 0 0 0 0 0 0 0 0 0 0 0 0 0 0 0 0 0 0 0 0 0 0 0 0 0 0 0 0 0 0 0 0 0 0 0 0 0 0 128 128 128 96 96 96 96 96 96 96 96 96 96 96 64 64 64 255 255 255 255 255 255 255 255 255 255 255 255 255 255 255 255 255 255 255 255 255 64 64 96 96 96 96 96 64 96 96 96 96 96 96 128 128 0 0 0 0 0 0 0 0 0 0 0 0 0 0 0 0 0 0 0 0 0 0 0 0 0 0 0 0 0 0 0 0 0 0 0 0 0 0 0 0 0 0 0 0 0 0 0 0 0 0 0 0 0 0 0 0 0 0 0 0 0 0
0 0 0 0 0 0 0 0 0 0 0 0 0 0 0 0 0 0 0 0 0 0 0 0 0 0 0 0 0 0 0 0 0 0 0 0 0 0 0 0 0 0 0 0 0 0 0 0 0 0 0 0 0 0 0 0 0 0 0 0 0 0 0 0 0 0 0 128 128 128 128 96 96 96 96 96 96 96 96 96 96 96 96 96 96 96 96 96 64 64 64 64 64 64 64 64 64 64 64 64 64 64 96 96 96 96 96 96 96 96 96 96 96 128 128 128 128 0 0 0 0 0 0 0 0 0 0 0 0 0 0 0 0 0 0 0 0 0 0 0 0 0 0 0 0 0 0 0 0 0 0 0 0 0 0 0 0 0 0 0 0 0 0 0 0 0 0 0 0 0 0 0 0 0 0 0 0 0 0 0 0
0 0 0 0 0 0 0 0 0 0 0 0 0 0 0 0 0 0 0 0 0 0 0 0 0 0 0 0 0 0 0 0 0 0 0 0 0 0 0 0 0 0 0 0 0 0 0 0 0 0 0 0 0 0 0 0 0 0 0 0 0 0 0 0 0 0 0 0 0 128 128 128 128 128 128 128 96 96 96 96 96 96 96 96 96 96 96 96 96 96 96 96 96 96 96 96 96 96 96 96 96 96 96 96 96 96 96 96 96 128 128 128 128 128 0 0 0 0 0 0 0 0 0 0 0 0 0 0 0 0 0 0 0 0 0 0 0 0 0 0 0 0 0 0 0 0 0 0 0 0 0 0 0 0 0 0 0 0 0 0 0 0 0 0 0 0 0 0 0 0 0 0 0 0 0 0 0 0 0 0 0
0 0 0 0 0 0 0 0 0 0 0 0 0 0 0 0 0 0 0 0 0 0 0 0 0 0 0 0 0 0 0 0 0 0 0 0 0 0 0 0 0 0 0 0 0 0 0 0 0 0 0 0 0 0 0 0 0 0 0 0 0 0 0 0 0 0 0 0 0 0 0 0 0 128 128 128 128 128 128 128 128 96 96 96 96 96 96 96 96 96 96 96 96 96 96 96 96 96 96 96 96 96 96 96 96 128 128 128 128 128 0 0 0 0 0 0 0 0 0 0 0 0 0 0 0 0 0 0 0 0 0 0 0 0 0 0 0 0 0 0 0 0 0 0 0 0 0 0 0 0 0 0 0 0 0 0 0 0 0 0 0 0 0 0 0 0 0 0 0 0 0 0 0 0 0 0 0 0 0 0 0
0 0 0 0 0 0 0 0 0 0 0 0 0 0 0 0 0 0 0 0 0 0 0 0 0 0 0 0 0 0 0 0 0 0 0 0 0 0 0 0 0 0 0 0 0 0 0 0 0 0 0 0 0 0 0 0 0 0 0 0 0 0 0 0 0 0 0 0 0 0 0 0 0 0 0 0 0 0 128 128 128 128 128 128 128 128 128 96 96 96 96 96 96 96 96 96 96 96 128 128 128 128 128 128 128 128 128 0 0 0 0 0 0 0 0 0 0 0 0 0 0 0 0 0 0 0 0 0 0 0 0 0 0 0 0 0 0 0 0 0 0 0 0 0 0 0 0 0 0 0 0 0 0 0 0 0 0 0 0 0 0 0 0 0 0 0 0 0 0 0 0 0 0 0 0 0 0 0 0 0 0
0 0 0 0 0 0 0 0 0 0 0 0 0 0 0 0 0 0 0 0 0 0 0 0 0 0 0 0 0 0 0 0 0 0 0 0 0 0 0 0 0 0 0 0 0 0 0 0 0 0 0 0 0 0 0 0 0 0 0 0 0 0 0 0 0 0 0 0 0 0 0 0 0 0 0 0 0 0 0 0 0 0 0 0 128 128 128 128 128 128 128 128 128 128 128 128 128 128 128 128 128 0 0 0 0 0 0 0 0 0 0 0 0 0 0 0 0 0 0 0 0 0 0 0 0 0 0 0 0 0 0 0 0 0 0 0 0 0 0 0 0 0 0 0 0 0 0 0 0 0 0 0 0 0 0 0 0 0 0 0 0 0 0 0 0 0 0 0 0 0 0 0 0 0 0 0 0 0 0 0 0
0 0 0 0 0 0 0 0 0 0 0 0 0 0 0 0 0 0 0 0 0 0 0 0 0 0 0 0 0 0 0 0 0 0 0 0 0 0 0 0 0 0 0 0 0 0 0 0 0 0 0 0 0 0 0 0 0 0 0 0 0 0 0 0 0 0 0 0 0 0 0 0 0 0 0 0 0 0 0 0 0 0 0 0 0 0 0 0 0 0 0 0 0 0 0 0 0 0 0 0 0 0 0 0 0 0 0 0 0 0 0 0 0 0 0 0 0 0 0 0 0 0 0 0 0 0 0 0 0 0 0 0 0 0 0 0 0 0 0 0 0 0 0 0 0 0 0 0 0 0 0 0 0 0 0 0 0 0 0 0 0 0 0 0 0 0 0 0 0 0 0 0 0 0 0 0 0 0 0 0 0
0 0 0 0 0 0 0 0 0 0 0 0 0 0 0 0 0 0 0 0 0 0 0 0 0 0 0 0 0 0 0 0 0 0 0 0 0 0 0 0 0 0 0 0 0 0 0 0 0 0 0 0 0 0 0 0 0 0 0 0 0 0 0 0 0 0 0 0 0 0 0 0 0 0 0 0 0 0 0 0 0 0 0 0 0 0 0 0 0 0 0 0 0 0 0 0 0 0 0 0 0 0 0 0 0 0 0 0 0 0 0 0 0 0 0 0 0 0 0 0 0 0 0 0 0 0 0 0 0 0 0 0 0 0 0 0 0 0 0 0 0 0 0 0 0 0 0 0 0 0 0 0 0 0 0 0 0 0 0 0 0 0 0 0 0 0 0 0 0 0 0 0 0 0 0 0 0 0 0 0 0
0 0 0 0 0 0 0 0 0 0 0 0 0 0 0 0 0 0 0 0 0 0 0 0 0 0 0 0 0 0 0 0 0 0 0 0 0 0 0 0 0 0 0 0 0 0 0 0 0 0 0 0 0 0 0 0 0 0 0 0 0 0 0 0 0 0 0 0 0 0 0 0 0 0 0 0 0 0 0 0 0 0 0 0 0 0 0 0 0 0 0 0 0 0 0 0 0 0 0 0 0 0 0 0 0 0 0 0 0 0 0 0 0 0 0 0 0 0 0 0 0 0 0 0 0 0 0 0 0 0 0 0 0 0 0 0 0 0 0 0 0 0 0 0 0 0 0 0 0 0 0 0 0 0 0 0 0 0 0 0 0 0 0 0 0 0 0 0 0 0 0 0 0 0 0 0 0 0 0 0 0
0 0 0 0 0 0 0 0 0 0 0 0 0 0 0 0 0 0 0 0 0 0 0 0 0 0 0 0 0 0 0 0 0 0 0 0 0 0 0 0 0 0 0 0 0 0 0 0 0 0 0 0 0 0 0 0 0 0 0 0 0 0 0 0 0 0 0 0 0 0 0 0 0 0 0 0 0 0 0 0 0 0 0 0 0 0 0 0 0 0 0 0 0 0 0 0 0 0 0 0 0 0 0 0 0 0 0 0 0 0 0 0 0 0 0 0 0 0 0 0 0 0 0 0 0 0 0 0 0 0 0 0 0 0 0 0 0 0 0 0 0 0 0 0 0 0 0 0 0 0 0 0 0 0 0 0 0 0 0 0 0 0 0 0 0 0 0 0 0 0 0 0 0 0 0 0 0 0 0 0 0
