P2
# Created by IrfanView
128 128
255
138 138 156 156 139 107 93 80 94 95 105 136 155 167 165 167 165 
167 167 163 159 152 137 123 123 116 137 121 121 138 120 140 140 
138 140 139 152 152 141 121 104 98 93 93 84 64 39 23 28 
38 48 49 47 46 47 48 38 31 25 29 55 77 113 126 91 
66 65 92 125 118 98 80 84 96 75 79 67 123 156 122 70 
45 76 94 96 84 89 126 138 140 105 108 138 149 159 153 123 
139 155 150 124 83 53 55 79 163 215 235 254 254 250 255 255 
255 255 255 254 254 253 253 254 254 254 254 254 254 254 254 141 144 150 152 121 103 94 95 91 96 108 136 153 164 162 164 165 
166 166 164 163 156 139 122 119 129 142 123 125 140 136 140 136 
143 153 150 153 144 135 121 95 94 94 94 82 60 38 25 27 
37 47 50 49 48 49 49 40 29 27 32 28 53 82 76 72 
63 68 101 142 124 94 85 91 79 77 59 87 121 150 101 72 
50 70 94 93 92 95 115 158 140 114 117 144 143 146 156 139 
151 162 140 104 72 51 57 126 184 229 250 255 255 255 254 255 
255 255 255 255 254 254 253 254 254 254 254 254 254 254 254 137 142 151 155 123 104 94 96 95 104 118 143 155 167 165 167 165 
165 164 165 166 158 139 122 118 127 133 131 142 136 143 139 136 
142 152 148 149 135 122 105 93 93 95 94 81 59 38 28 29 
38 47 49 48 47 48 49 44 39 28 29 31 41 55 59 54 
50 56 94 139 108 74 83 97 94 82 72 80 129 137 109 62 
51 72 95 84 90 110 142 150 139 128 118 142 155 153 155 156 
165 168 125 79 56 47 71 164 196 232 254 253 251 255 250 254 
254 255 255 255 255 254 254 255 255 255 255 255 255 255 255 136 136 155 156 138 106 96 88 93 105 120 142 152 164 164 166 165 
164 164 165 164 154 136 120 120 119 121 126 147 135 143 137 139 
140 143 136 134 120 107 93 95 94 95 93 82 61 41 31 33 
39 47 49 48 47 50 53 61 49 32 31 40 23 21 27 38 
46 64 109 164 143 94 73 80 83 66 69 89 136 131 93 60 
52 79 96 97 94 101 137 140 123 119 135 150 155 153 165 163 
173 167 116 71 46 51 107 185 211 239 255 254 253 255 255 253 
254 254 255 255 255 255 255 255 255 255 255 255 255 255 255 140 138 154 153 135 104 97 92 94 106 119 141 152 165 165 166 166 
165 165 164 159 145 130 119 121 122 126 116 135 138 145 138 140 
139 137 122 113 99 98 95 98 102 107 103 86 61 41 34 31 
39 48 51 49 48 51 56 50 50 47 49 40 51 63 58 74 
121 170 192 217 219 204 184 169 161 98 85 84 126 123 84 56 
58 89 77 92 95 106 156 137 127 119 148 150 154 155 164 165 
173 156 109 73 44 63 150 197 231 249 255 255 253 255 255 253 
254 254 255 255 255 255 255 255 255 255 255 255 255 255 255 139 142 151 158 126 103 93 97 96 104 117 142 155 167 165 166 166 
165 166 164 154 139 125 119 122 121 133 127 138 138 137 142 141 
132 123 107 101 93 99 101 115 125 134 125 95 59 37 31 30 
39 48 52 48 45 48 54 77 72 80 155 191 213 212 227 223 
233 251 252 255 255 255 249 252 255 205 198 167 163 126 70 37 
65 109 88 101 95 103 139 139 139 134 153 148 160 166 163 171 
167 136 94 65 44 83 173 205 244 254 251 255 252 251 254 253 
254 254 255 255 255 255 255 255 255 255 255 255 255 255 255 137 140 151 160 129 106 92 94 92 96 107 136 153 163 158 156 166 
165 166 164 154 137 124 119 122 118 127 136 145 137 133 142 141 
127 117 105 107 107 117 122 140 148 153 139 104 63 37 28 31 
39 48 50 46 46 56 67 93 166 206 230 249 255 250 252 255 
251 255 255 255 244 253 255 255 253 254 251 255 224 196 137 83 
86 93 77 85 81 104 122 140 120 135 156 157 156 165 176 174 
153 108 71 48 53 117 187 223 253 255 253 255 255 255 255 254 
254 254 255 255 255 254 254 254 254 254 254 254 254 254 254 142 137 152 154 139 107 98 91 93 94 105 137 157 165 156 153 166 
164 165 165 155 138 124 119 121 122 116 123 136 142 142 138 137 
132 129 119 119 120 140 154 153 154 152 138 108 70 41 28 32 
39 46 49 49 55 74 91 172 210 255 253 255 235 255 255 254 
254 255 249 255 255 255 252 255 251 254 255 249 251 255 255 234 
207 168 140 103 71 104 120 121 104 140 141 151 159 168 170 172 
138 86 54 36 69 154 202 237 254 255 252 253 253 255 252 254 
254 255 255 255 254 254 254 254 254 254 254 254 254 254 254 139 142 154 150 123 106 89 97 94 95 119 141 157 163 157 164 166 
163 167 162 157 134 125 119 118 125 124 135 138 140 134 143 139 
139 138 140 139 142 153 155 150 155 152 157 123 70 49 30 34 
36 53 51 52 49 84 194 254 255 255 252 255 253 253 255 254 
250 231 255 253 255 255 251 255 254 252 255 254 251 254 255 253 
253 255 251 211 157 124 119 106 114 120 128 134 160 168 169 166 
117 77 45 41 78 177 217 239 252 253 255 254 253 255 249 255 
252 253 255 254 255 255 253 253 255 254 255 255 254 255 254 140 138 154 156 121 104 92 95 93 97 120 142 159 167 163 168 166 
165 165 165 153 136 121 117 123 119 115 121 140 145 140 137 139 
138 139 145 148 152 157 153 157 157 160 162 126 90 51 29 41 
29 50 62 53 80 192 255 252 252 254 251 255 251 252 253 251 
245 222 230 227 235 249 255 252 254 254 255 255 255 255 253 255 
250 253 238 255 232 194 138 122 126 127 115 137 160 153 169 164 
106 67 42 51 106 182 227 252 255 251 255 254 252 255 255 255 
253 254 254 252 253 254 252 253 255 254 254 253 252 255 255 140 136 155 159 119 103 96 93 95 101 122 141 157 166 164 165 163 
166 163 167 153 143 126 121 125 122 122 120 136 135 139 138 141 
137 140 147 153 158 158 152 154 152 160 154 118 97 44 25 26 
45 60 61 144 207 243 225 255 255 255 250 255 255 253 238 235 
231 216 213 216 224 235 253 253 244 233 233 246 255 255 249 250 
255 255 252 255 253 234 209 141 115 115 145 159 163 153 164 142 
97 64 36 64 149 200 235 255 255 250 255 253 252 253 254 253 
254 255 255 255 255 255 255 255 254 253 253 253 253 253 253 139 143 153 152 119 105 97 93 95 105 122 139 154 164 164 162 164 
166 165 165 155 147 133 126 117 117 123 123 125 120 128 136 142 
138 142 146 149 155 154 152 155 160 164 151 124 94 43 32 51 
53 73 116 213 226 219 218 252 251 255 249 252 255 254 233 239 
232 219 207 217 226 234 253 241 241 238 226 225 239 249 255 255 
255 252 255 254 254 252 255 194 169 124 152 150 164 171 150 114 
83 56 35 84 170 213 238 252 254 255 255 255 252 255 254 253 
254 254 254 255 255 254 254 255 252 253 253 255 255 253 252 138 154 151 141 119 107 95 94 94 105 120 138 155 165 169 166 166 
166 167 159 156 145 135 123 125 120 122 138 138 137 136 143 140 
139 149 149 147 152 152 156 156 168 163 152 142 89 49 38 70 
154 174 207 255 238 249 255 234 240 255 255 250 242 252 253 233 
234 226 213 218 222 224 238 230 237 242 226 216 222 225 233 236 
229 237 232 255 252 255 248 253 228 158 156 156 151 160 153 109 
73 44 50 122 180 227 252 255 250 255 250 253 240 249 255 254 
255 252 250 254 254 251 253 255 252 255 254 252 254 252 255 137 160 151 138 120 106 94 94 93 106 119 140 156 163 167 163 162 
162 165 153 155 144 136 121 121 117 120 141 138 139 135 139 137 
139 156 155 150 154 153 160 151 163 154 153 152 94 74 62 106 
182 230 255 255 248 255 249 255 228 221 237 255 249 238 228 223 
237 234 226 217 213 212 219 230 230 233 220 215 220 211 211 219 
224 237 238 250 250 255 255 253 253 227 170 155 161 160 120 94 
63 35 63 151 195 241 253 255 235 237 232 232 213 226 251 251 
255 253 252 255 255 252 255 254 251 255 245 234 233 235 252 138 157 152 145 120 101 93 94 94 107 120 144 159 161 164 158 158 
163 163 156 154 150 138 123 121 123 135 145 139 138 140 140 138 
139 158 156 152 157 153 160 153 157 156 164 155 124 139 137 193 
234 253 247 252 255 249 255 248 233 225 223 231 221 220 223 237 
251 238 232 214 215 222 224 225 228 238 222 211 214 211 220 216 
217 219 232 229 231 234 247 255 251 253 219 172 154 137 95 63 
49 38 83 165 203 230 229 232 216 214 213 205 199 203 228 236 
250 254 255 255 247 235 237 239 231 235 221 209 208 206 222 139 151 153 154 120 96 93 93 92 106 121 149 165 165 168 162 162 
169 166 163 155 155 137 122 118 122 138 137 138 137 144 136 140 
138 155 153 150 157 152 158 155 153 161 172 149 150 198 212 255 
255 252 255 252 253 255 233 241 246 237 216 222 227 234 235 235 
250 236 241 221 222 224 215 219 217 227 215 208 212 203 209 211 
212 223 214 218 208 222 228 233 255 251 255 205 167 120 83 56 
47 54 121 187 205 208 213 207 208 205 206 191 204 196 209 219 
241 252 253 249 227 205 203 217 203 206 197 194 195 186 195 140 138 147 147 117 106 95 92 93 104 119 141 151 166 167 165 163 
169 165 158 159 155 137 121 139 121 125 134 141 139 132 143 155 
158 158 154 152 153 154 153 155 167 163 162 174 212 236 253 255 
251 247 255 251 254 254 234 234 255 234 233 252 252 255 252 255 
252 224 231 224 225 232 213 215 217 226 217 210 211 207 210 207 
210 215 212 213 211 224 212 220 244 233 254 221 174 107 69 59 
42 88 159 207 219 225 216 213 213 214 211 203 196 199 207 224 
252 252 255 226 203 203 192 197 198 192 188 182 170 187 183 139 139 160 149 123 98 97 97 96 104 123 152 161 167 164 163 165 
165 164 167 165 148 129 120 120 121 135 138 139 142 142 152 133 
139 147 153 157 159 163 166 151 148 163 174 212 231 226 228 224 
238 241 253 235 233 254 255 250 255 246 255 255 240 245 237 246 
237 227 218 221 217 213 225 216 214 200 213 215 212 212 203 200 
198 210 211 219 217 218 217 225 217 255 255 253 227 105 64 55 
65 148 197 233 255 252 255 231 240 248 242 224 213 223 239 245 
255 250 252 221 217 204 197 193 193 185 183 174 174 184 187 136 134 152 143 122 98 92 91 96 101 121 157 166 167 162 165 155 
164 167 165 164 154 135 122 120 126 138 141 139 138 136 142 142 
146 152 156 154 152 152 155 171 149 173 220 220 217 226 208 212 
221 216 228 221 222 239 247 255 254 240 234 221 224 242 223 233 
226 253 230 220 223 217 222 214 180 179 206 199 205 207 183 174 
186 208 206 215 217 212 220 213 232 250 233 233 233 191 64 50 
84 165 222 248 250 252 254 255 253 251 253 253 251 250 251 255 
255 255 233 216 206 203 199 194 191 185 182 172 183 184 194 142 144 153 152 123 107 92 94 99 102 120 154 163 165 163 168 154 
164 166 163 163 158 141 125 123 118 124 136 143 140 135 137 149 
152 153 153 152 153 155 156 162 170 180 203 217 209 212 218 214 
209 203 220 239 255 252 255 253 227 214 226 223 220 226 212 214 
215 240 236 230 226 212 204 191 181 163 153 183 194 172 164 167 
178 184 187 203 207 208 222 220 220 230 238 252 254 241 105 46 
93 173 236 255 253 255 255 255 253 253 255 255 255 255 255 255 
250 251 217 205 194 198 193 198 193 193 183 179 190 185 197 138 151 162 155 120 103 91 100 102 107 123 150 158 165 164 166 166 
164 163 168 168 151 131 123 123 121 124 135 141 141 142 143 146 
150 151 149 152 161 167 166 169 182 183 167 211 220 207 207 215 
212 220 225 237 252 235 250 233 223 223 230 221 211 218 227 236 
236 204 211 212 177 168 194 167 174 137 117 163 165 143 106 120 
158 174 195 197 174 178 197 233 225 221 219 240 254 250 202 62 
104 196 230 250 255 248 252 252 254 255 255 252 249 251 255 254 
254 228 215 191 200 198 191 199 194 202 185 188 193 185 195 123 137 156 138 119 96 91 93 96 105 121 147 156 166 166 165 166 
167 165 167 166 152 130 117 120 136 140 138 135 140 151 152 152 
156 155 151 152 159 164 164 187 178 140 172 194 204 204 190 196 
204 223 220 218 229 217 240 235 228 218 200 189 194 206 221 220 
192 142 168 178 154 152 160 175 115 102 72 96 116 83 69 120 
172 177 182 172 164 189 209 204 233 234 225 213 235 255 237 139 
151 206 233 250 255 253 253 255 253 250 252 255 255 254 250 254 
255 233 214 192 198 206 201 200 200 209 190 196 195 187 195 120 138 156 137 123 105 95 92 95 103 119 146 155 166 166 166 161 
168 167 163 163 157 139 123 119 138 142 139 136 142 156 156 154 
154 155 155 154 156 164 173 182 156 118 188 211 209 211 221 217 
225 226 221 212 216 209 216 206 173 170 184 196 200 195 203 171 
107 91 135 158 167 163 135 170 160 60 37 58 48 75 95 136 
165 152 150 153 170 197 212 223 220 237 241 215 235 255 249 197 
185 205 240 255 248 255 255 252 253 254 254 254 255 255 255 254 
252 255 211 198 191 206 204 203 210 212 198 199 197 188 197 122 152 166 151 120 108 92 95 104 108 122 148 156 163 163 165 166 
164 163 166 166 153 140 137 138 142 136 140 140 137 142 137 156 
152 153 157 154 152 165 184 165 76 136 173 199 212 214 208 216 
223 208 210 206 210 212 204 194 186 207 205 183 172 156 148 155 
81 82 88 80 79 96 121 120 156 72 16 8 26 51 85 107 
107 93 94 88 102 149 209 227 235 236 247 226 226 250 255 219 
201 240 252 254 255 252 252 255 255 255 254 253 253 253 254 255 
250 255 214 196 199 195 195 205 217 211 202 195 197 186 196 118 142 165 152 119 95 88 97 95 103 123 152 156 165 165 166 162 
158 164 168 162 140 119 122 142 137 135 140 142 136 140 155 154 
155 151 153 154 154 168 183 119 82 166 187 169 184 187 208 211 
213 199 211 211 207 207 216 207 170 156 116 81 80 145 173 101 
79 59 49 40 69 74 49 71 74 54 13 4 5 7 49 56 
54 75 68 76 72 72 106 195 227 255 253 252 222 236 232 215 
218 240 252 254 255 251 255 255 251 255 255 253 255 253 251 252 
254 255 213 206 204 208 204 206 217 216 209 204 193 187 193 128 140 154 142 119 101 91 94 100 106 121 148 156 164 164 166 165 
163 166 163 156 139 121 122 140 141 139 138 138 137 140 149 153 
156 155 156 157 162 171 174 169 162 196 178 176 184 174 176 209 
215 212 215 227 224 225 173 137 85 71 51 101 172 160 137 107 
67 43 64 54 100 101 70 47 36 36 33 0 0 5 1 6 
23 50 61 68 56 64 81 108 194 237 247 254 255 233 224 220 
227 249 255 253 255 252 255 255 254 255 254 251 254 255 255 254 
255 250 215 207 201 205 204 202 215 216 209 205 192 183 189 131 140 150 139 120 105 94 93 105 108 119 143 155 164 163 167 163 
164 167 161 153 139 121 119 134 143 144 139 139 141 142 143 152 
155 156 154 156 167 172 166 169 153 174 154 152 145 148 171 215 
232 224 227 224 179 107 70 69 56 67 105 126 129 113 99 47 
36 34 22 26 74 106 85 65 58 16 13 5 6 3 4 0 
18 34 55 61 49 63 57 81 135 232 255 250 246 241 212 217 
233 255 255 253 253 252 255 254 253 255 255 252 252 254 252 255 
254 233 213 209 204 205 206 202 216 214 206 205 192 182 192 125 140 156 144 122 105 94 96 105 107 117 139 156 163 165 167 158 
161 166 163 155 140 121 119 122 135 140 136 137 139 137 136 154 
153 156 151 153 167 171 166 150 78 105 108 104 132 176 185 209 
203 192 170 124 155 105 96 68 80 75 99 84 61 64 30 19 
19 20 11 53 78 97 90 78 77 34 13 6 0 0 4 3 
11 19 45 59 64 80 65 67 95 207 254 255 222 226 210 210 
234 255 255 253 254 253 254 253 252 253 255 255 252 255 251 253 
249 217 210 210 211 208 204 207 219 213 204 204 192 185 198 119 139 159 147 122 104 94 96 104 105 120 140 156 161 165 166 162 
160 165 164 156 138 122 126 125 136 140 138 139 139 140 142 156 
152 156 153 157 168 169 173 167 159 150 137 156 154 152 141 120 
100 92 76 88 125 105 120 107 91 81 59 48 38 21 10 20 
15 25 66 94 77 53 61 58 64 39 9 20 10 2 13 7 
5 16 36 43 57 68 60 59 93 172 229 233 226 218 212 214 
240 254 253 253 254 255 254 255 254 250 255 255 253 255 255 235 
236 210 210 209 214 210 204 210 219 215 208 207 194 186 195 121 138 154 143 120 105 94 94 104 105 127 146 155 157 165 163 170 
164 165 161 152 136 124 132 133 140 143 141 140 140 143 149 152 
150 156 154 163 170 166 177 160 170 153 164 159 121 115 81 63 
76 50 92 109 141 95 78 60 40 35 26 55 58 17 9 12 
23 49 55 46 41 65 84 59 60 44 15 26 12 15 31 13 
5 20 35 36 56 70 82 59 96 163 203 211 217 202 209 227 
250 254 251 254 254 255 255 255 255 253 255 249 240 250 248 216 
216 205 209 207 215 215 210 207 213 215 215 211 196 185 186 123 138 152 139 119 106 95 93 105 105 135 153 153 153 167 162 166 
165 167 161 152 138 124 127 126 136 139 136 135 136 138 142 148 
150 155 152 167 175 165 180 168 151 106 107 104 81 76 65 36 
39 28 63 110 61 49 66 39 11 14 69 65 17 6 24 4 
32 56 21 7 12 44 43 35 22 42 55 32 19 51 44 49 
25 20 34 37 52 58 70 79 95 166 173 222 203 172 208 233 
255 255 252 255 253 254 255 251 255 254 251 231 216 234 241 226 
206 200 204 204 215 215 213 208 207 210 213 207 197 190 186 123 139 154 141 119 106 95 94 105 104 140 157 153 151 169 164 154 
161 169 164 155 141 121 117 120 135 142 139 139 140 139 138 150 
155 156 149 169 181 169 185 155 154 140 104 79 89 58 38 31 
45 84 140 74 46 34 34 26 12 38 98 47 13 25 14 12 
26 16 7 5 19 34 59 58 39 26 63 67 38 36 15 97 
60 38 63 82 93 87 84 169 104 173 164 199 200 184 205 229 
253 253 253 255 252 253 253 251 255 249 237 209 197 230 251 255 
211 198 199 201 212 210 205 213 204 204 207 201 197 197 194 121 140 153 139 122 95 94 94 100 109 122 153 165 164 169 163 166 
163 166 157 154 149 126 120 141 137 143 141 137 140 139 140 150 
156 155 150 166 173 169 196 188 151 156 106 96 91 41 44 56 
57 79 105 59 59 51 42 24 23 75 40 42 34 64 3 14 
15 10 9 13 56 55 40 28 44 57 108 92 62 66 49 154 
165 81 77 89 141 97 79 171 173 136 141 172 181 184 212 220 
250 255 253 255 255 255 253 255 249 228 203 198 196 221 237 255 
215 195 204 208 204 206 210 205 206 205 201 211 196 194 204 121 139 154 139 118 94 94 93 111 114 136 154 165 164 164 164 167 
162 167 161 153 141 121 124 138 134 140 140 139 142 139 138 143 
153 154 156 165 175 183 185 151 140 159 88 105 65 28 55 30 
56 99 58 61 44 61 50 34 54 61 18 56 26 78 17 14 
10 0 10 27 50 41 35 56 76 106 122 157 84 59 90 171 
188 178 133 140 158 168 140 186 214 139 110 153 174 174 216 241 
255 255 251 253 255 255 253 249 243 215 185 183 184 212 236 252 
223 205 204 204 206 209 206 205 208 205 202 206 196 195 208 122 137 154 140 112 92 94 93 106 107 142 154 167 166 164 168 164 
158 167 165 156 139 123 135 136 131 137 138 138 142 139 138 150 
152 150 155 154 168 188 172 151 157 140 83 106 62 30 45 15 
45 110 74 54 55 76 58 58 70 49 50 76 74 75 35 32 
15 3 19 27 27 49 82 70 78 114 146 159 83 48 99 184 
194 196 171 151 169 185 185 186 175 122 97 137 175 167 217 247 
255 255 253 255 255 251 237 223 208 199 183 172 183 223 235 247 
217 197 195 198 203 206 201 202 208 205 204 201 196 195 209 123 136 155 140 106 92 94 94 93 100 139 152 168 162 166 167 161 
155 164 163 156 140 124 137 141 136 141 139 137 141 139 139 159 
153 153 157 153 166 188 182 166 167 102 116 120 96 59 59 9 
51 133 104 85 87 96 76 112 92 49 95 79 126 82 46 71 
21 16 39 44 41 73 83 61 56 78 130 104 56 49 90 180 
206 205 124 154 205 225 182 181 193 117 78 128 160 174 222 239 
250 253 254 255 255 246 219 204 206 194 178 180 184 213 235 255 
219 194 195 198 196 196 195 196 205 204 207 198 196 194 206 123 136 156 139 103 94 94 97 95 109 138 153 167 154 167 162 164 
158 162 157 151 139 120 124 139 137 144 142 138 140 138 139 147 
142 154 158 154 164 183 205 174 171 123 174 167 138 82 92 41 
84 167 154 110 142 153 120 160 143 105 163 140 170 123 63 122 
44 46 61 36 34 84 80 55 50 67 79 75 45 62 96 179 
173 177 100 159 193 234 204 173 211 181 83 106 172 185 208 237 
252 255 251 252 255 245 215 209 196 196 186 171 183 227 237 252 
214 192 195 196 193 195 197 195 204 204 206 195 195 195 204 123 137 155 138 104 98 94 101 105 120 139 156 165 154 169 163 167 
161 164 156 151 141 119 118 122 124 137 140 138 140 139 140 141 
139 154 153 149 156 173 207 173 183 189 202 210 175 104 107 81 
139 174 168 150 181 174 188 184 167 148 182 172 183 140 120 161 
59 67 109 64 50 78 85 60 57 84 62 64 63 71 90 161 
175 162 97 104 173 229 220 165 216 207 149 141 179 211 193 235 
255 255 252 253 252 237 207 194 201 192 178 184 192 227 255 236 
211 196 193 188 188 195 198 198 204 205 204 195 195 197 201 122 139 155 137 106 103 94 105 106 118 139 156 163 162 168 166 166 
162 166 159 153 142 121 122 121 122 134 138 137 141 140 140 154 
153 157 155 150 155 160 161 171 183 211 206 214 203 167 153 121 
140 173 164 173 179 193 193 171 166 168 164 159 164 137 138 154 
96 106 147 73 71 89 144 70 73 94 74 57 80 91 85 151 
174 141 72 62 124 186 199 179 224 216 189 192 203 195 220 233 
253 255 255 255 244 221 196 197 198 197 187 182 191 229 249 251 
220 200 194 184 179 186 193 197 201 207 204 199 195 197 193 121 140 155 137 108 107 94 108 102 110 139 155 161 168 162 164 166 
162 168 162 153 138 118 123 139 135 141 141 138 140 138 138 155 
153 151 156 154 153 139 94 141 137 150 175 155 164 183 173 138 
156 168 174 177 204 198 174 155 172 154 95 96 100 141 105 119 
125 134 161 89 125 108 152 81 96 93 71 64 85 120 105 157 
172 108 67 65 96 131 179 161 222 216 213 197 210 211 220 237 
253 252 254 255 237 212 195 196 204 195 180 184 191 226 255 255 
209 182 185 181 174 183 198 194 197 209 205 204 196 194 184 119 142 155 138 102 96 93 103 105 119 140 152 157 163 166 163 166 
166 164 167 154 138 124 140 141 135 141 137 139 141 153 152 139 
150 161 152 149 169 140 61 73 77 87 82 59 79 145 169 119 
122 166 154 170 174 172 138 103 141 90 60 69 80 104 86 93 
91 144 103 107 107 101 142 83 143 101 64 74 73 136 154 163 
179 101 71 69 89 100 153 166 172 214 209 197 196 188 209 237 
248 255 252 255 217 201 193 194 200 197 185 191 206 226 255 226 
202 184 178 174 173 180 186 189 189 196 207 202 195 195 186 125 145 154 123 107 93 94 107 104 111 134 159 165 163 165 169 166 
166 161 165 154 138 122 134 141 120 125 136 142 138 141 156 156 
142 150 158 151 163 142 60 33 41 47 38 23 35 68 80 84 
91 109 106 132 147 126 92 84 106 53 28 75 62 82 51 64 
49 78 71 81 73 73 91 58 99 136 82 94 85 140 165 153 
173 119 85 73 73 67 107 150 179 194 193 199 181 171 217 255 
255 254 254 249 212 195 196 194 195 192 183 189 207 227 252 221 
192 169 165 170 175 180 181 195 198 203 207 202 197 196 183 118 141 143 112 106 94 91 107 105 117 138 153 159 161 161 156 157 
164 163 169 156 136 120 129 135 122 124 136 140 138 134 153 154 
143 141 156 155 164 164 109 12 15 31 30 12 15 26 30 57 
79 83 92 109 121 89 72 64 83 48 14 66 59 59 36 40 
25 29 51 54 38 53 59 39 48 120 93 69 54 169 152 150 
167 119 82 72 68 62 97 121 176 179 173 166 163 144 198 231 
234 236 255 254 223 200 201 201 197 197 191 194 210 225 237 222 
199 182 178 178 179 183 184 197 204 207 208 204 202 200 184 118 145 145 126 107 104 92 105 106 122 142 153 160 170 172 164 151 
165 165 167 149 128 121 135 124 141 138 138 135 141 139 142 141 
162 151 152 155 156 169 154 37 3 7 16 0 10 12 8 33 
60 61 76 78 84 63 63 52 61 52 16 52 88 43 19 36 
35 18 41 37 17 28 29 24 47 81 83 62 37 155 135 154 
175 109 82 76 69 60 93 121 170 162 150 121 167 152 183 212 
210 210 233 237 215 198 198 202 193 194 189 187 203 217 221 208 
194 184 182 182 187 194 198 196 204 206 209 207 203 197 182 121 145 153 136 105 100 92 96 110 118 138 157 163 164 165 166 155 
167 159 156 137 121 122 138 118 144 135 141 139 139 143 137 130 
159 151 154 155 149 165 165 46 15 6 11 4 17 15 20 17 
40 47 70 70 75 64 50 44 48 49 21 28 83 40 22 53 
53 10 12 17 15 11 11 14 35 78 82 69 50 104 98 124 
163 94 96 90 72 46 71 99 154 141 123 73 113 168 217 213 
207 204 213 220 204 197 191 198 185 186 178 174 195 213 217 202 
186 174 174 180 190 196 196 194 202 203 207 205 195 186 175 117 136 155 127 102 90 94 94 104 118 139 154 156 157 156 151 155 
166 153 153 138 121 119 126 119 126 119 139 144 134 140 139 141 
139 136 154 155 153 170 164 70 52 20 11 8 15 6 20 27 
39 37 59 55 60 64 47 31 36 40 34 28 53 38 25 32 
44 12 9 20 24 3 2 9 21 77 75 61 46 69 62 89 
126 70 96 88 72 40 60 79 119 79 81 70 70 168 220 217 
212 205 203 201 188 185 177 187 177 179 172 169 187 203 204 191 
181 176 177 180 185 186 182 184 193 194 197 197 187 179 173 111 136 152 122 103 92 97 106 97 119 143 152 155 163 164 154 152 
165 153 155 142 123 117 117 122 115 121 128 135 136 139 140 155 
140 134 147 151 156 163 151 77 80 77 81 41 30 50 85 96 
83 56 82 65 50 55 60 36 27 24 42 58 71 53 40 58 
66 38 26 19 16 2 7 6 37 62 56 57 40 47 52 82 
85 48 81 75 73 40 51 59 104 78 86 79 71 172 228 255 
251 235 226 205 193 191 190 182 174 173 166 164 182 192 193 175 
172 173 177 181 186 187 182 174 187 185 183 185 180 177 174 103 139 142 118 97 94 88 108 106 119 140 154 154 153 155 155 153 
168 154 154 138 120 120 124 123 120 139 118 120 141 141 137 137 
143 137 137 152 159 151 143 83 65 113 206 203 201 211 201 196 
171 140 194 170 112 82 91 71 49 30 38 59 103 97 122 154 
165 154 152 122 81 42 22 10 21 56 61 35 44 42 34 73 
45 32 72 74 85 48 46 57 105 103 105 81 110 190 239 252 
255 251 255 220 205 191 191 197 185 176 164 166 188 203 208 197 
182 172 174 184 195 195 185 171 187 182 173 174 174 174 170 105 140 154 122 101 87 95 102 93 104 142 155 152 156 154 163 155 
166 165 152 139 141 121 122 123 136 143 135 124 124 133 142 140 
132 140 159 150 156 154 137 80 72 99 168 196 204 206 212 214 
208 207 208 203 200 194 196 195 179 101 70 75 103 155 139 117 
107 107 91 125 134 125 78 31 22 37 58 51 36 36 39 64 
46 32 66 58 71 59 46 61 100 110 103 92 118 214 253 251 
253 255 249 255 208 200 204 196 197 174 172 176 197 216 223 205 
185 182 187 193 194 186 184 185 185 182 184 174 172 173 183 115 144 153 120 95 77 83 94 106 118 137 151 155 153 154 156 153 
162 165 156 141 139 121 120 122 123 121 120 125 134 141 142 143 
141 150 153 141 138 149 144 82 81 92 99 121 120 122 149 196 
205 199 206 213 205 204 205 199 209 201 185 119 72 71 75 66 
85 92 105 73 68 64 74 63 55 57 58 46 26 24 44 47 
33 25 44 49 84 82 56 63 71 112 72 83 87 210 255 255 
253 255 251 251 223 202 203 201 196 175 168 173 197 220 222 206 
184 178 182 187 189 183 182 182 184 183 187 179 178 175 181 122 139 141 119 106 93 94 99 109 123 124 142 155 152 156 153 152 
156 162 157 139 132 121 120 133 126 117 117 128 139 140 134 136 
137 143 140 140 137 154 152 112 72 105 160 198 172 139 96 84 
138 185 182 205 206 195 209 203 191 197 112 76 60 54 81 122 
139 153 150 113 63 42 26 29 43 66 73 65 36 12 28 41 
20 30 30 52 94 96 60 72 58 93 103 68 140 222 251 255 
251 254 255 253 250 222 216 201 187 174 168 176 201 228 224 206 
182 173 176 179 180 175 176 176 181 182 188 182 182 176 175 123 139 138 118 106 96 91 90 104 121 119 135 155 154 154 155 154 
152 157 155 136 124 121 121 125 123 121 124 132 141 143 141 135 
142 139 137 141 136 145 140 117 95 103 149 167 144 141 118 78 
65 83 155 184 193 206 194 194 177 173 99 74 81 137 175 170 
174 160 153 119 87 67 47 32 32 45 55 69 66 39 33 37 
20 16 40 21 98 65 57 74 66 92 76 81 180 241 255 255 
253 252 255 252 255 236 217 201 178 173 173 183 204 230 223 207 
181 172 175 177 176 171 174 175 180 181 186 182 183 174 170 121 149 153 127 103 95 94 98 105 123 128 137 156 156 149 157 156 
152 156 154 137 120 120 121 116 119 122 124 127 132 136 138 126 
143 136 141 137 135 139 137 140 108 94 98 47 33 56 65 56 
67 84 102 163 214 205 201 194 169 108 88 112 127 87 69 66 
62 59 76 71 58 44 31 33 37 57 67 76 84 62 37 41 
29 39 36 15 75 48 58 58 79 81 67 78 211 249 253 253 
255 251 255 255 253 255 225 208 175 173 176 183 199 224 220 208 
182 175 180 183 181 176 180 183 187 185 188 183 184 176 173 108 140 142 117 93 92 93 99 105 123 132 139 155 156 148 156 155 
153 155 154 142 120 121 120 123 123 122 121 120 120 121 122 117 
135 124 137 139 145 150 143 154 101 82 59 8 38 61 37 45 
64 47 98 155 205 212 220 198 152 95 124 95 28 13 27 25 
13 8 6 11 17 25 26 45 57 73 76 77 91 92 70 45 
71 66 59 22 74 44 60 57 81 64 51 148 237 255 246 252 
255 252 254 255 247 255 233 212 177 172 174 177 196 219 223 207 
181 175 183 187 185 182 188 194 196 193 194 186 185 179 179 116 141 140 121 99 97 93 98 101 123 125 139 155 153 154 154 154 
155 153 149 143 120 121 121 122 120 119 120 120 121 121 122 124 
136 126 135 141 143 153 137 140 123 72 44 101 159 168 94 124 
183 175 80 158 208 226 205 206 125 103 147 63 51 185 167 64 
69 67 49 0 6 18 59 85 95 88 91 98 105 106 82 55 
98 73 55 50 65 58 53 65 91 34 68 223 255 248 255 255 
255 254 250 253 238 248 230 214 185 175 172 170 198 218 225 209 
181 174 182 186 185 184 193 198 199 196 197 186 181 176 180 107 135 139 126 102 96 93 105 103 126 118 139 156 150 161 151 154 
156 149 142 141 118 121 123 120 121 123 123 122 121 120 121 120 
138 137 138 140 134 154 141 138 140 106 107 150 137 208 167 161 
215 204 197 194 222 212 223 197 114 191 211 115 170 224 221 136 
127 158 119 68 14 37 95 118 140 122 107 94 78 85 80 71 
119 48 53 58 72 73 64 71 72 40 168 236 254 252 255 252 
252 254 253 255 252 255 252 217 195 183 174 168 200 215 222 214 
184 175 182 186 184 185 196 195 196 194 196 182 175 170 176 107 134 140 123 102 93 97 94 97 101 140 153 155 154 156 151 153 
154 150 137 139 120 108 104 122 118 120 123 121 120 122 123 140 
139 139 140 139 138 139 141 140 157 121 160 199 122 106 124 103 
120 156 207 218 221 219 210 184 138 205 211 211 182 122 153 150 
123 108 79 58 74 95 105 102 121 121 105 109 92 78 75 69 
110 97 87 80 90 73 76 91 66 150 232 251 251 255 254 254 
254 254 254 254 254 254 254 223 206 192 175 173 196 213 216 210 
188 182 182 190 183 186 183 196 198 196 195 186 174 174 175 118 142 133 112 103 95 92 92 92 106 137 143 151 153 154 155 154 
156 154 142 140 122 118 120 123 120 121 122 121 121 122 121 124 
122 118 120 135 150 146 134 137 137 155 197 218 195 162 151 140 
179 207 217 206 215 219 207 186 169 197 212 200 210 151 123 124 
121 123 105 99 132 163 175 161 141 125 104 134 105 76 58 65 
97 138 101 56 71 93 77 110 169 230 255 251 255 251 253 254 
254 254 254 254 254 254 254 238 215 199 181 174 189 205 214 204 
184 181 184 190 181 184 183 196 196 192 196 194 184 178 169 122 142 122 101 104 98 91 95 102 106 125 140 153 142 138 152 152 
151 149 142 137 122 119 123 123 122 122 120 120 122 122 120 111 
128 135 126 123 135 144 142 145 134 173 213 210 218 207 214 208 
220 215 214 211 219 213 197 178 178 199 209 211 209 214 199 159 
143 135 138 165 198 196 177 181 160 136 134 156 136 79 58 109 
107 65 39 46 116 100 83 165 227 249 255 255 255 250 255 254 
254 254 254 254 254 254 254 253 221 201 186 180 189 201 210 202 
187 188 196 198 186 186 188 184 196 202 205 196 185 181 175 119 138 123 104 104 98 93 96 110 104 117 141 153 141 135 145 151 
145 141 139 136 124 119 120 117 122 121 117 119 123 122 119 127 
125 120 117 125 136 134 123 136 139 160 210 218 217 217 223 230 
228 213 215 214 212 203 196 167 177 188 208 208 211 217 225 219 
215 212 207 203 198 189 182 180 176 149 126 108 95 57 64 92 
58 36 43 70 102 185 139 215 253 255 250 251 246 255 253 254 
254 254 254 254 254 254 254 251 216 194 184 184 196 203 206 197 
184 188 200 198 183 179 182 182 193 198 204 204 196 187 172 120 138 135 120 105 94 94 93 102 105 121 139 142 150 155 148 155 
148 142 141 134 127 123 123 110 120 120 113 118 124 122 119 117 
119 122 123 119 117 126 138 119 144 165 210 224 215 222 219 222 
233 221 215 209 212 202 189 169 169 203 200 203 219 217 204 218 
214 210 211 211 207 201 194 175 149 122 93 97 80 59 56 74 
46 35 65 73 102 132 172 242 253 254 255 254 237 255 253 254 
254 254 254 254 254 254 254 230 204 187 176 180 198 205 204 195 
184 186 199 196 182 174 175 177 188 194 201 202 195 186 173 121 140 142 129 105 91 94 95 95 103 121 141 134 143 158 156 158 
154 148 142 124 119 117 119 104 120 119 109 114 122 122 120 124 
118 119 125 124 118 124 136 136 141 172 213 213 208 227 239 237 
234 215 210 209 216 204 183 154 122 192 200 218 220 237 226 216 
218 214 210 205 203 196 175 152 125 103 85 73 57 72 96 61 
26 74 60 63 72 124 219 249 249 232 255 255 249 248 255 254 
254 254 254 254 254 254 254 212 195 184 171 172 194 206 205 198 
185 182 195 192 185 175 173 169 185 195 201 194 183 181 176 120 139 134 117 102 88 89 97 95 104 116 143 137 134 143 152 152 
150 145 139 118 115 111 108 103 123 120 105 110 120 121 122 123 
120 119 121 121 118 118 122 145 134 156 216 219 217 223 231 236 
218 201 212 209 207 199 186 119 87 123 182 212 222 223 224 216 
212 206 209 205 202 189 156 137 110 87 97 83 67 75 79 41 
39 64 61 65 69 184 233 235 255 254 252 249 255 255 254 254 
254 254 254 254 254 254 254 216 197 184 172 174 197 210 209 197 
182 172 184 185 187 178 173 176 182 186 195 195 185 177 168 121 140 123 102 96 82 79 94 91 111 117 138 142 140 137 138 141 
140 138 138 122 124 116 105 104 125 121 103 107 118 121 123 118 
122 123 120 120 124 124 120 119 142 150 213 217 217 220 223 217 
193 183 209 217 215 196 171 103 105 101 126 190 210 228 225 219 
208 205 214 204 194 189 164 139 102 86 94 117 106 132 109 69 
63 45 66 75 163 228 255 223 235 253 254 254 251 255 250 254 
254 254 254 254 254 254 254 230 203 184 174 182 206 216 213 203 
186 171 182 186 195 187 181 174 184 192 199 191 176 174 172 106 139 139 101 95 93 95 94 95 106 121 141 138 137 139 153 153 
142 139 139 121 125 101 104 117 124 124 116 127 120 119 123 119 
124 119 122 123 121 125 117 121 120 158 209 212 211 210 211 198 
151 194 206 204 205 173 125 122 126 89 79 200 199 217 219 212 
212 209 207 206 198 172 153 120 95 105 141 163 164 175 154 95 
120 118 95 155 212 237 253 221 236 253 254 254 255 253 250 252 
255 255 253 254 254 253 255 253 218 197 189 177 206 220 217 208 
183 171 188 186 196 197 184 183 195 196 196 185 182 172 173 106 139 138 110 96 94 90 93 100 107 120 140 139 138 140 153 142 
138 140 140 120 124 105 109 114 114 107 102 122 122 120 120 122 
123 117 120 121 119 125 122 120 123 156 206 201 206 210 204 165 
115 196 183 171 104 73 48 61 69 67 57 185 205 201 202 212 
210 208 202 192 195 173 120 105 89 102 159 163 168 196 204 203 
171 207 136 199 232 252 240 239 251 255 255 251 253 255 255 253 
254 253 253 255 254 253 255 252 252 207 183 188 208 213 210 206 
183 171 184 182 194 196 185 186 197 201 201 193 185 174 174 107 128 118 102 92 99 92 97 105 108 119 140 140 138 140 154 138 
137 140 137 117 120 103 104 120 118 107 103 122 124 121 121 120 
121 118 122 122 118 121 120 122 120 137 188 193 201 192 164 96 
103 184 208 183 83 51 69 80 47 73 122 205 199 182 195 203 
193 209 199 184 177 141 103 95 84 106 164 166 175 205 210 213 
166 214 163 213 234 235 222 221 235 236 238 235 237 252 254 255 
253 252 254 255 254 253 255 255 255 211 193 200 203 210 215 203 
184 176 185 185 196 195 184 191 198 204 201 197 182 174 172 119 136 125 104 93 97 93 95 103 107 118 140 140 139 140 155 155 
153 152 144 125 124 109 105 119 125 119 113 119 116 111 116 120 
123 123 122 121 120 120 119 122 118 122 163 183 176 149 110 70 
126 192 200 203 189 103 101 148 190 199 193 195 188 173 176 202 
193 181 173 173 144 110 91 83 82 124 152 165 189 216 203 214 
202 218 193 219 227 218 202 204 220 218 223 219 214 233 234 255 
253 253 255 254 253 254 255 249 251 221 193 186 208 226 206 199 
184 184 192 197 204 195 182 196 199 203 196 195 178 172 171 108 135 142 111 94 87 92 94 97 105 119 141 140 138 140 153 152 
153 152 140 119 115 107 105 106 122 122 118 116 109 101 108 119 
123 125 119 117 123 123 122 118 124 124 143 166 141 114 94 69 
155 212 205 203 205 195 188 200 196 203 207 193 188 164 121 153 
174 153 155 154 110 106 83 68 82 138 138 143 183 206 198 205 
209 218 185 209 213 223 195 196 209 206 212 206 200 220 225 255 
252 254 255 252 253 255 255 255 223 205 198 194 206 218 211 194 
180 187 196 206 210 196 183 195 198 202 195 195 180 175 172 104 127 135 104 91 86 96 95 92 104 120 140 139 139 139 149 144 
150 154 143 120 112 114 119 104 120 122 123 123 119 110 116 107 
113 123 120 119 123 120 120 120 122 117 121 148 140 124 127 112 
115 194 205 205 213 212 209 207 186 195 189 202 183 152 139 118 
123 140 137 125 96 88 74 76 98 148 157 153 198 208 211 219 
203 222 195 204 213 217 199 200 207 204 207 202 199 218 230 253 
251 255 255 251 254 255 249 248 223 201 183 201 224 224 211 190 
175 185 192 205 206 193 187 186 193 199 197 198 188 179 174 124 132 126 103 92 93 96 92 92 106 121 138 138 141 138 143 134 
139 143 136 118 105 108 111 108 122 118 119 120 122 116 125 105 
106 119 122 122 122 118 124 123 108 92 95 122 157 155 167 137 
80 75 63 85 137 197 184 165 142 158 172 164 140 119 106 106 
101 122 104 103 92 74 60 69 92 128 153 163 198 211 213 205 
202 219 206 210 228 217 219 215 216 218 218 212 208 218 232 253 
251 255 255 251 255 254 237 237 215 189 185 210 214 219 222 189 
172 183 187 199 195 184 186 181 194 199 202 201 199 186 179 118 124 118 108 93 96 93 93 94 108 121 136 137 142 138 138 141 
139 140 137 123 107 105 101 105 117 108 105 103 108 106 119 119 
110 117 120 120 120 122 139 119 93 72 75 92 161 169 184 182 
126 135 104 142 154 172 140 154 138 73 61 37 39 35 20 29 
108 120 104 104 78 90 59 72 95 118 135 157 174 205 203 176 
217 222 182 204 224 215 215 205 207 219 224 221 218 222 236 255 
253 255 255 251 255 250 225 218 213 192 185 196 199 221 213 189 
172 185 185 194 186 175 182 183 199 203 207 204 208 194 187 121 120 122 104 92 82 93 97 94 90 105 122 140 137 144 150 141 
137 140 139 121 103 101 107 103 106 107 107 106 104 108 120 120 
121 125 121 118 122 124 121 108 67 59 55 70 138 177 198 193 
198 195 173 165 197 225 221 223 225 197 148 50 46 26 61 121 
182 168 139 106 92 82 72 84 82 104 137 156 172 203 188 163 
221 215 180 190 204 206 206 194 198 207 213 222 220 226 215 224 
233 254 251 255 235 231 222 209 196 186 184 193 205 205 195 185 
173 172 172 180 174 175 175 184 200 204 202 207 196 197 183 107 116 121 105 97 88 92 92 96 95 107 124 138 137 138 141 137 
138 141 137 121 108 105 106 108 100 106 103 103 105 102 123 123 
124 117 123 121 122 130 125 101 75 56 59 75 105 158 195 199 
209 207 185 155 151 166 191 194 146 123 109 107 91 127 167 196 
206 186 171 118 108 74 70 70 80 123 140 155 173 171 148 178 
220 208 188 197 192 185 190 187 192 198 208 201 195 209 221 221 
232 255 254 253 228 220 208 192 182 169 173 184 201 205 196 171 
164 166 168 174 166 167 168 179 194 200 203 204 184 183 174 117 128 123 98 91 90 95 97 91 95 104 123 134 141 140 140 141 
140 136 124 109 104 106 105 106 107 121 106 107 122 108 116 121 
123 107 125 120 119 126 120 120 98 66 56 76 87 128 165 179 
198 201 187 156 154 166 181 177 161 106 90 77 110 163 198 197 
198 193 184 124 80 87 84 83 83 139 138 167 162 121 128 171 
230 220 191 194 198 198 198 192 200 192 192 183 195 208 215 224 
235 255 255 255 234 228 220 209 198 173 178 179 193 195 185 166 
156 153 150 155 152 164 174 186 195 196 200 197 174 175 175 105 124 116 90 83 83 81 79 93 99 103 119 126 140 138 138 139 
135 128 116 103 101 106 107 101 108 119 103 105 121 107 105 103 
104 98 122 118 122 121 120 141 103 74 55 59 71 96 149 186 
198 195 204 183 170 140 85 69 92 103 121 148 160 187 181 168 
186 183 176 103 79 81 80 83 104 124 150 138 122 97 116 198 
235 211 200 217 221 214 213 218 203 187 198 198 194 207 228 239 
244 255 254 255 248 250 249 219 206 171 177 174 190 193 184 167 
152 143 136 141 142 161 178 179 187 182 185 179 161 164 165 104 122 112 87 79 82 81 82 86 92 95 110 119 138 140 142 143 
137 133 123 107 97 95 94 109 105 104 102 105 104 101 108 108 
105 109 124 118 128 116 121 141 180 187 137 74 82 86 96 155 
195 200 211 194 182 187 168 173 154 145 114 145 139 172 175 141 
153 187 114 87 81 74 74 73 92 134 112 82 82 87 104 178 
230 212 206 219 225 224 224 217 223 214 200 201 203 224 236 254 
253 255 252 255 253 255 255 230 210 171 172 171 192 199 196 176 
162 157 154 158 153 163 174 175 187 181 184 180 170 168 162 107 118 104 80 66 72 75 81 78 84 91 104 116 131 136 138 140 
135 129 119 103 93 93 93 107 108 105 106 108 105 102 104 105 
99 107 108 102 118 103 107 173 197 186 174 105 79 73 62 104 
176 204 209 212 199 200 199 193 199 197 181 181 187 180 184 171 
187 175 105 77 90 66 65 77 96 107 59 62 69 73 108 175 
232 209 208 236 255 243 219 227 226 221 217 219 203 226 253 255 
255 254 253 255 254 254 253 252 222 184 175 175 198 204 205 186 
175 174 174 177 165 166 171 183 195 184 186 184 183 183 175 107 116 111 98 76 73 70 73 82 87 98 106 116 119 122 120 122 
120 117 106 95 96 104 105 92 101 110 102 104 109 96 91 97 
96 103 101 106 127 123 118 152 184 176 160 97 72 70 57 38 
108 194 207 213 210 206 212 220 209 201 199 206 194 177 185 180 
172 123 85 92 82 75 61 79 108 43 62 63 66 68 104 176 
224 202 215 231 229 221 220 224 236 227 216 219 222 236 250 254 
254 254 255 255 255 254 253 254 219 194 181 187 210 210 213 194 
182 182 183 185 173 175 181 187 197 182 184 182 187 191 186 105 109 103 94 68 65 65 71 73 80 99 108 122 120 123 120 120 
124 121 105 91 93 97 93 95 92 108 101 103 108 88 96 91 
95 96 94 103 120 122 106 96 104 90 66 50 66 62 50 25 
37 156 198 209 216 209 211 214 213 201 201 195 171 141 139 170 
149 102 96 83 72 54 74 82 48 64 61 63 65 60 85 181 
229 200 207 226 236 232 227 221 235 223 222 219 222 233 255 255 
255 254 254 253 254 254 255 254 219 207 193 203 224 217 218 206 
196 197 200 204 193 198 206 201 212 200 206 204 206 207 204 95 118 103 85 72 60 66 64 73 83 92 106 105 109 105 106 104 
107 99 93 81 84 81 81 92 91 98 88 99 91 94 83 95 
86 93 103 104 111 116 109 73 35 9 16 31 54 65 46 17 
2 36 163 201 207 201 206 205 206 194 191 185 172 140 119 104 
96 90 75 56 55 60 53 40 56 59 61 61 61 63 94 183 
242 221 213 241 221 219 205 218 242 226 214 219 216 231 255 253 
255 252 250 255 255 233 255 255 216 222 207 204 234 226 220 223 
216 215 220 218 216 217 218 225 221 228 232 223 220 225 226 101 108 85 72 62 52 60 61 61 71 81 94 94 101 102 106 94 
93 96 96 93 84 82 83 83 85 93 83 90 82 87 80 90 
90 96 96 95 106 108 90 61 17 14 40 62 71 57 40 12 
12 7 75 168 170 203 197 199 178 175 171 163 112 91 83 70 
61 56 49 38 37 41 39 49 59 61 64 60 56 58 94 201 
217 239 222 231 219 215 202 216 225 230 235 222 213 234 252 254 
255 255 255 252 249 234 233 238 222 217 208 211 229 234 238 223 
217 218 223 221 220 222 223 224 236 255 250 254 255 248 255 96 99 84 75 65 56 60 54 55 64 72 84 84 94 98 104 104 
96 103 105 106 83 79 80 81 84 93 83 86 79 84 82 83 
87 93 92 91 100 94 71 55 21 30 50 73 89 64 45 22 
0 9 12 88 144 115 117 112 135 99 93 85 83 70 49 42 
34 30 31 32 32 37 43 54 62 64 67 62 56 53 81 196 
225 237 230 230 229 201 210 211 224 225 222 218 221 241 255 254 
251 250 253 229 221 225 219 218 222 202 202 215 223 239 248 228 
220 220 222 222 223 232 237 234 255 252 252 255 255 251 255 94 94 80 64 50 49 58 54 56 63 68 80 83 93 96 102 105 
97 101 106 106 89 84 86 82 84 90 83 84 79 83 81 81 
82 89 96 100 99 83 60 19 10 32 55 81 106 93 75 26 
4 13 65 51 59 61 79 65 31 43 33 28 32 18 11 23 
21 21 26 33 37 44 54 58 62 57 53 52 59 61 82 173 
218 235 255 235 224 208 188 220 219 232 238 221 216 236 249 255 
252 255 253 220 205 217 226 214 214 189 192 209 216 233 236 224 
216 218 218 219 218 228 233 255 239 250 255 249 254 254 253 95 85 69 58 48 45 52 53 54 59 63 77 82 93 92 94 96 
95 93 99 95 92 84 82 82 81 82 79 82 80 80 76 76 
77 83 92 98 92 66 36 8 3 12 37 59 75 83 78 40 
3 59 77 32 37 46 78 180 165 68 4 14 8 11 12 15 
22 28 34 42 48 53 60 55 57 57 60 58 62 62 82 165 
208 226 233 233 204 231 225 214 231 239 231 224 223 235 255 252 
247 255 237 209 198 198 211 218 205 187 185 195 211 224 221 217 
211 218 219 222 215 222 222 223 255 219 234 255 222 229 236 104 81 61 60 60 52 50 55 55 58 60 73 78 87 83 82 90 
96 92 96 91 97 85 76 85 83 82 82 85 85 83 79 73 
80 82 83 90 85 52 14 9 8 4 14 32 53 74 75 31 
40 73 47 28 49 51 46 120 209 181 91 22 10 4 16 23 
31 42 48 51 55 58 59 54 52 57 67 60 54 52 73 158 
202 216 215 217 188 195 220 216 211 215 217 219 224 234 250 255 
254 255 223 206 206 199 204 211 193 185 180 185 210 225 219 209 
201 209 209 216 211 222 224 225 236 233 233 222 212 221 216 137 108 72 52 53 53 52 62 58 60 61 73 77 86 82 82 84 
92 94 93 96 103 95 82 78 79 80 82 82 82 81 81 79 
84 83 84 91 83 50 17 2 6 9 3 5 19 30 37 30 
68 66 41 44 43 42 46 48 136 201 200 161 65 28 29 40 
38 46 53 50 50 55 54 60 55 54 63 68 81 83 97 155 
162 166 175 144 166 182 186 156 107 148 212 215 220 242 250 255 
251 252 224 206 202 206 206 207 195 183 177 187 215 232 223 206 
195 201 199 209 204 218 220 216 227 220 225 215 206 225 219 166 150 109 68 59 61 54 54 58 61 63 75 81 92 92 95 92 
96 98 89 96 96 91 74 62 67 71 73 70 69 71 74 74 
72 71 79 86 72 43 23 9 0 11 6 0 6 21 59 60 
84 66 19 50 40 38 40 50 46 151 207 200 198 126 81 62 
48 50 57 51 50 57 58 54 62 74 93 121 155 150 139 120 
123 96 77 62 85 98 73 82 102 124 152 195 209 208 239 255 
249 255 251 226 204 220 221 215 208 184 178 196 222 236 221 217 
208 217 214 223 211 217 213 224 216 222 224 225 220 213 224 179 181 151 105 84 62 57 53 57 55 57 61 73 81 79 83 84 
84 84 83 80 73 63 54 48 45 52 45 52 60 47 56 59 
56 54 62 72 66 44 26 13 0 1 9 4 7 52 57 79 
88 52 23 53 48 30 36 50 28 56 185 202 207 198 191 187 
151 108 70 63 67 61 70 79 100 132 166 174 188 170 140 79 
65 37 48 88 79 49 52 65 85 69 84 90 110 121 175 212 
240 230 224 218 204 219 224 210 194 183 186 183 219 241 222 223 
215 219 220 223 217 222 222 221 227 222 227 233 225 222 224 179 178 174 163 141 90 63 53 49 47 48 49 57 64 64 72 62 
62 62 64 65 62 53 45 33 31 39 39 39 36 26 34 26 
35 31 52 47 59 34 22 8 17 9 0 4 51 81 87 67 
74 56 36 59 57 25 30 50 34 29 63 198 194 207 207 203 
197 184 177 185 183 173 179 171 184 203 206 178 146 100 56 33 
30 59 77 59 53 53 36 44 46 44 58 64 79 94 118 153 
203 217 220 205 199 202 209 213 187 172 162 183 210 227 224 210 
206 214 217 218 209 212 212 217 223 225 235 239 225 220 224 173 169 176 187 184 140 95 55 57 46 37 29 35 44 48 59 56 
56 57 60 64 64 56 47 40 29 27 33 32 27 25 28 32 
25 26 24 39 46 48 34 19 6 13 47 77 86 66 81 87 
69 43 23 52 65 30 23 38 40 29 20 66 164 189 201 183 
187 191 198 197 194 195 190 195 184 169 134 91 60 45 30 51 
66 65 49 38 34 37 47 58 50 48 49 65 72 86 93 102 
130 124 118 108 138 159 186 204 184 163 179 194 206 221 217 197 
195 206 209 206 195 197 196 205 214 216 222 222 213 214 217 165 158 165 181 195 181 150 100 74 64 56 51 57 61 54 54 65 
66 68 73 80 82 72 61 61 51 48 55 49 39 37 30 27 
33 34 46 37 48 44 43 53 77 94 72 77 84 84 87 76 
67 51 26 48 56 36 19 33 41 32 20 23 41 110 162 165 
159 167 179 169 170 176 145 105 88 76 54 43 39 56 63 58 
65 54 41 46 48 42 41 36 46 46 40 65 55 47 49 49 
39 30 38 40 55 56 81 120 163 175 158 178 209 213 207 194 
191 200 200 196 183 184 183 181 201 214 220 219 211 205 195 123 134 164 187 197 189 175 139 108 102 93 81 81 83 74 72 81 
84 89 96 105 107 97 83 70 65 63 65 57 52 56 52 48 
50 46 56 53 73 88 106 83 78 81 76 82 80 80 68 73 
63 40 20 57 64 57 13 34 31 22 28 22 4 7 82 99 
96 89 92 92 97 98 69 62 50 52 57 71 70 73 69 67 
60 38 24 32 38 36 40 44 58 57 50 60 49 38 41 36 
39 45 28 15 16 12 22 40 74 166 173 183 214 223 210 200 
193 198 198 195 181 178 174 186 194 198 202 200 197 202 200 109 135 167 175 178 183 187 160 163 163 152 128 118 118 109 106 98 
101 106 110 117 117 105 91 73 64 61 60 60 60 58 54 57 
55 65 85 120 119 101 82 82 71 70 83 70 73 77 76 70 
72 48 20 41 49 69 41 14 36 23 27 30 11 10 0 43 
68 64 58 66 62 60 69 82 74 72 74 79 73 72 73 60 
31 33 40 28 38 51 35 43 39 38 31 18 20 26 24 23 
16 22 17 16 13 5 8 10 10 59 165 194 213 228 220 205 
197 200 200 199 185 179 172 185 185 192 206 202 191 195 199 89 122 157 164 167 165 156 120 141 160 172 162 157 150 123 102 103 
105 106 106 108 107 96 82 70 62 65 65 66 62 50 57 64 
115 133 140 108 95 71 83 83 72 81 86 69 69 61 69 74 
73 45 26 40 54 64 46 17 27 35 27 33 33 5 6 12 
47 79 93 98 87 81 102 81 81 78 81 77 73 69 75 58 
47 35 34 38 34 29 32 28 23 27 25 16 14 15 6 11 
0 7 21 6 0 25 72 90 101 23 99 201 230 224 226 207 
197 199 199 198 186 183 176 195 195 198 204 196 192 206 212 74 82 96 103 104 93 95 85 93 123 152 162 175 175 139 104 105 
107 105 103 104 104 95 82 61 57 64 55 51 58 74 119 111 
135 124 92 80 74 71 83 84 75 88 61 67 85 74 71 71 
72 48 32 29 51 55 62 39 16 32 32 29 31 23 16 10 
13 59 92 93 88 84 89 82 81 75 84 83 76 54 47 38 
29 30 34 28 27 31 31 23 23 19 12 25 16 9 8 22 
41 29 14 14 67 82 71 98 60 7 24 168 222 225 221 207 
195 196 194 194 185 186 183 183 197 207 204 193 197 209 202 65 63 61 73 71 61 46 47 57 69 97 136 175 173 162 139 105 
88 97 92 97 90 89 61 66 48 54 52 78 171 215 186 106 
102 97 70 54 81 79 78 84 67 72 65 70 72 58 70 71 
73 46 36 23 36 57 55 62 21 15 35 28 29 42 30 10 
8 10 54 94 109 79 94 84 79 73 59 46 47 49 39 40 
39 36 51 40 38 42 37 38 40 38 35 34 34 29 23 24 
14 20 51 79 72 50 50 135 213 164 12 152 220 224 223 207 
197 179 190 194 181 185 180 194 206 195 198 196 193 209 202 70 63 53 46 46 36 27 22 30 50 72 107 161 178 174 156 105 
86 81 93 90 95 66 74 56 60 65 164 225 219 209 135 103 
87 74 54 61 72 77 67 68 79 72 71 74 82 46 49 61 
72 45 33 11 28 45 47 65 52 13 11 40 38 33 51 23 
5 3 25 59 75 62 58 61 45 39 42 41 40 41 37 40 
48 39 39 29 29 32 34 31 32 30 30 36 45 50 49 49 
45 50 57 49 32 33 78 160 223 239 194 192 218 215 223 200 
184 189 197 184 185 194 182 199 204 196 197 192 187 200 202 64 56 48 38 42 30 22 16 21 48 63 84 136 170 181 174 137 
106 102 122 121 122 112 103 100 96 198 240 227 221 156 92 92 
73 53 45 58 59 69 62 70 86 59 56 70 75 45 51 57 
75 52 41 9 23 38 47 57 49 17 12 31 31 30 40 31 
12 24 28 38 36 44 40 37 38 40 35 28 30 36 36 26 
41 34 30 26 27 26 29 33 33 30 26 24 24 21 17 13 
17 15 6 10 33 45 90 181 210 238 252 235 240 232 223 213 
191 181 177 175 174 175 187 195 195 196 194 186 180 186 196 71 63 53 50 46 33 23 24 26 50 61 70 99 140 174 181 161 
143 153 152 141 132 136 136 153 215 231 204 202 170 118 94 84 
65 41 45 49 61 59 61 67 74 54 58 80 61 42 47 49 
63 52 45 16 12 23 44 48 35 33 37 24 25 39 34 58 
17 8 12 31 30 41 39 40 42 39 33 33 39 39 32 39 
33 25 27 28 27 26 25 18 21 23 22 21 18 12 6 4 
3 4 5 10 35 65 138 186 205 222 232 255 252 254 238 216 
202 184 181 191 188 184 196 195 196 207 203 195 191 187 196 71 84 82 85 63 49 22 17 23 36 47 54 64 104 152 167 166 
153 140 124 115 110 109 163 208 203 195 178 173 137 104 96 82 
53 37 39 49 71 58 57 66 65 53 67 75 50 40 39 47 
49 50 50 32 5 12 37 37 36 36 40 31 24 34 40 42 
24 11 19 33 30 32 38 38 33 32 38 41 38 39 46 83 
39 22 25 23 22 26 21 28 26 23 18 13 10 6 2 8 
5 6 6 11 36 79 156 172 182 190 204 213 225 253 252 252 
239 214 199 179 177 199 196 200 204 219 212 205 204 195 199 106 136 137 130 88 67 25 9 24 32 39 50 51 80 117 131 140 
116 70 62 59 57 136 195 195 171 176 169 149 107 94 95 72 
40 43 36 51 65 61 56 66 66 49 61 48 49 45 44 49 
45 50 54 49 14 9 28 30 32 31 35 32 20 20 23 47 
43 13 8 20 32 31 32 30 36 39 38 37 35 40 53 92 
34 20 24 22 21 26 18 20 19 15 11 9 7 6 6 2 
0 3 13 47 86 121 151 156 164 164 171 184 210 246 252 239 
248 238 236 209 174 184 195 203 210 223 215 207 207 200 202 166 185 177 156 101 64 24 13 24 43 49 61 63 72 84 97 96 
77 45 26 15 54 183 202 172 166 176 157 139 106 99 99 63 
34 41 43 49 55 62 54 56 63 53 57 44 50 43 40 41 
41 43 48 50 27 8 12 30 32 34 38 31 24 23 13 19 
40 32 26 21 21 22 22 36 41 36 31 39 45 44 44 57 
21 22 23 24 24 25 18 19 18 16 13 9 5 3 2 2 
8 31 59 86 92 123 139 119 144 156 156 171 184 202 210 236 
255 252 251 237 193 173 187 196 205 215 211 202 197 194 198 163 176 182 174 123 63 18 12 13 50 58 71 76 72 66 82 93 
76 62 21 21 142 187 168 169 169 165 158 143 93 96 93 64 
34 26 51 47 58 61 45 61 63 57 48 47 42 36 38 35 
43 40 44 49 42 12 4 24 37 33 29 31 29 28 25 21 
27 22 30 38 37 35 22 28 32 32 35 39 36 41 58 31 
20 29 19 22 23 23 18 14 12 9 6 3 2 3 4 6 
44 82 85 84 76 109 104 108 119 133 161 154 168 171 184 203 
229 254 255 250 237 198 163 174 183 194 197 186 174 175 182 121 165 184 165 119 64 24 3 17 55 72 82 73 56 63 61 78 
85 64 37 47 183 179 175 171 171 164 166 136 92 80 75 52 
23 38 52 42 49 60 61 70 65 50 48 41 31 38 39 34 
28 28 33 38 38 28 12 14 33 31 22 31 22 29 31 32 
12 19 33 18 29 31 24 34 26 40 31 26 48 78 69 26 
10 25 24 26 22 13 15 11 11 6 2 2 1 3 12 67 
77 83 67 82 83 95 95 92 96 106 103 122 139 154 165 186 
207 210 220 235 255 227 196 153 166 171 170 167 167 154 172 81 140 175 166 126 75 36 12 19 48 60 62 51 39 47 51 63 
73 55 42 79 183 184 173 172 169 166 152 107 96 95 64 17 
25 40 46 51 51 50 68 65 61 49 45 37 27 32 34 28 
32 35 33 35 40 29 8 11 21 22 16 18 14 27 25 26 
29 20 10 15 26 25 35 27 45 21 18 30 70 70 53 25 
17 20 14 18 19 12 12 4 10 2 0 4 9 31 67 78 
83 89 74 82 81 93 92 99 86 85 95 103 108 122 153 149 
165 165 197 206 203 203 232 182 153 177 177 169 164 164 176 69 126 160 147 107 63 34 14 17 34 40 33 23 17 22 31 38 
48 47 50 133 185 189 170 180 161 167 160 92 86 103 70 32 
25 39 50 48 50 58 67 57 52 41 38 34 28 30 29 28 
33 38 38 40 45 40 24 5 5 10 10 6 2 9 0 0 
13 14 10 29 24 15 33 28 28 6 10 43 68 79 41 20 
18 13 16 19 12 6 15 7 7 6 3 13 46 76 82 85 
80 82 73 79 79 88 82 96 83 70 75 80 94 93 108 123 
125 152 171 150 161 177 197 208 170 169 175 185 176 173 181 62 100 120 107 73 45 33 24 15 21 24 14 6 4 3 11 17 
18 34 56 168 183 186 171 168 168 172 162 77 66 107 81 36 
17 19 41 50 43 42 51 46 38 28 26 31 35 39 40 42 
36 37 40 38 36 33 30 10 7 7 11 13 11 12 7 7 
1 4 5 19 6 4 22 15 16 8 16 62 60 74 36 14 
26 17 13 16 15 7 3 5 1 0 26 63 70 69 84 84 
70 70 69 77 79 83 72 81 82 75 69 74 88 75 67 87 
85 95 102 137 144 103 162 152 188 181 186 199 195 183 198 44 61 70 66 47 31 31 29 22 20 15 5 3 3 0 3 8 
1 16 71 168 183 172 176 176 168 161 181 96 26 77 105 70 
25 17 34 33 40 52 41 15 29 51 69 78 76 65 57 47 
39 37 38 35 33 33 32 20 18 9 5 8 7 7 22 39 
44 38 12 18 23 17 10 18 5 23 57 69 75 92 51 1 
4 0 1 6 7 8 5 3 2 33 69 77 78 83 80 83 
72 73 74 77 78 80 71 71 74 84 79 81 71 63 63 59 
66 66 80 157 172 104 134 127 165 187 186 184 196 191 201 26 28 29 32 25 21 31 32 31 24 10 1 2 2 1 2 2 
0 7 108 162 186 160 174 157 173 160 171 104 11 36 62 103 
82 29 11 37 42 29 26 44 54 68 66 59 54 45 44 41 
39 37 32 28 31 33 28 30 33 23 17 13 8 8 38 39 
40 39 34 42 27 9 14 25 17 35 61 119 162 125 30 11 
0 8 8 5 0 9 5 6 43 65 65 68 74 74 71 81 
81 83 80 75 72 74 72 71 71 82 77 82 69 62 64 52 
55 70 87 115 174 175 106 152 105 168 192 174 179 188 199 6 4 4 9 10 20 39 41 37 31 8 2 2 0 2 0 0 
0 9 138 164 179 164 171 168 174 164 174 141 33 16 35 63 
95 98 75 47 33 43 52 47 50 56 48 44 46 40 42 38 
36 33 26 18 19 24 24 27 22 19 20 13 12 12 39 21 
43 55 38 30 47 38 15 11 35 47 34 58 60 53 117 159 
31 0 29 60 36 24 16 64 67 83 88 75 75 84 79 74 
81 82 76 72 70 70 73 73 75 76 69 74 76 63 54 63 
60 59 70 78 136 198 165 143 94 159 203 184 172 188 207 1 1 2 4 5 17 35 34 41 38 11 6 5 0 4 0 2 
0 11 140 163 162 176 174 161 167 157 147 142 62 19 14 33 
49 61 78 85 85 81 61 48 41 39 30 33 41 33 29 33 
26 26 28 24 25 40 54 56 33 24 25 13 16 15 31 37 
22 53 73 34 29 30 15 25 22 31 47 60 167 181 226 228 
182 210 210 215 200 164 94 71 76 82 78 73 80 85 80 69 
76 73 69 72 75 72 73 72 78 77 74 69 72 54 50 57 
63 60 60 67 105 173 199 151 155 152 175 180 185 195 202 0 0 0 1 5 13 24 32 40 40 23 3 0 0 0 2 1 
3 39 154 174 164 170 163 165 152 140 154 137 73 9 14 14 
22 32 43 52 62 73 80 74 82 71 64 57 56 39 36 40 
39 46 50 54 56 56 68 63 51 20 21 29 12 14 32 64 
33 46 95 49 22 93 51 35 95 141 184 222 236 236 233 231 
243 228 236 234 236 229 207 140 91 93 71 77 81 83 80 85 
70 69 61 74 72 70 83 72 74 70 87 79 63 51 30 38 
55 59 60 57 75 116 188 200 182 164 188 184 178 198 218 2 1 1 3 7 15 24 31 40 42 31 15 8 2 0 2 1 
0 73 146 170 162 160 170 155 151 156 156 140 63 10 11 15 
17 20 22 26 32 40 46 46 55 58 45 50 46 50 51 55 
63 56 53 67 62 58 54 52 59 56 56 47 30 19 5 20 
16 22 62 58 41 59 173 145 222 218 219 195 151 177 229 239 
233 232 233 237 237 250 232 223 224 225 153 84 82 76 87 84 
70 79 72 70 73 68 80 78 80 84 73 69 47 28 10 44 
60 65 62 51 58 88 150 200 196 194 193 187 192 208 223 1 0 0 3 8 15 23 27 35 40 37 28 18 6 0 1 3 
7 100 143 155 156 153 166 162 158 156 152 135 62 14 10 14 
16 18 20 22 23 24 25 24 29 31 20 29 33 46 52 53 
66 61 51 49 42 51 43 48 48 58 65 50 38 32 10 0 
23 25 30 57 22 30 142 138 78 61 60 67 111 204 233 239 
218 232 237 229 235 253 233 237 235 237 220 172 94 75 80 78 
63 62 76 69 70 87 81 74 86 82 68 49 40 4 8 53 
60 60 56 50 54 75 123 178 202 227 209 197 208 211 218 0 0 1 5 11 18 23 26 34 38 40 37 28 14 4 2 0 
12 91 148 140 156 164 162 169 164 150 156 127 65 13 11 8 
10 14 18 22 23 22 21 22 24 18 24 31 51 55 59 62 
52 48 51 44 50 52 37 52 42 44 46 37 35 33 16 4 
8 8 8 42 5 13 36 42 26 32 81 157 212 220 239 223 
240 242 249 255 255 235 237 233 236 223 229 228 178 83 73 76 
62 63 62 69 79 84 82 72 79 85 52 52 17 6 25 67 
59 49 44 49 57 72 105 152 194 224 208 190 204 209 220 0 1 4 9 16 23 28 31 39 39 42 42 35 23 11 4 0 
4 85 155 140 154 164 154 162 165 158 168 132 63 14 9 10 
9 9 10 14 18 20 21 23 21 16 26 33 51 51 49 45 
35 40 54 52 57 30 32 44 50 49 38 36 42 34 19 12 
3 7 6 36 91 75 66 157 206 225 217 232 238 244 223 226 
226 233 240 236 253 249 237 237 231 238 229 234 219 225 149 74 
60 54 64 80 74 86 68 78 81 73 53 41 2 6 46 79 
63 49 39 45 49 57 78 105 163 206 222 205 201 194 201 0 1 6 11 18 24 29 32 39 36 37 38 32 24 14 3 7 
0 105 153 151 154 153 153 166 165 164 166 142 68 27 10 10 
9 9 11 13 16 17 18 20 13 15 12 23 32 47 45 57 
52 39 30 38 49 27 66 52 58 58 48 46 41 34 41 9 
3 11 1 6 87 80 58 92 92 92 79 98 167 221 238 239 
235 237 229 237 249 255 251 239 233 240 231 232 239 236 234 192 
80 53 75 66 68 100 83 83 83 52 57 14 4 6 63 75 
62 54 43 43 41 46 60 87 137 181 212 210 202 195 208 3 6 10 13 16 20 24 27 27 23 25 26 22 22 17 3 0 
13 138 142 153 159 154 164 167 168 161 156 136 75 40 14 6 
7 9 10 11 11 12 12 17 10 16 15 25 35 53 53 37 
36 35 24 42 48 28 36 61 52 56 58 50 32 24 45 28 
10 5 6 0 0 12 0 3 7 1 11 60 210 227 236 237 
228 237 240 232 236 255 230 234 231 237 233 242 227 238 230 229 
92 61 75 74 96 79 92 83 63 54 29 8 0 23 68 69 
56 53 41 43 41 47 57 67 106 168 198 222 212 199 209 10 13 16 17 17 17 20 22 14 12 16 17 16 21 21 8 2 
56 169 136 141 154 150 156 151 169 159 156 120 73 39 16 16 
15 12 8 7 9 12 15 13 11 13 24 20 29 26 20 25 
27 49 32 31 38 51 30 32 27 47 59 54 40 25 30 22 
25 4 0 18 2 6 13 6 1 34 92 216 225 214 226 235 
239 213 213 210 215 229 235 238 231 237 238 231 239 234 236 234 
219 73 63 93 81 70 86 81 52 54 14 0 7 31 70 73 
55 47 34 40 41 48 54 63 85 154 168 213 212 205 218 8 14 17 14 12 15 21 26 21 15 14 16 20 25 20 9 7 
90 155 141 141 156 153 165 165 164 155 164 157 86 25 16 15 
10 11 13 7 5 9 13 13 17 27 22 20 20 11 17 16 
20 24 25 14 22 38 23 21 23 35 42 59 43 13 16 22 
13 6 2 43 9 15 63 168 205 208 187 223 220 201 193 209 
229 220 209 195 182 225 237 234 236 232 237 250 237 238 232 234 
238 218 217 96 71 85 82 59 48 34 1 1 1 55 75 65 
48 36 33 29 30 39 47 52 65 101 154 185 206 202 208 8 11 14 17 22 29 34 35 35 32 33 35 34 30 18 4 13 
145 151 136 154 153 153 153 155 153 153 163 151 97 23 7 9 
11 13 11 10 15 15 8 16 23 22 21 24 23 18 11 16 
23 14 15 19 15 20 25 14 27 13 27 31 15 14 18 45 
54 98 27 14 12 0 15 188 239 227 141 199 228 195 178 225 
240 235 218 224 202 225 227 232 236 240 251 235 240 233 236 238 
233 234 221 36 16 29 47 42 49 8 11 5 5 53 68 56 
39 25 19 15 16 23 28 32 48 85 137 174 203 209 222 23 22 24 29 37 43 42 39 36 36 39 42 42 36 23 11 48 
148 140 145 154 138 137 157 151 153 171 156 152 117 51 11 7 
8 9 6 4 11 17 15 21 42 40 36 27 17 20 14 15 
23 25 21 11 15 27 22 15 16 29 27 19 29 22 58 121 
174 183 165 209 211 166 56 46 203 231 188 200 183 191 164 225 
231 230 241 225 209 219 245 239 231 249 241 225 229 234 235 234 
239 234 228 122 76 201 202 151 91 12 6 0 25 72 71 39 
25 14 8 5 10 17 19 24 35 63 105 148 187 204 223 39 38 38 42 46 48 44 40 40 41 40 39 38 30 19 13 61 
129 131 160 134 158 157 152 159 154 151 155 155 157 82 21 16 
9 10 16 14 9 9 10 16 28 29 33 36 31 26 18 23 
21 26 28 23 31 37 23 25 27 19 28 19 13 26 51 133 
189 216 218 223 219 232 219 162 214 224 230 197 149 118 96 171 
220 222 209 196 202 197 226 238 230 243 229 227 228 237 233 238 
220 235 240 225 220 252 251 237 225 217 196 57 17 44 53 22 
14 9 5 4 11 20 23 35 38 51 80 126 171 197 221 30 30 30 31 33 35 38 39 29 32 30 27 25 16 7 5 77 
122 159 146 141 94 150 154 154 154 152 159 153 150 109 57 26 
11 5 10 12 11 10 9 9 10 22 30 38 35 22 23 18 
23 27 34 38 25 22 46 39 40 34 31 41 26 19 86 221 
215 228 231 211 229 231 227 218 230 226 224 205 219 220 192 96 
70 118 171 190 164 182 215 225 237 230 239 234 239 236 234 234 
241 228 252 253 255 255 254 251 250 255 255 227 206 54 7 10 
7 6 5 3 9 18 22 28 33 44 61 104 149 187 223 6 5 4 4 7 12 20 28 22 29 27 25 25 15 7 11 87 
121 164 178 164 85 80 157 151 157 134 138 131 159 120 57 50 
44 35 23 10 6 5 1 3 4 20 24 23 16 3 14 16 
21 31 33 30 21 22 46 45 46 46 36 33 24 39 173 224 
235 213 229 221 230 237 219 224 218 238 224 226 235 222 214 137 
124 180 217 192 170 198 219 226 240 231 235 236 231 235 235 225 
235 255 255 254 252 247 255 254 255 247 253 253 253 214 35 4 
1 3 5 3 7 15 20 13 26 42 51 86 122 171 222 4 1 0 2 6 10 16 21 21 26 19 12 12 5 2 13 102 
116 166 174 181 125 38 49 84 133 127 146 91 140 89 56 42 
45 51 51 42 38 35 31 28 26 26 30 32 25 15 16 23 
15 22 22 24 34 29 20 23 25 12 46 146 148 49 205 230 
230 216 229 238 220 210 234 231 244 230 224 228 212 223 195 184 
212 204 216 220 231 217 230 233 228 231 224 231 223 236 235 235 
230 253 250 246 255 226 238 251 250 255 253 253 223 207 17 9 
1 1 5 4 6 12 17 15 29 43 46 74 103 155 213 20 16 16 22 28 31 30 30 30 33 22 14 18 21 30 50 109 
118 154 171 176 171 106 38 23 76 149 154 122 102 73 58 67 
46 35 41 47 47 47 46 39 48 39 33 20 3 5 5 7 
18 24 20 27 22 10 26 96 93 74 185 228 201 143 220 230 
231 233 226 232 229 227 230 236 216 219 228 224 226 223 224 211 
204 206 227 217 219 226 227 230 214 221 230 223 238 236 236 233 
241 251 254 255 252 213 222 237 224 237 248 255 240 222 200 18 
6 2 5 4 3 6 10 18 25 33 32 60 85 136 196 